gsg/02_Everyday/GSG_LUT_Everyday_BlueGreen.cube
# GSG LUTs 1.0
# Copyright (c) 2016-2020 Greyscalegorilla
# See EULA for licensing and distribution information
# Converted by Briz LUT Converter
LUT_3D_SIZE 5
DOMAIN_MIN 0.000000 0.000000 0.000000
DOMAIN_MAX 0.903226 0.903226 0.903226
0.000000 0.005617 0.011477
0.142928 0.000000 0.048549
0.286100 0.000000 0.113616
0.429028 0.000000 0.176242
0.572177 0.000000 0.238954
0.005593 0.186640 0.277868
0.144168 0.204955 0.042534
0.288574 0.203624 0.102564
0.433261 0.202513 0.164073
0.578313 0.201730 0.228149
0.016999 0.382095 0.269644
0.153548 0.402529 0.039914
0.298681 0.400276 0.093686
0.444441 0.398720 0.153224
0.590728 0.397356 0.218331
0.034952 0.580275 0.262996
0.170200 0.603078 0.043052
0.315979 0.600689 0.088649
0.462767 0.599000 0.145490
0.609957 0.597920 0.211013
0.042932 0.810950 0.280011
0.187002 0.822971 0.055964
0.329253 0.825822 0.099938
0.472204 0.829595 0.161345
0.615398 0.834099 0.232618
0.054953 0.313340 0.448998
0.181370 0.000000 0.187782
0.323211 0.000000 0.250353
0.465217 0.000000 0.312356
0.607602 0.000000 0.375777
0.032030 0.181956 0.413628
0.174778 0.198965 0.180989
0.317007 0.197451 0.237725
0.459691 0.196284 0.297940
0.603047 0.195499 0.362384
0.032603 0.372673 0.403010
0.173633 0.393033 0.178213
0.316663 0.390547 0.227670
0.460350 0.388680 0.285682
0.604802 0.387160 0.350546
0.041465 0.579243 0.403913
0.180356 0.591721 0.182009
0.324498 0.592077 0.224412
0.469450 0.596047 0.284802
0.614914 0.601199 0.355877
0.053047 0.818522 0.430226
0.193399 0.827618 0.201143
0.337337 0.831502 0.247759
0.481802 0.836323 0.311015
0.626689 0.841656 0.383544
0.082611 0.324826 0.605042
0.226651 0.000000 0.327315
0.367112 0.000000 0.386955
0.508031 0.000000 0.448226
0.649084 0.000331 0.512235
0.065862 0.178433 0.549468
0.212098 0.193573 0.320232
0.352656 0.191924 0.373296
0.493748 0.190800 0.432354
0.635302 0.190188 0.496878
0.055832 0.364588 0.537077
0.201555 0.384303 0.317936
0.342345 0.381506 0.362503
0.484037 0.379558 0.418790
0.626976 0.379438 0.484862
0.066206 0.588751 0.554201
0.203782 0.595175 0.327899
0.348600 0.599504 0.372614
0.494226 0.604859 0.434968
0.640353 0.610816 0.506952
0.082973 0.829855 0.584458
0.220336 0.836693 0.349592
0.365466 0.841321 0.399336
0.511348 0.847039 0.464639
0.657434 0.853204 0.538464
0.143645 0.338556 0.763433
0.279467 0.000000 0.468179
0.419579 0.000611 0.524889
0.560085 0.001908 0.585238
0.700760 0.003647 0.649612
0.113717 0.177486 0.686888
0.261371 0.190170 0.461745
0.401120 0.188617 0.510678
0.541335 0.187693 0.568417
0.682051 0.187327 0.633185
0.105231 0.370550 0.683804
0.246349 0.378710 0.461091
0.387615 0.378539 0.502828
0.532492 0.383393 0.563852
0.678270 0.389203 0.635286
0.119863 0.603064 0.709652
0.256410 0.607832 0.479154
0.401599 0.612840 0.526302
0.547704 0.618752 0.590068
0.694369 0.625129 0.663018
0.167030 0.839561 0.724960
0.275352 0.850224 0.501606
0.421489 0.855769 0.554838
0.568404 0.862119 0.622427
0.715879 0.868879 0.697729
0.245004 0.350679 0.918973
0.348574 0.005034 0.611816
0.489188 0.006121 0.665118
0.630194 0.007885 0.724534
0.771557 0.010093 0.789397
0.185043 0.181023 0.827621
0.332058 0.190185 0.607015
0.471740 0.188740 0.651533
0.612086 0.188190 0.707716
0.753739 0.189741 0.774354
0.184072 0.386873 0.840676
0.323576 0.389560 0.613622
0.466974 0.394163 0.658459
0.611556 0.399725 0.720722
0.756946 0.405823 0.792650
0.198866 0.622356 0.864075
0.334326 0.624436 0.633578
0.479543 0.629973 0.683430
0.625680 0.636288 0.748867
0.772746 0.643296 0.822573
0.234694 0.863413 0.893665
0.353959 0.867240 0.655762
0.501179 0.873386 0.713960
0.656607 0.876805 0.791235
0.809518 0.884149 0.859998
