gsg/02_Everyday/GSG_LUT_Everyday_FilmicOutdoor.cube
# GSG LUTs 1.0
# Copyright (c) 2016-2020 Greyscalegorilla
# See EULA for licensing and distribution information
# Converted by Briz LUT Converter
LUT_3D_SIZE 32
0.059829 0.064957 0.067399
0.071984 0.065729 0.067903
0.085958 0.067053 0.068408
0.101493 0.069416 0.068912
0.116113 0.072693 0.069510
0.130970 0.075852 0.070692
0.147339 0.078373 0.071590
0.165008 0.080838 0.073047
0.184103 0.083170 0.074371
0.205018 0.085478 0.075883
0.227752 0.087243 0.077396
0.252133 0.088747 0.078822
0.277908 0.089755 0.080082
0.305140 0.090456 0.081342
0.333672 0.090488 0.082492
0.363268 0.090000 0.083501
0.393895 0.089117 0.084509
0.425420 0.087707 0.085250
0.457749 0.085659 0.085754
0.490969 0.082941 0.086108
0.524652 0.079444 0.085888
0.559093 0.075497 0.085383
0.595439 0.070771 0.084186
0.634306 0.065005 0.082311
0.674828 0.058198 0.079349
0.717043 0.052125 0.075285
0.760668 0.050833 0.070180
0.804530 0.050794 0.063823
0.848832 0.050794 0.056607
0.893426 0.050794 0.051125
0.937571 0.051030 0.050794
0.981197 0.057143 0.050794
0.061877 0.078853 0.074520
0.072264 0.080587 0.073840
0.084948 0.082396 0.073809
0.100298 0.084342 0.074502
0.115730 0.085838 0.075015
0.131500 0.087411 0.075756
0.148092 0.089352 0.076503
0.165839 0.091215 0.077298
0.185261 0.093338 0.078355
0.206609 0.095163 0.079602
0.229519 0.097008 0.080767
0.253908 0.098431 0.081859
0.279688 0.099602 0.083023
0.306920 0.100409 0.084036
0.335342 0.100815 0.085148
0.364922 0.100843 0.086281
0.395549 0.100351 0.087160
0.427086 0.099481 0.087903
0.459380 0.098209 0.088374
0.492347 0.096124 0.088479
0.525936 0.093636 0.088317
0.560377 0.090486 0.087565
0.596717 0.086475 0.086384
0.635039 0.081336 0.084223
0.675176 0.075646 0.081314
0.717131 0.069292 0.077301
0.760489 0.063385 0.071992
0.804096 0.058251 0.065588
0.848360 0.055240 0.058365
0.892497 0.057077 0.051245
0.936610 0.064822 0.050794
0.980228 0.082382 0.050794
0.064839 0.093804 0.083658
0.074597 0.094574 0.084576
0.084394 0.097185 0.082276
0.098854 0.098554 0.081626
0.115026 0.099561 0.081358
0.131560 0.100553 0.081589
0.148774 0.101633 0.082017
0.167245 0.103097 0.082304
0.187066 0.104569 0.082902
0.208441 0.106060 0.083750
0.231439 0.107472 0.084417
0.256077 0.108819 0.085404
0.282020 0.110148 0.086474
0.309252 0.111070 0.087613
0.337674 0.111836 0.088511
0.367246 0.112253 0.089378
0.397857 0.112159 0.090118
0.429257 0.111940 0.090480
0.461444 0.111304 0.090865
0.494401 0.110045 0.091063
0.527974 0.108561 0.090738
0.562409 0.106446 0.089897
0.598593 0.103671 0.088716
0.636827 0.100200 0.086719
0.676773 0.095949 0.083501
0.718484 0.090785 0.079355
0.761401 0.086007 0.074053
0.804931 0.081816 0.067460
0.848968 0.080314 0.059980
0.893080 0.083406 0.051716
0.937163 0.092310 0.050807
0.980511 0.108724 0.050794
0.066549 0.110032 0.093718
0.075359 0.110052 0.094896
0.084056 0.111573 0.094127
0.097273 0.114849 0.091103
0.113588 0.116085 0.089457
0.131174 0.116858 0.088700
0.149782 0.117590 0.088616
0.169079 0.118327 0.088597
0.189505 0.119203 0.088711
0.211318 0.120375 0.089238
0.234519 0.121462 0.089960
0.259254 0.122801 0.090638
0.285353 0.124203 0.091243
0.312600 0.125361 0.092067
0.341022 0.126270 0.092927
0.370483 0.126944 0.093648
0.400871 0.127371 0.094127
0.432171 0.127646 0.094366
0.464345 0.127642 0.094594
0.497152 0.127139 0.094672
0.530490 0.126132 0.094206
0.564859 0.124961 0.093276
0.601180 0.123608 0.092070
0.639127 0.121660 0.089897
0.678937 0.119001 0.086620
0.720643 0.116330 0.082125
0.763539 0.113908 0.076891
0.807045 0.112405 0.070527
0.850851 0.112985 0.062870
0.894895 0.116329 0.054348
0.938487 0.124239 0.050891
0.981338 0.137028 0.050794
0.065068 0.127425 0.103612
0.073969 0.127157 0.104612
0.083418 0.127562 0.105215
0.095159 0.130390 0.103311
0.111494 0.134131 0.099550
0.129562 0.135465 0.097403
0.149280 0.136075 0.096313
0.170275 0.136634 0.096065
0.192117 0.137445 0.096065
0.214463 0.138439 0.096127
0.238212 0.139538 0.096494
0.263172 0.140766 0.097185
0.289389 0.142006 0.097794
0.316804 0.143178 0.098266
0.345244 0.144218 0.098737
0.374721 0.145229 0.099106
0.405222 0.146111 0.099342
0.436614 0.146649 0.099445
0.468660 0.146948 0.099408
0.501375 0.146953 0.099213
0.534732 0.146628 0.098770
0.569454 0.146387 0.097780
0.606072 0.145976 0.096357
0.644144 0.145219 0.094096
0.683857 0.144373 0.090811
0.725527 0.143331 0.086494
0.768212 0.142464 0.080906
0.811403 0.142687 0.074410
0.854883 0.144425 0.066717
0.898366 0.148548 0.058045
0.941372 0.155498 0.051284
0.983828 0.166678 0.050794
0.061570 0.147016 0.114183
0.070943 0.146574 0.115184
0.080683 0.146799 0.115932
0.093721 0.147553 0.116207
0.108733 0.151590 0.112944
0.127629 0.155785 0.108845
0.148063 0.157642 0.105931
0.169968 0.158360 0.104955
0.193121 0.159116 0.104823
0.217344 0.160014 0.104793
0.242474 0.161221 0.104859
0.268239 0.162297 0.105071
0.294859 0.163410 0.105282
0.322558 0.164630 0.105494
0.351162 0.165849 0.105705
0.380763 0.166852 0.105898
0.411285 0.167734 0.105963
0.442593 0.168608 0.105922
0.474639 0.169246 0.105598
0.507402 0.169665 0.105077
0.541029 0.169998 0.104390
0.577072 0.170471 0.103428
0.616940 0.171362 0.102060
0.656584 0.171897 0.099671
0.696851 0.172261 0.096310
0.738603 0.172501 0.092016
0.781036 0.173081 0.086258
0.823556 0.174564 0.079357
0.866261 0.177487 0.071452
0.908800 0.182192 0.063088
0.950847 0.189548 0.054215
0.992091 0.200370 0.050794
0.055756 0.169278 0.126220
0.064803 0.169081 0.127220
0.075739 0.169078 0.128008
0.090547 0.169215 0.129092
0.106505 0.171469 0.128084
0.124449 0.176147 0.124187
0.145968 0.180995 0.119601
0.169192 0.183175 0.116201
0.193613 0.184151 0.114894
0.219313 0.185035 0.114439
0.246073 0.186341 0.114388
0.273613 0.187800 0.114420
0.301531 0.189082 0.114401
0.329927 0.190177 0.114353
0.358923 0.191164 0.114304
0.388688 0.192028 0.114160
0.419315 0.192886 0.113883
0.450723 0.193763 0.113556
0.482823 0.194541 0.113006
0.515906 0.195326 0.112361
0.550208 0.196131 0.111505
0.585874 0.196936 0.110331
0.623520 0.198054 0.108864
0.662381 0.199058 0.106578
0.702929 0.200113 0.103136
0.744522 0.201415 0.098972
0.786474 0.203018 0.093332
0.828515 0.205315 0.086529
0.870520 0.208747 0.078864
0.912519 0.213880 0.070185
0.954000 0.221110 0.060893
0.994565 0.231013 0.052306
0.051739 0.193470 0.139407
0.057307 0.193414 0.140297
0.067974 0.193402 0.141085
0.084502 0.193262 0.142327
0.103607 0.193974 0.143036
0.121954 0.197350 0.140851
0.142638 0.202994 0.136274
0.166813 0.208143 0.131047
0.192222 0.210774 0.127181
0.218922 0.211903 0.125020
0.246841 0.213090 0.124308
0.275619 0.214632 0.124361
0.305249 0.216383 0.124288
0.335441 0.217943 0.124093
0.365609 0.219012 0.123848
0.395966 0.219859 0.123512
0.426764 0.220615 0.123048
0.458259 0.221475 0.122384
0.490670 0.222317 0.121737
0.524028 0.223223 0.120877
0.558222 0.224231 0.119812
0.593361 0.225239 0.118618
0.630100 0.226460 0.116972
0.668634 0.227959 0.114467
0.708930 0.229571 0.111127
0.750091 0.231394 0.107096
0.791534 0.233682 0.101900
0.833177 0.236654 0.095618
0.874681 0.240448 0.088345
0.916057 0.245662 0.080040
0.956820 0.253033 0.070771
0.996944 0.262547 0.061310
0.050794 0.219875 0.153901
0.052072 0.219694 0.154413
0.058791 0.219694 0.155197
0.074995 0.219694 0.156405
0.097669 0.219787 0.157683
0.119749 0.221104 0.158007
0.140189 0.225817 0.154572
0.163589 0.231954 0.149317
0.190039 0.237512 0.143515
0.217585 0.240544 0.138846
0.246410 0.242207 0.135897
0.276273 0.243510 0.134922
0.307001 0.245105 0.134759
0.338433 0.247007 0.134759
0.370399 0.248755 0.134567
0.402589 0.250135 0.134040
0.434624 0.251151 0.133349
0.466860 0.252033 0.132558
0.499629 0.252782 0.131737
0.532924 0.253584 0.130655
0.566882 0.254543 0.129395
0.601761 0.255552 0.128049
0.638329 0.256907 0.126183
0.676640 0.258600 0.123605
0.716480 0.260603 0.120313
0.757223 0.262881 0.116602
0.798116 0.265625 0.111902
0.839065 0.268888 0.106195
0.880023 0.273112 0.099678
0.920525 0.278605 0.092272
0.960682 0.285809 0.083426
0.999275 0.295191 0.074544
0.050794 0.248029 0.169057
0.050838 0.248029 0.169499
0.052792 0.248029 0.170271
0.063899 0.248029 0.171319
0.088204 0.248029 0.172768
0.115203 0.248331 0.174001
0.138609 0.250847 0.173069
0.161305 0.256252 0.168862
0.187136 0.262951 0.162905
0.215800 0.268951 0.156491
0.245660 0.272700 0.150893
0.276150 0.274450 0.147159
0.307448 0.275659 0.145705
0.339752 0.277366 0.145488
0.373045 0.279373 0.145442
0.407101 0.281463 0.145268
0.441444 0.283411 0.144800
0.475579 0.284948 0.143983
0.509187 0.285924 0.143007
0.542601 0.286474 0.141849
0.576415 0.287175 0.140497
0.611107 0.288085 0.138807
0.647359 0.289417 0.136673
0.685378 0.291163 0.134042
0.724763 0.293324 0.130891
0.764782 0.295790 0.127278
0.804954 0.298779 0.122955
0.845291 0.302241 0.117976
0.885592 0.306717 0.112305
0.925560 0.312403 0.106091
0.964884 0.319619 0.098854
1.000000 0.328567 0.091063
0.050794 0.277742 0.185017
0.050794 0.277742 0.185364
0.050943 0.277742 0.186131
0.054955 0.277735 0.187089
0.076199 0.277674 0.188381
0.107893 0.277796 0.189919
0.136262 0.278614 0.191005
0.160629 0.282232 0.188830
0.185359 0.288711 0.183715
0.213402 0.295935 0.177147
0.244351 0.302564 0.170002
0.276371 0.307059 0.163508
0.308759 0.309358 0.159046
0.341880 0.310735 0.157294
0.376132 0.312501 0.157084
0.411190 0.314689 0.157176
0.446851 0.317043 0.156920
0.482929 0.319339 0.156363
0.518661 0.321149 0.155546
0.553394 0.322184 0.154469
0.587862 0.322848 0.152975
0.622803 0.323520 0.151020
0.659137 0.324715 0.148749
0.696933 0.326508 0.146095
0.735720 0.328694 0.142944
0.774980 0.331096 0.139470
0.814385 0.334150 0.135525
0.853875 0.337627 0.131202
0.893157 0.342187 0.126457
0.932261 0.347809 0.121276
0.970404 0.354944 0.115736
1.000000 0.363638 0.109843
0.050794 0.309276 0.201583
0.050794 0.309273 0.202093
0.050794 0.309195 0.202771
0.051672 0.309252 0.203647
0.064062 0.309063 0.204860
0.097824 0.309276 0.206438
0.131765 0.309398 0.208229
0.160528 0.310923 0.208541
0.185767 0.316132 0.205029
0.212444 0.323320 0.199209
0.242793 0.331279 0.192127
0.276376 0.339154 0.184452
0.311665 0.345383 0.177294
0.345984 0.347880 0.172126
0.380378 0.349003 0.170037
0.416017 0.350693 0.169777
0.452459 0.352827 0.169732
0.489495 0.355130 0.169436
0.526721 0.357399 0.168879
0.563742 0.359378 0.168063
0.600520 0.360955 0.166885
0.636996 0.362139 0.165114
0.674081 0.363454 0.162756
0.711652 0.364998 0.159989
0.749663 0.367029 0.156883
0.788054 0.369208 0.153499
0.826384 0.372002 0.150059
0.864821 0.375438 0.146345
0.903062 0.379771 0.142281
0.940816 0.385214 0.138108
0.977492 0.392094 0.134013
1.000000 0.400528 0.130096
0.050794 0.342770 0.219166
0.050794 0.342763 0.219670
0.050794 0.342536 0.220200
0.050967 0.342661 0.221119
0.055987 0.342533 0.222179
0.085238 0.342581 0.223633
0.124803 0.342581 0.225365
0.159033 0.343072 0.226967
0.187353 0.346199 0.226106
0.213904 0.352464 0.221702
0.242837 0.360283 0.215396
0.275573 0.369069 0.207917
0.311623 0.377794 0.199588
0.347926 0.383486 0.191450
0.382761 0.385402 0.185738
0.418033 0.386326 0.183112
0.454767 0.387875 0.182303
0.492100 0.389876 0.182083
0.529788 0.392005 0.181787
0.567847 0.394234 0.181231
0.606471 0.396685 0.180415
0.645564 0.399209 0.179237
0.684719 0.401608 0.177294
0.723172 0.403595 0.174773
0.761004 0.405496 0.171919
0.798642 0.407491 0.168795
0.836179 0.410043 0.165695
0.873698 0.413357 0.162531
0.910911 0.417450 0.159081
0.947624 0.422780 0.155909
0.983107 0.429409 0.153007
1.000000 0.437489 0.150703
0.050794 0.377053 0.236961
0.050794 0.377048 0.237465
0.050794 0.376905 0.237985
0.050794 0.376799 0.238755
0.052556 0.376675 0.239689
0.071455 0.376462 0.240900
0.115647 0.376462 0.242507
0.155514 0.376590 0.244459
0.188224 0.377847 0.245528
0.216529 0.382033 0.243575
0.244394 0.389088 0.238390
0.275167 0.397525 0.231600
0.309715 0.406562 0.223499
0.346948 0.415056 0.214464
0.383923 0.420470 0.205864
0.419471 0.422339 0.199504
0.455420 0.423136 0.196081
0.492696 0.424442 0.194795
0.530631 0.426196 0.194494
0.569033 0.428319 0.194241
0.608479 0.430995 0.193685
0.649118 0.434287 0.192869
0.690371 0.437921 0.191592
0.731134 0.441335 0.190040
0.770149 0.443959 0.187958
0.808133 0.446390 0.185434
0.845077 0.448809 0.182779
0.881815 0.451862 0.180078
0.918112 0.455695 0.177370
0.953794 0.460765 0.175119
0.988137 0.467135 0.173350
1.000000 0.474702 0.172240
0.050794 0.411446 0.254717
0.050794 0.411446 0.255217
0.050794 0.411430 0.255630
0.050794 0.411178 0.256387
0.051208 0.410926 0.257174
0.060860 0.410713 0.258261
0.105331 0.410692 0.259847
0.150613 0.410628 0.261775
0.187851 0.410921 0.263682
0.219533 0.412795 0.264168
0.247690 0.418263 0.260873
0.276925 0.426090 0.254929
0.309361 0.434788 0.247574
0.345283 0.443933 0.238935
0.383481 0.452300 0.229509
0.421236 0.457653 0.220412
0.457267 0.459409 0.213444
0.493552 0.459876 0.209281
0.531295 0.461057 0.207537
0.570185 0.463007 0.207209
0.610186 0.465619 0.206956
0.651451 0.469093 0.206475
0.693426 0.473142 0.205773
0.735424 0.477378 0.204993
0.776468 0.481328 0.204090
0.816222 0.485066 0.202931
0.853857 0.488160 0.201209
0.890299 0.491365 0.199392
0.925759 0.494981 0.197578
0.960413 0.499687 0.196119
0.993365 0.505683 0.195511
1.000000 0.512844 0.195447
0.050794 0.445981 0.272496
0.050794 0.445977 0.272992
0.050794 0.445847 0.273268
0.050794 0.445606 0.273925
0.050794 0.445461 0.274805
0.056413 0.445229 0.275789
0.095383 0.445105 0.277348
0.145436 0.445059 0.279168
0.186899 0.445248 0.281248
0.221862 0.445756 0.283045
0.252293 0.448781 0.282376
0.281078 0.455218 0.278028
0.311511 0.463284 0.271444
0.345121 0.471942 0.263586
0.382093 0.480948 0.254577
0.421078 0.489173 0.244692
0.459411 0.494402 0.235264
0.495819 0.496025 0.227761
0.532503 0.496567 0.222877
0.571369 0.498154 0.220717
0.612053 0.500847 0.220303
0.653677 0.504288 0.220295
0.695695 0.508204 0.220113
0.737792 0.512512 0.219941
0.779700 0.517019 0.219992
0.820751 0.521747 0.220201
0.860231 0.526310 0.220119
0.897596 0.530611 0.219855
0.933091 0.534765 0.219677
0.966796 0.539265 0.219190
0.997418 0.544755 0.219501
1.000000 0.551412 0.220473
0.050794 0.480389 0.290267
0.050794 0.480414 0.290658
0.050794 0.481138 0.291544
0.050794 0.480909 0.292189
0.050794 0.480878 0.292954
0.054909 0.480625 0.293918
0.086861 0.480421 0.295372
0.141350 0.480447 0.297163
0.187106 0.480539 0.299145
0.224631 0.480607 0.301382
0.257859 0.481705 0.302721
0.287741 0.485813 0.300874
0.316955 0.492708 0.295558
0.348455 0.500899 0.288480
0.383199 0.509571 0.280310
0.421017 0.518390 0.270970
0.460846 0.526481 0.260760
0.499824 0.531714 0.250944
0.536614 0.533476 0.243051
0.574280 0.534494 0.237459
0.614736 0.536894 0.234785
0.656535 0.540164 0.234541
0.698594 0.543820 0.234929
0.740597 0.547868 0.235501
0.782278 0.552212 0.236332
0.823271 0.557014 0.237322
0.863281 0.562236 0.238655
0.901735 0.567646 0.240172
0.938401 0.573199 0.242157
0.971862 0.578422 0.243528
0.999045 0.584197 0.245416
1.000000 0.590232 0.247446
0.050794 0.515341 0.308567
0.050794 0.515405 0.308992
0.050794 0.517320 0.310457
0.050794 0.517329 0.311203
0.050794 0.517194 0.311891
0.053997 0.517059 0.312939
0.081934 0.516854 0.314268
0.140299 0.516854 0.315924
0.189450 0.516819 0.317815
0.229002 0.516720 0.320116
0.264444 0.516933 0.322328
0.296532 0.518726 0.322891
0.325879 0.523790 0.319670
0.355777 0.531204 0.313619
0.388448 0.539417 0.306283
0.424250 0.547968 0.297853
0.463042 0.556721 0.288127
0.503721 0.564892 0.277603
0.543303 0.570259 0.267724
0.580720 0.572199 0.259325
0.619122 0.573691 0.253051
0.660203 0.576411 0.250264
0.702162 0.579723 0.250527
0.743840 0.583476 0.251741
0.785030 0.587560 0.253215
0.825504 0.591993 0.254967
0.864993 0.597028 0.257171
0.903325 0.602609 0.259793
0.940155 0.608710 0.263259
0.974246 0.615168 0.267132
0.999237 0.622259 0.271767
1.000000 0.628634 0.275828
0.050794 0.551168 0.327504
0.050794 0.551486 0.328021
0.050794 0.552521 0.328938
0.050794 0.552621 0.329708
0.050794 0.552657 0.330605
0.053862 0.552617 0.331529
0.081644 0.552412 0.332837
0.142686 0.552412 0.334405
0.193597 0.552386 0.336295
0.234564 0.552310 0.338523
0.271270 0.552264 0.340770
0.305210 0.552669 0.342754
0.336089 0.555448 0.342216
0.365444 0.561403 0.337990
0.396409 0.569127 0.331517
0.430260 0.577418 0.323921
0.467026 0.585968 0.315179
0.506730 0.594778 0.305349
0.548269 0.603016 0.294802
0.588259 0.608481 0.284815
0.625757 0.610587 0.276337
0.664326 0.612247 0.269908
0.705037 0.614923 0.267497
0.746355 0.618270 0.268216
0.787208 0.622057 0.270210
0.827193 0.626255 0.272808
0.866161 0.631036 0.275720
0.903877 0.636357 0.279229
0.940072 0.642325 0.283722
0.974119 0.649156 0.289254
0.999233 0.656777 0.295964
1.000000 0.664603 0.303147
0.050794 0.587365 0.346662
0.050794 0.587711 0.347166
0.050794 0.587957 0.347686
0.050794 0.588106 0.348451
0.050794 0.588192 0.349312
0.055007 0.588176 0.350278
0.088862 0.588097 0.351585
0.150363 0.588097 0.353153
0.201260 0.588097 0.355005
0.242783 0.588097 0.357135
0.280115 0.588067 0.359367
0.315042 0.588017 0.361773
0.347648 0.588975 0.363298
0.377927 0.592818 0.361634
0.407885 0.599487 0.356609
0.439865 0.607435 0.349794
0.474627 0.615648 0.342016
0.512224 0.624125 0.333358
0.552583 0.632848 0.323677
0.594259 0.640919 0.313286
0.634305 0.646328 0.303456
0.671708 0.648564 0.295160
0.709514 0.650121 0.288998
0.749240 0.652619 0.286703
0.789512 0.656158 0.287982
0.829120 0.660092 0.291157
0.867597 0.664603 0.295102
0.904662 0.669664 0.299659
0.940183 0.675600 0.305057
0.973458 0.682195 0.311756
0.999210 0.689555 0.319615
1.000000 0.697940 0.328914
0.050794 0.624609 0.366765
0.050794 0.624861 0.367269
0.050794 0.625103 0.367779
0.050794 0.625199 0.368388
0.050956 0.625321 0.369176
0.059073 0.625184 0.370223
0.107114 0.625184 0.371531
0.166318 0.625220 0.373099
0.214890 0.625301 0.374926
0.255791 0.625184 0.376968
0.293095 0.625184 0.379176
0.328340 0.625097 0.381668
0.361987 0.625080 0.384105
0.393737 0.626690 0.384877
0.423695 0.631492 0.382105
0.454122 0.638620 0.376502
0.486852 0.646361 0.369635
0.522228 0.654371 0.362069
0.560246 0.662616 0.353582
0.600468 0.670958 0.344098
0.641865 0.678705 0.333996
0.681700 0.684194 0.324385
0.718371 0.686521 0.316460
0.754860 0.687889 0.310722
0.793026 0.690339 0.308691
0.831814 0.693907 0.310791
0.869758 0.698170 0.315430
0.906220 0.703108 0.321018
0.940981 0.708747 0.327514
0.973328 0.715076 0.335496
0.999204 0.722176 0.344565
1.000000 0.730143 0.355162
0.050794 0.662917 0.388593
0.050794 0.662998 0.388932
0.050794 0.663075 0.389436
0.050890 0.663066 0.389948
0.053938 0.662978 0.390586
0.078016 0.662909 0.391661
0.138108 0.662909 0.393107
0.191452 0.662927 0.394638
0.235576 0.662968 0.396337
0.274761 0.662909 0.398354
0.311195 0.662856 0.400474
0.346075 0.662716 0.402883
0.379809 0.662570 0.405498
0.412305 0.662820 0.407806
0.443026 0.665199 0.407778
0.472597 0.670640 0.404079
0.503331 0.677690 0.398208
0.536487 0.685088 0.391512
0.571971 0.692738 0.384087
0.609558 0.700511 0.375820
0.649084 0.708267 0.366653
0.689543 0.715618 0.356664
0.728428 0.721007 0.347260
0.763776 0.723209 0.339768
0.798012 0.724075 0.334360
0.834162 0.726255 0.332587
0.871142 0.730222 0.335749
0.906913 0.734857 0.342071
0.940904 0.740148 0.349686
0.972545 0.746208 0.358798
0.999018 0.753208 0.369157
1.000000 0.760668 0.381055
0.050794 0.700098 0.411375
0.050933 0.700272 0.411803
0.055696 0.700272 0.412150
0.064962 0.700248 0.412833
0.080254 0.700050 0.413557
0.129071 0.700201 0.414616
0.181111 0.700167 0.415983
0.224316 0.700028 0.417496
0.263142 0.699983 0.419090
0.299483 0.699854 0.420978
0.334243 0.699775 0.423073
0.367984 0.699549 0.425428
0.400988 0.699342 0.428044
0.433282 0.699150 0.430787
0.464538 0.699819 0.432615
0.494046 0.702939 0.431550
0.523275 0.708671 0.427256
0.554117 0.715411 0.421437
0.586989 0.722427 0.414962
0.621940 0.729631 0.407696
0.658813 0.736836 0.399732
0.697058 0.744040 0.390959
0.736089 0.750943 0.381362
0.773326 0.755990 0.372238
0.806561 0.757889 0.364952
0.838487 0.758301 0.360105
0.872328 0.760663 0.358676
0.907011 0.764938 0.363154
0.940221 0.769980 0.371676
0.970993 0.775780 0.381683
0.998051 0.782429 0.393316
1.000000 0.789547 0.406341
0.070724 0.736650 0.435945
0.074304 0.736894 0.436447
0.091326 0.736906 0.436906
0.123102 0.737051 0.437680
0.154524 0.736839 0.438608
0.193679 0.736865 0.439497
0.230345 0.736665 0.440770
0.264560 0.736428 0.442095
0.297940 0.736224 0.443531
0.330733 0.735991 0.445366
0.362942 0.735783 0.447403
0.394863 0.735531 0.449571
0.426433 0.735209 0.452000
0.457661 0.734846 0.454737
0.488487 0.734654 0.457473
0.518131 0.735695 0.458674
0.546433 0.739493 0.456670
0.575103 0.745234 0.452009
0.605455 0.751593 0.446370
0.637693 0.758201 0.440115
0.671777 0.764885 0.433238
0.707308 0.771569 0.425675
0.743859 0.778253 0.417243
0.780675 0.784522 0.408178
0.815992 0.789287 0.399321
0.847533 0.791299 0.392739
0.876511 0.791575 0.388659
0.907752 0.794145 0.387712
0.939573 0.798609 0.394181
0.969463 0.804132 0.404924
0.995903 0.810276 0.417661
1.000000 0.817126 0.432093
0.154791 0.771878 0.462287
0.167173 0.772122 0.462791
0.182926 0.772125 0.463311
0.205456 0.772172 0.464072
0.229715 0.772122 0.464878
0.255418 0.772082 0.465713
0.282541 0.771830 0.466974
0.310519 0.771621 0.468277
0.339313 0.771515 0.469761
0.368477 0.771263 0.471456
0.397962 0.771011 0.473534
0.427696 0.770759 0.475765
0.457444 0.770486 0.478128
0.487256 0.770200 0.480775
0.516923 0.769837 0.483665
0.546079 0.769665 0.486301
0.574088 0.771283 0.486964
0.601106 0.775504 0.484128
0.628774 0.781135 0.479364
0.658292 0.787080 0.473954
0.689465 0.793171 0.468045
0.721853 0.799334 0.461523
0.755395 0.805364 0.454356
0.789658 0.811291 0.446609
0.823934 0.817032 0.438077
0.856974 0.821833 0.429717
0.886131 0.823975 0.423941
0.911732 0.823715 0.420885
0.940049 0.826586 0.420702
0.968414 0.831573 0.429760
0.993793 0.837202 0.443221
1.000000 0.843594 0.458813
0.249959 0.806270 0.490976
0.259513 0.806515 0.491481
0.269746 0.806515 0.491988
0.282999 0.806496 0.492541
0.299335 0.806318 0.493144
0.318369 0.806278 0.494119
0.339493 0.806026 0.495214
0.362622 0.805829 0.496530
0.387173 0.805766 0.498093
0.412873 0.805571 0.499894
0.439595 0.805459 0.501989
0.466873 0.805207 0.504258
0.494455 0.804955 0.506697
0.522404 0.804620 0.509441
0.550364 0.804232 0.512235
0.578136 0.803859 0.515225
0.605405 0.804079 0.517603
0.631580 0.806312 0.517362
0.657122 0.810725 0.514203
0.683691 0.816033 0.509695
0.711784 0.821582 0.504678
0.741145 0.827092 0.499261
0.771370 0.832498 0.493237
0.802307 0.837890 0.486630
0.833595 0.843128 0.479429
0.864858 0.848240 0.471564
0.894890 0.852690 0.463904
0.921206 0.855001 0.458665
0.942673 0.854334 0.457054
0.967776 0.857515 0.458810
0.991816 0.862750 0.469840
1.000000 0.868628 0.485982
0.335192 0.839529 0.522470
0.341222 0.839568 0.522770
0.348528 0.839568 0.523274
0.358102 0.839565 0.523798
0.370520 0.839503 0.524524
0.385375 0.839318 0.525387
0.402714 0.839277 0.526654
0.422228 0.839245 0.528180
0.443343 0.839288 0.529967
0.466016 0.839411 0.532014
0.489812 0.839398 0.534255
0.514577 0.839285 0.536669
0.539915 0.839112 0.539391
0.565716 0.838969 0.542250
0.591617 0.838694 0.545234
0.617514 0.838423 0.548356
0.643344 0.838106 0.551637
0.668437 0.838766 0.553742
0.692318 0.841565 0.552891
0.715963 0.845864 0.549622
0.740643 0.850681 0.545536
0.766564 0.855566 0.541036
0.793337 0.860291 0.536002
0.820573 0.865102 0.530436
0.848251 0.869626 0.524508
0.876044 0.874198 0.517916
0.903395 0.878784 0.510782
0.929416 0.882731 0.503760
0.951993 0.884960 0.499415
0.969594 0.883710 0.499271
0.990699 0.887186 0.503343
1.000000 0.892513 0.516484
0.421182 0.872338 0.558525
0.425656 0.872126 0.558785
0.431038 0.872126 0.559276
0.438302 0.872105 0.559605
0.447739 0.871909 0.560361
0.459328 0.871847 0.561161
0.473202 0.871628 0.562250
0.488893 0.871456 0.563598
0.506262 0.871409 0.565206
0.525403 0.871213 0.567012
0.545662 0.870994 0.568979
0.567112 0.870763 0.571345
0.589382 0.870523 0.573899
0.612077 0.870290 0.576465
0.635013 0.869942 0.579147
0.658383 0.869573 0.582173
0.682103 0.869305 0.585576
0.705619 0.869141 0.588967
