gsg/02_Everyday/GSG_LUT_Everyday_OverCaster.cube
# GSG LUTs 1.0
# Copyright (c) 2016-2020 Greyscalegorilla
# See EULA for licensing and distribution information
# Converted by Briz LUT Converter
LUT_3D_SIZE 32
0.016117 0.041514 0.049084
0.038804 0.055126 0.064949
0.061381 0.068612 0.080169
0.082327 0.080184 0.092977
0.103312 0.091244 0.105077
0.122975 0.100201 0.115255
0.142589 0.108378 0.124392
0.162110 0.115885 0.132601
0.182024 0.123132 0.140226
0.202151 0.130119 0.147213
0.222742 0.136768 0.153704
0.243074 0.142723 0.159242
0.263335 0.147828 0.164095
0.283855 0.152310 0.168325
0.304415 0.156343 0.171996
0.325070 0.159904 0.175170
0.346118 0.163055 0.177817
0.367561 0.165796 0.180204
0.389239 0.168065 0.182331
0.411666 0.170184 0.184048
0.434606 0.172201 0.185718
0.457710 0.174052 0.187483
0.481074 0.175990 0.189074
0.504337 0.178187 0.191130
0.527339 0.180645 0.193399
0.550475 0.183363 0.195667
0.574075 0.185931 0.197526
0.598196 0.188452 0.199291
0.622837 0.191193 0.200835
0.647540 0.193966 0.202347
0.673425 0.196739 0.203624
0.699389 0.199756 0.205128
0.019394 0.051337 0.052605
0.039495 0.063136 0.065900
0.059836 0.074882 0.079143
0.080262 0.085934 0.091685
0.100694 0.096511 0.103468
0.119535 0.105115 0.112910
0.138109 0.112572 0.121465
0.156531 0.119497 0.128893
0.175207 0.126031 0.135740
0.194073 0.132415 0.141952
0.213095 0.138291 0.147825
0.232384 0.143650 0.153103
0.251703 0.148683 0.157793
0.271438 0.153416 0.162026
0.291332 0.157710 0.165816
0.311588 0.161656 0.169372
0.332376 0.165332 0.172662
0.353701 0.168870 0.175687
0.375525 0.172175 0.178343
0.398054 0.175177 0.180734
0.420998 0.177817 0.183019
0.444442 0.180191 0.184962
0.468319 0.182470 0.186553
0.491918 0.184747 0.188235
0.515371 0.187396 0.190173
0.538835 0.190169 0.191982
0.562693 0.192955 0.193745
0.587072 0.195737 0.195290
0.611973 0.198725 0.196802
0.637165 0.201528 0.198086
0.663334 0.204545 0.199575
0.689803 0.207578 0.200843
0.022860 0.061279 0.056229
0.040676 0.071509 0.067468
0.058619 0.081544 0.078541
0.078477 0.092084 0.090561
0.098330 0.102324 0.102219
0.116366 0.110240 0.111051
0.133915 0.117331 0.118647
0.151256 0.123558 0.125319
0.168647 0.129454 0.131450
0.186232 0.134974 0.137078
0.203981 0.140323 0.142346
0.222153 0.145262 0.147342
0.240584 0.150029 0.151857
0.259390 0.154690 0.156170
0.278619 0.159211 0.160196
0.298453 0.163614 0.164095
0.318940 0.167883 0.167742
0.340215 0.172144 0.171254
0.362090 0.176273 0.174618
0.384571 0.179997 0.177579
0.407629 0.183363 0.180325
0.431273 0.186309 0.182415
0.455367 0.188920 0.183990
0.479393 0.191445 0.185305
0.503192 0.194155 0.186726
0.527317 0.196941 0.188218
0.551344 0.200139 0.189933
0.575948 0.203234 0.191286
0.601123 0.206070 0.192754
0.626592 0.209104 0.194037
0.653251 0.212368 0.195297
0.680003 0.215645 0.196558
0.029186 0.076726 0.065146
0.045725 0.085427 0.074855
0.062369 0.094194 0.084604
0.080994 0.103973 0.095345
0.099866 0.113652 0.105977
0.117303 0.121072 0.114089
0.134092 0.127712 0.121209
0.150600 0.133622 0.127493
0.166969 0.139062 0.132927
0.183580 0.144183 0.138094
0.200450 0.148931 0.142920
0.217589 0.153601 0.147338
0.235003 0.158004 0.151490
0.252975 0.162255 0.155498
0.271532 0.166492 0.159386
0.290572 0.170610 0.163012
0.310161 0.174607 0.166517
0.330406 0.178469 0.169741
0.351373 0.182343 0.172717
0.373063 0.185893 0.175393
0.395457 0.189161 0.177708
0.418417 0.192107 0.179464
0.442087 0.194896 0.180786
0.466202 0.197513 0.181841
0.490664 0.200210 0.182806
0.515372 0.203194 0.183982
0.539919 0.206672 0.185628
0.564824 0.210230 0.187196
0.590487 0.213584 0.188491
0.616454 0.217116 0.189751
0.643411 0.220433 0.191035
0.670676 0.223758 0.192296
0.035960 0.093332 0.075292
0.051453 0.100764 0.083693
0.066912 0.108289 0.091925
0.084609 0.117201 0.101330
0.102395 0.125905 0.110701
0.118965 0.133042 0.118303
0.135249 0.139442 0.124961
0.151028 0.145016 0.130758
0.166568 0.150017 0.135704
0.182193 0.154799 0.140310
0.198055 0.159143 0.144530
0.214264 0.163442 0.148589
0.230898 0.167423 0.152325
0.247984 0.171321 0.156028
0.265513 0.175069 0.159519
0.283652 0.178700 0.162749
0.302444 0.182306 0.165944
0.321773 0.185772 0.168757
0.341731 0.189140 0.171208
0.362529 0.192343 0.173351
0.383866 0.195505 0.175166
0.406199 0.198440 0.176711
0.429409 0.201364 0.177834
0.453354 0.204199 0.178629
0.478442 0.206782 0.179139
0.503691 0.209869 0.179972
0.528720 0.213728 0.181351
0.553921 0.217543 0.183017
0.580043 0.221324 0.184332
0.606292 0.225105 0.185592
0.633722 0.228681 0.187058
0.661475 0.232455 0.188326
0.044358 0.113443 0.087762
0.058864 0.119835 0.094863
0.073686 0.126339 0.101816
0.089618 0.133913 0.109635
0.105970 0.141413 0.117343
0.122333 0.148105 0.124471
0.138635 0.154390 0.131081
0.154049 0.159564 0.136626
0.168893 0.164240 0.141332
0.183896 0.168625 0.145587
0.198990 0.172763 0.149315
0.214445 0.176596 0.152942
0.230283 0.180189 0.156336
0.246491 0.183803 0.159453
0.263139 0.187274 0.162379
0.280478 0.190623 0.165164
0.298360 0.193859 0.167709
0.316805 0.196983 0.169993
0.335982 0.199985 0.171902
0.355893 0.202969 0.173452
0.376520 0.205954 0.174883
0.398148 0.208799 0.175984
0.420728 0.211544 0.176765
0.444270 0.214276 0.177270
0.468882 0.216850 0.177376
0.493985 0.219733 0.177706
0.519219 0.223265 0.178711
0.544680 0.226959 0.179883
0.570991 0.230730 0.181098
0.597492 0.234511 0.182355
0.625183 0.238330 0.183615
0.653196 0.242113 0.184836
0.053370 0.135137 0.101012
0.067095 0.140541 0.106914
0.081091 0.146130 0.112791
0.095486 0.152256 0.118985
0.110254 0.158553 0.125050
0.126464 0.164757 0.131553
0.143061 0.170772 0.138074
0.158168 0.175803 0.143395
0.172488 0.180129 0.147922
0.186794 0.184029 0.151800
0.201192 0.187727 0.155202
0.215972 0.191356 0.158396
0.230969 0.194712 0.161432
0.246386 0.197940 0.164126
0.262372 0.201058 0.166439
0.278832 0.204034 0.168492
0.295827 0.207010 0.170411
0.313517 0.209986 0.172062
0.331935 0.212821 0.173477
0.351191 0.215574 0.174593
0.371147 0.218316 0.175503
0.392043 0.221040 0.176115
0.413858 0.223658 0.176570
0.436689 0.226157 0.176664
0.460741 0.228666 0.176578
0.485488 0.231346 0.176519
0.510835 0.234314 0.176840
0.536549 0.237511 0.177459
0.562708 0.241180 0.178424
0.589381 0.244956 0.179616
0.617329 0.248974 0.180828
0.645602 0.252763 0.181890
0.063311 0.159415 0.115042
0.076309 0.164028 0.120045
0.089442 0.168488 0.124843
0.102569 0.173497 0.129399
0.115988 0.178584 0.134076
0.131970 0.184211 0.140034
0.148482 0.189659 0.146192
0.163373 0.194169 0.151176
0.177418 0.198026 0.155384
0.191350 0.201567 0.159163
0.205118 0.204848 0.162344
0.219060 0.208110 0.165099
0.233352 0.211078 0.167376
0.248109 0.214023 0.169406
0.263315 0.216849 0.171166
0.278994 0.219564 0.172672
0.295236 0.222309 0.174042
0.312281 0.225051 0.175173
0.330040 0.227658 0.176067
0.348572 0.230294 0.176696
0.367895 0.232888 0.177144
0.388251 0.235409 0.177425
0.409445 0.238064 0.177581
0.431820 0.240499 0.177398
0.455430 0.242929 0.176943
0.479714 0.245437 0.176547
0.504975 0.248321 0.176386
0.530812 0.251337 0.176532
0.557039 0.254803 0.177389
0.583717 0.258561 0.178341
0.611856 0.262525 0.179345
0.640332 0.266367 0.180543
0.073709 0.185316 0.129662
0.086049 0.189155 0.133435
0.098263 0.192989 0.137189
0.110337 0.196762 0.140627
0.122682 0.200661 0.144117
0.138294 0.205452 0.149239
0.154570 0.210157 0.154665
0.169317 0.214096 0.159214
0.183119 0.217432 0.163259
0.196623 0.220508 0.166833
0.209932 0.223403 0.169888
0.223414 0.226211 0.172227
0.236991 0.228878 0.173886
0.251006 0.231483 0.175354
0.265431 0.233939 0.176513
0.280390 0.236425 0.177441
0.296015 0.239007 0.178193
0.312405 0.241550 0.178838
0.329521 0.244043 0.179241
0.347506 0.246563 0.179504
0.366188 0.249044 0.179650
0.385956 0.251542 0.179649
0.406764 0.254063 0.179411
0.428580 0.256584 0.178913
0.451783 0.258964 0.178295
0.475793 0.261444 0.177565
0.501004 0.264170 0.176908
0.526677 0.267100 0.176699
0.553051 0.270558 0.177345
0.579747 0.274316 0.178101
0.607946 0.278097 0.179032
0.636425 0.282122 0.180039
0.084296 0.213037 0.144212
0.095751 0.216165 0.146947
0.107352 0.219207 0.149720
0.118543 0.222006 0.152015
0.130108 0.224864 0.154473
0.144986 0.228644 0.158634
0.160802 0.232495 0.163195
0.175241 0.235653 0.167150
0.188969 0.238450 0.170649
0.202316 0.240953 0.173837
0.215228 0.243305 0.176558
0.228238 0.245569 0.178600
0.241294 0.247832 0.180046
0.254712 0.250134 0.181252
0.268462 0.252329 0.182054
0.282894 0.254643 0.182596
0.297961 0.257001 0.182864
0.313704 0.259270 0.183088
0.330204 0.261639 0.183134
0.347623 0.264087 0.183048
0.365784 0.266468 0.182789
0.385031 0.268927 0.182416
0.405369 0.271398 0.181895
0.426820 0.273898 0.181136
0.449604 0.276474 0.180173
0.473313 0.279011 0.179247
0.498416 0.281736 0.178199
0.524016 0.284509 0.177543
0.550380 0.288008 0.178132
0.577143 0.291706 0.178822
0.605522 0.295551 0.179574
0.634078 0.299579 0.180503
0.094647 0.242420 0.158344
0.105655 0.244944 0.160122
0.116568 0.247271 0.162039
0.127221 0.249124 0.163536
0.138077 0.251003 0.165036
0.152133 0.253661 0.168211
0.167073 0.256420 0.171635
0.181364 0.258696 0.174828
0.194974 0.260868 0.177607
0.208170 0.262699 0.180087
0.220919 0.264443 0.182313
0.233581 0.266157 0.184190
0.246249 0.267991 0.185860
0.259196 0.269926 0.187065
0.272468 0.271862 0.187711
0.286347 0.273915 0.187941
0.300805 0.276103 0.187900
0.315976 0.278290 0.187723
0.331967 0.280523 0.187486
0.348905 0.282792 0.187072
0.366596 0.285167 0.186487
0.385405 0.287660 0.185736
0.405371 0.290063 0.184898
0.426410 0.292536 0.183879
0.448828 0.295246 0.182729
0.472259 0.297822 0.181425
0.497102 0.300547 0.180149
0.522510 0.303458 0.179245
0.548923 0.307133 0.179802
0.575782 0.310833 0.180404
0.604243 0.314921 0.181226
0.632975 0.319036 0.182063
0.104305 0.273449 0.171696
0.115050 0.275108 0.172688
0.125610 0.276709 0.173654
0.135743 0.277456 0.174199
0.146023 0.278332 0.174776
0.159108 0.279689 0.176690
0.173121 0.281245 0.179122
0.187132 0.282761 0.181591
0.200937 0.284283 0.183829
0.214060 0.285521 0.185731
0.226523 0.286591 0.187490
0.238931 0.287810 0.189106
0.251445 0.289103 0.190687
0.264099 0.290636 0.191875
0.276915 0.292261 0.192611
0.290273 0.294054 0.192934
0.304255 0.295981 0.192987
0.318996 0.297956 0.192713
0.334446 0.300064 0.192069
0.350847 0.302296 0.191290
0.368158 0.304621 0.190444
0.386617 0.307086 0.189433
0.406116 0.309607 0.188335
0.426821 0.312127 0.187056
0.448852 0.314837 0.185517
0.471985 0.317483 0.183985
0.496568 0.320225 0.182605
0.521935 0.323499 0.181543
0.548497 0.327463 0.182314
0.575380 0.331741 0.183257
0.604002 0.336447 0.184680
0.632739 0.341093 0.186136
0.113443 0.306062 0.184174
0.124030 0.306777 0.184383
0.134558 0.307439 0.184455
0.144170 0.307278 0.183901
0.153857 0.306938 0.183429
0.165846 0.306979 0.184247
0.178946 0.307233 0.185687
0.192713 0.307949 0.187432
0.206641 0.308927 0.189191
0.219717 0.309555 0.190689
0.232039 0.309980 0.191958
0.244326 0.310564 0.193174
0.256641 0.311377 0.194433
0.269101 0.312292 0.195573
0.281791 0.313468 0.196569
0.294895 0.314949 0.197304
0.308486 0.316665 0.197829
0.322753 0.318511 0.197637
0.337737 0.320485 0.196739
0.353696 0.322652 0.195672
0.370572 0.325017 0.194567
0.388608 0.327504 0.193295
0.407684 0.330025 0.191937
0.428014 0.332616 0.190468
0.449833 0.335423 0.188767
0.472727 0.338294 0.187123
0.497129 0.341243 0.185592
0.522388 0.344767 0.184670
0.549109 0.349532 0.186062
0.576305 0.354511 0.187630
0.604856 0.360296 0.190220
0.633589 0.365985 0.192784
0.121958 0.339446 0.194895
0.132546 0.339275 0.194318
0.143047 0.339048 0.193466
0.152245 0.337941 0.192126
0.161484 0.336542 0.190830
0.172758 0.335346 0.190861
0.185001 0.334243 0.191500
0.198338 0.334068 0.192604
0.212134 0.334328 0.193842
0.225058 0.334309 0.194850
0.237331 0.334159 0.195720
0.249481 0.334154 0.196553
0.261672 0.334381 0.197455
0.273934 0.334819 0.198460
0.286478 0.335533 0.199505
0.299387 0.336616 0.200339
0.312694 0.338043 0.201148
0.326668 0.339659 0.201375
0.341325 0.341506 0.200959
0.356840 0.343566 0.200079
0.373274 0.345795 0.198792
0.390944 0.348230 0.197330
0.409727 0.350823 0.195744
0.429837 0.353707 0.194202
0.451684 0.356959 0.192580
0.474729 0.360466 0.191169
0.499247 0.364225 0.190118
0.524571 0.368456 0.189896
0.551385 0.373939 0.191742
0.578493 0.379458 0.193961
0.606695 0.385710 0.197073
0.635212 0.391910 0.200102
0.129915 0.373618 0.203750
0.140502 0.372521 0.202282
0.150995 0.371369 0.200655
0.160046 0.369364 0.198663
0.169092 0.367009 0.196843
0.179804 0.364654 0.196307
0.191316 0.362418 0.196334
0.204140 0.361342 0.196917
0.217496 0.360720 0.197635
0.230146 0.359966 0.198196
0.242262 0.359183 0.198759
0.254323 0.358628 0.199197
0.266352 0.358243 0.199768
0.278554 0.358220 0.200513
0.290966 0.358497 0.201297
0.303799 0.359128 0.202046
0.317033 0.360091 0.202986
0.330815 0.361387 0.203834
0.345211 0.363038 0.204541
0.360466 0.364906 0.204298
0.376549 0.367080 0.203088
0.393812 0.369589 0.201540
0.412289 0.372319 0.199819
0.432431 0.375618 0.198235
0.454596 0.379671 0.196979
0.478243 0.384302 0.196310
0.503190 0.389340 0.196561
0.528820 0.394775 0.197342
0.555314 0.400635 0.199532
0.582149 0.406650 0.202143
0.609846 0.412935 0.205144
0.637733 0.419103 0.208059
0.137256 0.408122 0.210666
0.147847 0.406243 0.208405
0.158454 0.404294 0.206137
0.167517 0.401250 0.203758
0.176605 0.397867 0.201647
0.186775 0.394457 0.200706
0.197631 0.391180 0.200198
0.209782 0.389093 0.200262
0.222462 0.387565 0.200489
0.234805 0.386043 0.200656
0.246777 0.384753 0.200914
0.258710 0.383549 0.201166
0.270607 0.382674 0.201421
0.282737 0.382108 0.201833
0.295088 0.381933 0.202410
0.307856 0.382043 0.203094
0.321029 0.382617 0.203980
0.334672 0.383588 0.205065
0.348931 0.384925 0.206257
0.364265 0.386904 0.206705
0.380575 0.389445 0.206442
0.398146 0.392570 0.205784
0.416973 0.396037 0.204828
0.437476 0.400178 0.203801
0.459848 0.405051 0.202978
0.483650 0.410383 0.202806
0.508553 0.416208 0.203928
0.533963 0.422238 0.205413
0.560092 0.428395 0.207807
0.586545 0.434684 0.210445
0.613616 0.440986 0.213447
0.640844 0.447288 0.216346
0.144062 0.443286 0.215582
0.154658 0.440501 0.212675
0.165403 0.437755 0.209910
0.174713 0.433659 0.207413
0.183867 0.429137 0.205254
0.193606 0.424816 0.203922
0.203787 0.420580 0.203000
0.215129 0.417350 0.202543
0.226995 0.414846 0.202315
0.239001 0.412581 0.202221
0.251022 0.410681 0.202219
0.262825 0.408956 0.202255
0.274543 0.407561 0.202332
0.286465 0.406474 0.202484
0.298744 0.405835 0.202858
0.311450 0.405556 0.203411
0.324558 0.405739 0.204102
0.338202 0.406319 0.204996
0.352460 0.407266 0.206058
0.368180 0.409551 0.207380
0.385303 0.412871 0.208922
0.403871 0.417119 0.210131
0.423738 0.422155 0.210817
0.445002 0.427521 0.210977
0.467439 0.433142 0.210609
0.490907 0.438921 0.210799
0.515314 0.444925 0.212311
0.540094 0.451085 0.214187
0.565687 0.457257 0.216629
0.591619 0.463547 0.219150
0.618047 0.469849 0.222143
0.644626 0.476277 0.225168
0.150735 0.478176 0.218898
0.161602 0.474492 0.215624
0.172501 0.470949 0.212501
0.182171 0.465837 0.210004
0.191378 0.460516 0.207796
0.200520 0.455174 0.206068
0.209782 0.450025 0.204738
0.220240 0.445875 0.203790
0.231398 0.442395 0.203211
0.242980 0.439388 0.202892
0.254819 0.436879 0.202718
0.266399 0.434581 0.202552
0.277943 0.432635 0.202500
0.289661 0.431051 0.202521
0.301810 0.429876 0.202773
0.314638 0.429587 0.203326
0.328160 0.430071 0.204164
0.342439 0.431181 0.205359
0.357527 0.432905 0.206842
0.374057 0.435865 0.208850
0.391957 0.439914 0.211414
0.411289 0.444921 0.213849
0.431730 0.450588 0.215915
0.453207 0.456478 0.217422
0.475567 0.462396 0.218292
0.498598 0.468415 0.219275
0.522584 0.474578 0.221112
0.546760 0.480745 0.223245
0.571817 0.486930 0.225720
0.597229 0.493221 0.228366
0.623007 0.499523 0.231757
0.649076 0.505936 0.235062
0.157289 0.512852 0.220489
0.168673 0.508378 0.217212
0.179960 0.503783 0.213982
0.189757 0.497917 0.211485
0.199094 0.491772 0.209248
0.207416 0.485558 0.207242
0.215665 0.479649 0.205392
0.225277 0.474637 0.204128
0.235777 0.470181 0.203398
0.246747 0.466425 0.202818
0.258135 0.463259 0.202420
0.269465 0.460367 0.202108
0.280783 0.457900 0.201922
0.292374 0.455795 0.201815
0.304392 0.454164 0.201985
0.317524 0.454095 0.202798
0.331901 0.455490 0.204172
0.347444 0.458002 0.206086
0.364175 0.461630 0.208482
0.382017 0.465785 0.211021
0.400632 0.470481 0.213845
0.420292 0.475685 0.216861
0.440906 0.481185 0.220055
0.462237 0.486988 0.223050
0.484226 0.492812 0.225787
0.506763 0.498807 0.228241
0.530228 0.504942 0.230328
0.554006 0.511132 0.232434
0.578561 0.517293 0.234905
0.603585 0.523581 0.237389
0.628746 0.530020 0.241638
0.654118 0.536327 0.246044
0.165190 0.546142 0.222049
0.177089 0.540736 0.218922
0.188720 0.535313 0.215692
0.198512 0.528767 0.213195
0.207709 0.521904 0.210919
0.215209 0.515056 0.208578
0.222437 0.508433 0.206297
0.231115 0.502567 0.204727
0.240706 0.497406 0.203585
0.250904 0.493024 0.202702
0.261717 0.489313 0.201985
0.272775 0.486267 0.201674
0.284212 0.484053 0.201789
0.296166 0.482514 0.202165
0.308897 0.481886 0.202894
0.322806 0.482702 0.204328
0.338016 0.484930 0.206353
0.354475 0.488333 0.208834
0.372122 0.492828 0.211848
0.390670 0.497515 0.214838
0.409731 0.502462 0.217923
0.429517 0.507567 0.221369
0.450097 0.512880 0.225196
0.471338 0.518452 0.228950
0.493027 0.524211 0.232750
0.515197 0.530085 0.236194
0.538297 0.536106 0.238834
0.561928 0.542238 0.241054
0.586150 0.548300 0.243666
0.610624 0.554439 0.246533
0.634971 0.560967 0.252797
0.659459 0.567277 0.259530
0.174643 0.577935 0.223813
0.186745 0.571810 0.220791
0.198761 0.565555 0.217856
0.208382 0.558400 0.215196
0.217233 0.551017 0.212754
0.223775 0.543608 0.210182
0.229962 0.536265 0.207478
0.237598 0.529930 0.205479
0.246149 0.524207 0.203889
0.255361 0.519143 0.202601
0.265450 0.514982 0.201588
0.276333 0.512304 0.201349
0.288213 0.511154 0.202081
0.301109 0.511280 0.203476
0.315232 0.512783 0.205500
0.330275 0.515019 0.207817
0.346265 0.518027 0.210492
0.363204 0.521762 0.213564
0.381154 0.526136 0.216873
0.399866 0.530661 0.220194
0.419024 0.535445 0.223600
0.438844 0.540431 0.227371
0.459356 0.545534 0.231264
0.480453 0.550846 0.235187
0.502028 0.556418 0.239198
0.524228 0.562053 0.242837
0.547128 0.567893 0.246016
0.570445 0.573781 0.249101
0.594256 0.579810 0.252339
0.617983 0.586007 0.256352
0.641458 0.592388 0.265679
0.665005 0.598692 0.275600
0.184474 0.608287 0.224916
0.196752 0.601470 0.222230
0.209069 0.594527 0.219457
0.218275 0.586868 0.216708
0.226811 0.579092 0.214166
0.232600 0.571005 0.211422
0.237779 0.563149 0.208539
0.244545 0.556780 0.206418
0.252353 0.551326 0.204973
0.261256 0.546943 0.204091
0.271295 0.543715 0.203672
0.282492 0.542071 0.204060
0.294870 0.542136 0.205453
0.308485 0.543522 0.207498
0.323447 0.546228 0.210264
0.339076 0.549151 0.213164
0.355506 0.552514 0.216234
0.372736 0.556316 0.219607
0.390679 0.560430 0.222994
0.409358 0.564694 0.226522
0.428516 0.569219 0.230222
0.448336 0.574003 0.234141
0.468849 0.578874 0.237883
0.490004 0.583925 0.241920
0.511728 0.589109 0.246381
0.533901 0.594447 0.250932
0.556436 0.600027 0.255559
0.579246 0.605654 0.260270
0.602537 0.611651 0.265144
0.625817 0.617620 0.270799
0.648533 0.623900 0.281799
0.671377 0.630202 0.293064
0.194478 0.637512 0.225499
0.207005 0.629923 0.222976
0.219221 0.622460 0.220382
0.228255 0.614288 0.217778
0.236454 0.606075 0.215047
0.241367 0.597549 0.212084
0.245732 0.589304 0.209268
0.251936 0.583306 0.207562
0.259472 0.579060 0.206820
0.268727 0.576582 0.207072
0.279533 0.575729 0.208118
0.291429 0.575856 0.209574
0.304439 0.577124 0.211718
0.318357 0.579082 0.214211
0.333302 0.581717 0.217016
0.348923 0.584547 0.220030
0.365344 0.587771 0.223270
0.382567 0.591389 0.226586
0.400465 0.595244 0.229995
0.419004 0.599248 0.233538
0.438319 0.603512 0.237029
0.458261 0.608036 0.240618
0.478774 0.612769 0.244315
0.499860 0.617483 0.248953
0.521620 0.622167 0.254868
0.543747 0.627187 0.261286
0.565990 0.632361 0.268109
0.588458 0.637851 0.275163
0.611094 0.643525 0.282466
0.633749 0.649313 0.290162
0.656198 0.655583 0.300846
0.678530 0.661885 0.311828
0.205829 0.664508 0.226909
0.217689 0.656696 0.224009
0.229462 0.648934 0.220974
0.238133 0.640990 0.218634
0.246067 0.633084 0.216227
0.250641 0.625438 0.213792
0.254496 0.618210 0.211752
0.260610 0.613431 0.210915
0.268297 0.610522 0.211018
0.277874 0.609574 0.212268
0.289195 0.610356 0.214271
0.301684 0.611597 0.216728
0.315331 0.613321 0.219582
0.329639 0.615317 0.222579
0.344511 0.617568 0.225726
0.360093 0.620039 0.229109
0.376572 0.622910 0.232667
0.393947 0.626080 0.236230
0.412032 0.629487 0.239813
0.430826 0.633155 0.243675
0.450228 0.637159 0.247724
0.470034 0.641300 0.251915
0.490359 0.645765 0.256365
0.511340 0.650187 0.261982
0.532941 0.654677 0.269298
0.554736 0.659316 0.277236
0.576696 0.664288 0.285487
0.598747 0.669597 0.294010
0.620808 0.675119 0.303121
0.642869 0.680893 0.312368
0.664754 0.687164 0.322697
0.686746 0.693284 0.333341
0.218622 0.688834 0.229430
0.229238 0.681221 0.225421
0.239588 0.673833 0.221317
0.247939 0.666994 0.219457
0.255646 0.660365 0.217871
0.260260 0.655263 0.217008
0.264400 0.650852 0.216521
0.270877 0.648230 0.216906
0.278823 0.646670 0.218001
0.288660 0.646469 0.219725
0.300201 0.647495 0.222228
0.312955 0.648666 0.225184
0.327146 0.650041 0.228600
0.341960 0.651540 0.232117
0.357223 0.653199 0.235785
0.373195 0.655180 0.239780
0.389999 0.657465 0.244020
0.407531 0.660023 0.248580
0.425790 0.662910 0.253390
0.444767 0.666212 0.258539
0.464177 0.669712 0.264117
0.483918 0.673416 0.269934
0.504179 0.677466 0.276011
0.524860 0.681713 0.282973
0.546023 0.686187 0.290842
0.567311 0.690724 0.299411
0.588646 0.695671 0.308166
0.610156 0.700926 0.317309
0.631696 0.706440 0.327013
0.653060 0.712214 0.336964
0.674534 0.718301 0.347459
0.695884 0.724353 0.358045
0.233306 0.711544 0.233975
0.243226 0.705203 0.230101
0.252818 0.698982 0.226550
0.261113 0.693851 0.225623
0.268821 0.688998 0.225075
0.273859 0.686165 0.225627
0.278443 0.683975 0.226495
0.285110 0.682844 0.227888
0.293469 0.682295 0.229618
0.303567 0.682394 0.231707
0.315413 0.683059 0.234370
0.328613 0.683951 0.237606
0.343172 0.685008 0.241414
0.358017 0.686167 0.245535
0.373280 0.687388 0.249926
0.389270 0.688848 0.254576
0.405956 0.690686 0.259598
0.423420 0.692901 0.265124
0.441711 0.695470 0.271000
0.460591 0.698368 0.277303
0.479797 0.701460 0.284072
0.499335 0.704865 0.291234
0.519392 0.708616 0.298726
0.539642 0.712773 0.306582
0.560132 0.717095 0.315082
0.580855 0.721747 0.323873
0.601623 0.726567 0.333026
0.622604 0.731789 0.342509
0.643624 0.737304 0.352480
0.664416 0.743078 0.362743
0.685229 0.749112 0.373502
0.705999 0.755162 0.384292
0.250683 0.732546 0.241679
0.261564 0.729033 0.241064
0.272081 0.725559 0.240378
0.280799 0.722653 0.241125
0.288942 0.719706 0.242100
0.294501 0.717832 0.243107
0.299587 0.716176 0.244461
0.306605 0.715232 0.246451
0.315103 0.714642 0.248702
0.325460 0.714632 0.251342
0.337516 0.715149 0.254655
0.350668 0.715853 0.258501
0.364945 0.716862 0.262721
0.379473 0.717886 0.267170
0.394285 0.718918 0.271826
0.409830 0.720280 0.276699
0.425938 0.721939 0.282078
0.442857 0.724006 0.287985
0.460607 0.726408 0.294246
0.478823 0.729143 0.300957
0.497611 0.732300 0.308132
0.516750 0.735728 0.315732
0.536190 0.739285 0.323679
0.555874 0.743369 0.332038
0.575806 0.747654 0.340778
0.595999 0.752169 0.349931
0.616246 0.757090 0.359414
0.636707 0.762160 0.369165
0.657021 0.767647 0.379581
0.677464 0.773422 0.389933
0.697725 0.779456 0.400939
0.717972 0.785506 0.412194
0.269857 0.754917 0.253188
0.281606 0.754081 0.255390
0.293170 0.753023 0.257769
0.302429 0.751816 0.260077
0.311284 0.750569 0.262156
0.317364 0.749175 0.263794
0.322929 0.747552 0.265416
0.330182 0.746647 0.267707
0.338745 0.746127 0.270368
0.349301 0.745868 0.273760
0.361385 0.746221 0.277716
0.374433 0.746823 0.281966
0.388342 0.747694 0.286608
0.402463 0.748702 0.291318
0.416878 0.749807 0.296216
0.431800 0.751183 0.301328
0.447258 0.752602 0.306748
0.463520 0.754547 0.312709
