gsg/02_Everyday/GSG_LUT_Everyday_Shady_Porch.cube
# GSG LUTs 1.0
# Copyright (c) 2016-2020 Greyscalegorilla
# See EULA for licensing and distribution information
# Converted by Briz LUT Converter
LUT_3D_SIZE 5
DOMAIN_MIN 0.000000 0.000000 0.000000
DOMAIN_MAX 0.903226 0.903226 0.903226
0.050794 0.050794 0.050794
0.303336 0.054378 0.043625
0.494056 0.117657 0.073559
0.651896 0.189641 0.137666
0.801087 0.254260 0.207570
0.032723 0.311450 0.056292
0.269132 0.307531 0.077857
0.457470 0.320809 0.122010
0.620940 0.344790 0.176891
0.778996 0.375990 0.229353
0.097412 0.524881 0.146764
0.242519 0.525181 0.171198
0.419943 0.532895 0.206457
0.588416 0.543566 0.241818
0.774634 0.551730 0.271503
0.091425 0.728843 0.248714
0.215333 0.730785 0.254717
0.400524 0.732494 0.271031
0.606926 0.728186 0.272902
0.819188 0.725196 0.274812
0.000000 0.929922 0.284478
0.208915 0.924369 0.272001
0.426225 0.919159 0.268985
0.645404 0.914326 0.263429
0.864275 0.908472 0.251799
0.053850 0.053078 0.325558
0.304341 0.066897 0.315778
0.487795 0.135163 0.322385
0.643082 0.207535 0.342958
0.794861 0.269681 0.369612
0.031415 0.314024 0.315226
0.263049 0.314305 0.320670
0.447631 0.329341 0.337178
0.611200 0.355822 0.359037
0.774296 0.382847 0.384935
0.080109 0.527213 0.341480
0.232319 0.531167 0.349950
0.414207 0.536508 0.368048
0.583618 0.548155 0.389204
0.776550 0.553618 0.397833
0.070819 0.732849 0.381315
0.207770 0.735236 0.387294
0.404838 0.732670 0.389542
0.612425 0.727998 0.387822
0.825581 0.723971 0.381039
0.008859 0.928423 0.393207
0.200703 0.926203 0.383612
0.429822 0.920679 0.370671
0.650886 0.913708 0.361637
0.866820 0.908851 0.346426
0.129694 0.074631 0.547552
0.305807 0.099883 0.538060
0.480484 0.160495 0.533562
0.636472 0.228324 0.544976
0.792613 0.282154 0.562887
0.095582 0.319057 0.533902
0.261799 0.323513 0.535768
0.446541 0.339253 0.541019
0.609057 0.367720 0.555198
0.773317 0.394715 0.573070
0.087428 0.534200 0.545956
0.232680 0.537511 0.552131
0.409986 0.544647 0.560962
0.584038 0.555673 0.574219
0.787785 0.557445 0.572232
0.076847 0.737485 0.569991
0.210725 0.738661 0.571999
0.413091 0.735543 0.565851
0.623728 0.729619 0.560130
0.834971 0.725282 0.552913
0.022611 0.930403 0.566098
0.218025 0.926141 0.556993
0.436990 0.922151 0.542915
0.658268 0.916336 0.530372
0.873426 0.909522 0.517595
0.179952 0.119178 0.749852
0.309152 0.142188 0.740992
0.476021 0.191787 0.734554
0.631257 0.251622 0.740216
0.791611 0.298325 0.755186
0.139673 0.331646 0.737160
0.266855 0.337089 0.737819
0.440740 0.353701 0.739021
0.607462 0.380956 0.747572
0.777337 0.404514 0.761273
0.100763 0.543093 0.744453
0.229847 0.546386 0.747775
0.405814 0.553870 0.756548
0.598828 0.559937 0.756465
0.806823 0.558910 0.750668
0.077442 0.744695 0.762367
0.221070 0.742050 0.759417
0.422610 0.737261 0.752869
0.638005 0.732153 0.744260
0.847597 0.727883 0.737329
0.055751 0.931143 0.754350
0.227781 0.928273 0.746029
0.445132 0.923731 0.735742
0.665490 0.918290 0.723259
0.882186 0.911735 0.712204
0.177140 0.173863 0.951759
0.293667 0.187177 0.944580
0.459778 0.228454 0.937881
0.621656 0.281255 0.940195
0.787692 0.322672 0.950667
0.133793 0.348356 0.940601
0.256225 0.353607 0.939781
0.429229 0.370322 0.941111
0.602421 0.394288 0.946821
0.792918 0.410294 0.950035
0.084635 0.553269 0.945221
0.216996 0.557005 0.948326
0.397629 0.563081 0.954847
0.611548 0.562760 0.947956
0.825655 0.559889 0.941573
0.075976 0.747639 0.956469
0.221660 0.745463 0.952444
0.431091 0.740411 0.945747
0.648651 0.733589 0.940076
0.865799 0.729215 0.930749
0.063729 0.933873 0.949295
0.222401 0.931949 0.944596
0.449903 0.926093 0.934989
0.672785 0.920175 0.927516
0.890254 0.913650 0.918147
