gsg/02_Everyday/GSG_LUT_Everyday_SimpleWarm.cube
# GSG LUTs 1.0
# Copyright (c) 2016-2020 Greyscalegorilla
# See EULA for licensing and distribution information
# Converted by Briz LUT Converter
LUT_3D_SIZE 8
DOMAIN_MIN 0.000000 0.000000 0.000000
DOMAIN_MAX 0.903226 0.903226 0.903226
0.050794 0.050794 0.050794
0.079664 0.057521 0.053850
0.150317 0.069542 0.056536
0.273725 0.056977 0.057442
0.434227 0.050794 0.052598
0.598031 0.050794 0.050794
0.749915 0.050794 0.050794
0.882217 0.050794 0.050794
0.050794 0.122132 0.073040
0.073988 0.122896 0.069105
0.179985 0.121981 0.058623
0.307649 0.110936 0.051446
0.461410 0.065180 0.050794
0.615513 0.050794 0.050794
0.761869 0.050794 0.050794
0.884438 0.053531 0.050794
0.050794 0.248186 0.097530
0.050794 0.249407 0.092780
0.203580 0.250748 0.079482
0.378219 0.239505 0.055049
0.526153 0.220369 0.050794
0.667019 0.205061 0.050794
0.796208 0.220261 0.050794
0.900804 0.269764 0.050794
0.050794 0.437000 0.106400
0.050794 0.437456 0.099527
0.084487 0.439678 0.078813
0.408722 0.447087 0.051069
0.601861 0.438801 0.050794
0.722998 0.422916 0.050794
0.824260 0.424674 0.050794
0.910578 0.445640 0.050794
0.050794 0.619158 0.141061
0.050794 0.620403 0.136579
0.050794 0.619384 0.119057
0.362564 0.620738 0.083909
0.598081 0.619882 0.054575
0.744416 0.613092 0.050794
0.832674 0.601461 0.050794
0.912825 0.603676 0.050794
0.050794 0.748308 0.242034
0.050794 0.749183 0.240687
0.055673 0.747240 0.232379
0.351571 0.746095 0.220475
0.573214 0.744159 0.204426
0.726529 0.744070 0.176682
0.840224 0.744333 0.126611
0.914474 0.737696 0.055307
0.081421 0.843940 0.374107
0.167206 0.844036 0.373778
0.305294 0.843113 0.369667
0.432257 0.841656 0.362563
0.574250 0.839584 0.354719
0.706456 0.839036 0.347757
0.816620 0.840025 0.338051
0.915012 0.843030 0.324992
0.452188 0.924968 0.532112
0.467318 0.924723 0.531293
0.502474 0.924512 0.529705
0.556096 0.924652 0.527164
0.617660 0.922257 0.516294
0.714180 0.922730 0.517162
0.807105 0.923936 0.517799
0.897833 0.924745 0.514964
0.050794 0.053606 0.116137
0.073240 0.059199 0.112607
0.156346 0.067390 0.109220
0.279281 0.060817 0.106737
0.438709 0.050794 0.095973
0.598499 0.050794 0.071535
0.747946 0.050794 0.051365
0.876419 0.050794 0.050794
0.050794 0.119056 0.136677
0.070183 0.122621 0.134110
0.178360 0.123395 0.127398
0.310101 0.111665 0.117193
0.463375 0.062893 0.099729
0.615830 0.050794 0.071138
0.758201 0.050794 0.051063
0.879330 0.054476 0.050794
0.050794 0.244043 0.169759
0.051023 0.246253 0.159320
0.210783 0.247819 0.150540
0.377655 0.237381 0.130049
0.523586 0.217852 0.099077
0.661280 0.199218 0.060704
0.786456 0.205012 0.050794
0.892960 0.252753 0.050794
0.050794 0.430656 0.183650
0.050794 0.431272 0.175270
0.097404 0.433218 0.165079
0.406843 0.436878 0.146003
0.589538 0.426444 0.097176
0.711071 0.410474 0.051961
0.814154 0.411251 0.050794
0.903348 0.432284 0.050794
0.050794 0.614936 0.211145
0.050794 0.614652 0.207413
0.050859 0.612938 0.197121
0.364136 0.613224 0.181242
0.593771 0.612378 0.151861
0.738098 0.605915 0.086508
0.827577 0.595099 0.051029
0.908915 0.597359 0.050794
0.050794 0.743783 0.285344
0.050794 0.743361 0.282846
0.072818 0.741639 0.276044
0.356020 0.740680 0.267048
0.570930 0.739452 0.255899
0.723819 0.740195 0.239484
0.836428 0.740676 0.203067
0.911465 0.734521 0.090456
0.114663 0.840586 0.398881
0.191920 0.840191 0.397289
0.317890 0.839271 0.393504
0.438574 0.838174 0.387475
0.573060 0.836946 0.381067
0.705037 0.836904 0.376243
0.814698 0.837963 0.367629
0.912428 0.840865 0.355810
0.457145 0.922802 0.544116
0.472271 0.922918 0.543696
0.506307 0.922695 0.541845
0.558890 0.922787 0.539647
0.622857 0.922855 0.535172
0.715203 0.922681 0.533879
0.806851 0.923386 0.532869
0.897047 0.924376 0.530170
0.050794 0.057576 0.208642
0.058237 0.062491 0.207460
0.163149 0.066045 0.205182
0.321571 0.050794 0.205414
0.463721 0.050794 0.183647
0.599950 0.050794 0.170028
0.749189 0.050794 0.152107
0.876600 0.050794 0.101230
0.050794 0.112965 0.229052
0.062493 0.121713 0.227862
0.189113 0.123669 0.223847
0.338614 0.100658 0.216023
0.473491 0.058443 0.195153
0.617145 0.050799 0.181193
0.759363 0.050794 0.154582
0.880109 0.050907 0.097785
0.050794 0.236748 0.260949
0.054640 0.239692 0.259327
0.228415 0.246399 0.254977
0.378520 0.239099 0.239177
0.523198 0.223681 0.218727
0.661074 0.205728 0.193888
0.785423 0.202973 0.156928
0.891870 0.236410 0.087482
0.050794 0.429397 0.297607
0.050794 0.430594 0.296839
0.193139 0.434100 0.283149
0.424298 0.436587 0.271825
0.591256 0.424342 0.244537
0.710499 0.409500 0.204762
0.812434 0.409045 0.154185
0.902472 0.425915 0.069172
0.050794 0.610750 0.345754
0.050794 0.611562 0.336253
0.099964 0.612516 0.312684
0.387635 0.612823 0.303882
0.602810 0.612756 0.292318
0.737187 0.604890 0.261531
0.826165 0.593632 0.196987
0.907834 0.593644 0.083139
0.058214 0.740286 0.389856
0.057677 0.741059 0.376920
0.192122 0.740522 0.369167
0.395384 0.739389 0.362138
0.577603 0.738383 0.354841
0.725752 0.739966 0.346821
0.834045 0.739730 0.324394
0.909247 0.733218 0.255953
0.252752 0.839617 0.465532
0.293875 0.839361 0.463244
0.373634 0.838360 0.459756
0.470026 0.837207 0.454029
0.579910 0.836206 0.447000
0.706685 0.836309 0.443659
0.814392 0.838029 0.438413
0.910895 0.841297 0.429916
0.480738 0.922045 0.580221
0.493503 0.921862 0.579455
0.524355 0.921701 0.577712
0.572856 0.922049 0.575859
0.631529 0.922243 0.571581
0.716511 0.922582 0.570050
0.807277 0.923424 0.569670
0.897234 0.924613 0.567778
0.050794 0.060073 0.336216
0.050794 0.061955 0.336555
0.166655 0.057341 0.335721
0.329453 0.050794 0.333612
0.524155 0.050794 0.334837
0.665973 0.050794 0.306913
0.772756 0.050794 0.268619
0.870946 0.050794 0.242241
0.050794 0.116685 0.353479
0.052290 0.117709 0.353121
0.196074 0.116423 0.351138
0.355027 0.091312 0.347645
0.538922 0.051451 0.344475
0.669283 0.050794 0.312703
0.771715 0.050794 0.275913
0.873174 0.050794 0.249328
0.050794 0.207707 0.378529
0.054615 0.214926 0.378810
0.243967 0.236192 0.378133
0.400646 0.243442 0.374731
0.562141 0.233161 0.363962
0.672918 0.210587 0.328553
0.779180 0.206442 0.299581
0.884876 0.218415 0.262210
0.050794 0.411579 0.415208
0.051296 0.414691 0.414522
0.259656 0.421350 0.413152
0.444003 0.432661 0.409552
0.584586 0.422763 0.387295
0.698902 0.410911 0.358304
0.802910 0.405836 0.322940
0.896094 0.412243 0.276073
0.050794 0.607890 0.452048
0.065802 0.608074 0.451696
0.299545 0.608977 0.452046
0.445562 0.610903 0.439896
0.612659 0.611495 0.430611
0.732394 0.600527 0.402765
0.821175 0.587735 0.356973
0.902862 0.584621 0.305022
0.214303 0.736400 0.502287
0.288336 0.736896 0.503530
0.385131 0.736654 0.499973
0.460781 0.737538 0.478200
0.588010 0.736670 0.470380
0.727243 0.738725 0.466380
0.828366 0.736821 0.445068
0.904754 0.728893 0.388701
0.426739 0.834757 0.571485
0.445003 0.834666 0.569433
0.459783 0.835526 0.553235
0.513364 0.835884 0.539805
0.596890 0.835040 0.532786
0.708819 0.835460 0.529638
0.813401 0.837534 0.526309
0.906378 0.839813 0.515069
0.538988 0.919398 0.645170
0.539078 0.919918 0.639199
0.549435 0.920697 0.629196
0.590604 0.920988 0.625964
0.644571 0.921294 0.622004
0.716204 0.921913 0.618678
0.806785 0.923159 0.618944
0.897264 0.924675 0.618023
0.050794 0.053078 0.475710
0.050794 0.051464 0.476561
0.172607 0.050794 0.476324
0.346117 0.050794 0.475798
0.521706 0.050794 0.473410
0.703643 0.050794 0.476847
0.833690 0.050794 0.463022
0.912613 0.050794 0.415377
0.050794 0.107371 0.486060
0.050988 0.105270 0.486276
0.207686 0.095518 0.485745
0.368933 0.068044 0.484524
0.538355 0.051266 0.482122
0.711531 0.050794 0.484209
0.831911 0.050794 0.465270
0.909384 0.050794 0.415900
0.050794 0.207886 0.505030
0.098870 0.217894 0.505290
0.265929 0.224375 0.505118
0.415131 0.231240 0.504826
0.571471 0.233538 0.502811
0.725116 0.231947 0.501528
0.825755 0.225517 0.470750
0.901425 0.186820 0.417210
0.050794 0.363747 0.528519
0.057598 0.366181 0.528139
0.275413 0.378511 0.529149
0.459764 0.414346 0.531884
0.604227 0.434174 0.531283
0.727096 0.438134 0.519398
0.808885 0.413693 0.474874
0.887125 0.392832 0.425296
0.050794 0.580734 0.558933
0.120232 0.582862 0.559319
0.320634 0.587688 0.559973
0.480922 0.595211 0.560475
0.621090 0.606448 0.558931
0.719857 0.594345 0.533571
0.806130 0.576117 0.495177
0.891973 0.563358 0.448386
0.263215 0.732653 0.591826
0.319830 0.733114 0.592558
0.415033 0.732749 0.592475
0.524366 0.732756 0.593019
0.616110 0.733709 0.583809
0.728604 0.736527 0.578615
0.819790 0.729505 0.552898
0.897902 0.716982 0.502159
0.431848 0.833254 0.638144
0.453807 0.833020 0.637967
0.502369 0.832526 0.637515
0.572617 0.832450 0.637419
0.624378 0.833649 0.620574
0.709158 0.833916 0.614390
0.812596 0.836570 0.613087
0.901422 0.836439 0.597248
0.544723 0.918133 0.696455
0.559383 0.917888 0.697284
0.593576 0.917302 0.699534
0.624165 0.918541 0.692434
0.657993 0.919965 0.679135
0.716833 0.920581 0.674170
0.804567 0.922135 0.673972
0.896848 0.923790 0.673911
0.050794 0.050794 0.610698
0.051871 0.050794 0.611186
0.223987 0.050794 0.611028
0.388009 0.050794 0.611115
0.547188 0.050794 0.611556
0.702954 0.050794 0.610052
0.837237 0.050794 0.610997
0.943600 0.050794 0.608979
0.050794 0.077459 0.614496
0.073766 0.070502 0.614528
0.253388 0.056865 0.614527
0.406069 0.051225 0.614741
0.559186 0.050794 0.615056
0.708345 0.050794 0.613401
0.837598 0.050794 0.613592
0.940155 0.057608 0.609235
0.090718 0.204854 0.626296
0.185572 0.205304 0.626491
0.309182 0.205843 0.626691
0.445576 0.207144 0.626695
0.586100 0.216621 0.626388
0.720801 0.226290 0.624777
0.839013 0.252865 0.623711
0.932160 0.289312 0.613126
0.054560 0.327866 0.638739
0.146759 0.338929 0.639279
0.338945 0.370684 0.640433
0.483494 0.393401 0.642129
0.612311 0.414833 0.642855
0.729579 0.437758 0.642007
0.834608 0.460001 0.639456
0.915434 0.455721 0.613456
0.060832 0.531287 0.653391
0.183214 0.533367 0.654090
0.329710 0.536440 0.654129
0.475618 0.547105 0.654826
0.621557 0.582102 0.656948
0.727915 0.604744 0.658094
0.819048 0.609194 0.648465
0.890331 0.574412 0.601389
0.282727 0.706983 0.676779
0.330244 0.707996 0.677280
0.416763 0.709951 0.677463
0.521578 0.714134 0.678291
0.629054 0.721102 0.679503
0.730912 0.732904 0.680950
0.806203 0.719885 0.655357
0.882099 0.699090 0.614602
0.443049 0.829926 0.711219
0.464138 0.830029 0.711246
0.510524 0.830167 0.710745
0.577358 0.830719 0.710870
0.653798 0.831207 0.710549
0.723770 0.832750 0.703871
0.813089 0.835602 0.700334
0.895206 0.829286 0.676562
0.544661 0.916902 0.751505
0.555868 0.916883 0.751337
0.582804 0.916902 0.750856
0.626433 0.917231 0.750543
0.685810 0.917546 0.751246
0.730797 0.919327 0.739333
0.801774 0.920678 0.735520
0.897619 0.922815 0.736442
0.130671 0.050794 0.731742
0.211203 0.050794 0.732168
0.326377 0.050794 0.731931
0.458377 0.050794 0.731934
0.594984 0.050794 0.731663
0.721447 0.050794 0.731073
0.836511 0.050794 0.728465
0.932500 0.050794 0.723344
0.172534 0.050993 0.731385
0.237164 0.050813 0.731637
0.341694 0.050794 0.731616
0.467705 0.050794 0.731440
0.600176 0.050794 0.731076
0.722524 0.050794 0.730425
0.834822 0.050794 0.727596
0.929055 0.056618 0.722380
0.241844 0.178039 0.736984
0.288538 0.176296 0.736932
0.378302 0.172151 0.736571
0.494005 0.166856 0.736427
0.616543 0.171305 0.735787
0.729868 0.209081 0.735300
0.835627 0.239740 0.733666
0.926075 0.290051 0.729211
0.257193 0.337000 0.742684
0.315290 0.345324 0.742485
0.407473 0.354627 0.742549
0.516853 0.364642 0.743048
0.629937 0.382902 0.743135
0.733662 0.415856 0.743214
0.830381 0.443872 0.742068
0.916221 0.473246 0.737617
0.128776 0.472604 0.746492
0.217996 0.475015 0.746763
0.344428 0.484773 0.747045
0.500634 0.520383 0.747612
0.627365 0.550593 0.747974
0.727312 0.576851 0.748732
0.817518 0.600756 0.748825
0.902657 0.619227 0.747030
0.268142 0.667792 0.757387
0.311667 0.668080 0.757435
0.393734 0.668100 0.757009
0.496856 0.668879 0.756605
0.606791 0.674677 0.755979
0.723575 0.707160 0.759340
0.810729 0.729298 0.762752
0.891257 0.732915 0.756343
0.429973 0.806313 0.777588
0.450832 0.806826 0.777788
0.496999 0.807778 0.777780
0.564260 0.810002 0.778197
0.642944 0.813972 0.778795
0.727355 0.820817 0.780397
0.814016 0.831901 0.783161
0.882263 0.815969 0.756358
0.544322 0.913454 0.810745
0.555903 0.913662 0.810668
0.584429 0.914374 0.810701
0.629053 0.915404 0.810332
0.684199 0.916540 0.809963
0.748426 0.917722 0.809619
0.812705 0.919548 0.804811
0.901438 0.922236 0.803614
0.346237 0.050794 0.837717
0.379779 0.050794 0.837812
0.449204 0.050794 0.837126
0.546908 0.050794 0.836797
0.653745 0.050794 0.836089
0.755789 0.050794 0.834889
0.847915 0.050794 0.833547
0.937622 0.050794 0.830328
0.356757 0.050794 0.837186
0.388779 0.050794 0.837207
0.456516 0.050794 0.836713
0.551521 0.050794 0.836195
0.655632 0.050794 0.835299
0.755725 0.050794 0.834070
0.846046 0.050794 0.832629
0.934774 0.051104 0.829277
0.378481 0.121117 0.838395
0.408000 0.118030 0.838238
0.471845 0.109783 0.837756
0.562670 0.101694 0.837603
0.661255 0.108009 0.836368
0.756574 0.147947 0.834922
0.843530 0.229780 0.833778
0.929656 0.265461 0.830845
0.386969 0.317669 0.839580
0.415903 0.318815 0.839532
0.478742 0.321410 0.839234
0.566341 0.329144 0.838944
0.661419 0.345121 0.838314
0.752800 0.374474 0.837092
0.835468 0.420454 0.835665
0.919000 0.445198 0.833040
0.264198 0.440354 0.841556
0.324065 0.449353 0.841632
0.433543 0.472336 0.840529
0.546602 0.496175 0.839607
0.645295 0.512054 0.838670
0.738097 0.536358 0.837565
0.821327 0.571418 0.836628
0.903897 0.593680 0.835085
0.237847 0.614975 0.842436
0.281415 0.613010 0.842322
0.363480 0.609538 0.841604
0.472375 0.610903 0.841114
0.608007 0.641063 0.840091
0.721778 0.673146 0.839882
0.809754 0.699986 0.841053
0.892904 0.720580 0.841467
0.398926 0.782069 0.851978
0.418880 0.781769 0.851757
0.464162 0.780877 0.851248
0.530851 0.779635 0.850609
0.610212 0.777714 0.849407
0.697998 0.778014 0.847938
0.804029 0.806225 0.849597
0.891851 0.826461 0.852696
0.533910 0.895845 0.867207
0.544643 0.896068 0.867183
0.570598 0.896619 0.867110
0.613347 0.897966 0.867183
0.669295 0.900261 0.867226
0.736174 0.903879 0.867428
0.814832 0.909443 0.868208
0.907198 0.919764 0.871725
