gsg/02_Everyday/GSG_LUT_Everyday_WarmEmbrace.cube
# GSG LUTs 1.0
# Copyright (c) 2016-2020 Greyscalegorilla
# See EULA for licensing and distribution information
# Converted by Briz LUT Converter
LUT_3D_SIZE 5
DOMAIN_MIN 0.000000 0.000000 0.000000
DOMAIN_MAX 0.903226 0.903226 0.903226
0.019780 0.025885 0.000000
0.076710 0.034062 0.000000
0.258640 0.046020 0.000000
0.530639 0.064122 0.005026
0.823632 0.112088 0.051550
0.115861 0.223727 0.052826
0.184732 0.210484 0.051082
0.355306 0.227739 0.015492
0.604973 0.261743 0.037906
0.904305 0.315302 0.087967
0.190059 0.475159 0.070574
0.272282 0.452147 0.047698
0.446721 0.460472 0.055804
0.692540 0.493186 0.087699
0.962791 0.537527 0.140639
0.283241 0.718957 0.124377
0.361330 0.693552 0.101221
0.523936 0.697932 0.116905
0.730147 0.720115 0.160802
0.954532 0.752475 0.214014
0.367435 0.955831 0.184804
0.449759 0.932748 0.188118
0.586110 0.929458 0.210761
0.769192 0.944771 0.251369
0.969331 0.970074 0.301335
0.034330 0.038182 0.077829
0.096450 0.044343 0.080723
0.283295 0.043758 0.114045
0.541520 0.067389 0.148235
0.835900 0.116027 0.199730
0.111844 0.233648 0.157401
0.191535 0.217702 0.141820
0.370291 0.230899 0.153684
0.617496 0.267842 0.191125
0.918287 0.322676 0.244519
0.200181 0.477112 0.217148
0.283083 0.455512 0.199393
0.457695 0.464901 0.210637
0.701835 0.497967 0.244872
0.954850 0.539642 0.299044
0.292985 0.720666 0.277465
0.370848 0.696349 0.257531
0.528657 0.700773 0.278302
0.730379 0.723022 0.320336
0.950283 0.755248 0.371815
0.375769 0.957541 0.346995
0.462632 0.936931 0.351069
0.594119 0.933155 0.371304
0.773336 0.948533 0.410248
0.969352 0.973845 0.458266
0.044043 0.043223 0.261578
0.124167 0.039394 0.234044
0.303502 0.046616 0.265729
0.553909 0.072134 0.301733
0.848055 0.119745 0.347909
0.116289 0.240632 0.313779
0.202611 0.222438 0.292220
0.381576 0.236014 0.302436
0.628820 0.272947 0.336126
0.930619 0.328645 0.388356
0.210341 0.479310 0.364455
0.292607 0.457946 0.343029
0.466570 0.467564 0.352532
0.701717 0.499445 0.388641
0.944851 0.539803 0.441344
0.300721 0.720812 0.418000
0.378243 0.697513 0.401543
0.531549 0.701916 0.423516
0.728930 0.723968 0.463473
0.944448 0.756060 0.512848
0.382039 0.957296 0.492783
0.473833 0.939296 0.497478
0.600082 0.934811 0.515222
0.775749 0.950357 0.552779
0.967889 0.975688 0.599687
0.058474 0.051463 0.467431
0.145388 0.035480 0.440468
0.325724 0.047816 0.444775
0.568514 0.079026 0.469958
0.862681 0.125944 0.512238
0.131529 0.248533 0.486339
0.217365 0.230310 0.460940
0.395390 0.243770 0.467468
0.642664 0.280813 0.497887
0.942688 0.336961 0.547334
0.222974 0.484359 0.528118
0.304635 0.463074 0.503409
0.477571 0.472654 0.509664
0.701238 0.502822 0.545264
0.937640 0.542411 0.594308
0.310652 0.723406 0.574020
0.388696 0.701534 0.561054
0.536946 0.705382 0.579330
0.729965 0.727143 0.615115
0.940716 0.758833 0.660311
0.390240 0.959187 0.649077
0.487308 0.943780 0.652466
0.608101 0.938477 0.665583
0.779599 0.953542 0.698507
0.967343 0.978468 0.740753
0.077664 0.064303 0.655347
0.162960 0.045957 0.623041
0.341481 0.056528 0.622327
0.583662 0.086644 0.643208
0.877829 0.132774 0.681587
0.148088 0.257710 0.664406
0.232948 0.239241 0.635071
0.409998 0.252532 0.637749
0.657159 0.289694 0.664810
0.949772 0.344713 0.711381
0.236339 0.490265 0.696872
0.317104 0.469094 0.668752
0.486754 0.478446 0.673428
0.701218 0.507724 0.708451
0.932736 0.547137 0.754429
0.321265 0.727126 0.736358
0.401091 0.707414 0.727270
0.544543 0.710800 0.742424
0.733427 0.732468 0.775202
0.939682 0.763954 0.817328
0.400016 0.962866 0.812320
0.503024 0.950485 0.815845
0.618532 0.944367 0.825317
0.786396 0.959391 0.855227
0.970061 0.984140 0.894387
