gsg/02_Everyday/GSG_LUT_Everyday_SkinToneHelper.cube
# GSG LUTs 1.0
# Copyright (c) 2016-2020 Greyscalegorilla
# See EULA for licensing and distribution information
# Converted by Briz LUT Converter
LUT_3D_SIZE 8
DOMAIN_MIN 0.000000 0.000000 0.000000
DOMAIN_MAX 0.903226 0.903226 0.903226
0.000000 0.000000 0.000000
0.106613 0.000000 0.000000
0.269755 0.000000 0.000000
0.437890 0.000000 0.000000
0.581795 0.000000 0.000000
0.692906 0.000000 0.000000
0.797385 0.000000 0.000000
0.908638 0.000000 0.000000
0.000000 0.106613 0.000000
0.106997 0.107272 0.000000
0.308315 0.137063 0.000000
0.512849 0.151437 0.000000
0.652793 0.148430 0.000000
0.760897 0.140697 0.000000
0.867687 0.134213 0.000000
0.981977 0.129435 0.000000
0.000000 0.269755 0.000000
0.106613 0.269755 0.000000
0.270129 0.270690 0.000000
0.462858 0.307458 0.000000
0.633205 0.342549 0.000000
0.768698 0.363116 0.000000
0.906210 0.373684 0.000000
1.000000 0.373379 0.000000
0.000000 0.437890 0.000000
0.106613 0.437890 0.000000
0.269755 0.437890 0.000000
0.438122 0.438644 0.000000
0.596009 0.468847 0.000000
0.731870 0.507029 0.000000
0.870256 0.534480 0.000000
0.999063 0.552355 0.000000
0.000000 0.581795 0.000000
0.106613 0.581795 0.000000
0.269755 0.581795 0.000000
0.437890 0.581795 0.000000
0.581978 0.582283 0.000000
0.702625 0.602781 0.000000
0.831496 0.632471 0.000000
0.980362 0.657670 0.000000
0.000000 0.692906 0.000000
0.106613 0.692906 0.000000
0.269755 0.692906 0.000000
0.437890 0.692906 0.000000
0.581795 0.692906 0.000000
0.693018 0.693186 0.000000
0.805542 0.709146 0.000000
0.940666 0.736138 0.000000
0.000000 0.797385 0.000000
0.106613 0.797385 0.000000
0.269755 0.797385 0.000000
0.437890 0.797385 0.000000
0.581795 0.797385 0.000000
0.692906 0.797385 0.000000
0.797470 0.797598 0.000000
0.915863 0.812391 0.000000
0.000000 0.908638 0.000000
0.106613 0.908638 0.000000
0.269755 0.908638 0.000000
0.437890 0.908638 0.000000
0.581795 0.908638 0.000000
0.692906 0.908638 0.000000
0.797385 0.908638 0.000000
0.908659 0.908744 0.000000
0.007302 0.007302 0.027563
0.105900 0.000357 0.105433
0.269755 0.000000 0.106613
0.437890 0.000000 0.106613
0.581795 0.000000 0.106613
0.692906 0.000000 0.106613
0.797385 0.000000 0.106613
0.908638 0.000000 0.106613
0.018728 0.094237 0.093221
0.107010 0.106850 0.104173
0.272767 0.107737 0.104331
0.440330 0.107130 0.105294
0.583247 0.106928 0.105723
0.693932 0.106833 0.105945
0.798269 0.106778 0.106085
0.909461 0.106750 0.106171
0.008688 0.259892 0.109710
0.106791 0.269624 0.106716
0.270486 0.271181 0.104477
0.472612 0.305740 0.054207
0.637417 0.321135 0.031064
0.756921 0.318347 0.030918
0.868492 0.310152 0.038461
0.984418 0.302881 0.046328
0.005337 0.431558 0.110934
0.106695 0.437836 0.106668
0.269755 0.437890 0.106613
0.438303 0.438948 0.104931
0.600771 0.471972 0.054184
0.739051 0.503451 0.011310
0.877269 0.521148 0.001189
0.999475 0.530002 0.000214
0.003836 0.578149 0.110512
0.106668 0.581782 0.106641
0.269755 0.581795 0.106613
0.437890 0.581795 0.106613
0.582039 0.582413 0.105293
0.705334 0.605325 0.059330
0.837892 0.633502 0.009557
0.989336 0.654220 0.000017
0.002918 0.690590 0.110019
0.106641 0.692897 0.106641
0.269755 0.692906 0.106613
0.437890 0.692906 0.106613
0.581795 0.692906 0.106613
0.693074 0.693298 0.105690
0.807413 0.711154 0.064441
0.946243 0.738225 0.012030
0.002362 0.795542 0.109520
0.106641 0.797385 0.106613
0.269755 0.797385 0.106613
0.437890 0.797385 0.106613
0.581795 0.797385 0.106613
0.692906 0.797385 0.106613
0.797470 0.797641 0.106042
0.917461 0.814010 0.068931
0.001867 0.906823 0.109244
0.106641 0.908638 0.106613
0.269755 0.908638 0.106613
0.437890 0.908638 0.106613
0.581795 0.908638 0.106613
0.692906 0.908638 0.106613
0.797385 0.908638 0.106613
0.908680 0.908766 0.106370
0.014912 0.014912 0.059837
0.081496 0.018568 0.165074
0.268679 0.000374 0.268445
0.437890 0.000000 0.269755
0.581795 0.000000 0.269755
0.692906 0.000000 0.269755
0.797385 0.000000 0.269755
0.908638 0.000000 0.269755
0.045627 0.091574 0.147341
0.118924 0.118800 0.155195
0.268147 0.107672 0.267397
0.437890 0.106613 0.269755
0.581795 0.106613 0.269755
0.692906 0.106613 0.269755
0.797385 0.106613 0.269755
0.908638 0.106613 0.269755
0.039773 0.237368 0.236340
0.138654 0.253828 0.251856
0.270768 0.270117 0.265468
0.442556 0.271854 0.264649
0.584922 0.270711 0.266838
0.695044 0.270332 0.267788
0.799172 0.270175 0.268284
0.910274 0.270082 0.268581
0.024615 0.414637 0.269146
0.121473 0.428614 0.273422
0.270092 0.437675 0.269970
0.438761 0.439515 0.266333
0.607972 0.470287 0.196714
0.742543 0.483804 0.160034
0.864243 0.481607 0.158919
0.985451 0.474448 0.170803
0.017511 0.567634 0.277667
0.115946 0.576905 0.274990
0.269918 0.581726 0.269871
0.437890 0.581795 0.269755
0.582161 0.582681 0.267435
0.709564 0.607639 0.196034
0.845568 0.630893 0.126017
0.994584 0.644189 0.086348
0.013438 0.683225 0.279965
0.113304 0.689810 0.274588
0.269848 0.692890 0.269801
0.437890 0.692906 0.269755
0.581795 0.692906 0.269755
0.693089 0.693368 0.268216
0.810221 0.713415 0.203930
0.953258 0.739226 0.122377
0.010893 0.789241 0.280312
0.111755 0.794992 0.273956
0.269801 0.797385 0.269801
0.437890 0.797385 0.269755
0.581795 0.797385 0.269755
0.692906 0.797385 0.269755
0.797513 0.797695 0.268836
0.919430 0.816067 0.211795
0.009043 0.900807 0.279918
0.110701 0.906503 0.273368
0.269801 0.908638 0.269755
0.437890 0.908638 0.269755
0.581795 0.908638 0.269755
0.692906 0.908638 0.269755
0.797385 0.908638 0.269755
0.908680 0.908787 0.269365
0.022978 0.022978 0.098476
0.078445 0.034563 0.195591
0.230172 0.017449 0.363594
0.436963 0.000348 0.436848
0.581795 0.000000 0.437890
0.692906 0.000000 0.437890
0.797385 0.000000 0.437890
0.908638 0.000000 0.437890
0.061225 0.099987 0.196101
0.131939 0.131994 0.206195
0.236832 0.138160 0.336361
0.436601 0.107447 0.436362
0.581795 0.106613 0.437890
0.692906 0.106613 0.437890
0.797385 0.106613 0.437890
0.908638 0.106613 0.437890
0.078188 0.226409 0.309680
0.182647 0.250443 0.317529
0.284897 0.284671 0.327493
0.435992 0.271379 0.435134
0.581795 0.269755 0.437890
0.692906 0.269755 0.437890
0.797385 0.269755 0.437890
0.908638 0.269755 0.437890
0.063529 0.392372 0.391561
0.173591 0.407770 0.406538
0.307756 0.423103 0.420926
0.439173 0.438051 0.433719
0.586227 0.440143 0.432052
0.696270 0.438937 0.434523
0.800076 0.438541 0.435592
0.911019 0.438302 0.436147
0.044158 0.551996 0.428573
0.148482 0.563837 0.437162
0.288086 0.574693 0.441062
0.438236 0.581623 0.438092
0.582537 0.583184 0.434456
0.715971 0.606311 0.368582
0.849010 0.616168 0.330995
0.982415 0.614731 0.328615
0.033562 0.672110 0.442705
0.136608 0.681006 0.444890
0.281339 0.688777 0.442530
0.438027 0.692828 0.438006
0.581795 0.692906 0.437890
0.693208 0.693599 0.435869
0.814567 0.715423 0.367816
0.961738 0.736802 0.292822
0.026946 0.779419 0.448653
0.129705 0.787582 0.447062
0.278093 0.794321 0.442201
0.437948 0.797385 0.437948
0.581795 0.797385 0.437890
0.692906 0.797385 0.437890
0.797555 0.797785 0.436764
0.922511 0.818536 0.375742
0.022459 0.891481 0.451180
0.125254 0.899473 0.447373
0.276066 0.905968 0.441522
0.437890 0.908638 0.437890
0.581795 0.908638 0.437890
0.692906 0.908638 0.437890
0.797385 0.908638 0.437890
0.908702 0.908808 0.437442
0.031289 0.031289 0.144023
0.084540 0.047730 0.231839
0.202353 0.039539 0.401445
0.402733 0.015279 0.535847
0.581185 0.000305 0.581185
0.692906 0.000000 0.581795
0.797385 0.000000 0.581795
0.908638 0.000000 0.581795
0.074278 0.110937 0.247162
0.145496 0.145537 0.260184
0.232677 0.164905 0.367856
0.400899 0.136479 0.521753
0.580995 0.107239 0.580995
0.692906 0.106613 0.581795
0.797385 0.106613 0.581795
0.908638 0.106613 0.581795
0.105688 0.230617 0.364490
0.206996 0.261528 0.368127
0.300273 0.300320 0.378591
0.407481 0.307151 0.497838
0.580727 0.270868 0.580605
0.692906 0.269755 0.581795
0.797385 0.269755 0.581795
0.908638 0.269755 0.581795
0.111481 0.378299 0.463853
0.231898 0.397569 0.474001
0.354732 0.420064 0.481106
0.451574 0.451346 0.490780
0.580200 0.439425 0.579594
0.692906 0.437890 0.581795
0.797385 0.437890 0.581795
0.908638 0.437890 0.581795
0.090342 0.532971 0.532666
0.210587 0.545864 0.545368
0.345426 0.558268 0.557428
0.472345 0.570528 0.568740
0.582970 0.581774 0.579029
0.696989 0.583572 0.576962
0.801010 0.582629 0.579043
0.911699 0.582344 0.579948
0.066880 0.658414 0.566158
0.180604 0.668313 0.574728
0.318847 0.677895 0.581345
0.454482 0.686892 0.584248
0.582082 0.692763 0.581978
0.693523 0.693970 0.579334
0.821224 0.714364 0.525886
0.965563 0.723416 0.492833
0.052776 0.767309 0.581376
0.163428 0.776510 0.585606
0.305651 0.785428 0.587231
0.448362 0.793257 0.585405
0.581917 0.797324 0.581917
0.692906 0.797385 0.581795
0.797620 0.797919 0.580600
0.927436 0.820823 0.525327
0.043503 0.879404 0.588833
0.152477 0.888963 0.590105
0.297778 0.897860 0.588905
0.445359 0.905192 0.585144
0.581856 0.908583 0.581856
0.692906 0.908638 0.581795
0.797385 0.908638 0.581795
0.908713 0.908862 0.581368
0.040002 0.040002 0.195163
0.093934 0.059657 0.273576
0.193479 0.059295 0.430492
0.364325 0.038930 0.576566
0.556650 0.013197 0.662294
0.692515 0.000224 0.692515
0.797385 0.000000 0.692906
0.908638 0.000000 0.692906
0.086834 0.123074 0.299231
0.159482 0.159537 0.314382
0.241023 0.186093 0.402882
0.374343 0.173041 0.553243
0.554105 0.132562 0.655347
0.692403 0.107068 0.692403
0.797385 0.106613 0.692906
0.908638 0.106613 0.692906
0.127996 0.240473 0.414006
0.226372 0.275315 0.416993
0.315562 0.315609 0.429297
0.403594 0.336289 0.525485
0.552731 0.305209 0.644470
0.692277 0.270481 0.692277
0.797385 0.269755 0.692906
0.908638 0.269755 0.692906
0.150394 0.377293 0.517299
0.268646 0.401443 0.522781
0.378764 0.430219 0.525897
0.465491 0.465586 0.535072
0.558237 0.471691 0.626740
0.692080 0.438772 0.691969
0.797385 0.437890 0.692906
0.908638 0.437890 0.692906
0.147037 0.519149 0.592577
0.275938 0.534424 0.601513
0.402620 0.550155 0.609136
0.514276 0.568163 0.614321
0.592333 0.592168 0.621579
0.691675 0.582915 0.691083
0.797385 0.581795 0.692906
0.908638 0.581795 0.692906
0.120604 0.643004 0.642780
0.248712 0.653204 0.652869
0.382305 0.663331 0.662855
0.506136 0.673381 0.672555
0.607894 0.683418 0.681932
0.693878 0.692760 0.691173
0.801291 0.694324 0.689327
0.912232 0.693588 0.690867
0.093021 0.753342 0.671763
0.215688 0.763090 0.679850
0.352615 0.772689 0.686941
0.482293 0.782325 0.692502
0.594509 0.791404 0.695081
0.693087 0.797260 0.693074
0.797894 0.798236 0.691302
0.934798 0.819695 0.647569
0.075213 0.865650 0.687331
0.194251 0.875734 0.692535
0.334885 0.885771 0.696217
0.470365 0.895425 0.697614
0.589952 0.904017 0.696041
0.692968 0.908582 0.693018
0.797385 0.908638 0.692906
0.908758 0.908943 0.692402
0.049076 0.049076 0.249281
0.104864 0.071567 0.318733
0.194889 0.077352 0.459898
0.341039 0.063053 0.601428
0.520551 0.036824 0.703359
0.674201 0.011568 0.771593
0.797171 0.000128 0.797129
0.908638 0.000000 0.797385
0.099351 0.135949 0.351057
0.173885 0.173913 0.367519
0.253663 0.204831 0.441686
0.365655 0.204302 0.576117
0.522318 0.172353 0.688445
0.672186 0.129301 0.766936
0.797123 0.106912 0.797086
0.908638 0.106613 0.797385
0.147706 0.252889 0.461119
0.243895 0.289980 0.464753
0.330821 0.330868 0.478574
0.411371 0.358044 0.554679
0.530954 0.344863 0.669162
0.670048 0.300872 0.760161
0.797043 0.270182 0.797000
0.908638 0.269755 0.797385
0.182312 0.382831 0.560356
0.295736 0.410681 0.563357
0.397277 0.442921 0.565751
0.479443 0.479501 0.575528
0.555148 0.497967 0.647490
0.668951 0.469998 0.749763
0.796941 0.438377 0.796856
0.908638 0.437890 0.797385
0.195289 0.515091 0.635373
0.320994 0.533516 0.641164
0.436824 0.553366 0.645274
0.534823 0.576031 0.647584
0.602845 0.602892 0.654722
0.673189 0.607446 0.733041
0.796765 0.582330 0.796615
0.908638 0.581795 0.797385
0.184717 0.631254 0.693662
0.317467 0.642604 0.702123
0.443495 0.654231 0.710036
0.554385 0.666699 0.716922
0.638902 0.681414 0.721540
0.701995 0.701858 0.727863
0.796476 0.693672 0.795939
0.908638 0.692906 0.797385
0.153968 0.738504 0.738291
0.287042 0.748269 0.748013
0.418359 0.758078 0.757737
0.537647 0.767888 0.767461
0.632890 0.777759 0.777075
0.715768 0.787787 0.786582
0.798241 0.797184 0.796393
0.911904 0.798477 0.794786
0.122620 0.850442 0.767774
0.252243 0.860773 0.776213
0.387142 0.871243 0.784282
0.512247 0.881656 0.791423
0.615163 0.892063 0.797154
0.703804 0.902006 0.799724
0.797560 0.908510 0.797513
0.908922 0.909114 0.796560
0.058860 0.058860 0.303974
0.116906 0.083553 0.365092
0.201722 0.094422 0.491459
0.330055 0.086264 0.621970
0.491383 0.062988 0.729649
0.644807 0.034085 0.820200
0.780551 0.010251 0.884444
0.908531 0.000064 0.908510
0.112290 0.149369 0.401854
0.188561 0.188615 0.419110
0.267811 0.222370 0.482530
0.367027 0.230825 0.598684
0.502088 0.210085 0.710023
0.643875 0.168711 0.808171
0.778718 0.126340 0.880645
0.908510 0.106741 0.908488
0.166271 0.266517 0.506663
0.260731 0.304998 0.511318
0.345930 0.345930 0.525570
0.423056 0.376646 0.585006
0.523779 0.376153 0.688125
0.645071 0.344104 0.792957
0.776735 0.296890 0.875597
0.908488 0.269925 0.908461
0.209537 0.391700 0.597591
0.318147 0.422204 0.599507
0.413862 0.456311 0.602317
0.493022 0.493074 0.612657
0.561370 0.517119 0.670306
0.651642 0.505512 0.773674
0.774562 0.466090 0.868209
0.908459 0.438083 0.908416
0.234971 0.516862 0.671133
0.354439 0.538106 0.674935
0.461553 0.560765 0.677333
0.550127 0.585818 0.679318
0.613162 0.613168 0.687490
0.670595 0.626831 0.752576
0.773331 0.606115 0.857062
0.908392 0.581987 0.908349
0.239689 0.626231 0.734491
0.367450 0.639492 0.740970
0.484291 0.653569 0.746475
0.581187 0.669229 0.750333
0.654556 0.687914 0.752602
0.711183 0.711183 0.759249
0.777438 0.715488 0.839230
0.908304 0.693147 0.908204
0.223711 0.726818 0.789232
0.356995 0.737184 0.798236
0.481092 0.747837 0.806960
0.586287 0.759051 0.815053
0.670160 0.771101 0.822129
0.744460 0.785713 0.827102
0.806733 0.806678 0.833004
0.908135 0.797781 0.907818
0.190090 0.834601 0.834473
0.324875 0.844907 0.844758
0.453504 0.855273 0.855134
0.566725 0.865775 0.865588
0.656793 0.876339 0.876083
0.738572 0.887062 0.886693
0.820966 0.897937 0.897245
0.909140 0.908446 0.908262
