gsg/02_Everyday/GSG_LUT_Everyday_Shady_Porch.cube
# GSG LUTs 1.0
# Copyright (c) 2016-2020 Greyscalegorilla
# See EULA for licensing and distribution information
# Converted by Briz LUT Converter
LUT_3D_SIZE 32
0.050794 0.050794 0.050794
0.090551 0.048037 0.048273
0.128189 0.045862 0.045752
0.167151 0.045437 0.043255
0.207042 0.047296 0.041711
0.243137 0.043862 0.044767
0.274788 0.047186 0.044941
0.303336 0.054378 0.043625
0.331884 0.061247 0.043940
0.364236 0.064075 0.049100
0.393367 0.071984 0.052865
0.419638 0.088645 0.058364
0.443901 0.105754 0.065328
0.468565 0.111387 0.069952
0.494056 0.117657 0.073559
0.517492 0.131679 0.079365
0.540179 0.143905 0.088566
0.563323 0.152326 0.099153
0.585758 0.163890 0.109882
0.608791 0.170294 0.120572
0.631289 0.177415 0.128953
0.651896 0.189641 0.137666
0.671637 0.203773 0.147591
0.693292 0.216330 0.155682
0.713270 0.227043 0.164126
0.735381 0.234227 0.174721
0.758935 0.239915 0.186837
0.781141 0.246949 0.199189
0.801087 0.254260 0.207570
0.822120 0.264311 0.214242
0.845185 0.274883 0.219851
0.870818 0.282784 0.224664
0.045248 0.093718 0.045563
0.091084 0.092726 0.043343
0.130369 0.091103 0.042651
0.165940 0.091443 0.042179
0.198052 0.094133 0.041862
0.235455 0.091507 0.043229
0.269168 0.093186 0.044681
0.299682 0.098456 0.045520
0.327803 0.105390 0.046593
0.357073 0.111234 0.050472
0.386196 0.117023 0.054599
0.413253 0.125356 0.061723
0.438431 0.134560 0.069244
0.464158 0.140476 0.072600
0.489172 0.146218 0.077782
0.513037 0.153872 0.087219
0.535362 0.162861 0.097611
0.557081 0.172819 0.107045
0.579311 0.183001 0.117169
0.602178 0.189334 0.126097
0.625683 0.196878 0.135654
0.647089 0.208375 0.145520
0.667092 0.220873 0.154246
0.689321 0.230572 0.161479
0.711583 0.237193 0.170426
0.733516 0.244024 0.179813
0.755227 0.251937 0.189078
0.776485 0.260641 0.198318
0.798358 0.268311 0.206651
0.819857 0.276015 0.214289
0.842704 0.283313 0.222546
0.869282 0.289243 0.233062
0.047233 0.131025 0.042428
0.090414 0.131279 0.040270
0.127470 0.130631 0.041043
0.162195 0.131227 0.041572
0.194619 0.134186 0.040294
0.229743 0.131004 0.043777
0.263294 0.131483 0.046270
0.294626 0.134550 0.048703
0.323226 0.139528 0.051830
0.351216 0.145440 0.055339
0.381094 0.149439 0.058480
0.409341 0.154326 0.063422
0.434603 0.160750 0.068667
0.459313 0.167286 0.072798
0.484155 0.173262 0.080364
0.508103 0.178967 0.090718
0.530940 0.185329 0.102850
0.553471 0.193012 0.113681
0.576187 0.201317 0.121709
0.598545 0.209071 0.127336
0.621960 0.218010 0.136083
0.644233 0.227377 0.146720
0.664605 0.236504 0.155903
0.685503 0.246062 0.163240
0.708237 0.250890 0.174045
0.730253 0.257485 0.183591
0.751549 0.266451 0.190954
0.773010 0.275025 0.197527
0.795990 0.281082 0.209260
0.818268 0.286143 0.217784
0.841175 0.292127 0.225587
0.867013 0.300713 0.235992
0.043570 0.168545 0.041656
0.088166 0.169115 0.039846
0.123942 0.169196 0.040685
0.158556 0.169541 0.041723
0.193782 0.170627 0.041630
0.226190 0.167801 0.046592
0.257964 0.167695 0.049203
0.288821 0.169476 0.052343
0.318255 0.172718 0.056999
0.346113 0.176715 0.060693
0.376486 0.178897 0.063710
0.405491 0.182386 0.066895
0.431214 0.187620 0.070604
0.455433 0.192823 0.075859
0.479689 0.198806 0.083837
0.502973 0.205270 0.093786
0.526067 0.210872 0.106219
0.549774 0.215955 0.118225
0.572915 0.222296 0.126421
0.594849 0.230274 0.131275
0.617812 0.239860 0.137689
0.641027 0.247184 0.147354
0.662532 0.253287 0.157475
0.681908 0.263617 0.165365
0.704394 0.268116 0.176204
0.726538 0.274173 0.185666
0.748261 0.282491 0.192765
0.770922 0.289032 0.198701
0.793940 0.293965 0.211485
0.816138 0.298560 0.220861
0.839261 0.304541 0.228569
0.864745 0.313955 0.237764
0.028697 0.207617 0.043389
0.084625 0.206475 0.042686
0.122838 0.207177 0.041745
0.157035 0.206744 0.043188
0.192749 0.203651 0.048303
0.224556 0.203006 0.051525
0.253660 0.203105 0.052926
0.282994 0.205224 0.055509
0.313143 0.209068 0.060197
0.341622 0.210779 0.063845
0.371368 0.211614 0.069188
0.399956 0.214335 0.074128
0.426919 0.217370 0.079064
0.452991 0.218938 0.084911
0.476312 0.224250 0.090153
0.497785 0.231854 0.099595
0.520196 0.238676 0.110385
0.544036 0.243693 0.121047
0.567259 0.248598 0.133261
0.589311 0.254001 0.142380
0.611972 0.262208 0.146090
0.635991 0.268331 0.152868
0.659327 0.273277 0.163300
0.678584 0.283646 0.171516
0.700956 0.288519 0.179111
0.723440 0.293562 0.186831
0.745686 0.299530 0.194905
0.769366 0.302788 0.203315
0.791469 0.308859 0.211594
0.813023 0.316009 0.220864
0.836110 0.322429 0.231040
0.862444 0.326937 0.241955
0.028524 0.243279 0.046863
0.082254 0.240775 0.046575
0.119208 0.241328 0.045361
0.152174 0.241565 0.047355
0.186917 0.239071 0.053946
0.218855 0.238871 0.054613
0.248973 0.239183 0.058245
0.279447 0.240432 0.061693
0.310200 0.242452 0.062959
0.337950 0.245381 0.065779
0.366542 0.247574 0.071615
0.394326 0.249612 0.079012
0.420923 0.251333 0.087031
0.445866 0.253539 0.094310
0.468457 0.258310 0.101516
0.490816 0.262252 0.113683
0.514641 0.265720 0.123779
0.538542 0.270594 0.129759
0.561455 0.276131 0.138138
0.584680 0.281330 0.147437
0.607930 0.287513 0.153720
0.631354 0.292677 0.160996
0.654101 0.297495 0.170124
0.674275 0.305155 0.177383
0.696749 0.310823 0.186848
0.720013 0.314931 0.194651
0.742966 0.318949 0.201742
0.765158 0.323401 0.212141
0.788094 0.327873 0.220106
0.810580 0.333937 0.226597
0.833876 0.340402 0.234398
0.859766 0.345780 0.245721
0.023719 0.279105 0.051447
0.072198 0.276345 0.051045
0.114491 0.275734 0.050725
0.151221 0.274763 0.053864
0.183350 0.272194 0.061252
0.213872 0.273394 0.060419
0.243554 0.274006 0.065365
0.274465 0.274576 0.068740
0.305035 0.275999 0.068994
0.331248 0.278353 0.075180
0.360083 0.280901 0.082223
0.387847 0.282513 0.090524
0.413785 0.283715 0.099112
0.439132 0.286600 0.105896
0.463024 0.289864 0.112830
0.485951 0.292856 0.122858
0.509021 0.296080 0.130709
0.532223 0.300404 0.136767
0.555189 0.304940 0.145893
0.578780 0.308248 0.153774
0.602775 0.313114 0.160418
0.626208 0.318785 0.168309
0.648450 0.324142 0.177193
0.669260 0.330145 0.185056
0.692287 0.334516 0.194098
0.715633 0.338091 0.201748
0.738375 0.342189 0.209020
0.759991 0.347947 0.218724
0.783445 0.350958 0.225116
0.807366 0.354869 0.232054
0.831686 0.359201 0.240522
0.856284 0.363252 0.250904
0.032723 0.311450 0.056292
0.068261 0.310470 0.054785
0.110244 0.309795 0.055682
0.148248 0.307979 0.060423
0.178452 0.305284 0.068525
0.208244 0.307253 0.067423
0.238503 0.307159 0.073676
0.269132 0.307531 0.077857
0.298300 0.309305 0.077900
0.324378 0.310408 0.087649
0.354128 0.312389 0.096859
0.382083 0.313894 0.104935
0.407053 0.315491 0.110870
0.432519 0.318594 0.115412
0.457470 0.320809 0.122010
0.480986 0.323299 0.130858
0.503889 0.326486 0.137513
0.526976 0.330199 0.144492
0.549897 0.333782 0.154972
0.572837 0.335848 0.161963
0.597239 0.339543 0.168526
0.620940 0.344790 0.176891
0.642861 0.350058 0.185593
0.664713 0.355203 0.193168
0.687471 0.358496 0.201549
0.710712 0.361842 0.209230
0.733541 0.366600 0.216273
0.755122 0.373535 0.223660
0.778996 0.375990 0.229353
0.803729 0.377673 0.237122
0.828567 0.379981 0.246443
0.853283 0.383426 0.256481
0.052322 0.339935 0.063161
0.075476 0.342150 0.060111
0.108632 0.342858 0.062066
0.142407 0.341680 0.067888
0.172368 0.339286 0.075347
0.203426 0.340080 0.076250
0.234786 0.339274 0.083678
0.264521 0.339630 0.088855
0.291933 0.341714 0.089613
0.319328 0.342571 0.099327
0.349029 0.343592 0.110465
0.376712 0.345166 0.117404
0.401324 0.347259 0.119843
0.425928 0.349527 0.123147
0.451229 0.351929 0.130120
0.475125 0.353763 0.139768
0.498841 0.355650 0.147236
0.522691 0.358798 0.153969
0.545136 0.362267 0.163209
0.567385 0.364680 0.170975
0.591771 0.367376 0.178497
0.615541 0.370884 0.186889
0.637709 0.374839 0.194879
0.661027 0.379140 0.201011
0.682891 0.382791 0.209083
0.705784 0.386395 0.216792
0.729313 0.390913 0.223148
0.751794 0.397468 0.228647
0.776066 0.400045 0.235332
0.799946 0.401570 0.242881
0.824418 0.403804 0.251324
0.851329 0.407625 0.261271
0.046942 0.372342 0.075017
0.079549 0.373910 0.072911
0.111048 0.374844 0.075996
0.141118 0.374446 0.080992
0.170990 0.372136 0.085269
0.202879 0.371482 0.090609
0.231799 0.371842 0.097132
0.260507 0.372293 0.101706
0.289199 0.372899 0.104375
0.314470 0.375515 0.111211
0.342273 0.376449 0.119434
0.369980 0.377086 0.126717
0.395872 0.378321 0.132532
0.420653 0.380407 0.137812
0.445985 0.382827 0.143327
0.469419 0.385215 0.149816
0.492253 0.386837 0.156720
0.515703 0.388990 0.162932
0.538391 0.392094 0.169353
0.561081 0.394084 0.178066
0.585701 0.397149 0.187874
0.609840 0.401029 0.195849
0.632708 0.404423 0.202163
0.656006 0.406812 0.209174
0.679402 0.409558 0.216487
0.702265 0.413074 0.223224
0.725488 0.416834 0.229897
0.750616 0.420279 0.237227
0.773586 0.422972 0.244526
0.796266 0.426966 0.251671
0.820844 0.430769 0.259070
0.849139 0.432085 0.266344
0.067580 0.405191 0.086549
0.086858 0.406614 0.084580
0.112968 0.407478 0.087090
0.140347 0.407176 0.093249
0.166587 0.404966 0.101521
0.197720 0.404629 0.106110
0.226962 0.405688 0.112969
0.256117 0.406081 0.118156
0.284589 0.405581 0.121841
0.309306 0.407549 0.128422
0.337205 0.407876 0.132752
0.365539 0.408281 0.138239
0.392010 0.409995 0.145900
0.416075 0.412415 0.152915
0.439556 0.414936 0.158352
0.462749 0.417575 0.162960
0.486225 0.419546 0.167644
0.509776 0.421171 0.172515
0.532669 0.423292 0.178396
0.555223 0.425077 0.187207
0.579165 0.428741 0.197431
0.603238 0.432218 0.205638
0.626642 0.434627 0.211800
0.649798 0.437728 0.218188
0.674475 0.438913 0.225712
0.698620 0.440921 0.232084
0.722476 0.444254 0.237650
0.747343 0.447565 0.243555
0.770319 0.450542 0.251069
0.793300 0.453728 0.258493
0.818050 0.457093 0.265648
0.847359 0.460365 0.271433
0.080681 0.437867 0.102848
0.092619 0.437653 0.101865
0.116420 0.437843 0.103151
0.143552 0.437461 0.107829
0.168573 0.436111 0.115354
0.193954 0.436842 0.120739
0.222712 0.437667 0.126402
0.252299 0.437913 0.132003
0.279904 0.437649 0.137510
0.305146 0.438246 0.143266
0.332956 0.438397 0.148085
0.360318 0.439308 0.152069
0.385837 0.441301 0.157584
0.410158 0.443251 0.165519
0.433359 0.445532 0.171129
0.457119 0.448249 0.175459
0.481014 0.450302 0.179219
0.504502 0.451653 0.184122
0.527992 0.453405 0.191010
0.550717 0.455256 0.198229
0.574742 0.458324 0.207763
0.598854 0.461073 0.216001
0.622164 0.463218 0.221562
0.645233 0.466807 0.227202
0.669537 0.468556 0.233260
0.694036 0.469931 0.239197
0.718352 0.472015 0.244992
0.742641 0.475552 0.250614
0.766204 0.478971 0.256757
0.790607 0.480871 0.264031
0.817699 0.482253 0.270759
0.849911 0.484572 0.274442
0.083832 0.467801 0.120115
0.098347 0.466412 0.123896
0.117969 0.466358 0.125074
0.142287 0.466516 0.125274
0.169891 0.466129 0.126522
0.192885 0.467070 0.133916
0.220317 0.467037 0.139537
0.248882 0.467300 0.145037
0.275966 0.468077 0.150268
0.301954 0.467703 0.154252
0.329096 0.468008 0.161867
0.354506 0.469554 0.166947
0.378545 0.471356 0.170100
0.403948 0.472306 0.176256
0.428803 0.473912 0.181749
0.453078 0.476433 0.187034
0.476257 0.478372 0.191835
0.499424 0.479657 0.197623
0.523416 0.481737 0.204462
0.546528 0.483695 0.209232
0.571570 0.485535 0.217884
0.596421 0.487721 0.226048
0.619698 0.490086 0.231053
0.643040 0.492369 0.236576
0.665749 0.496321 0.240113
0.689674 0.498250 0.245437
0.714580 0.498932 0.252716
0.739206 0.501880 0.259935
0.764424 0.504709 0.263199
0.791034 0.506021 0.268257
0.821590 0.505750 0.272965
0.855300 0.505116 0.275513
0.094214 0.495498 0.131986
0.106730 0.494830 0.140133
0.118070 0.495640 0.143013
0.134716 0.496542 0.142883
0.161231 0.496472 0.142557
0.191479 0.496607 0.147819
0.219185 0.496006 0.154783
0.245273 0.496324 0.160089
0.271166 0.497570 0.162362
0.298181 0.497155 0.165766
0.325248 0.497296 0.172968
0.350292 0.498560 0.179907
0.374202 0.500248 0.184508
0.399930 0.501491 0.188679
0.424989 0.503004 0.194214
0.449169 0.504649 0.199140
0.471994 0.506296 0.204137
0.494869 0.507823 0.210000
0.518812 0.509472 0.215437
0.541716 0.511716 0.219496
0.566827 0.513840 0.226741
0.592565 0.515459 0.234530
0.616753 0.516992 0.240354
0.640420 0.518609 0.245724
0.662903 0.522435 0.249245
0.687400 0.524613 0.254606
0.713901 0.525101 0.261456
0.740718 0.526678 0.267742
0.768575 0.527951 0.268837
0.796749 0.528498 0.271157
0.827007 0.528467 0.274387
0.861491 0.527756 0.276443
0.097412 0.524881 0.146764
0.110954 0.523913 0.150516
0.124678 0.524221 0.155529
0.140247 0.525031 0.158734
0.160190 0.526020 0.158598
0.190659 0.526037 0.162522
0.218209 0.525035 0.166560
0.242519 0.525181 0.171198
0.265858 0.526842 0.175829
0.293537 0.526679 0.179274
0.320792 0.527516 0.185989
0.345504 0.528403 0.190976
0.369509 0.529150 0.194718
0.395482 0.530811 0.201048
0.419943 0.532895 0.206457
0.444478 0.534022 0.209915
0.468068 0.534929 0.214270
0.491226 0.536064 0.220799
0.515365 0.537192 0.226967
0.538068 0.539774 0.231942
0.562597 0.542448 0.236262
0.588416 0.543566 0.241818
0.613209 0.544442 0.247980
0.636503 0.547117 0.252658
0.659828 0.549739 0.257204
0.686634 0.550732 0.261978
0.715679 0.550957 0.266980
0.745458 0.551404 0.271406
0.774634 0.551730 0.271503
0.803381 0.551118 0.273844
0.833427 0.550387 0.277294
0.866564 0.550916 0.279357
0.096735 0.552940 0.162157
0.111883 0.553271 0.161946
0.128504 0.553523 0.166325
0.144856 0.553943 0.171127
0.161145 0.554781 0.173726
0.187413 0.555626 0.177849
0.213255 0.554438 0.179986
0.238003 0.554223 0.183559
0.262174 0.555713 0.189438
0.288447 0.555671 0.193337
0.315408 0.556847 0.199330
0.340732 0.557714 0.203515
0.365202 0.558258 0.206711
0.390668 0.559832 0.212114
0.414772 0.561751 0.216580
0.438735 0.563207 0.220701
0.462991 0.563959 0.226328
0.487023 0.564677 0.232658
0.510666 0.566026 0.237892
0.534135 0.568202 0.243118
0.559056 0.571040 0.245323
0.584247 0.572320 0.249226
0.608661 0.572873 0.255628
0.633350 0.575079 0.258896
0.659554 0.575901 0.263545
0.689784 0.575445 0.266939
0.721129 0.575229 0.269636
0.750724 0.576047 0.273251
0.780722 0.574669 0.273604
0.809926 0.573698 0.275772
0.839639 0.573497 0.278896
0.871472 0.574713 0.280358
0.094970 0.581047 0.178668
0.108358 0.583158 0.177249
0.125166 0.583866 0.179335
0.142572 0.583656 0.182783
0.159673 0.583029 0.186293
0.184229 0.584087 0.192864
0.208494 0.583549 0.195545
0.233262 0.583814 0.197594
0.258995 0.585109 0.201554
0.285182 0.584822 0.206401
0.310964 0.586129 0.210767
0.336138 0.586857 0.215785
0.361177 0.586897 0.220217
0.386415 0.587999 0.222982
0.410796 0.589365 0.227245
0.434522 0.591110 0.233260
0.458649 0.592318 0.238822
0.482587 0.593243 0.242920
0.505929 0.594763 0.247178
0.530504 0.596244 0.252193
0.556157 0.598643 0.255049
0.582372 0.599837 0.258455
0.608884 0.599813 0.263288
0.636663 0.600116 0.265519
0.665469 0.599474 0.268607
0.695602 0.599271 0.270891
0.726061 0.599705 0.272254
0.755294 0.600734 0.273780
0.785942 0.598235 0.274767
0.815927 0.597495 0.276443
0.846055 0.598050 0.278306
0.878026 0.598913 0.279223
0.096538 0.610272 0.194289
0.107783 0.612201 0.192902
0.123165 0.612873 0.193973
0.140464 0.612605 0.196378
0.158837 0.612020 0.199561
0.184120 0.611936 0.206133
0.207170 0.611919 0.209221
0.230353 0.612748 0.210435
0.255197 0.614204 0.212764
0.281319 0.614401 0.218244
0.306549 0.615413 0.221462
0.331847 0.615527 0.226626
0.357507 0.615142 0.232140
0.382677 0.616052 0.234481
0.407224 0.617005 0.239272
0.431229 0.618359 0.245515
0.454981 0.619940 0.249052
0.478420 0.621615 0.251127
0.502036 0.623135 0.255561
0.527702 0.623877 0.260484
0.555724 0.624785 0.264060
0.585018 0.625042 0.266559
0.614654 0.624531 0.268679
0.643830 0.624176 0.270320
0.673337 0.623479 0.271253
0.702477 0.623560 0.273030
0.731447 0.624199 0.274594
0.760974 0.624598 0.273674
0.791082 0.623061 0.275191
0.821803 0.622310 0.276992
0.853336 0.622224 0.278156
0.886494 0.622309 0.278231
0.098980 0.639261 0.206341
0.111677 0.639887 0.206390
0.125606 0.640250 0.207533
0.141337 0.640767 0.210268
0.160052 0.641753 0.214488
0.183998 0.640760 0.217411
0.205330 0.640238 0.220256
0.227382 0.640789 0.222248
0.251222 0.642485 0.224411
0.274794 0.643602 0.229254
0.300872 0.643661 0.232922
0.327997 0.643494 0.237992
0.354092 0.643885 0.243104
0.378364 0.644898 0.245953
0.402829 0.645577 0.250355
0.426683 0.646410 0.255471
0.450525 0.647829 0.258569
0.475132 0.649622 0.260168
0.500770 0.650898 0.262690
0.528585 0.650627 0.266193
0.559060 0.650193 0.269159
0.590077 0.649752 0.270680
0.620424 0.649202 0.271306
0.649843 0.648985 0.271805
0.679704 0.648800 0.271119
0.709509 0.648410 0.273308
0.738906 0.647938 0.276004
0.768091 0.647740 0.274373
0.797158 0.647480 0.275800
0.828113 0.646636 0.278079
0.860584 0.645695 0.279305
0.894608 0.645279 0.278183
0.091607 0.668549 0.216732
0.107396 0.668707 0.217547
0.123656 0.668971 0.220225
0.140207 0.669464 0.223244
0.157497 0.670260 0.225503
0.180898 0.669927 0.227062
0.201838 0.668954 0.230791
0.223019 0.669320 0.234167
0.245844 0.671264 0.236011
0.270268 0.672020 0.238824
0.297663 0.671940 0.243093
0.324765 0.672299 0.248295
0.349516 0.673241 0.253347
0.373122 0.674118 0.257356
0.397690 0.675295 0.261130
0.423390 0.675521 0.264605
0.449809 0.675160 0.266983
0.476810 0.675337 0.268161
0.505173 0.675655 0.268611
0.534337 0.675724 0.269036
0.565286 0.675135 0.270097
0.596402 0.674339 0.271359
0.626579 0.673863 0.272483
0.656572 0.673875 0.273010
0.685414 0.673219 0.272764
0.715753 0.672546 0.274581
0.746336 0.672116 0.276619
0.774178 0.672364 0.275448
0.803958 0.671954 0.275962
0.835110 0.670711 0.277765
0.867206 0.669737 0.279500
0.900225 0.670117 0.279735
0.095829 0.698673 0.233904
0.104583 0.698767 0.234229
0.120604 0.699050 0.236268
0.137321 0.699866 0.237683
0.151207 0.701288 0.237059
0.174823 0.701491 0.238350
0.196736 0.700196 0.240975
0.219574 0.699956 0.245073
0.243798 0.701566 0.248560
0.267126 0.702772 0.248655
0.292619 0.702475 0.251324
0.318545 0.703008 0.256536
0.343812 0.704047 0.262203
0.369316 0.704064 0.265269
0.396182 0.704855 0.267650
0.424005 0.704247 0.269870
0.452961 0.703023 0.270703
0.482499 0.702588 0.271274
0.511905 0.702326 0.272573
0.540054 0.702649 0.273022
0.570357 0.701677 0.271620
0.601485 0.700737 0.271225
0.631629 0.700765 0.272606
0.661262 0.700428 0.274166
0.690837 0.700129 0.274603
0.721476 0.699435 0.275493
0.752468 0.698619 0.276330
0.782526 0.698718 0.275661
0.811257 0.698581 0.276050
0.841673 0.697192 0.276738
0.873667 0.695931 0.276842
0.907188 0.696396 0.275387
0.091425 0.728843 0.248714
0.103003 0.729017 0.248567
0.118023 0.729337 0.249102
0.132333 0.730789 0.248864
0.144533 0.732901 0.247574
0.166492 0.732541 0.248584
0.190017 0.731294 0.250825
0.215333 0.730785 0.254717
0.240883 0.731958 0.258486
0.263001 0.733799 0.258588
0.286646 0.733359 0.260823
0.313379 0.733343 0.264764
0.342907 0.733359 0.268275
0.371782 0.732218 0.269789
0.400524 0.732494 0.271031
0.428885 0.731655 0.272327
0.457781 0.730265 0.272579
0.487577 0.729666 0.272984
0.517235 0.729133 0.274787
0.544866 0.729463 0.276040
0.575334 0.729003 0.274250
0.606926 0.728186 0.272902
0.637213 0.727877 0.273656
0.666976 0.727348 0.275212
0.697588 0.727175 0.275375
0.728245 0.726519 0.275358
0.759033 0.725476 0.275365
0.790649 0.725018 0.274437
0.819188 0.725196 0.274812
0.849543 0.724158 0.274786
0.881545 0.722827 0.273675
0.914932 0.722699 0.271535
0.071165 0.759014 0.256245
0.093803 0.759098 0.256009
0.110644 0.759563 0.256247
0.123795 0.760650 0.256218
0.138346 0.762435 0.255750
0.158337 0.761595 0.256675
0.182768 0.760966 0.259650
0.208801 0.760943 0.263148
0.234423 0.761746 0.265388
0.259781 0.762310 0.266621
0.286956 0.761297 0.269199
0.315694 0.760826 0.270923
0.346150 0.760420 0.271519
0.376808 0.758884 0.272744
0.406654 0.758747 0.273160
0.435580 0.758097 0.273526
0.463475 0.756495 0.274314
0.492245 0.755129 0.275323
0.522160 0.754459 0.276227
0.550533 0.755032 0.276455
0.581814 0.755563 0.275519
0.613722 0.754880 0.275054
0.644035 0.753693 0.275388
0.674289 0.753630 0.275837
0.704998 0.752868 0.275568
0.735850 0.752026 0.274842
0.766478 0.751501 0.273762
0.796847 0.751002 0.272067
0.826971 0.750847 0.271970
0.858149 0.750085 0.271755
0.890118 0.749020 0.271397
0.922069 0.748568 0.271582
0.053661 0.790169 0.260412
0.074107 0.789612 0.260760
0.091713 0.789208 0.262333
0.110836 0.789282 0.263946
0.132551 0.789915 0.264303
0.153690 0.790020 0.265008
0.177765 0.790067 0.265861
0.204417 0.790150 0.267538
0.230611 0.790095 0.270284
0.258786 0.788706 0.271543
0.291902 0.787434 0.274427
0.321639 0.787048 0.274402
0.348942 0.786764 0.272125
0.380938 0.785317 0.272226
0.411880 0.784472 0.272434
0.441684 0.784022 0.272922
0.469754 0.782851 0.274585
0.498501 0.781137 0.276654
0.529188 0.780256 0.277167
0.558551 0.780937 0.275298
0.589102 0.780977 0.274192
0.620418 0.779996 0.274969
0.650602 0.779135 0.275899
0.679565 0.779867 0.275321
0.710489 0.779202 0.274803
0.742228 0.777883 0.273361
0.773269 0.777279 0.271195
0.802875 0.777732 0.268825
0.833128 0.776934 0.268198
0.864701 0.775986 0.267935
0.897221 0.774806 0.268445
0.929308 0.772831 0.271070
0.050762 0.818843 0.266210
0.072456 0.818696 0.267017
0.079593 0.819326 0.271184
0.089979 0.820109 0.274965
0.119418 0.819465 0.274305
0.149775 0.818101 0.272333
0.178615 0.817244 0.270575
0.206154 0.816714 0.270227
0.232851 0.816448 0.271315
0.262464 0.815975 0.271458
0.294681 0.814455 0.273569
0.325286 0.813285 0.273777
0.353475 0.812642 0.272899
0.383799 0.811580 0.273795
0.416241 0.810455 0.273735
0.445727 0.809766 0.274791
0.473472 0.809441 0.275217
0.503856 0.808723 0.274938
0.535075 0.807729 0.275573
0.563717 0.807568 0.275221
0.593788 0.807030 0.275839
0.625466 0.806003 0.275595
0.656727 0.805207 0.274297
0.686851 0.805115 0.274237
0.716393 0.804938 0.272987
0.747242 0.804609 0.270710
0.778448 0.804294 0.268052
0.807996 0.804438 0.264842
0.839826 0.803534 0.263135
0.871276 0.802521 0.263475
0.903044 0.801276 0.264400
0.936240 0.798795 0.264390
0.036268 0.847162 0.272370
0.063008 0.846781 0.271651
0.073772 0.847195 0.275628
0.086592 0.847733 0.279141
0.116670 0.847022 0.277904
0.150192 0.845295 0.274828
0.181248 0.844091 0.272619
0.209461 0.843098 0.272262
0.236244 0.842490 0.272766
0.266123 0.842834 0.271332
0.297569 0.841585 0.272149
0.327833 0.840231 0.272960
0.356494 0.839424 0.273572
0.386979 0.838666 0.274493
0.418968 0.837542 0.274148
0.448911 0.836471 0.274840
0.477937 0.836040 0.274739
0.508947 0.835743 0.273329
0.539934 0.834913 0.273130
0.567404 0.834262 0.274470
0.597864 0.833479 0.275458
0.630869 0.832604 0.274402
0.662915 0.831833 0.272588
0.692992 0.831439 0.272511
0.723123 0.830918 0.270655
0.753829 0.830785 0.267942
0.784671 0.830580 0.265178
0.814850 0.830026 0.262453
0.847102 0.829423 0.260925
0.878114 0.828822 0.260931
0.909392 0.827793 0.260932
0.942652 0.825515 0.258773
0.009169 0.875442 0.276781
0.043559 0.874737 0.275612
0.065652 0.874357 0.277293
0.088569 0.873981 0.278880
0.117801 0.873266 0.277430
0.151187 0.872472 0.274483
0.182970 0.871180 0.272623
0.212262 0.869740 0.273486
0.238887 0.868835 0.275365
0.267061 0.869243 0.272600
0.299047 0.868566 0.271951
0.329515 0.867643 0.272957
0.358475 0.866903 0.273988
0.390185 0.866234 0.273701
0.421767 0.864904 0.273215
0.452738 0.863848 0.272786
0.482633 0.863132 0.272765
0.513191 0.862356 0.271810
0.544340 0.861594 0.270317
0.572269 0.860971 0.272154
0.603283 0.860152 0.272518
0.636777 0.859309 0.271334
0.668708 0.858698 0.270560
0.698083 0.858364 0.269660
0.729410 0.857417 0.267812
0.760652 0.856828 0.265508
0.791273 0.856544 0.263158
0.821747 0.856045 0.261199
0.853453 0.855536 0.259676
0.884504 0.854840 0.258196
0.915941 0.854247 0.256282
0.948749 0.853054 0.253984
0.000599 0.903675 0.281453
0.029057 0.902707 0.279358
0.053404 0.901983 0.278659
0.075364 0.901277 0.278079
0.111834 0.900717 0.276269
0.148539 0.899806 0.273733
0.182938 0.897840 0.272060
0.214247 0.895957 0.274086
0.240347 0.895616 0.277766
0.263316 0.896518 0.274529
0.294654 0.896251 0.272247
0.329564 0.894818 0.273079
0.361850 0.893709 0.274288
0.392232 0.893041 0.272569
0.427258 0.891107 0.272093
0.458425 0.890657 0.270119
0.485239 0.890889 0.269680
0.515022 0.890001 0.269419
