gsg/02_Everyday/GSG_LUT_Everyday_AllCrunchedOut.cube
# GSG LUTs 1.0
# Copyright (c) 2016-2020 Greyscalegorilla
# See EULA for licensing and distribution information
# Converted by Briz LUT Converter
LUT_3D_SIZE 32
0.012943 0.008059 0.015873
0.015227 0.008319 0.016369
0.018063 0.008807 0.016637
0.021962 0.009059 0.017141
0.027413 0.009374 0.017677
0.036244 0.010091 0.018433
0.048454 0.010501 0.019142
0.064043 0.010445 0.019701
0.084210 0.009689 0.020332
0.112907 0.006782 0.020584
0.149837 0.002481 0.020836
0.192052 0.000000 0.021001
0.238686 0.000000 0.021001
0.291559 0.000000 0.020796
0.349569 0.000000 0.020182
0.410272 0.000000 0.019071
0.471401 0.000000 0.017307
0.531616 0.000000 0.015022
0.590224 0.000000 0.012218
0.646603 0.000000 0.009043
0.702690 0.000000 0.005451
0.754854 0.000000 0.002332
0.801820 0.000000 0.000425
0.845815 0.000000 0.000000
0.887093 0.000000 0.000000
0.926299 0.000000 0.000000
0.962866 0.000000 0.000410
0.995935 0.000000 0.002190
1.000000 0.000000 0.012588
1.000000 0.000000 0.030809
1.000000 0.000000 0.056804
1.000000 0.000000 0.090354
0.013179 0.010603 0.017409
0.015227 0.010855 0.016889
0.018575 0.011092 0.016399
0.023241 0.011154 0.016391
0.029444 0.011690 0.016681
0.038746 0.012448 0.017376
0.050987 0.013116 0.017921
0.066765 0.013258 0.018620
0.087577 0.012499 0.019058
0.116472 0.009301 0.019315
0.153415 0.003971 0.019565
0.195636 0.000513 0.019725
0.242566 0.000000 0.019627
0.295802 0.000000 0.019162
0.353430 0.000000 0.018288
0.413475 0.000000 0.016921
0.473815 0.000000 0.015022
0.533245 0.000000 0.012592
0.591215 0.000000 0.009532
0.647223 0.000000 0.006110
0.702895 0.000000 0.002777
0.754881 0.000000 0.000859
0.801670 0.000000 0.000137
0.845776 0.000000 0.000000
0.887299 0.000000 0.000000
0.926552 0.000000 0.000000
0.962906 0.000000 0.000198
0.995928 0.000000 0.000442
0.999999 0.000000 0.007175
1.000000 0.000000 0.023324
1.000000 0.000000 0.049164
1.000000 0.000000 0.084485
0.012880 0.014006 0.019694
0.014667 0.014258 0.018669
0.017786 0.014527 0.017644
0.022729 0.015049 0.016661
0.029801 0.015617 0.016141
0.040616 0.016440 0.016117
0.053890 0.017310 0.016415
0.070480 0.017457 0.017023
0.091911 0.016605 0.017338
0.121365 0.013130 0.017767
0.158764 0.007122 0.017929
0.201188 0.001886 0.017923
0.248537 0.000000 0.017718
0.302259 0.000000 0.016993
0.359277 0.000000 0.015851
0.418159 0.000000 0.014329
0.477442 0.000000 0.012162
0.535946 0.000000 0.009376
0.593157 0.000000 0.006251
0.648622 0.000000 0.003032
0.704062 0.000000 0.000943
0.755849 0.000000 0.000147
0.802541 0.000000 0.000000
0.846619 0.000000 0.000000
0.887939 0.000000 0.000000
0.926907 0.000000 0.000000
0.962981 0.000000 0.000000
0.995713 0.000000 0.000000
0.999975 0.000000 0.002476
1.000000 0.000000 0.014768
1.000000 0.000000 0.039001
1.000000 0.000000 0.076230
0.011753 0.019560 0.022238
0.013281 0.019812 0.020954
0.016164 0.020094 0.019694
0.020934 0.020856 0.018384
0.028626 0.021954 0.016680
0.041406 0.023293 0.015642
0.056515 0.024282 0.015066
0.075449 0.024470 0.014990
0.099156 0.023061 0.015245
0.129815 0.019052 0.015589
0.167984 0.012141 0.015589
0.211238 0.004448 0.015486
0.259506 0.000029 0.014996
0.313287 0.000000 0.013986
0.369521 0.000000 0.012467
0.427214 0.000000 0.010537
0.485209 0.000000 0.007980
0.542674 0.000000 0.005288
0.598923 0.000000 0.002930
0.653448 0.000000 0.000768
0.708049 0.000000 0.000000
0.759146 0.000000 0.000000
0.805399 0.000000 0.000000
0.848967 0.000000 0.000000
0.889895 0.000000 0.000000
0.928218 0.000000 0.000000
0.963712 0.000000 0.000000
0.995597 0.000000 0.000000
0.999953 0.000000 0.000000
1.000000 0.000000 0.006942
1.000000 0.000000 0.026868
1.000000 0.000000 0.064808
0.009106 0.028382 0.025168
0.010382 0.028697 0.023568
0.013268 0.028965 0.022275
0.018024 0.029561 0.020918
0.025444 0.031167 0.018921
0.039572 0.033602 0.016800
0.058021 0.035448 0.014596
0.081105 0.035538 0.013153
0.108928 0.033519 0.012594
0.141856 0.028964 0.012510
0.181975 0.020724 0.012335
0.227290 0.009902 0.011978
0.276851 0.001673 0.010988
0.330211 0.000293 0.009498
0.385300 0.000000 0.007684
0.441572 0.000000 0.005471
0.498362 0.000000 0.002833
0.554618 0.000000 0.000934
0.609585 0.000000 0.000178
0.662706 0.000000 0.000000
0.715913 0.000000 0.000000
0.765590 0.000000 0.000000
0.810558 0.000000 0.000000
0.853086 0.000000 0.000000
0.893088 0.000000 0.000000
0.930982 0.000000 0.000000
0.965788 0.000000 0.000000
0.995904 0.000000 0.000000
0.999959 0.000000 0.000000
1.000000 0.000000 0.001253
1.000000 0.000000 0.014017
1.000000 0.000000 0.049179
0.004128 0.043247 0.029359
0.005067 0.044027 0.026993
0.007755 0.044292 0.025405
0.012384 0.044827 0.023865
0.019395 0.046188 0.021960
0.032939 0.048662 0.019312
0.053287 0.051730 0.016449
0.079413 0.053965 0.013772
0.111323 0.053625 0.011322
0.150358 0.049562 0.009203
0.195630 0.041222 0.007617
0.243098 0.029229 0.006503
0.292111 0.015490 0.005308
0.344437 0.005493 0.003768
0.398249 0.001344 0.002487
0.453200 0.000203 0.001467
0.508539 0.000000 0.000707
0.563372 0.000000 0.000185
0.617138 0.000000 0.000000
0.669161 0.000000 0.000000
0.721063 0.000000 0.000000
0.769734 0.000000 0.000000
0.814100 0.000000 0.000000
0.856108 0.000000 0.000000
0.895887 0.000000 0.000000
0.933349 0.000000 0.000000
0.967422 0.000000 0.000000
0.996470 0.000000 0.000000
1.000000 0.000000 0.000000
1.000000 0.000000 0.000383
1.000000 0.001487 0.007011
1.000000 0.006144 0.027043
0.001182 0.063571 0.034826
0.001417 0.064557 0.031592
0.002706 0.064855 0.029463
0.005201 0.065164 0.027811
0.010133 0.066271 0.025607
0.022548 0.069250 0.022357
0.043586 0.073098 0.018607
0.073539 0.076925 0.014522
0.111629 0.079203 0.010475
0.155308 0.076891 0.006822
0.204680 0.070812 0.003884
0.255874 0.061008 0.002223
0.307172 0.046884 0.001664
0.359388 0.029485 0.000934
0.412301 0.013887 0.000413
0.465930 0.005064 0.000102
0.519757 0.002267 0.000000
0.573138 0.000942 0.000000
0.625413 0.000198 0.000000
0.676059 0.000000 0.000000
0.726911 0.000000 0.000000
0.774719 0.000000 0.000000
0.818435 0.000000 0.000000
0.859874 0.000000 0.000000
0.898925 0.000000 0.000000
0.935809 0.000000 0.000000
0.969112 0.000000 0.000000
0.996671 0.000000 0.000000
1.000000 0.000000 0.000000
1.000000 0.000929 0.000000
1.000000 0.013182 0.002287
1.000000 0.048399 0.009256
0.000000 0.092465 0.042908
0.000000 0.093401 0.038165
0.000024 0.093832 0.035162
0.000524 0.094028 0.032946
0.002671 0.094541 0.030274
0.010338 0.097465 0.026256
0.028149 0.101511 0.021394
0.060386 0.106234 0.015679
0.106973 0.110592 0.009761
0.157658 0.111373 0.004617
0.211490 0.108108 0.001355
0.266052 0.101157 0.000000
0.320111 0.089740 0.000000
0.374052 0.071832 0.000000
0.427835 0.050672 0.000000
0.480963 0.033345 0.000000
0.533489 0.019647 0.000000
0.585269 0.008171 0.000000
0.635894 0.001741 0.000000
0.685186 0.000000 0.000000
0.734573 0.000000 0.000000
0.781067 0.000000 0.000000
0.823768 0.000000 0.000000
0.864296 0.000000 0.000000
0.902496 0.000000 0.000000
0.938746 0.000000 0.000000
0.971094 0.000000 0.000000
0.996906 0.000000 0.000000
1.000000 0.000000 0.000000
1.000000 0.008047 0.000000
1.000000 0.037342 0.000000
1.000000 0.101698 0.000000
0.000000 0.130151 0.054126
0.000000 0.131914 0.047892
0.000000 0.132581 0.043605
0.000000 0.132616 0.040354
0.000000 0.132535 0.036739
0.001046 0.134021 0.031853
0.010790 0.137408 0.025287
0.039433 0.141943 0.017702
0.091517 0.146920 0.009409
0.153175 0.151106 0.002531
0.214131 0.150618 0.000245
0.272238 0.146309 0.000000
0.328257 0.138438 0.000000
0.385089 0.126921 0.000000
0.441624 0.111734 0.000000
0.496145 0.092030 0.000000
0.548475 0.065647 0.000000
0.599267 0.040197 0.000000
0.648539 0.024086 0.000000
0.696180 0.016468 0.000000
0.743811 0.010622 0.000000
0.788719 0.005971 0.000000
0.830013 0.003645 0.000000
0.869362 0.002263 0.000000
0.906602 0.001905 0.000000
0.942094 0.002602 0.000000
0.973409 0.004094 0.000000
0.997182 0.005885 0.000000
1.000000 0.013854 0.000000
1.000000 0.037705 0.000000
1.000000 0.082059 0.000000
1.000000 0.151042 0.000000
0.000000 0.169774 0.067328
0.000000 0.175122 0.061992
0.000000 0.177234 0.056370
0.000000 0.177361 0.051402
0.000000 0.176315 0.047024
0.000224 0.175867 0.040983
0.003573 0.177609 0.033095
0.019350 0.181071 0.023267
0.059611 0.185860 0.012125
0.130124 0.190611 0.003112
0.202049 0.194388 0.000192
0.268924 0.194377 0.000000
0.329019 0.189274 0.000000
0.387518 0.180649 0.000000
0.445471 0.169686 0.000000
0.502502 0.156249 0.000000
0.557479 0.139405 0.000000
0.609427 0.121075 0.000000
0.658538 0.103459 0.000000
0.705282 0.086175 0.000000
0.751561 0.063995 0.000000
0.795152 0.046152 0.000000
0.835526 0.036743 0.000000
0.874229 0.030979 0.000000
0.910930 0.029391 0.000000
0.945844 0.032061 0.000000
0.975992 0.038022 0.000000
0.997489 0.045737 0.000000
1.000000 0.075830 0.000000
1.000000 0.111394 0.000000
1.000000 0.153022 0.000000
1.000000 0.204262 0.000000
0.000000 0.215038 0.083729
0.000000 0.221728 0.078872
0.000000 0.224425 0.071922
0.000000 0.224601 0.065313
0.000000 0.223228 0.060250
0.000000 0.221807 0.053535
0.000640 0.221682 0.045013
0.005624 0.223772 0.033782
0.029907 0.228297 0.019607
0.098979 0.233439 0.006741
0.178220 0.238903 0.001302
0.255988 0.243275 0.000000
0.324741 0.243440 0.000000
0.387058 0.237885 0.000000
0.447088 0.229916 0.000000
0.505476 0.219871 0.000000
0.561641 0.207954 0.000000
0.614856 0.194826 0.000000
0.665350 0.180719 0.000000
0.712848 0.165624 0.000000
0.758640 0.147727 0.000000
0.801372 0.132654 0.000000
0.840960 0.122922 0.000000
0.878883 0.116290 0.000000
0.914938 0.113987 0.000000
0.949110 0.116126 0.000000
0.978120 0.121968 0.000000
0.997739 0.131284 0.000000
1.000000 0.154656 0.000000
1.000000 0.181605 0.000000
1.000000 0.212642 0.000000
1.000000 0.250282 0.000000
0.000000 0.265587 0.103423
0.000000 0.270557 0.098097
0.000000 0.272916 0.090003
0.000000 0.273167 0.081946
0.000000 0.271790 0.075762
0.000000 0.270127 0.068669
0.000000 0.268772 0.060027
0.000000 0.269047 0.048473
0.010183 0.272101 0.032696
0.062150 0.277626 0.014825
0.146805 0.283587 0.004056
0.235164 0.289673 0.000000
0.311904 0.294169 0.000000
0.382389 0.294011 0.000000
0.446419 0.289186 0.000000
0.506334 0.281310 0.000000
0.563194 0.271683 0.000000
0.617283 0.261508 0.000000
0.668891 0.250993 0.000000
0.717407 0.240186 0.000000
0.764008 0.229324 0.000000
0.807053 0.219527 0.000000
0.846196 0.211396 0.000000
0.883234 0.205338 0.000000
0.918397 0.202521 0.000000
0.951770 0.203182 0.000000
0.979860 0.207017 0.000000
0.997945 0.214442 0.000000
1.000000 0.226162 0.000000
1.000000 0.241585 0.000000
1.000000 0.262116 0.000000
1.000000 0.289283 0.000000
0.000000 0.315593 0.124156
0.000000 0.320431 0.119083
0.000000 0.322602 0.110920
0.000000 0.322797 0.101677
0.000000 0.321421 0.093753
0.000000 0.319494 0.086400
0.000000 0.317495 0.077595
0.000000 0.315916 0.066551
0.002645 0.316351 0.051440
0.031540 0.321297 0.030147
0.114655 0.327030 0.011136
0.208059 0.332666 0.001098
0.289938 0.338552 0.000000
0.368656 0.343698 0.000000
0.439848 0.343858 0.000000
0.504290 0.339469 0.000000
0.562809 0.331923 0.000000
0.617296 0.323150 0.000000
0.669164 0.313930 0.000000
0.718075 0.304316 0.000000
0.765936 0.294486 0.000000
0.810214 0.285590 0.000000
0.849908 0.277947 0.000000
0.886954 0.271677 0.000000
0.921450 0.268364 0.000000
0.954180 0.267793 0.000000
0.981447 0.269642 0.000000
0.998132 0.273937 0.000000
1.000000 0.281828 0.000000
1.000000 0.292463 0.000000
1.000000 0.307170 0.000000
1.000000 0.327504 0.000000
0.000000 0.360069 0.144031
0.000000 0.368863 0.141252
0.000000 0.372500 0.134068
0.000000 0.372781 0.123970
0.000000 0.370830 0.113763
0.000000 0.368293 0.106362
0.000000 0.365666 0.097586
0.000000 0.363040 0.087076
0.000549 0.361545 0.073588
0.018220 0.364182 0.053100
0.085065 0.369176 0.027706
0.175177 0.375038 0.008045
0.264312 0.380668 0.000519
0.344765 0.386619 0.000119
0.422868 0.391652 0.000000
0.495102 0.393035 0.000000
0.558329 0.389331 0.000000
0.614423 0.382385 0.000000
0.666769 0.374285 0.000000
0.715743 0.365331 0.000000
0.763833 0.355937 0.000000
0.808952 0.347456 0.000000
0.849948 0.339942 0.000000
0.888468 0.332603 0.000000
0.923505 0.328131 0.000000
0.956245 0.326060 0.000000
0.983001 0.326031 0.000000
0.998320 0.328227 0.000000
1.000000 0.333389 0.000000
1.000000 0.341115 0.000000
1.000000 0.352712 0.000000
1.000000 0.369822 0.000000
0.000000 0.405995 0.165946
0.000000 0.414984 0.163925
0.000000 0.418819 0.157248
0.000000 0.419119 0.146787
0.000000 0.417352 0.134706
0.000000 0.414924 0.127372
0.000000 0.412379 0.118905
0.000000 0.409809 0.108916
0.000000 0.407530 0.096607
0.009095 0.407583 0.079036
0.053167 0.411426 0.053944
0.137601 0.417054 0.026088
0.238909 0.422871 0.006331
0.321047 0.428709 0.001529
0.400722 0.434666 0.000121
0.478087 0.439993 0.000000
0.548169 0.441583 0.000000
0.608435 0.438238 0.000000
0.662539 0.432093 0.000000
0.711951 0.424150 0.000000
0.760337 0.415283 0.000000
0.805959 0.407027 0.000000
0.847508 0.399637 0.000000
0.886686 0.392786 0.000000
0.922874 0.387191 0.000000
0.956279 0.382688 0.000000
0.983312 0.379748 0.000000
0.998365 0.379269 0.000000
1.000000 0.381472 0.000000
1.000000 0.385953 0.000000
1.000000 0.394205 0.000000
1.000000 0.407933 0.000000
0.000000 0.453220 0.190319
0.000000 0.459605 0.187573
0.000000 0.462617 0.180928
0.000000 0.463101 0.170625
0.000000 0.462096 0.157740
0.000000 0.460296 0.149900
0.000000 0.458370 0.141642
0.000000 0.456290 0.132254
0.000000 0.453952 0.121142
0.002708 0.452367 0.106390
0.025361 0.454036 0.085149
0.101976 0.458375 0.057259
0.212966 0.464177 0.026971
0.298189 0.469873 0.006719
0.378234 0.475532 0.000592
0.456005 0.481529 0.000000
0.530588 0.486729 0.000000
0.597869 0.488839 0.000000
0.656833 0.486860 0.000000
0.707938 0.480844 0.000000
0.756661 0.472717 0.000000
0.802425 0.464762 0.000000
0.844074 0.457505 0.000000
0.883390 0.450728 0.000000
0.919948 0.444706 0.000000
0.953966 0.439104 0.000000
0.981842 0.433690 0.000000
0.998193 0.428472 0.000000
1.000000 0.427531 0.000000
1.000000 0.429247 0.000000
1.000000 0.434254 0.000000
1.000000 0.444248 0.000000
0.000000 0.498342 0.215905
0.000000 0.503963 0.213428
0.000000 0.506739 0.207303
0.000000 0.507353 0.197496
0.000000 0.506510 0.184578
0.000000 0.505060 0.174900
0.000000 0.503264 0.166318
0.000000 0.501286 0.157478
0.000000 0.498948 0.147114
0.000000 0.496668 0.134025
0.012009 0.495865 0.116647
0.076862 0.498178 0.094408
0.184859 0.503298 0.064087
0.276246 0.509124 0.030634
0.358137 0.514800 0.009349
0.434741 0.520300 0.000846
0.509389 0.526216 0.000000
0.580870 0.531773 0.000000
0.645851 0.534658 0.000000
0.702352 0.533228 0.000000
0.752961 0.527149 0.000000
0.798770 0.519804 0.000000
0.840419 0.512800 0.000000
0.879642 0.505965 0.000000
0.916167 0.500009 0.000000
0.950388 0.494435 0.000000
0.979158 0.488598 0.000000
0.997868 0.481652 0.000000
1.000000 0.476711 0.000000
1.000000 0.474604 0.000000
1.000000 0.476204 0.000000
1.000000 0.483067 0.000000
0.000000 0.540825 0.242436
0.000000 0.547654 0.241354
0.000000 0.550757 0.236221
0.000000 0.551097 0.226932
0.000000 0.550026 0.214235
0.000000 0.548456 0.202036
0.000000 0.546552 0.192931
0.000000 0.544455 0.184588
0.000000 0.542072 0.174730
0.000000 0.539651 0.162745
0.009417 0.537616 0.147815
0.060215 0.537710 0.129880
0.156762 0.541253 0.106259
0.256665 0.547063 0.073917
0.341342 0.552722 0.039410
0.417898 0.558328 0.013527
0.490594 0.563793 0.002626
0.560907 0.569323 0.000484
0.628424 0.574456 0.000000
0.690962 0.577771 0.000000
0.746356 0.575811 0.000000
0.793979 0.570508 0.000000
0.835968 0.564333 0.000000
0.875203 0.558122 0.000000
0.911811 0.552343 0.000000
0.946163 0.546772 0.000000
0.975819 0.541431 0.000000
0.997458 0.535946 0.000000
1.000000 0.528496 0.000000
1.000000 0.522260 0.000000
1.000000 0.519417 0.000000
1.000000 0.522116 0.000000
0.000000 0.583142 0.271188
0.000000 0.589360 0.270563
0.000000 0.592036 0.265922
0.000000 0.592184 0.257208
0.000000 0.591277 0.244960
0.000000 0.590018 0.231124
0.000000 0.588499 0.221757
0.000000 0.586720 0.213763
0.000000 0.584744 0.204723
0.000000 0.582656 0.193801
0.007572 0.580380 0.180510
0.048442 0.578737 0.165281
0.136889 0.580048 0.146679
0.242588 0.585044 0.121036
0.328833 0.590214 0.088193
0.404601 0.595467 0.048877
0.475345 0.600468 0.020176
0.543287 0.605329 0.008196
0.609676 0.610312 0.001724
0.674144 0.615410 0.000000
0.735076 0.617941 0.000000
0.787105 0.616469 0.000000
0.830579 0.612259 0.000000
0.869996 0.606825 0.000000
0.906401 0.601362 0.000000
0.940557 0.595849 0.000000
0.971117 0.590389 0.000000
0.996133 0.584825 0.000000
0.999662 0.577581 0.000000
0.999982 0.569761 0.000000
1.000000 0.563133 0.000000
1.000000 0.559912 0.000000
0.000000 0.624491 0.302580
0.000000 0.628830 0.301359
0.000000 0.630929 0.296876
0.000000 0.631255 0.289096
0.000000 0.630815 0.277639
0.000000 0.630361 0.263530
0.000000 0.629517 0.253642
0.000000 0.628379 0.245612
0.000000 0.626924 0.237533
0.000000 0.625283 0.227638
0.007494 0.623120 0.215468
0.047887 0.620885 0.201865
0.134051 0.620150 0.186359
0.236217 0.622704 0.166885
0.320844 0.627015 0.142136
0.395153 0.631830 0.109486
0.464023 0.636465 0.071275
0.529731 0.640920 0.034949
0.593798 0.645358 0.008430
0.656473 0.650070 0.000000
0.720130 0.655103 0.000000
0.777416 0.657865 0.000000
0.824804 0.657054 0.000000
0.864631 0.652653 0.000000
0.900428 0.647220 0.000000
0.933932 0.641575 0.000000
0.964835 0.635874 0.000000
0.992323 0.629961 0.000000
0.998601 0.623582 0.000000
0.999930 0.616788 0.000000
1.000000 0.609904 0.000000
1.000000 0.603868 0.000000
0.000000 0.666745 0.339824
0.000000 0.670060 0.338866
0.000000 0.671677 0.334722
0.000000 0.672095 0.327526
0.000000 0.671732 0.316963
0.000000 0.671653 0.303481
0.000000 0.671102 0.292211
0.000000 0.670235 0.283387
0.000000 0.668975 0.275902
0.000000 0.667547 0.266741
0.009933 0.665665 0.255514
0.063567 0.663722 0.243267
0.157586 0.662141 0.229713
0.244777 0.662365 0.213731
0.321842 0.665216 0.195129
0.392531 0.669532 0.172978
0.458848 0.674069 0.141858
0.522118 0.678396 0.103270
0.583669 0.682590 0.065217
0.643607 0.686713 0.030885
0.705491 0.691486 0.009702
0.764179 0.695945 0.001525
0.815529 0.698330 0.000000
0.859620 0.697667 0.000000
0.896239 0.693729 0.000000
0.929323 0.688672 0.000000
0.960219 0.683525 0.000000
0.988655 0.678028 0.000000
0.997491 0.671897 0.000000
0.999875 0.665832 0.000000
1.000000 0.659850 0.000000
1.000000 0.654819 0.000000
0.000000 0.705550 0.378747
0.000000 0.708932 0.378647
0.000000 0.710210 0.375018
0.000000 0.710465 0.368270
0.000000 0.710003 0.358361
0.000000 0.709807 0.345511
0.000000 0.709426 0.333087
0.000000 0.708767 0.323441
0.000000 0.707806 0.316537
0.005331 0.706574 0.308018
0.034859 0.705034 0.297852
0.104364 0.703552 0.286879
0.195066 0.701861 0.274675
0.265463 0.700787 0.260582
0.331018 0.701769 0.244876
0.395085 0.704924 0.227287
0.457727 0.709119 0.205600
0.517931 0.713234 0.178326
0.576538 0.717111 0.144239
0.633789 0.720802 0.099559
0.692662 0.724702 0.058764
0.749604 0.728840 0.026889
0.801944 0.732644 0.005091
0.850201 0.735499 0.000000
0.890006 0.734589 0.000000
0.924248 0.731329 0.000000
0.955149 0.727041 0.000000
0.983565 0.722024 0.000000
0.995867 0.715869 0.000000
0.999794 0.709796 0.000000
1.000000 0.704302 0.000000
1.000000 0.700311 0.000000
0.007452 0.739328 0.416889
0.008475 0.742786 0.417735
0.007905 0.743972 0.414616
0.006899 0.743991 0.408226
0.006518 0.743519 0.398892
0.005954 0.743295 0.386813
0.005372 0.743208 0.374063
0.005725 0.742967 0.363937
0.010063 0.742327 0.357391
0.033172 0.741456 0.349668
0.090356 0.740392 0.340512
0.165346 0.739106 0.330515
0.236876 0.737650 0.319383
0.293300 0.736025 0.306406
0.346903 0.735173 0.292069
0.402187 0.736603 0.276743
0.459453 0.739921 0.259480
0.515877 0.743502 0.238746
0.571127 0.746916 0.213327
0.625351 0.750160 0.181474
0.681549 0.753600 0.139638
0.736082 0.757133 0.086931
0.787060 0.760753 0.038838
0.836065 0.764709 0.018499
0.879282 0.766713 0.008123
0.916132 0.765896 0.002119
0.947960 0.762876 0.000196
0.976256 0.758394 0.000000
0.993321 0.752451 0.000000
0.999501 0.746556 0.000000
0.999994 0.741562 0.000000
1.000000 0.737918 0.000000
0.033873 0.770759 0.456402
0.038511 0.773855 0.457730
0.035581 0.775036 0.455138
0.031229 0.774972 0.449371
0.029992 0.774359 0.440646
0.027425 0.774333 0.429720
0.024747 0.774520 0.417551
0.026120 0.774638 0.407065
0.045559 0.774398 0.399919
0.105130 0.773776 0.393131
0.171127 0.772979 0.384806
0.232180 0.771964 0.375615
0.282403 0.770609 0.365337
0.327045 0.768968 0.353108
0.370586 0.767309 0.339429
0.415462 0.766586 0.324946
0.464780 0.768115 0.309589
0.516915 0.771148 0.292517
0.568596 0.774133 0.272969
0.619621 0.777108 0.250491
0.672951 0.780331 0.219740
0.725088 0.783508 0.179696
0.773911 0.786643 0.133528
0.821028 0.789938 0.084044
0.865375 0.792898 0.036741
0.905011 0.794533 0.009888
0.939458 0.793991 0.000948
0.968562 0.790800 0.000000
0.990042 0.785875 0.000000
0.998745 0.780988 0.000000
0.999975 0.776545 0.000000
1.000000 0.772988 0.000000
0.178881 0.803277 0.505179
0.185650 0.805863 0.506574
0.184186 0.806849 0.504116
0.178515 0.806601 0.498575
0.172033 0.805891 0.490371
0.164454 0.805570 0.480016
0.157300 0.805664 0.468534
0.155465 0.805861 0.457621
0.170756 0.805784 0.449174
0.216965 0.805404 0.443128
0.262812 0.804843 0.435840
0.304453 0.804175 0.427887
0.341405 0.803284 0.419048
0.377156 0.802254 0.408354
0.412586 0.800990 0.396171
0.448728 0.799723 0.382910
0.489426 0.800145 0.369179
0.535061 0.802479 0.354933
0.581789 0.805081 0.339187
0.628647 0.807809 0.321439
0.677871 0.810674 0.298567
0.726292 0.813395 0.270818
0.771756 0.815896 0.237393
0.815649 0.818335 0.195434
0.857979 0.820921 0.148229
0.897412 0.823073 0.101780
0.933323 0.824198 0.055301
0.964512 0.823388 0.006196
0.988481 0.819568 0.000000
0.998482 0.815415 0.000000
0.999968 0.811505 0.000000
1.000000 0.808531 0.000000
0.306243 0.830982 0.550160
0.312127 0.833049 0.551351
0.311333 0.833597 0.548715
0.305886 0.833279 0.543388
0.297412 0.832402 0.535570
0.288614 0.832148 0.526135
0.280558 0.832195 0.515769
0.276422 0.832481 0.505259
0.283307 0.832774 0.496194
0.310438 0.832654 0.491018
0.339612 0.832417 0.484929
0.368876 0.832232 0.478233
0.397553 0.831807 0.470900
0.426573 0.831151 0.461786
0.455759 0.830236 0.451246
0.485278 0.829179 0.439415
0.517897 0.828821 0.426665
0.555609 0.829888 0.413669
0.596583 0.831939 0.400265
0.638840 0.834285 0.385510
0.683752 0.836779 0.366924
0.728275 0.839183 0.345248
0.770358 0.841327 0.320849
0.811494 0.843539 0.292614
0.851230 0.845691 0.257799
0.889166 0.847888 0.212590
0.924755 0.849494 0.156226
0.957435 0.850155 0.088963
0.983577 0.847935 0.053135
0.996337 0.844588 0.022031
0.999905 0.841210 0.000648
1.000000 0.838812 0.000000
0.388058 0.854331 0.591012
0.391796 0.855679 0.591540
0.390440 0.855938 0.588875
0.385589 0.855634 0.583848
0.378546 0.854906 0.576757
0.371943 0.854726 0.568469
0.366199 0.854985 0.559740
0.362027 0.855550 0.550268
0.364074 0.856298 0.541500
0.382345 0.856438 0.536769
0.403590 0.856410 0.531529
0.425964 0.856324 0.525973
0.448727 0.856056 0.519629
0.472330 0.855661 0.511644
0.496193 0.854914 0.502341
0.520513 0.853905 0.491735
0.546254 0.852978 0.479660
0.576140 0.852824 0.467031
0.610782 0.854061 0.454808
0.648061 0.856033 0.442195
0.688845 0.858115 0.426760
0.729618 0.860325 0.409270
0.768561 0.862421 0.390327
0.806891 0.864467 0.369112
0.844302 0.866493 0.342969
0.880084 0.868542 0.310584
0.914333 0.870156 0.269796
0.947079 0.871388 0.218312
0.975122 0.870660 0.154796
0.992297 0.868746 0.089225
0.999784 0.866143 0.037036
1.000000 0.864272 0.013927
0.460373 0.876592 0.633897
0.462476 0.877396 0.633675
0.461066 0.877616 0.631246
0.457255 0.877338 0.626747
0.452077 0.876864 0.620717
0.447615 0.876876 0.613860
0.443719 0.877216 0.606319
0.440333 0.878002 0.598073
0.440238 0.878822 0.589925
0.451209 0.879003 0.584930
0.466441 0.879003 0.579879
0.483113 0.878916 0.574643
0.500402 0.878582 0.568600
0.518759 0.878008 0.561217
0.537829 0.877255 0.552630
0.557539 0.876364 0.542969
0.578401 0.875246 0.531984
0.601943 0.874454 0.520143
