gsg/02_Everyday/GSG_LUT_Everyday_FilmicOutdoor.cube
# GSG LUTs 1.0
# Copyright (c) 2016-2020 Greyscalegorilla
# See EULA for licensing and distribution information
# Converted by Briz LUT Converter
LUT_3D_SIZE 8
DOMAIN_MIN 0.000000 0.000000 0.000000
DOMAIN_MAX 0.903226 0.903226 0.903226
0.059829 0.064957 0.067399
0.116113 0.072693 0.069510
0.184103 0.083170 0.074371
0.277908 0.089755 0.080082
0.393895 0.089117 0.084509
0.524652 0.079444 0.085888
0.674828 0.058198 0.079349
0.848832 0.050794 0.056607
0.065068 0.127425 0.103612
0.111494 0.134131 0.099550
0.192117 0.137445 0.096065
0.289389 0.142006 0.097794
0.405222 0.146111 0.099342
0.534732 0.146628 0.098770
0.683857 0.144373 0.090811
0.854883 0.144425 0.066717
0.050794 0.219875 0.153901
0.097669 0.219787 0.157683
0.190039 0.237512 0.143515
0.307001 0.245105 0.134759
0.434624 0.251151 0.133349
0.566882 0.254543 0.129395
0.716480 0.260603 0.120313
0.880023 0.273112 0.099678
0.050794 0.342770 0.219166
0.055987 0.342533 0.222179
0.187353 0.346199 0.226106
0.311623 0.377794 0.199588
0.454767 0.387875 0.182303
0.606471 0.396685 0.180415
0.761004 0.405496 0.171919
0.910911 0.417450 0.159081
0.050794 0.480389 0.290267
0.050794 0.480878 0.292954
0.187106 0.480539 0.299145
0.316955 0.492708 0.295558
0.460846 0.526481 0.260760
0.614736 0.536894 0.234785
0.782278 0.552212 0.236332
0.938401 0.573199 0.242157
0.050794 0.624609 0.366765
0.050956 0.625321 0.369176
0.214890 0.625301 0.374926
0.361987 0.625080 0.384105
0.486852 0.646361 0.369635
0.641865 0.678705 0.333996
0.793026 0.690339 0.308691
0.940981 0.708747 0.327514
0.154791 0.771878 0.462287
0.229715 0.772122 0.464878
0.339313 0.771515 0.469761
0.457444 0.770486 0.478128
0.574088 0.771283 0.486964
0.689465 0.793171 0.468045
0.823934 0.817032 0.438077
0.940049 0.826586 0.420702
0.502793 0.901579 0.595770
0.523684 0.901283 0.597574
0.571793 0.900597 0.602095
0.642765 0.899752 0.610658
0.721422 0.897176 0.619796
0.802436 0.901775 0.626533
0.881843 0.916092 0.614390
0.960997 0.929227 0.595760
0.065201 0.074221 0.128638
0.108629 0.079747 0.132238
0.184080 0.090921 0.136161
0.281763 0.103487 0.143058
0.398378 0.107837 0.147900
0.527918 0.099701 0.147907
0.674261 0.077102 0.144551
0.844770 0.050794 0.132410
0.055252 0.135323 0.153047
0.106648 0.141333 0.158020
0.191151 0.147552 0.158635
0.292130 0.154029 0.159398
0.409358 0.158201 0.159295
0.538556 0.158340 0.157908
0.683903 0.153655 0.153404
0.851740 0.147903 0.140983
0.050794 0.229903 0.190956
0.089984 0.232722 0.200367
0.191466 0.244238 0.195334
0.310507 0.252691 0.190093
0.436081 0.257559 0.188105
0.566474 0.260002 0.183685
0.712655 0.263785 0.176830
0.874900 0.273078 0.164696
0.050794 0.351974 0.246603
0.053665 0.352796 0.255880
0.190982 0.354014 0.261821
0.312502 0.380486 0.241582
0.455280 0.390054 0.227990
0.604271 0.397996 0.227287
0.754754 0.404176 0.219290
0.905462 0.415428 0.208773
0.050794 0.488669 0.316992
0.050794 0.488318 0.319424
0.188117 0.487631 0.325034
0.321238 0.495676 0.325038
0.462098 0.528267 0.294717
0.616278 0.538476 0.273152
0.782648 0.553583 0.275968
0.936288 0.572671 0.280618
0.050794 0.629593 0.387717
0.050967 0.629372 0.389595
0.216014 0.629312 0.394963
0.364777 0.628916 0.403733
0.489541 0.647538 0.393544
0.642972 0.679813 0.361594
0.793724 0.691142 0.339204
0.940772 0.709205 0.357141
0.154861 0.773807 0.477064
0.229120 0.773423 0.478992
0.339120 0.772737 0.483579
0.458587 0.772082 0.491888
0.576365 0.772225 0.501750
0.690682 0.793549 0.485413
0.823745 0.817182 0.457195
0.939573 0.826631 0.440799
0.501173 0.901710 0.603601
0.522492 0.901451 0.605397
0.570776 0.900854 0.609855
0.642060 0.900087 0.618147
0.724409 0.898861 0.629572
0.804615 0.902287 0.636731
0.881951 0.916133 0.624204
0.960517 0.929240 0.606102
0.053882 0.088613 0.208366
0.095468 0.092150 0.213809
0.180692 0.102658 0.223536
0.287415 0.114411 0.232656
0.408658 0.105309 0.230083
0.536719 0.100100 0.229769
0.682940 0.093642 0.234026
0.851091 0.050876 0.227396
0.051503 0.145920 0.233289
0.098375 0.152146 0.238527
0.188383 0.158645 0.245298
0.296558 0.166413 0.248427
0.417708 0.164296 0.243736
0.546832 0.170185 0.245188
0.692538 0.165308 0.243405
0.858140 0.147670 0.235220
0.050794 0.241484 0.270002
0.057992 0.247171 0.274254
0.190265 0.259326 0.283500
0.314457 0.264798 0.281024
0.441204 0.268501 0.276837
0.572767 0.271019 0.272168
0.719204 0.271789 0.265766
0.878934 0.274520 0.256399
0.050794 0.367158 0.309745
0.050794 0.371711 0.314078
0.183066 0.379623 0.329922
0.321931 0.395352 0.324808
0.469484 0.404491 0.317679
0.612770 0.407823 0.314337
0.759383 0.409978 0.305073
0.908409 0.417732 0.295034
0.050794 0.503642 0.359319
0.050794 0.507129 0.364329
0.183771 0.511120 0.384659
0.337222 0.512630 0.391371
0.475321 0.541874 0.369711
0.631703 0.551022 0.354630
0.794252 0.563858 0.358274
0.938427 0.576079 0.357539
0.050794 0.643973 0.418895
0.051021 0.645968 0.430933
0.222584 0.647261 0.445027
0.377706 0.646306 0.452766
0.504631 0.657424 0.450726
0.653631 0.688690 0.425047
0.802881 0.698581 0.407372
0.945102 0.715096 0.423136
0.124988 0.783268 0.508228
0.234235 0.783804 0.516569
0.351305 0.783045 0.522102
0.470290 0.781719 0.529218
0.588238 0.780276 0.539220
0.699081 0.797880 0.528469
0.828487 0.821281 0.504365
0.942792 0.830704 0.491362
0.503979 0.905375 0.625957
0.526236 0.904892 0.627993
0.574392 0.904097 0.631933
0.645729 0.903287 0.639496
0.727878 0.901973 0.649943
0.808696 0.903492 0.659587
0.883664 0.917096 0.648817
0.960433 0.930422 0.632381
0.050794 0.106597 0.313829
0.062585 0.110599 0.319032
0.173920 0.117287 0.330301
0.291205 0.127302 0.340461
0.421365 0.139770 0.350827
0.555152 0.122610 0.347083
0.699140 0.058278 0.335053
0.856514 0.050794 0.326716
0.050794 0.164580 0.336842
0.071809 0.167054 0.340345
0.183851 0.171815 0.348691
0.301502 0.180527 0.356794
0.430446 0.192091 0.363468
0.563764 0.180783 0.356565
0.706691 0.146363 0.343398
0.862954 0.110308 0.335989
0.050794 0.252342 0.366234
0.056337 0.258593 0.371139
0.191271 0.271224 0.381397
0.317902 0.280731 0.390235
0.450386 0.288205 0.390761
0.583088 0.280764 0.378853
0.726739 0.274967 0.369459
0.882229 0.267724 0.359743
0.050794 0.381655 0.409413
0.050794 0.386661 0.412912
0.157082 0.399584 0.422195
0.333940 0.419022 0.436954
0.479114 0.421010 0.430952
0.616456 0.418217 0.420543
0.762525 0.415170 0.408579
0.909734 0.414548 0.394981
0.050794 0.521512 0.445270
0.050794 0.525292 0.448367
0.112451 0.534795 0.457059
0.349857 0.547219 0.478328
0.496770 0.563092 0.473979
0.655146 0.571012 0.465733
0.805351 0.574740 0.461901
0.938739 0.575702 0.449950
0.050794 0.658567 0.486776
0.050794 0.661550 0.489803
0.120823 0.668304 0.498309
0.391900 0.674883 0.524770
0.531245 0.675726 0.531617
0.671213 0.702880 0.513416
0.817326 0.710546 0.501631
0.951727 0.724467 0.512315
0.050794 0.792609 0.537699
0.060777 0.793775 0.541304
0.293218 0.797282 0.560211
0.486316 0.797737 0.585121
0.605896 0.795155 0.593736
0.713938 0.804990 0.591527
0.835772 0.827709 0.571766
0.946670 0.836499 0.561436
0.397482 0.912474 0.628550
0.449968 0.911949 0.637030
0.556546 0.910565 0.658542
0.647164 0.908938 0.671955
0.730468 0.907171 0.680760
0.812939 0.906309 0.691841
0.885385 0.918450 0.684867
0.959998 0.932040 0.670313
0.050794 0.130505 0.431218
0.050931 0.133830 0.435322
0.165981 0.139573 0.444169
0.295712 0.143686 0.457949
0.431047 0.153216 0.466109
0.577415 0.165941 0.476970
0.728300 0.147772 0.479185
0.882548 0.061293 0.469261
0.050794 0.184056 0.448193
0.052780 0.186090 0.451352
0.179649 0.190330 0.458501
0.305969 0.194731 0.470380
0.441518 0.204680 0.478082
0.585513 0.219105 0.486539
0.735023 0.206408 0.486112
0.886989 0.146027 0.473854
0.050794 0.272760 0.475845
0.054673 0.279156 0.479331
0.195917 0.285517 0.485966
0.324359 0.292549 0.497088
0.463193 0.303998 0.504798
0.604391 0.317845 0.508936
0.751563 0.304916 0.502207
0.897707 0.269551 0.483286
0.050794 0.389673 0.506772
0.051023 0.394496 0.510134
0.197855 0.407971 0.519558
0.348050 0.428527 0.534686
0.492838 0.440864 0.544506
0.633952 0.444680 0.541457
0.774612 0.425042 0.523186
0.912175 0.403966 0.500348
0.050794 0.535279 0.546906
0.050794 0.539708 0.549807
0.141608 0.549809 0.556867
0.354046 0.569062 0.570606
0.527415 0.591878 0.587736
0.671971 0.587002 0.577700
0.806864 0.573893 0.559613
0.937620 0.564027 0.540091
0.050794 0.675465 0.575819
0.050794 0.678436 0.577917
0.084668 0.684787 0.582589
0.359675 0.696935 0.593835
0.556820 0.708136 0.616833
0.696701 0.722082 0.614125
0.836626 0.727414 0.607107
0.957209 0.731540 0.604438
0.050794 0.802786 0.606847
0.050794 0.803863 0.608034
0.201783 0.806998 0.612833
0.424853 0.813078 0.626475
0.619619 0.816497 0.656743
0.734695 0.815849 0.663429
0.846724 0.837105 0.648789
0.952424 0.844248 0.641679
0.256387 0.917638 0.657632
0.322979 0.917688 0.660801
0.436875 0.917896 0.669291
0.584940 0.917926 0.690813
0.727699 0.915069 0.720031
0.814804 0.912652 0.730006
0.887434 0.920045 0.730196
0.959237 0.933889 0.717554
0.050794 0.160022 0.555036
0.050794 0.162412 0.557935
0.177674 0.166726 0.564369
0.314221 0.169916 0.575377
0.456000 0.168646 0.589242
0.602995 0.177322 0.594992
0.758274 0.193406 0.604550
0.911032 0.210726 0.613585
0.050794 0.208105 0.566008
0.053009 0.209515 0.568311
0.193909 0.212941 0.573974
0.324616 0.216605 0.583939
0.464837 0.218233 0.596990
0.611653 0.229031 0.602675
0.764035 0.246590 0.610739
0.913066 0.259730 0.617257
0.050794 0.297654 0.588361
0.072918 0.299341 0.590283
0.218249 0.303413 0.595539
0.345530 0.309141 0.604238
0.485563 0.315120 0.616293
0.632977 0.327869 0.621619
0.779129 0.346249 0.626238
0.921187 0.351235 0.627431
0.050794 0.407299 0.612149
0.063834 0.411938 0.615242
0.237402 0.425678 0.623343
0.373068 0.438023 0.632960
0.514314 0.447388 0.644502
0.663849 0.460091 0.650415
0.801347 0.474656 0.650705
0.932342 0.462582 0.641041
0.050794 0.543795 0.639910
0.053000 0.547339 0.642360
0.232250 0.556864 0.648525
0.393005 0.573030 0.659300
0.546509 0.594239 0.673601
0.694672 0.606823 0.682273
0.822061 0.606350 0.675596
0.941664 0.578119 0.652094
0.050794 0.687660 0.670937
0.050794 0.690357 0.672716
0.213533 0.697512 0.677939
0.403492 0.709564 0.686895
0.571804 0.727364 0.700413
0.734258 0.750002 0.718872
0.849237 0.740053 0.706017
0.954581 0.722652 0.683861
0.050794 0.815428 0.694207
0.051534 0.816637 0.695054
0.232493 0.820268 0.698480
0.425840 0.826217 0.705009
0.593682 0.833858 0.715613
0.758294 0.841387 0.739305
0.864012 0.851716 0.737459
0.959215 0.856664 0.732728
0.251945 0.924218 0.727101
0.307571 0.924353 0.728000
0.405094 0.924594 0.730006
0.525186 0.925006 0.734249
0.664692 0.925274 0.746484
0.814104 0.923438 0.778310
0.892294 0.923114 0.786413
0.958911 0.937234 0.776476
0.056844 0.197818 0.689369
0.119734 0.199157 0.691582
0.248127 0.201439 0.695670
0.373430 0.202489 0.702743
0.510112 0.198795 0.712476
0.659916 0.191903 0.721915
0.807098 0.206060 0.724249
0.934106 0.255085 0.722855
0.062633 0.240078 0.694259
0.144653 0.241331 0.696228
0.258850 0.243259 0.700027
0.380272 0.244927 0.706511
0.515283 0.244373 0.715637
0.663914 0.242407 0.725199
0.809729 0.257380 0.727213
0.934302 0.299006 0.725057
0.102570 0.324734 0.708049
0.176803 0.326041 0.709410
0.279373 0.328605 0.712688
0.397650 0.332414 0.718580
0.530714 0.336096 0.726843
0.678230 0.340140 0.736201
0.822169 0.356903 0.738260
0.941472 0.391777 0.735353
0.109733 0.435815 0.724763
0.193763 0.440670 0.726280
0.301376 0.446943 0.729639
0.419318 0.452789 0.735368
0.552006 0.459678 0.743139
0.697952 0.467961 0.752932
0.837988 0.484484 0.754954
0.949119 0.511690 0.750778
0.114310 0.560641 0.738555
0.196874 0.563235 0.740225
0.308009 0.569303 0.744276
0.436408 0.582090 0.751649
0.574535 0.595725 0.759606
0.715345 0.606106 0.769297
0.849942 0.620532 0.772999
0.953933 0.638652 0.769701
0.105921 0.695810 0.758325
0.199609 0.697990 0.759868
0.325254 0.702580 0.762968
0.460668 0.710792 0.768368
0.603150 0.724322 0.776826
0.744724 0.745283 0.790502
0.866389 0.758438 0.798648
0.956935 0.757760 0.790798
0.210209 0.823028 0.782408
0.272882 0.824538 0.783710
0.376031 0.827647 0.786501
0.500210 0.833357 0.791889
0.634145 0.841881 0.799934
0.769421 0.855190 0.812682
0.888798 0.874912 0.831872
0.960197 0.863298 0.815756
0.346034 0.929699 0.809652
0.379566 0.930008 0.810125
0.450962 0.930810 0.811661
0.549505 0.931961 0.814015
0.663631 0.932820 0.817772
0.784121 0.934028 0.825453
0.897166 0.936095 0.848147
0.959802 0.943556 0.848091
0.266060 0.258868 0.822624
0.301627 0.259627 0.823735
0.374650 0.260247 0.825647
0.476608 0.260554 0.829423
0.598145 0.258352 0.834682
0.733039 0.253032 0.841349
0.870726 0.260102 0.845855
0.990077 0.298939 0.845413
0.275010 0.295667 0.824420
0.309287 0.296214 0.825474
0.380287 0.297006 0.827324
0.480623 0.297792 0.830813
0.600988 0.297430 0.835899
0.734598 0.295216 0.842369
0.871215 0.303062 0.846884
0.989118 0.337948 0.846467
0.289486 0.372282 0.830058
0.322306 0.373078 0.830871
0.391746 0.374459 0.832506
0.491018 0.376896 0.836145
0.609350 0.379078 0.840601
0.740480 0.381140 0.846572
0.874438 0.390844 0.851580
0.989135 0.421101 0.850692
0.300802 0.478041 0.837289
0.333564 0.478899 0.838020
0.403042 0.480934 0.839736
0.502065 0.484752 0.842968
0.619656 0.489349 0.847559
0.748112 0.495088 0.853290
0.878082 0.506007 0.858818
0.987215 0.531821 0.857802
0.292461 0.589660 0.845079
0.326412 0.590950 0.846104
0.401948 0.595294 0.847695
0.512376 0.604948 0.850380
0.628714 0.610612 0.854483
0.753458 0.617824 0.860073
0.878358 0.628895 0.866815
0.981643 0.650082 0.866601
0.341743 0.718745 0.854858
0.372526 0.718997 0.855205
0.438419 0.719970 0.856121
0.531059 0.722399 0.858203
0.641668 0.729910 0.862845
0.764974 0.742507 0.869267
0.879902 0.755076 0.877588
0.972661 0.772135 0.880142
0.406881 0.838423 0.871616
0.432457 0.838888 0.871909
0.489827 0.839513 0.872877
0.575090 0.841189 0.874756
0.677578 0.844449 0.877690
0.787392 0.851735 0.882717
0.888373 0.867288 0.892859
0.963312 0.879379 0.899636
0.513944 0.934325 0.893167
0.531936 0.934327 0.893464
0.574554 0.934380 0.894483
0.641355 0.934916 0.896356
0.723688 0.935946 0.899479
0.812683 0.938381 0.904437
0.896460 0.944039 0.913012
0.965495 0.957004 0.931037
