gsg/02_Everyday/GSG_LUT_Everyday_AgeofAquarius.cube
# GSG LUTs 1.0
# Copyright (c) 2016-2020 Greyscalegorilla
# See EULA for licensing and distribution information
# Converted by Briz LUT Converter
LUT_3D_SIZE 8
DOMAIN_MIN 0.000000 0.000000 0.000000
DOMAIN_MAX 0.903226 0.903226 0.903226
0.000000 0.000000 0.000000
0.147190 0.001560 0.009878
0.269755 0.005688 0.026287
0.385096 0.012234 0.043854
0.493702 0.021041 0.063327
0.593777 0.031683 0.089637
0.687510 0.043105 0.106802
0.773524 0.055150 0.130482
0.019276 0.109890 0.067643
0.141576 0.111413 0.040555
0.254857 0.111304 0.055534
0.368362 0.112119 0.076931
0.474257 0.109619 0.093975
0.576236 0.099327 0.111774
0.672319 0.104754 0.133036
0.759953 0.108287 0.149135
0.058884 0.223979 0.124810
0.148293 0.224921 0.109990
0.239957 0.227658 0.099313
0.350111 0.238008 0.116865
0.450682 0.250053 0.136297
0.548299 0.260272 0.154430
0.641571 0.276511 0.173679
0.726106 0.290717 0.198853
0.072992 0.339942 0.186474
0.150602 0.343989 0.173813
0.235523 0.347966 0.161862
0.330517 0.353211 0.154164
0.429445 0.366383 0.171631
0.525321 0.380906 0.192016
0.618787 0.396678 0.212576
0.705900 0.412437 0.231498
0.079861 0.451227 0.248257
0.147662 0.455646 0.232146
0.231036 0.461004 0.222098
0.323336 0.467081 0.213593
0.409756 0.473821 0.207846
0.505500 0.488695 0.223960
0.599595 0.504141 0.242094
0.691832 0.519226 0.256764
0.071078 0.564221 0.305810
0.139360 0.567219 0.292000
0.225998 0.572964 0.282171
0.314972 0.578873 0.272050
0.403100 0.585393 0.263204
0.491619 0.592908 0.255483
0.594175 0.602544 0.261949
0.699857 0.610559 0.270049
0.082516 0.668478 0.363890
0.146674 0.672737 0.351989
0.219526 0.677040 0.341069
0.313681 0.682806 0.328220
0.409956 0.685874 0.312526
0.510485 0.687235 0.293411
0.604853 0.689439 0.273610
0.711627 0.695462 0.281662
0.119800 0.766056 0.419985
0.154286 0.767406 0.403040
0.245504 0.768769 0.384929
0.346300 0.770104 0.367541
0.439747 0.771299 0.348644
0.535839 0.771903 0.330335
0.631554 0.772828 0.310651
0.721159 0.775449 0.291500
0.000000 0.000276 0.157139
0.103410 0.001095 0.073778
0.230148 0.004837 0.083133
0.347321 0.010969 0.098140
0.457329 0.019283 0.113015
0.559419 0.029422 0.129383
0.655456 0.040765 0.148337
0.742904 0.052645 0.169645
0.021805 0.108709 0.142375
0.157313 0.152446 0.185537
0.272895 0.154858 0.195534
0.385236 0.159030 0.209738
0.488326 0.162580 0.225807
0.585471 0.172728 0.241254
0.680381 0.173404 0.258314
0.760624 0.201846 0.277694
0.057292 0.218323 0.192356
0.165835 0.263984 0.237023
0.261501 0.269828 0.226653
0.367163 0.281463 0.243466
0.464489 0.294135 0.259376
0.562424 0.307696 0.279221
0.653964 0.324228 0.297683
0.737838 0.341306 0.314439
0.072658 0.336048 0.251759
0.164736 0.383351 0.296095
0.255227 0.389246 0.286996
0.349147 0.395477 0.278686
0.445144 0.409716 0.294228
0.541582 0.424777 0.312343
0.634080 0.441595 0.331133
0.720269 0.458535 0.348314
0.077085 0.449706 0.307935
0.159012 0.494474 0.353442
0.248596 0.501409 0.344424
0.340304 0.508553 0.334687
0.427453 0.516669 0.326459
0.523332 0.529705 0.342031
0.621499 0.543379 0.356829
0.725449 0.553060 0.362045
0.053636 0.560376 0.363827
0.153927 0.605535 0.410724
0.241556 0.611539 0.400318
0.334072 0.618459 0.389850
0.423367 0.622965 0.378425
0.521077 0.627663 0.364518
0.630641 0.633659 0.367048
0.734669 0.640996 0.369996
0.085001 0.666998 0.422077
0.156562 0.707397 0.463234
0.250760 0.711927 0.452800
0.350480 0.714556 0.434223
0.447541 0.715215 0.416317
0.544740 0.717283 0.398230
0.642953 0.718142 0.379456
0.745655 0.724141 0.379194
0.108247 0.762969 0.474115
0.204927 0.794799 0.501517
0.290366 0.796343 0.487656
0.386039 0.798189 0.469091
0.478607 0.799034 0.450075
0.573193 0.799926 0.428391
0.665316 0.801208 0.407836
0.754643 0.801998 0.388641
0.000000 0.001040 0.282177
0.096428 0.002072 0.206624
0.188092 0.003962 0.137079
0.306474 0.009460 0.144719
0.418588 0.017370 0.158908
0.524047 0.027185 0.171888
0.621674 0.038339 0.189064
0.712192 0.050140 0.206337
0.015727 0.102813 0.266989
0.160483 0.146135 0.305200
0.237081 0.154741 0.245097
0.349040 0.159693 0.254197
0.453517 0.165383 0.269150
0.554264 0.167255 0.284936
0.647877 0.178690 0.301676
0.734468 0.194451 0.318149
0.040697 0.217277 0.262517
0.164095 0.262646 0.305851
0.279159 0.309873 0.350601
0.382929 0.322943 0.363487
0.479979 0.337053 0.379820
0.575050 0.353016 0.397569
0.665996 0.365965 0.413388
0.750314 0.387965 0.429695
0.076293 0.333697 0.313837
0.165926 0.380753 0.359198
0.274180 0.428535 0.404498
0.367035 0.438677 0.397858
0.462115 0.452542 0.413375
0.558106 0.468053 0.430433
0.649985 0.483926 0.447225
0.748670 0.495544 0.453961
0.066922 0.447798 0.367231
0.160498 0.493505 0.414193
0.266890 0.540222 0.457673
0.359210 0.549488 0.452045
0.446004 0.557620 0.442342
0.546342 0.568611 0.453492
0.655469 0.577496 0.459807
0.759390 0.585500 0.464256
0.064904 0.556407 0.423794
0.155738 0.603859 0.467557
0.261590 0.647679 0.510596
0.359975 0.654403 0.500220
0.458579 0.656255 0.482888
0.557236 0.657958 0.467947
0.665641 0.664908 0.468847
0.769394 0.671460 0.472727
0.067577 0.665556 0.478997
0.166159 0.707337 0.520670
0.289849 0.740431 0.549444
0.390193 0.743324 0.534756
0.487248 0.744318 0.516836
0.582291 0.745318 0.498026
0.677402 0.747864 0.478602
0.778844 0.752515 0.480516
0.111564 0.761114 0.527871
0.215552 0.793003 0.557948
0.331270 0.822461 0.581798
0.426771 0.824759 0.566332
0.515906 0.826543 0.548266
0.607278 0.827178 0.527807
0.698689 0.827900 0.506978
0.785984 0.828442 0.487744
0.000000 0.002048 0.407153
0.092681 0.003427 0.338737
0.182278 0.005617 0.266989
0.268638 0.008497 0.198646
0.379585 0.015715 0.204179
0.487664 0.025231 0.218699
0.588897 0.036194 0.232430
0.680035 0.047879 0.248301
0.002702 0.101477 0.391222
0.152904 0.148241 0.423516
0.235411 0.154534 0.362543
0.312742 0.159339 0.301860
0.416298 0.164151 0.310571
0.519227 0.168112 0.324662
0.613707 0.178207 0.339763
0.702796 0.192068 0.356405
0.032283 0.215905 0.380659
0.165270 0.263448 0.421234
0.277214 0.312424 0.458696
0.350993 0.322469 0.409901
0.447358 0.335620 0.420024
0.542900 0.350837 0.437477
0.635022 0.366068 0.455095
0.722157 0.383396 0.469815
0.064973 0.329423 0.380782
0.162634 0.379046 0.424080
0.276000 0.428805 0.469743
0.382836 0.477425 0.513930
0.476624 0.492921 0.525359
0.574002 0.506807 0.540422
0.676817 0.517961 0.549201
0.778864 0.527671 0.553903
0.073852 0.443408 0.429178
0.163466 0.491099 0.472714
0.266632 0.540702 0.519047
0.378448 0.587880 0.561671
0.473173 0.595682 0.554080
0.583474 0.602426 0.557490
0.692232 0.609951 0.562299
0.794131 0.618382 0.566340
0.055761 0.556209 0.480220
0.154513 0.601693 0.524714
0.265487 0.647929 0.569748
0.397951 0.684204 0.599257
0.496663 0.687793 0.585224
0.595324 0.689116 0.569285
0.702024 0.695169 0.571054
0.804277 0.701152 0.573907
0.076011 0.661962 0.533905
0.159419 0.704922 0.576637
0.294981 0.738924 0.605671
0.427288 0.770779 0.631014
0.525309 0.773777 0.616513
0.619042 0.774637 0.597827
0.711867 0.775586 0.580412
0.811769 0.780819 0.581387
0.111931 0.758425 0.580938
0.216742 0.790023 0.610965
0.337798 0.821637 0.636806
0.462729 0.850965 0.660368
0.553002 0.853634 0.645856
0.642287 0.854462 0.626741
0.731137 0.854454 0.607274
0.817031 0.855929 0.589003
0.000000 0.003427 0.522431
0.084753 0.004962 0.456250
0.179570 0.007737 0.386717
0.264445 0.010720 0.318113
0.342507 0.014134 0.253421
0.449823 0.023015 0.259819
0.553556 0.033844 0.273045
0.647933 0.045523 0.289097
0.001173 0.095477 0.505937
0.159863 0.144547 0.533188
0.232249 0.153717 0.474875
0.308472 0.159767 0.411221
0.382098 0.163591 0.355804
0.483237 0.169948 0.363555
0.581855 0.173502 0.377623
0.672059 0.186289 0.393678
0.026093 0.216276 0.492196
0.161264 0.265409 0.529439
0.274908 0.315041 0.562769
0.347669 0.324501 0.511641
0.416140 0.332498 0.462601
0.509463 0.345959 0.472994
0.604080 0.361776 0.489284
0.691992 0.378408 0.504961
0.051993 0.332027 0.486301
0.162770 0.380885 0.527256
0.273913 0.431371 0.570410
0.382641 0.481037 0.609358
0.450525 0.492788 0.570132
0.544466 0.506828 0.579571
0.647841 0.517591 0.588626
0.749941 0.527685 0.593829
0.065852 0.441916 0.488993
0.159878 0.489981 0.532201
0.271240 0.538187 0.578048
0.380931 0.588687 0.621352
0.506271 0.623827 0.647368
0.614464 0.631134 0.649423
0.721051 0.638756 0.653957
0.822784 0.645829 0.657092
0.074805 0.553515 0.537902
0.153384 0.599416 0.579720
0.264064 0.645148 0.622937
0.402901 0.682976 0.653522
0.531758 0.714177 0.675880
0.631505 0.718448 0.664402
0.735428 0.723765 0.666054
0.835066 0.729894 0.669059
0.091081 0.660888 0.589826
0.165558 0.702224 0.627661
0.297838 0.737023 0.656585
0.434172 0.769927 0.684177
0.559226 0.798969 0.705141
0.653961 0.801890 0.691392
0.744433 0.802587 0.674274
0.840435 0.807550 0.675737
0.123857 0.755249 0.633729
0.216107 0.788051 0.660428
0.340953 0.818831 0.686896
0.466859 0.849628 0.712746
0.585237 0.877769 0.733981
0.675525 0.880307 0.718627
0.760811 0.880633 0.700434
0.844949 0.881612 0.683184
0.000607 0.005199 0.630557
0.088438 0.007216 0.567632
0.180433 0.010302 0.502601
0.261487 0.013549 0.435808
0.338766 0.017170 0.370768
0.414854 0.021549 0.310249
0.516018 0.031455 0.316454
0.614148 0.043098 0.329113
0.022360 0.087014 0.612484
0.162336 0.142543 0.638486
0.235138 0.150823 0.583301
0.309116 0.158571 0.522161
0.377837 0.163236 0.463553
0.451113 0.166935 0.409496
0.547464 0.169752 0.416932
0.640140 0.176654 0.429543
0.034754 0.216988 0.599715
0.173385 0.267409 0.631665
0.280256 0.317853 0.665162
0.347152 0.327214 0.615223
0.411569 0.334700 0.563470
0.480152 0.343226 0.514611
0.571467 0.358102 0.524574
0.660949 0.373175 0.540173
0.072684 0.334172 0.592080
0.168679 0.383885 0.629997
0.279615 0.435086 0.669982
0.384506 0.485079 0.705885
0.448721 0.495857 0.664412
0.515177 0.503369 0.619249
0.612488 0.515177 0.623358
0.716430 0.523987 0.629680
0.082335 0.445164 0.591382
0.166672 0.492322 0.631046
0.271831 0.541952 0.672472
0.386118 0.590480 0.713711
0.511047 0.624620 0.735023
0.588191 0.632127 0.693830
0.692009 0.638784 0.692724
0.793500 0.645731 0.696777
0.071985 0.551692 0.596344
0.159589 0.597814 0.637411
0.272600 0.643320 0.678051
0.407825 0.680236 0.707521
0.540838 0.713673 0.732862
0.662585 0.742654 0.751929
0.763458 0.749258 0.752662
0.861054 0.754853 0.755715
0.071644 0.657989 0.641242
0.174398 0.699942 0.679323
0.303552 0.733669 0.707138
0.436385 0.767539 0.733679
0.565536 0.798470 0.757559
0.685513 0.826362 0.778087
0.775652 0.829743 0.766805
0.868913 0.834283 0.767801
0.132413 0.753230 0.684990
0.223500 0.784585 0.711270
0.345786 0.816319 0.736547
0.471994 0.847408 0.761257
0.591164 0.876286 0.784950
0.703747 0.903751 0.804246
0.788938 0.906663 0.791093
0.871635 0.907732 0.775432
0.060735 0.009571 0.730245
0.112581 0.010667 0.671325
0.182345 0.013125 0.609908
0.260573 0.016608 0.547696
0.336527 0.020579 0.484947
0.411230 0.024865 0.420828
0.482425 0.029686 0.362449
0.580177 0.040682 0.370021
0.079534 0.077206 0.712828
0.182850 0.138113 0.736102
0.245592 0.146437 0.683341
0.309801 0.159166 0.627715
0.378336 0.160918 0.570626
0.445208 0.168329 0.512729
0.516612 0.169044 0.460172
0.606977 0.180234 0.468245
0.092476 0.216970 0.698789
0.187385 0.268867 0.729265
0.289055 0.322702 0.758659
0.350827 0.331077 0.712705
0.413192 0.337719 0.662273
0.475588 0.346241 0.612007
0.540919 0.355134 0.564925
0.628807 0.370372 0.574526
0.099819 0.337653 0.691673
0.185005 0.388593 0.725984
0.286134 0.438490 0.763271
0.389517 0.488716 0.797268
0.451159 0.498997 0.758006
0.513139 0.505909 0.709687
0.580414 0.513250 0.663554
0.683378 0.521241 0.665088
0.101458 0.449729 0.690332
0.176518 0.496481 0.726783
0.282949 0.546139 0.766475
0.396266 0.591562 0.802002
0.522393 0.625788 0.820774
0.592434 0.632589 0.777994
0.660783 0.636833 0.731507
0.760297 0.643248 0.731158
0.096424 0.556126 0.692336
0.176520 0.600643 0.730138
0.285589 0.644533 0.765814
0.419450 0.680842 0.792129
0.547096 0.714510 0.816670
0.667116 0.744269 0.834050
0.738005 0.750850 0.794852
0.833055 0.755805 0.793888
0.085898 0.657341 0.698641
0.181683 0.697331 0.733013
0.309659 0.731875 0.758500
0.443697 0.764580 0.784270
0.569078 0.795581 0.808045
0.690783 0.826139 0.831712
0.799510 0.852765 0.849660
0.892180 0.858692 0.850643
0.153858 0.750163 0.733539
0.235264 0.782148 0.759353
0.350006 0.813381 0.783635
0.476073 0.844805 0.808048
0.593428 0.874086 0.831532
0.708136 0.903982 0.855088
0.814341 0.930407 0.875136
0.894836 0.933501 0.863904
0.147324 0.016999 0.816448
0.155441 0.015926 0.764647
0.196739 0.017007 0.710692
0.266515 0.020452 0.650115
0.338650 0.024455 0.591404
0.409789 0.028855 0.530732
0.478740 0.033574 0.470039
0.548543 0.038900 0.414206
0.138827 0.062078 0.804002
0.221116 0.134426 0.822726
0.257005 0.144869 0.776430
0.319082 0.154286 0.722646
0.380446 0.161431 0.669688
0.445093 0.170281 0.615169
0.511120 0.173211 0.560316
0.574950 0.180790 0.509964
0.143494 0.216864 0.790236
0.216903 0.272614 0.817264
0.305462 0.322684 0.844672
0.359988 0.333084 0.801582
0.416733 0.340953 0.755737
0.476648 0.348089 0.708170
0.538117 0.356128 0.657771
0.600832 0.366676 0.612528
0.145275 0.343537 0.784295
0.208208 0.391970 0.814563
0.302537 0.442919 0.849322
0.400644 0.493274 0.880828
0.459422 0.502239 0.843810
0.518068 0.508603 0.797903
0.583623 0.513484 0.749028
0.651478 0.518707 0.702496
0.141589 0.455230 0.782478
0.203652 0.501172 0.816014
0.297224 0.550166 0.852202
0.413689 0.593732 0.882326
0.535593 0.627071 0.901174
0.601636 0.633434 0.860393
0.665231 0.636831 0.813283
0.730129 0.641471 0.767812
0.131022 0.561281 0.783903
0.197664 0.606072 0.818471
0.306986 0.646456 0.848154
0.434599 0.682054 0.872719
0.559972 0.715244 0.896993
0.677155 0.744846 0.914935
0.741159 0.750989 0.874091
0.803746 0.753966 0.829691
0.129458 0.662208 0.787089
0.207462 0.697847 0.814082
0.328468 0.731324 0.839182
0.457122 0.764771 0.863751
0.578948 0.795476 0.887313
0.696391 0.826178 0.910729
0.804849 0.853625 0.929063
0.869308 0.859371 0.889864
0.163558 0.748293 0.782047
0.248250 0.779282 0.807145
0.356109 0.811165 0.831496
0.483147 0.842267 0.855424
0.598584 0.871528 0.878993
0.710034 0.901270 0.903208
0.818117 0.929718 0.926828
0.914459 0.956051 0.944601
