gsg/02_Everyday/GSG_LUT_Everyday_FilmicOutdoor.cube
# GSG LUTs 1.0
# Copyright (c) 2016-2020 Greyscalegorilla
# See EULA for licensing and distribution information
# Converted by Briz LUT Converter
LUT_3D_SIZE 5
DOMAIN_MIN 0.000000 0.000000 0.000000
DOMAIN_MAX 0.903226 0.903226 0.903226
0.059829 0.064957 0.067399
0.165008 0.080838 0.073047
0.333672 0.090488 0.082492
0.559093 0.075497 0.085383
0.848832 0.050794 0.056607
0.051739 0.193470 0.139407
0.166813 0.208143 0.131047
0.365609 0.219012 0.123848
0.593361 0.225239 0.118618
0.874681 0.240448 0.088345
0.050794 0.411446 0.254717
0.150613 0.410628 0.261775
0.383481 0.452300 0.229509
0.651451 0.469093 0.206475
0.925759 0.494981 0.197578
0.050794 0.662917 0.388593
0.191452 0.662927 0.394638
0.443026 0.665199 0.407778
0.689543 0.715618 0.356664
0.940904 0.740148 0.349686
0.502793 0.901579 0.595770
0.557295 0.900773 0.600691
0.680103 0.898056 0.613989
0.821643 0.905369 0.624002
0.960997 0.929227 0.595760
0.058671 0.085021 0.185427
0.158777 0.096372 0.197492
0.344640 0.105489 0.205197
0.568417 0.108685 0.211064
0.849087 0.050870 0.202345
0.050794 0.211263 0.237992
0.163855 0.225348 0.248755
0.369420 0.234618 0.244842
0.597077 0.239675 0.238586
0.871546 0.241815 0.225090
0.050794 0.430839 0.314852
0.138877 0.437050 0.335806
0.392091 0.463922 0.323116
0.662044 0.479750 0.311013
0.923790 0.495550 0.300520
0.050794 0.677733 0.434671
0.200059 0.678603 0.447359
0.457680 0.677399 0.461380
0.697560 0.722248 0.425131
0.943995 0.744871 0.421512
0.506435 0.904720 0.620395
0.560506 0.903859 0.624762
0.686065 0.901910 0.638576
0.826403 0.906726 0.651165
0.961039 0.930439 0.625485
0.050794 0.117909 0.372208
0.138440 0.126433 0.383992
0.358344 0.140218 0.403259
0.601835 0.145305 0.413493
0.870474 0.050794 0.392017
0.050794 0.237725 0.413682
0.159441 0.248185 0.422558
0.383350 0.263090 0.438546
0.622776 0.269163 0.436547
0.883205 0.214578 0.407237
0.050794 0.458597 0.480216
0.075583 0.470631 0.488499
0.425847 0.505936 0.514640
0.678452 0.499312 0.496444
0.924448 0.488816 0.468082
0.050794 0.700729 0.538813
0.061042 0.706585 0.544535
0.489847 0.720801 0.581210
0.724553 0.743673 0.572867
0.953935 0.759372 0.570052
0.334016 0.914606 0.638989
0.457460 0.914791 0.651780
0.685868 0.911510 0.694510
0.832818 0.909274 0.711417
0.959516 0.932681 0.691993
0.050794 0.168341 0.587475
0.150365 0.173132 0.594307
0.393682 0.176466 0.612974
0.652529 0.181864 0.627796
0.916656 0.231656 0.643584
0.050794 0.277800 0.612309
0.191113 0.281628 0.617589
0.417449 0.289764 0.632954
0.674698 0.305508 0.646455
0.924856 0.345692 0.655650
0.050794 0.477321 0.650471
0.213540 0.487627 0.657389
0.462856 0.515109 0.675252
0.719072 0.534728 0.688971
0.940197 0.538132 0.679206
0.050794 0.723758 0.699775
0.198390 0.730223 0.704652
0.505817 0.749559 0.719582
0.780407 0.785132 0.748936
0.957032 0.760988 0.718314
0.258351 0.926181 0.746828
0.382171 0.926446 0.748968
0.591456 0.927187 0.756020
0.835728 0.926234 0.794548
0.958956 0.938445 0.793150
0.266060 0.258868 0.822624
0.353337 0.260147 0.825056
0.535262 0.259684 0.831749
0.768113 0.251668 0.843216
0.990077 0.298939 0.845413
0.286678 0.350152 0.828774
0.368556 0.351682 0.830782
0.545931 0.354837 0.836933
0.773437 0.357366 0.847373
0.989696 0.397817 0.849837
0.292406 0.532310 0.841445
0.385964 0.538855 0.842892
0.562979 0.546046 0.848323
0.782309 0.557192 0.857647
0.984718 0.589433 0.861641
0.354711 0.750585 0.858868
0.429532 0.751293 0.859755
0.594628 0.755801 0.863137
0.798836 0.775447 0.874193
0.970097 0.801300 0.884484
0.513944 0.934325 0.893167
0.561336 0.934356 0.894190
0.681189 0.935346 0.897757
0.834577 0.939338 0.905987
0.965495 0.957004 0.931037
