gsg/02_Everyday/GSG_LUT_Everyday_MagazineCover.cube
# GSG LUTs 1.0
# Copyright (c) 2016-2020 Greyscalegorilla
# See EULA for licensing and distribution information
# Converted by Briz LUT Converter
LUT_3D_SIZE 32
0.000000 0.000000 0.000000
0.007381 0.000496 0.000252
0.017181 0.000764 0.000504
0.030856 0.001316 0.000756
0.050297 0.002292 0.000977
0.072433 0.002852 0.000977
0.099437 0.002206 0.000977
0.131774 0.001000 0.000922
0.167947 0.000181 0.000733
0.208539 0.000000 0.000662
0.254370 0.000000 0.000331
0.301847 0.000000 0.000000
0.351853 0.000000 0.000000
0.406105 0.000000 0.000000
0.460254 0.000000 0.000000
0.512750 0.000000 0.000000
0.563291 0.000000 0.000000
0.612817 0.000000 0.000000
0.661089 0.000000 0.000000
0.707432 0.000000 0.000000
0.754004 0.000000 0.000000
0.796014 0.000000 0.000000
0.832565 0.000000 0.000000
0.867494 0.000000 0.000000
0.901335 0.000000 0.000000
0.934074 0.000000 0.000000
0.964749 0.000000 0.000000
0.988830 0.000000 0.000000
0.998535 0.000000 0.000000
0.999953 0.000000 0.000000
1.000000 0.018433 0.000000
1.000000 0.066422 0.000000
0.000000 0.006609 0.003285
0.007365 0.007366 0.002292
0.017687 0.008138 0.001778
0.032081 0.008933 0.001542
0.051624 0.009878 0.001741
0.074249 0.010224 0.001741
0.101527 0.009283 0.001741
0.134131 0.006256 0.001739
0.170306 0.002711 0.001670
0.209909 0.000583 0.001345
0.254433 0.000016 0.000832
0.301395 0.000000 0.000320
0.350704 0.000000 0.000000
0.402909 0.000000 0.000000
0.454940 0.000000 0.000000
0.505846 0.000000 0.000000
0.555330 0.000000 0.000000
0.604206 0.000000 0.000000
0.652393 0.000000 0.000000
0.698997 0.000000 0.000000
0.745837 0.000000 0.000000
0.788287 0.000000 0.000000
0.825534 0.000000 0.000000
0.861054 0.000000 0.000000
0.895410 0.000000 0.000000
0.928457 0.000000 0.000000
0.959397 0.000000 0.000000
0.984611 0.000000 0.000000
0.997004 0.000000 0.000000
0.999864 0.000015 0.000000
1.000000 0.027452 0.000000
1.000000 0.099374 0.000000
0.000000 0.015101 0.006861
0.006293 0.015874 0.005876
0.016649 0.017153 0.004580
0.032116 0.018454 0.003310
0.052980 0.019441 0.002806
0.076487 0.019746 0.002762
0.104527 0.018454 0.002746
0.137606 0.014405 0.002678
0.173855 0.008388 0.002422
0.212837 0.002908 0.002012
0.256473 0.000687 0.001240
0.302855 0.000041 0.000473
0.351017 0.000000 0.000000
0.400737 0.000000 0.000000
0.450539 0.000000 0.000000
0.499509 0.000000 0.000000
0.547448 0.000000 0.000000
0.595437 0.000000 0.000000
0.643397 0.000000 0.000000
0.690291 0.000000 0.000000
0.737619 0.000000 0.000000
0.780727 0.000000 0.000000
0.818543 0.000000 0.000000
0.854551 0.000000 0.000000
0.889212 0.000000 0.000000
0.922313 0.000000 0.000000
0.953649 0.000000 0.000000
0.979804 0.000000 0.000000
0.995427 0.000000 0.000000
0.999563 0.000855 0.000000
0.999992 0.036797 0.000000
1.000000 0.130096 0.000000
0.000000 0.026712 0.011123
0.004231 0.027422 0.010652
0.013991 0.029009 0.008886
0.030448 0.031313 0.006443
0.053969 0.033088 0.004855
0.080158 0.033491 0.004014
0.109713 0.032026 0.003658
0.143516 0.027668 0.003377
0.179984 0.020344 0.003019
0.219151 0.011255 0.002348
0.263097 0.004843 0.001331
0.309274 0.001473 0.000442
0.356186 0.000496 0.000000
0.403692 0.000218 0.000000
0.451313 0.000052 0.000000
0.498729 0.000000 0.000000
0.545453 0.000000 0.000000
0.592650 0.000000 0.000000
0.640362 0.000000 0.000000
0.687198 0.000000 0.000000
0.734431 0.000000 0.000000
0.777588 0.000000 0.000000
0.815397 0.000000 0.000000
0.851349 0.000000 0.000000
0.885980 0.000000 0.000000
0.919056 0.000000 0.000000
0.950368 0.000020 0.000000
0.977095 0.000188 0.000000
0.994369 0.000682 0.000000
0.999505 0.009148 0.000000
0.999992 0.056597 0.000000
1.000000 0.160959 0.000000
0.000000 0.043665 0.015093
0.002010 0.043720 0.015333
0.009316 0.045565 0.014087
0.024451 0.048685 0.011519
0.050599 0.052232 0.008251
0.082125 0.054192 0.005650
0.116581 0.053645 0.004052
0.152208 0.049836 0.003340
0.189343 0.043186 0.002584
0.229682 0.033336 0.001704
0.274968 0.021828 0.000666
0.321356 0.012937 0.000137
0.367145 0.007682 0.000000
0.413189 0.003711 0.000000
0.459343 0.001282 0.000000
0.505441 0.000443 0.000000
0.551774 0.000313 0.000000
0.599078 0.000200 0.000000
0.646388 0.000103 0.000000
0.692604 0.000044 0.000000
0.738878 0.000032 0.000000
0.780981 0.000032 0.000000
0.817993 0.000032 0.000000
0.853417 0.000055 0.000000
0.887738 0.000161 0.000000
0.920580 0.000316 0.000000
0.951664 0.000816 0.000000
0.978164 0.003403 0.000000
0.994669 0.010732 0.000000
0.999519 0.038463 0.000000
0.999992 0.099481 0.000000
1.000000 0.198645 0.000000
0.000000 0.063531 0.018504
0.000720 0.063583 0.019017
0.004474 0.065322 0.018449
0.015144 0.068703 0.016141
0.039183 0.073797 0.012205
0.074764 0.078143 0.007811
0.116788 0.080424 0.004051
0.158878 0.079183 0.002110
0.199044 0.074544 0.001344
0.240063 0.066742 0.000669
0.284833 0.055877 0.000139
0.329824 0.044009 0.000000
0.373992 0.031600 0.000000
0.418508 0.019777 0.000000
0.462905 0.011852 0.000000
0.507652 0.007982 0.000000
0.553555 0.005794 0.000000
0.600837 0.003657 0.000000
0.647959 0.001874 0.000000
0.693614 0.000918 0.000000
0.739260 0.000666 0.000000
0.780855 0.000665 0.000000
0.817595 0.000733 0.000000
0.852968 0.001142 0.000000
0.887094 0.002856 0.000000
0.919879 0.005794 0.000000
0.950897 0.010524 0.000000
0.977418 0.020836 0.000000
0.994526 0.044594 0.000000
0.999514 0.086178 0.000000
0.999992 0.150752 0.000000
1.000000 0.242192 0.000000
0.000000 0.088692 0.020804
0.000033 0.088621 0.021532
0.001286 0.089499 0.021302
0.006372 0.092374 0.019662
0.023523 0.098229 0.015239
0.057969 0.104877 0.009753
0.106712 0.111375 0.004195
0.160037 0.115094 0.001114
0.209327 0.114435 0.000343
0.253355 0.109061 0.000140
0.297102 0.100310 0.000000
0.339627 0.089377 0.000000
0.381043 0.076486 0.000000
0.423667 0.063166 0.000000
0.466603 0.051774 0.000000
0.510057 0.042297 0.000000
0.555260 0.033223 0.000000
0.602160 0.023789 0.000000
0.648687 0.016122 0.000000
0.693704 0.012217 0.000000
0.738600 0.010975 0.000000
0.779707 0.010966 0.000000
0.816428 0.011574 0.000000
0.851728 0.013620 0.000000
0.885623 0.020851 0.000000
0.918274 0.034082 0.000000
0.948891 0.051991 0.000000
0.975517 0.073651 0.000000
0.993889 0.103898 0.000000
0.999482 0.142273 0.000000
0.999992 0.199330 0.000000
1.000000 0.282477 0.000000
0.000000 0.121580 0.020560
0.000006 0.120858 0.021249
0.000238 0.120551 0.021552
0.001602 0.122344 0.020589
0.010461 0.128038 0.016314
0.036165 0.136278 0.010359
0.086373 0.146221 0.004036
0.151659 0.155764 0.000567
0.216022 0.162045 0.000000
0.272231 0.161617 0.000000
0.318843 0.154204 0.000000
0.359130 0.143815 0.000000
0.396506 0.132632 0.000000
0.435754 0.121861 0.000000
0.476854 0.111537 0.000000
0.519589 0.100938 0.000000
0.563796 0.089794 0.000000
0.609026 0.078610 0.000000
0.653917 0.069682 0.000000
0.697617 0.064678 0.000000
0.741300 0.062767 0.000000
0.781538 0.062826 0.000000
0.817646 0.064428 0.000000
0.852223 0.068733 0.000000
0.885641 0.079288 0.000000
0.917805 0.096676 0.000000
0.948112 0.119248 0.000000
0.974602 0.143145 0.000000
0.993443 0.168227 0.000000
0.999456 0.196106 0.000000
0.999992 0.242058 0.000000
1.000000 0.315838 0.000000
0.000000 0.160337 0.018606
0.000000 0.158645 0.018801
0.000000 0.157512 0.019450
0.000188 0.157822 0.019187
0.003175 0.162345 0.015936
0.017503 0.170942 0.009991
0.061384 0.182561 0.003770
0.131808 0.196336 0.000518
0.210109 0.209920 0.000000
0.284616 0.218001 0.000000
0.344080 0.215252 0.000000
0.388161 0.205255 0.000000
0.422033 0.192470 0.000000
0.457187 0.181510 0.000000
0.495205 0.172430 0.000000
0.536120 0.164844 0.000000
0.578571 0.157993 0.000000
0.621278 0.151899 0.000000
0.663665 0.147026 0.000000
0.705281 0.143650 0.000000
0.747094 0.142064 0.000000
0.785894 0.142467 0.000000
0.821080 0.144837 0.000000
0.854876 0.150240 0.000000
0.887562 0.159331 0.000000
0.919163 0.171785 0.000000
0.949109 0.187429 0.000000
0.975163 0.204983 0.000000
0.993606 0.223886 0.000000
0.999465 0.245289 0.000000
0.999992 0.284980 0.000000
1.000000 0.353145 0.000000
0.000000 0.198881 0.015849
0.000000 0.199357 0.015279
0.000000 0.198646 0.015945
0.000034 0.197477 0.016646
0.000772 0.199051 0.014871
0.007158 0.206603 0.009287
0.036209 0.218262 0.003385
0.099103 0.233030 0.000378
0.182760 0.250031 0.000000
0.271431 0.266859 0.000000
0.354309 0.275889 0.000000
0.415819 0.272980 0.000000
0.454407 0.260231 0.000000
0.487833 0.247204 0.000000
0.521579 0.236072 0.000000
0.557757 0.227845 0.000000
0.596354 0.222018 0.000000
0.635999 0.217677 0.000000
0.675500 0.214463 0.000000
0.714402 0.212096 0.000000
0.754025 0.210951 0.000000
0.791418 0.211532 0.000000
0.825719 0.213709 0.000000
0.858786 0.218351 0.000000
0.890851 0.225564 0.000000
0.921801 0.234889 0.000000
0.951139 0.246568 0.000000
0.976696 0.260119 0.000000
0.994204 0.274973 0.000000
0.999497 0.292422 0.000000
0.999992 0.331135 0.000000
1.000000 0.403214 0.000000
0.000000 0.230816 0.010162
0.000000 0.240436 0.010267
0.000000 0.243166 0.011377
0.000000 0.240745 0.012705
0.000107 0.239199 0.012595
0.001974 0.244037 0.008558
0.015477 0.254670 0.003246
0.063309 0.269239 0.000378
0.142742 0.286638 0.000000
0.237560 0.307197 0.000000
0.336306 0.326826 0.000000
0.422118 0.337525 0.000000
0.482336 0.334257 0.000000
0.521950 0.321889 0.000000
0.555126 0.308502 0.000000
0.586564 0.296810 0.000000
0.619517 0.288195 0.000000
0.654672 0.282552 0.000000
0.690667 0.278906 0.000000
0.726381 0.276059 0.000000
0.763319 0.274431 0.000000
0.798971 0.274535 0.000000
0.832191 0.276141 0.000000
0.864503 0.279738 0.000000
0.895750 0.285340 0.000000
0.925762 0.292722 0.000000
0.954220 0.302043 0.000000
0.978764 0.312867 0.000000
0.994847 0.324784 0.000000
0.999530 0.339111 0.000000
0.999992 0.375904 0.000000
1.000000 0.447170 0.000000
0.000000 0.268991 0.004214
0.000000 0.284157 0.004721
0.000000 0.289025 0.005845
0.000000 0.286003 0.007604
0.000000 0.281906 0.008969
0.000000 0.282459 0.007422
0.003958 0.291355 0.003246
0.032368 0.305617 0.000378
0.097200 0.322051 0.000000
0.196269 0.342319 0.000000
0.302450 0.366409 0.000000
0.402874 0.387344 0.000000
0.486410 0.397315 0.000000
0.545433 0.393795 0.000000
0.586579 0.382409 0.000000
0.616939 0.368118 0.000000
0.645412 0.355819 0.000000
0.675595 0.347028 0.000000
0.707352 0.341295 0.000000
0.739553 0.336999 0.000000
0.773515 0.334283 0.000000
0.807010 0.333316 0.000000
0.838703 0.333847 0.000000
0.869811 0.336336 0.000000
0.900063 0.340552 0.000000
0.929186 0.346258 0.000000
0.956708 0.353637 0.000000
0.980301 0.362255 0.000000
0.995283 0.371928 0.000000
0.999551 0.383849 0.000000
0.999992 0.415497 0.000000
1.000000 0.477695 0.000000
0.000000 0.294923 0.000843
0.000000 0.324898 0.000860
0.000000 0.335409 0.001466
0.000000 0.332279 0.002814
0.000000 0.326349 0.004711
0.000000 0.322544 0.005148
0.001208 0.327915 0.002694
0.012699 0.340771 0.000305
0.057651 0.355660 0.000000
0.153490 0.373404 0.000000
0.260301 0.395951 0.000000
0.362954 0.419324 0.000000
0.458773 0.439092 0.000000
0.542228 0.450045 0.000000
0.602926 0.448799 0.000000
0.642121 0.437653 0.000000
0.670967 0.423549 0.000000
0.697868 0.411216 0.000000
0.725169 0.401808 0.000000
0.753282 0.394817 0.000000
0.784035 0.390349 0.000000
0.815021 0.387949 0.000000
0.844707 0.387104 0.000000
0.874359 0.388344 0.000000
0.903626 0.391357 0.000000
0.931821 0.395733 0.000000
0.958611 0.401613 0.000000
0.981438 0.408758 0.000000
0.995554 0.416881 0.000000
0.999563 0.426857 0.000000
0.999992 0.455058 0.000000
1.000000 0.512167 0.000000
0.000000 0.292457 0.000142
0.000000 0.356079 0.000146
0.000000 0.379674 0.000302
0.000000 0.376953 0.000646
0.000000 0.370142 0.001510
0.000000 0.363472 0.002264
0.000247 0.363592 0.001304
0.004748 0.372887 0.000110
0.032953 0.386792 0.000000
0.109062 0.402663 0.000000
0.214714 0.422360 0.000000
0.319487 0.443977 0.000000
0.415992 0.466213 0.000000
0.510626 0.486673 0.000000
0.593459 0.499639 0.000000
0.652852 0.499762 0.000000
0.691420 0.489711 0.000000
0.719729 0.476299 0.000000
0.743660 0.463219 0.000000
0.767612 0.452334 0.000000
0.795182 0.445057 0.000000
0.823717 0.440861 0.000000
0.851352 0.438813 0.000000
0.879301 0.438936 0.000000
0.907224 0.440961 0.000000
0.934535 0.444319 0.000000
0.960670 0.449072 0.000000
0.982741 0.454851 0.000000
0.996034 0.461432 0.000000
0.999685 0.469708 0.000000
0.999995 0.499936 0.000000
1.000000 0.565103 0.000000
0.000000 0.309236 0.000000
0.000000 0.388156 0.000000
0.000000 0.417927 0.000000
0.000000 0.415745 0.000013
0.000000 0.409540 0.000186
0.000000 0.402004 0.000514
0.000000 0.397426 0.000324
0.001448 0.402659 0.000000
0.014267 0.415560 0.000000
0.064667 0.430853 0.000000
0.168796 0.448339 0.000000
0.277128 0.467135 0.000000
0.372123 0.488192 0.000000
0.468258 0.511807 0.000000
0.561597 0.533533 0.000000
0.641162 0.546821 0.000000
0.698766 0.547618 0.000000
0.735886 0.538027 0.000000
0.760696 0.523758 0.000000
0.782216 0.509808 0.000000
0.806598 0.499307 0.000000
0.832558 0.492876 0.000000
0.858446 0.489318 0.000000
0.884633 0.488117 0.000000
0.910836 0.489061 0.000000
0.936904 0.491296 0.000000
0.962009 0.494868 0.000000
0.983264 0.499240 0.000000
0.996203 0.504275 0.000000
0.999827 0.510988 0.000000
1.000000 0.539960 0.000000
1.000000 0.604207 0.000000
0.000000 0.350522 0.000000
0.000000 0.423076 0.000000
0.000000 0.450722 0.000000
0.000000 0.449145 0.000000
0.000000 0.444363 0.000000
0.000000 0.437763 0.000000
0.000000 0.431001 0.000000
0.000422 0.432002 0.000000
0.004022 0.441843 0.000000
0.034235 0.456615 0.000000
0.127944 0.473084 0.000000
0.234939 0.489701 0.000000
0.330601 0.507911 0.000000
0.423548 0.529855 0.000000
0.516872 0.553575 0.000000
0.606270 0.575231 0.000000
0.682922 0.588913 0.000000
0.737751 0.590018 0.000000
0.771889 0.580408 0.000000
0.796045 0.566733 0.000000
0.818966 0.554005 0.000000
0.842367 0.544851 0.000000
0.865986 0.539070 0.000000
0.890435 0.536266 0.000000
0.914974 0.535694 0.000000
0.939354 0.536670 0.000000
0.963087 0.539077 0.000000
0.983480 0.542375 0.000000
0.996215 0.546338 0.000000
0.999827 0.551647 0.000000
1.000000 0.575825 0.000000
1.000000 0.629438 0.000000
0.000000 0.376360 0.000000
0.000000 0.452869 0.000000
0.000000 0.482004 0.000000
0.000000 0.480854 0.000000
0.000000 0.476901 0.000000
0.000000 0.471391 0.000000
0.000000 0.464450 0.000000
0.000080 0.461137 0.000000
0.000720 0.465807 0.000000
0.018801 0.479103 0.000000
0.090060 0.495190 0.000000
0.189407 0.510843 0.000000
0.291216 0.526906 0.000000
0.381882 0.545886 0.000000
0.471530 0.567785 0.000000
0.560778 0.591535 0.000000
0.646668 0.613673 0.000000
0.719569 0.627525 0.000000
0.771449 0.628941 0.000000
0.806246 0.620999 0.000000
0.831378 0.608450 0.000000
0.852844 0.596876 0.000000
0.873902 0.588542 0.000000
0.896310 0.583733 0.000000
0.919320 0.581536 0.000000
0.942269 0.581357 0.000000
0.964677 0.582617 0.000000
0.984098 0.585074 0.000000
0.996263 0.588370 0.000000
0.999827 0.592557 0.000000
1.000000 0.615198 0.000000
1.000000 0.667250 0.000000
0.000000 0.387821 0.000000
0.000000 0.479296 0.000000
0.000000 0.514024 0.000000
0.000000 0.512760 0.000000
0.000000 0.509112 0.000000
0.000000 0.504192 0.000000
0.000000 0.497661 0.000000
0.000000 0.491296 0.000000
0.000000 0.491066 0.000000
0.008755 0.501582 0.000000
0.052692 0.516893 0.000000
0.142202 0.532246 0.000000
0.254084 0.547242 0.000000
0.345321 0.564070 0.000000
0.432031 0.583225 0.000000
0.517836 0.605353 0.000000
0.603429 0.629170 0.000000
0.684735 0.650487 0.000000
0.753158 0.663586 0.000000
0.804585 0.666277 0.000000
0.838920 0.658784 0.000000
0.862367 0.647410 0.000000
0.882056 0.637272 0.000000
0.902392 0.630452 0.000000
0.923802 0.626689 0.000000
0.945515 0.625058 0.000000
0.966757 0.625200 0.000000
0.985001 0.626602 0.000000
0.996457 0.628841 0.000000
0.999835 0.631985 0.000000
1.000000 0.656597 0.000000
1.000000 0.715901 0.000000
0.000000 0.425586 0.000000
0.000000 0.512824 0.000000
0.000000 0.545718 0.000000
0.000000 0.544429 0.000000
0.000000 0.541342 0.000000
0.000000 0.537339 0.000000
0.000000 0.531868 0.000000
0.000000 0.524925 0.000000
0.000000 0.521309 0.000000
0.002511 0.527346 0.000000
0.024976 0.541236 0.000000
0.103211 0.556364 0.000000
0.219988 0.570736 0.000000
0.314332 0.586173 0.000000
0.400218 0.602856 0.000000
0.481961 0.621529 0.000000
0.563122 0.642524 0.000000
0.643861 0.664798 0.000000
0.719715 0.684488 0.000000
0.785883 0.697975 0.000000
0.835611 0.700416 0.000000
0.867773 0.693928 0.000000
0.889793 0.684449 0.000000
0.908957 0.676113 0.000000
0.928603 0.670577 0.000000
0.948697 0.667265 0.000000
0.968557 0.666008 0.000000
0.985742 0.665981 0.000000
0.996617 0.666901 0.000000
0.999842 0.669112 0.000000
1.000000 0.691427 0.000000
1.000000 0.746024 0.000000
0.000000 0.484005 0.000000
0.000000 0.551639 0.000000
0.000000 0.577301 0.000000
0.000000 0.576465 0.000000
0.000000 0.574247 0.000000
0.000000 0.571439 0.000000
0.000000 0.567404 0.000000
0.000000 0.561411 0.000000
0.000000 0.555757 0.000000
0.000247 0.556228 0.000000
0.013002 0.568165 0.000000
0.077433 0.582879 0.000000
0.187137 0.596544 0.000000
0.286238 0.610699 0.000000
0.373538 0.625609 0.000000
0.452745 0.641450 0.000000
0.529502 0.658774 0.000000
0.606218 0.678454 0.000000
0.682185 0.699501 0.000000
0.755263 0.719402 0.000000
0.820204 0.732744 0.000000
0.866376 0.735089 0.000000
0.895534 0.729487 0.000000
0.915593 0.721019 0.000000
0.933688 0.713829 0.000000
0.951961 0.708777 0.000000
0.970336 0.705931 0.000000
0.986643 0.704603 0.000000
0.996829 0.704363 0.000000
0.999852 0.705760 0.000000
1.000000 0.721164 0.000000
1.000000 0.758691 0.000000
0.000000 0.521943 0.000000
0.000000 0.589194 0.000000
0.000000 0.614736 0.000000
0.000000 0.613967 0.000000
0.000000 0.612180 0.000000
0.000000 0.610118 0.000000
0.000000 0.607085 0.000000
0.000000 0.602277 0.000000
0.000000 0.595997 0.000000
0.000000 0.592402 0.000000
0.008330 0.600054 0.000000
0.054683 0.612651 0.000000
0.150064 0.625828 0.000000
0.258606 0.638810 0.000000
0.350515 0.652242 0.000000
0.429186 0.666480 0.000000
0.503536 0.681511 0.000000
0.576474 0.698070 0.000000
0.649031 0.716882 0.000000
0.721475 0.737136 0.000000
0.793296 0.756601 0.000000
0.852034 0.768210 0.000000
0.893680 0.770754 0.000000
0.921080 0.766138 0.000000
0.940411 0.759159 0.000000
0.957473 0.752825 0.000000
0.974510 0.748561 0.000000
0.989405 0.746137 0.000000
0.997734 0.744856 0.000000
0.999899 0.745006 0.000000
1.000000 0.760666 0.000000
1.000000 0.800819 0.000000
0.000000 0.551585 0.000000
0.000000 0.625647 0.000000
0.000000 0.653406 0.000000
0.000000 0.652401 0.000000
0.000000 0.650615 0.000000
0.000000 0.648641 0.000000
0.000000 0.646243 0.000000
0.000000 0.642544 0.000037
0.000000 0.637010 0.000208
0.000000 0.631746 0.000619
0.004744 0.633788 0.001377
0.033441 0.642692 0.001078
0.114617 0.655534 0.000203
0.233422 0.667657 0.000000
0.330847 0.679760 0.000000
0.409716 0.692488 0.000000
0.482721 0.705787 0.000000
0.552947 0.719877 0.000000
0.621695 0.735543 0.000000
0.690418 0.752976 0.000000
0.761766 0.772740 0.000000
0.826604 0.789671 0.000000
0.879075 0.800167 0.000000
0.917271 0.802488 0.000000
0.942985 0.798965 0.000000
0.961869 0.793224 0.000000
0.978021 0.787916 0.000000
0.991465 0.784265 0.000000
0.998378 0.781773 0.000000
0.999932 0.780704 0.000000
1.000000 0.798773 0.000000
1.000000 0.847202 0.000000
0.000000 0.595872 0.000000
0.000000 0.665775 0.000000
0.000000 0.691643 0.000000
0.000000 0.690401 0.000000
0.000000 0.688628 0.000045
0.000000 0.686790 0.000403
0.000000 0.684830 0.000794
0.000000 0.682129 0.001425
0.000000 0.678079 0.002706
0.000000 0.672554 0.005381
0.002025 0.669629 0.008378
0.017498 0.674500 0.007539
0.087746 0.686179 0.003587
0.213533 0.697358 0.001252
0.315283 0.708192 0.000190
0.394534 0.719153 0.000000
0.466416 0.730630 0.000000
0.534811 0.742759 0.000000
0.600590 0.755741 0.000000
0.665613 0.769878 0.000000
0.733816 0.787056 0.000000
0.799054 0.804638 0.000000
0.856683 0.819369 0.000000
0.903997 0.828582 0.000000
0.938778 0.830617 0.000000
0.962872 0.827535 0.000000
0.979487 0.822132 0.000000
0.991921 0.817443 0.000000
0.998323 0.813829 0.000000
0.999926 0.811873 0.000000
1.000000 0.826672 0.000000
1.000000 0.868108 0.000000
0.000000 0.657056 0.002174
0.000000 0.716731 0.003466
0.000000 0.738721 0.004179
0.000000 0.737414 0.004383
0.000000 0.735673 0.004844
0.000000 0.734095 0.006026
0.000000 0.732458 0.007957
0.000000 0.730398 0.010670
0.000000 0.727367 0.015130
0.000000 0.722509 0.022445
0.000696 0.717184 0.029553
0.009588 0.718031 0.029067
0.074417 0.726358 0.020262
0.204178 0.736385 0.011718
0.309048 0.746032 0.006469
0.389311 0.755375 0.003571
0.460714 0.764938 0.001420
0.527905 0.775053 0.000245
0.591885 0.785725 0.000000
0.654347 0.797133 0.000000
0.718954 0.810735 0.000000
0.781263 0.825448 0.000000
0.838469 0.839627 0.000000
0.889739 0.851910 0.000000
0.931614 0.859228 0.000000
0.962624 0.860730 0.000000
0.981863 0.857287 0.000000
0.992892 0.852258 0.000000
0.998493 0.847813 0.000000
0.999933 0.845240 0.000000
1.000000 0.852073 0.000000
1.000000 0.873788 0.000000
0.000000 0.712828 0.015975
0.000000 0.776008 0.023669
0.000000 0.799157 0.027411
0.000000 0.797831 0.028272
0.000000 0.795903 0.029505
0.000000 0.794226 0.031929
0.000000 0.792666 0.035584
0.000000 0.790822 0.040501
0.000000 0.788425 0.047189
0.000000 0.784488 0.056048
0.000412 0.779090 0.064673
0.008035 0.776621 0.067403
0.073693 0.780540 0.061094
0.208390 0.788945 0.049643
0.316342 0.797413 0.038003
0.397717 0.805406 0.025573
0.469250 0.813213 0.013794
0.535762 0.821234 0.006594
0.598490 0.829482 0.004068
0.659199 0.838315 0.002665
0.720814 0.848542 0.001226
0.779673 0.859332 0.000372
0.833854 0.870169 0.000055
0.884272 0.881265 0.000000
0.928913 0.890567 0.000000
0.965206 0.896086 0.000000
0.987262 0.895945 0.000000
0.995992 0.892107 0.000000
0.999154 0.887255 0.000000
0.999961 0.883271 0.000000
1.000000 0.887755 0.000000
1.000000 0.905298 0.000000
0.000000 0.758762 0.046367
0.000000 0.827168 0.059779
0.000000 0.852089 0.065679
0.000000 0.850573 0.066876
0.000000 0.848588 0.068091
0.000000 0.846863 0.070669
0.000000 0.845379 0.074928
0.000000 0.843922 0.080618
0.000000 0.842009 0.087472
0.000000 0.839260 0.095470
0.001664 0.834865 0.103614
0.015552 0.830470 0.109510
0.087186 0.830529 0.108936
0.220203 0.836643 0.100137
0.327006 0.843606 0.087750
0.407803 0.850397 0.071923
0.478580 0.856715 0.055420
0.543942 0.862854 0.042332
0.605076 0.869021 0.031847
0.663889 0.875537 0.020449
0.723139 0.883097 0.009823
0.779029 0.890848 0.003327
0.830030 0.898476 0.000528
0.877888 0.907102 0.000000
0.922376 0.916008 0.000000
0.961430 0.923234 0.000000
0.987132 0.926075 0.000000
0.997189 0.923832 0.000000
0.999735 0.918866 0.000000
0.999994 0.913754 0.000000
1.000000 0.917590 0.000000
1.000000 0.935358 0.000000
0.000000 0.804309 0.093300
0.000000 0.867522 0.107662
0.000000 0.890732 0.113634
0.000000 0.889192 0.114065
0.000000 0.887445 0.114808
0.000000 0.886110 0.116863
0.000000 0.884856 0.120374
0.000000 0.883789 0.125460
0.000000 0.882596 0.131368
0.000773 0.880777 0.138085
0.008860 0.877513 0.145296
0.042588 0.873294 0.151892
0.126368 0.870999 0.154780
0.243412 0.873788 0.151552
0.340853 0.878800 0.144482
0.418244 0.884214 0.134436
0.486501 0.889101 0.122706
0.549726 0.893842 0.109695
0.608610 0.898463 0.093833
0.665064 0.903166 0.074221
0.721858 0.908776 0.055280
0.775098 0.914666 0.041775
0.823400 0.920311 0.032761
0.868477 0.926672 0.024895
0.910517 0.933529 0.014535
0.948987 0.939566 0.006303
0.978053 0.942528 0.002854
0.994085 0.941619 0.000674
0.999412 0.937539 0.000040
0.999987 0.932325 0.000000
1.000000 0.932444 0.000000
1.000000 0.942054 0.000000
0.000000 0.865501 0.156186
0.000000 0.913556 0.169895
0.000000 0.931061 0.175407
0.000000 0.929984 0.175662
0.000000 0.928886 0.176077
0.000000 0.927880 0.177565
0.000000 0.927106 0.180221
0.000528 0.926489 0.184297
0.005413 0.925692 0.189099
0.020174 0.924630 0.194578
0.048731 0.922640 0.200689
0.108823 0.919610 0.206518
0.200011 0.916775 0.210791
0.292113 0.916687 0.211442
0.374707 0.919378 0.208434
0.446232 0.923019 0.202717
0.510528 0.926365 0.195627
0.570330 0.929468 0.187128
