gsg/02_Everyday/GSG_LUT_Everyday_Shaken_Not_Stirred.cube
# GSG LUTs 1.0
# Copyright (c) 2016-2020 Greyscalegorilla
# See EULA for licensing and distribution information
# Converted by Briz LUT Converter
LUT_3D_SIZE 8
DOMAIN_MIN 0.000000 0.000000 0.000000
DOMAIN_MAX 0.903226 0.903226 0.903226
0.048352 0.052503 0.038339
0.091449 0.069124 0.053433
0.158707 0.083477 0.065832
0.253094 0.091804 0.072078
0.384095 0.089960 0.067360
0.504061 0.104581 0.080334
0.625161 0.127339 0.101997
0.732364 0.165505 0.139643
0.082965 0.116617 0.069928
0.124680 0.130608 0.082327
0.182417 0.145882 0.088266
0.269006 0.157233 0.085847
0.392034 0.160834 0.073535
0.513100 0.178049 0.087211
0.637497 0.205072 0.113017
0.750330 0.248060 0.158656
0.107543 0.198228 0.091662
0.154981 0.207341 0.100476
0.210114 0.218976 0.109466
0.287722 0.231510 0.100499
0.399241 0.238380 0.081407
0.518382 0.252015 0.093238
0.643625 0.273103 0.117942
0.759797 0.309178 0.164827
0.113908 0.304045 0.095065
0.173650 0.310118 0.099409
0.230133 0.313134 0.102863
0.308189 0.322300 0.105514
0.410039 0.332248 0.093119
0.528014 0.344443 0.105213
0.653498 0.363197 0.132527
0.770939 0.395296 0.183643
0.116468 0.431612 0.095341
0.190948 0.435536 0.099421
0.244190 0.432619 0.097143
0.324358 0.435858 0.101264
0.424168 0.443231 0.109764
0.540725 0.454927 0.124046
0.658342 0.476069 0.167636
0.764284 0.507795 0.230544
0.147079 0.564268 0.125992
0.228755 0.569629 0.132282
0.276869 0.566190 0.127186
0.349033 0.566809 0.130576
0.447698 0.572994 0.150991
0.557299 0.585553 0.182943
0.666864 0.604214 0.234389
0.768931 0.630784 0.299988
0.208862 0.700382 0.188294
0.294761 0.707911 0.200524
0.347431 0.702169 0.205990
0.410594 0.697814 0.220578
0.497702 0.702632 0.248202
0.594317 0.714274 0.284694
0.693783 0.731986 0.328760
0.790605 0.755240 0.387325
0.300989 0.830100 0.283288
0.391056 0.830919 0.309230
0.452653 0.826964 0.326680
0.499845 0.820475 0.339707
0.571824 0.824026 0.367356
0.655424 0.834975 0.405412
0.742778 0.852156 0.450983
0.829819 0.874859 0.502879
0.061728 0.066367 0.107708
0.110395 0.082465 0.121887
0.176541 0.095845 0.143409
0.273142 0.097944 0.162355
0.395997 0.096578 0.172753
0.511959 0.112225 0.184135
0.628587 0.136595 0.200700
0.733094 0.176268 0.229405
0.094379 0.133050 0.136547
0.135401 0.142151 0.147240
0.198780 0.151399 0.156997
0.292705 0.154908 0.161898
0.401347 0.165780 0.168399
0.518000 0.184841 0.181858
0.631411 0.219055 0.211027
0.740750 0.264428 0.252503
0.113947 0.212202 0.164576
0.155145 0.220043 0.164757
0.215096 0.225888 0.165832
0.300087 0.231417 0.162206
0.404328 0.241221 0.170013
0.520837 0.256206 0.186184
0.636129 0.283190 0.216783
0.749329 0.322447 0.260359
0.112517 0.315565 0.176062
0.167229 0.322213 0.169489
0.226725 0.321245 0.168366
0.310826 0.326144 0.173440
0.412617 0.334799 0.183358
0.528701 0.347677 0.200242
0.646763 0.370740 0.234239
0.757785 0.407106 0.282981
0.121036 0.436181 0.187907
0.196471 0.439907 0.192079
0.248270 0.436050 0.189710
0.326731 0.438527 0.194105
0.425894 0.445388 0.203679
0.539949 0.458987 0.227369
0.651885 0.483797 0.273825
0.754328 0.518169 0.329804
0.153925 0.567238 0.220589
0.241729 0.569851 0.233098
0.288526 0.566244 0.230077
0.358663 0.566712 0.237108
0.454713 0.574356 0.258989
0.560286 0.589055 0.291065
0.666199 0.610285 0.337360
0.765168 0.639299 0.395907
0.218157 0.703139 0.280318
0.315013 0.703911 0.304005
0.369203 0.699031 0.312532
0.428166 0.696243 0.325407
0.510788 0.702955 0.350649
0.603321 0.716874 0.384459
0.698940 0.736721 0.425332
0.792405 0.762353 0.478686
0.313912 0.829099 0.370103
0.415590 0.825106 0.405876
0.477765 0.823658 0.423914
0.521849 0.818903 0.435295
0.589719 0.824157 0.460347
0.669666 0.837215 0.495541
0.753451 0.856364 0.538011
0.837316 0.881106 0.586355
0.065753 0.070944 0.193414
0.122045 0.082539 0.206609
0.192375 0.096900 0.224018
0.284066 0.103652 0.248675
0.403418 0.102707 0.271757
0.518847 0.118924 0.284004
0.634275 0.144592 0.298711
0.739580 0.185521 0.321096
0.090165 0.141912 0.217779
0.138225 0.145977 0.234531
0.208131 0.154161 0.244248
0.300816 0.159769 0.257606
0.407180 0.172590 0.268440
0.523233 0.193196 0.281436
0.635171 0.228759 0.302567
0.743862 0.274386 0.333757
0.112798 0.223026 0.243373
0.157091 0.227862 0.251383
0.217819 0.229623 0.254191
0.305236 0.235463 0.257623
0.408066 0.245444 0.264498
0.519870 0.262562 0.277269
0.631805 0.291593 0.300513
0.743012 0.332547 0.336108
0.115926 0.323375 0.267440
0.173571 0.328153 0.266845
0.230208 0.325581 0.261277
0.313335 0.329040 0.262416
0.413998 0.336546 0.268159
0.525586 0.351248 0.283950
0.639964 0.376401 0.312744
0.745435 0.416325 0.357536
0.126142 0.441136 0.283311
0.201894 0.443917 0.282805
0.251596 0.438717 0.275234
0.328344 0.439435 0.275922
0.426002 0.445728 0.283228
0.537261 0.462155 0.311064
0.645553 0.489654 0.353572
0.745395 0.526115 0.404998
0.157755 0.570616 0.306012
0.247475 0.571976 0.313521
0.297460 0.565645 0.311237
0.367407 0.565339 0.320488
0.460307 0.574865 0.342693
0.562293 0.591430 0.373954
0.664940 0.614978 0.417400
0.761291 0.646181 0.470941
0.221025 0.706084 0.353263
0.322642 0.704100 0.376251
0.385312 0.697078 0.391158
0.442307 0.694616 0.404959
0.521550 0.702947 0.430034
0.610631 0.718736 0.462863
0.703165 0.740557 0.502041
0.793865 0.768301 0.551972
0.320343 0.828501 0.436577
0.425103 0.825089 0.471531
0.496533 0.821601 0.497081
0.540460 0.817487 0.509996
0.605018 0.824121 0.533802
0.681839 0.839067 0.567636
0.762902 0.860183 0.608417
0.843951 0.886738 0.654512
0.065257 0.071117 0.301359
0.128710 0.078124 0.315495
0.208029 0.087974 0.331804
0.301304 0.097922 0.349947
0.409445 0.107735 0.367221
0.524471 0.124465 0.380173
0.639261 0.151696 0.392638
0.745377 0.193555 0.409211
0.081110 0.145611 0.324593
0.137935 0.146543 0.342324
0.214758 0.152734 0.347580
0.306841 0.163558 0.355130
0.411944 0.178803 0.365372
0.528055 0.200912 0.378179
0.640372 0.237176 0.393682
0.749865 0.283504 0.418022
0.095805 0.231542 0.346346
0.154218 0.232667 0.352213
0.221355 0.233428 0.350874
0.308874 0.239434 0.354066
0.411343 0.249360 0.360786
0.522799 0.267422 0.370590
0.635235 0.297585 0.387407
0.746786 0.339882 0.415215
0.110149 0.331130 0.364497
0.178735 0.333015 0.364004
0.234421 0.329382 0.357705
0.316230 0.332086 0.357897
0.415649 0.339966 0.362546
0.524559 0.356424 0.373929
0.635372 0.384317 0.396569
0.736905 0.426840 0.433759
0.130803 0.445580 0.379928
0.207351 0.448074 0.379164
0.256143 0.441993 0.370163
0.332327 0.441386 0.368484
0.428990 0.448918 0.376054
0.536619 0.468033 0.398734
0.641312 0.497624 0.433073
0.738250 0.535429 0.475509
0.162454 0.574532 0.400191
0.253388 0.575663 0.403325
0.305537 0.568780 0.398817
0.376934 0.567307 0.406517
0.468296 0.577307 0.426120
0.565909 0.595347 0.452115
0.664981 0.620255 0.488278
0.758398 0.652942 0.534325
0.227371 0.708160 0.437878
0.331048 0.706296 0.455532
0.397111 0.700391 0.466701
0.454453 0.696225 0.477801
0.532692 0.704144 0.500281
0.618018 0.721141 0.529100
0.706945 0.744276 0.564524
0.794696 0.773240 0.609373
0.328481 0.828911 0.507847
0.433894 0.827049 0.536432
0.507470 0.824406 0.557725
0.554158 0.818985 0.570314
0.618501 0.824526 0.593386
0.692075 0.840553 0.624221
0.770098 0.862762 0.661898
0.848464 0.890391 0.705220
0.063618 0.069723 0.421056
0.132758 0.075639 0.429351
0.215974 0.085817 0.438718
0.309967 0.098367 0.449730
0.414242 0.113086 0.462391
0.529838 0.129804 0.476978
0.644150 0.158549 0.486893
0.751388 0.201595 0.498299
0.077065 0.148088 0.435921
0.142781 0.151169 0.438481
0.219287 0.157666 0.443302
0.311389 0.169179 0.452025
0.416818 0.185113 0.463767
0.532935 0.208581 0.476428
0.645615 0.245586 0.486933
0.756135 0.292973 0.505194
0.093677 0.236434 0.448841
0.160053 0.237449 0.449258
0.225641 0.237722 0.448487
0.312440 0.243681 0.452503
0.414562 0.253985 0.459541
0.526503 0.272582 0.467367
0.639882 0.304027 0.478736
0.752151 0.348239 0.500019
0.112945 0.336147 0.463098
0.184966 0.337543 0.463202
0.238967 0.333243 0.457215
0.320710 0.336469 0.454683
0.418252 0.344691 0.458977
0.527494 0.360647 0.467328
0.636849 0.391972 0.484627
0.736776 0.436226 0.513419
0.135458 0.449996 0.479830
0.213315 0.452464 0.479895
0.262718 0.445585 0.470140
0.337174 0.444639 0.465517
0.434436 0.454803 0.471785
0.539226 0.476552 0.489507
0.640991 0.507981 0.516038
0.735331 0.547349 0.550776
0.167595 0.578854 0.499718
0.260336 0.580175 0.500076
0.315623 0.573545 0.494685
0.386048 0.572801 0.497675
0.477535 0.583192 0.512683
0.573101 0.602403 0.535524
0.668303 0.629168 0.565761
0.758693 0.663426 0.604757
0.235938 0.711206 0.530846
0.342045 0.710025 0.543393
0.410809 0.705954 0.550436
0.466023 0.702231 0.556269
0.544773 0.709640 0.575124
0.629510 0.726854 0.602140
0.714800 0.751388 0.633793
0.799188 0.781663 0.673226
0.339769 0.831384 0.588359
0.445949 0.830996 0.610750
0.521142 0.829979 0.627870
0.567674 0.825476 0.636558
0.632436 0.830165 0.656842
0.706693 0.845256 0.686642
0.781459 0.868817 0.720716
0.856686 0.897507 0.760124
0.068589 0.074694 0.510985
0.137748 0.081138 0.519343
0.220340 0.091102 0.530641
0.314168 0.103665 0.543850
0.418882 0.118266 0.558896
0.534193 0.135954 0.574407
0.649045 0.165674 0.582548
0.757415 0.210013 0.589207
0.082504 0.153098 0.527926
0.148425 0.156560 0.532863
0.223944 0.163386 0.539021
0.315654 0.176258 0.547934
0.419919 0.194911 0.559192
0.534940 0.219480 0.572409
0.651230 0.254378 0.582528
0.762685 0.303129 0.595126
0.098870 0.240964 0.545111
0.167243 0.242664 0.546118
0.231934 0.243815 0.540575
0.316791 0.251382 0.543697
0.415877 0.263537 0.552088
0.528112 0.281291 0.563560
0.644904 0.311492 0.574204
0.756813 0.358317 0.589133
0.118035 0.340681 0.563244
0.194487 0.342436 0.560123
0.248630 0.338542 0.550796
0.327743 0.343046 0.546232
0.421653 0.352753 0.551415
0.529699 0.368732 0.562631
0.639487 0.401078 0.576288
0.738574 0.446826 0.596016
0.142581 0.454131 0.581480
0.228032 0.455899 0.577011
0.276811 0.449304 0.566830
0.348061 0.449746 0.560948
0.443074 0.463467 0.563976
0.544340 0.486578 0.578088
0.645208 0.517733 0.598347
0.738863 0.558099 0.624776
0.176725 0.582630 0.602102
0.272029 0.584254 0.599982
0.330404 0.579022 0.592796
0.398499 0.579487 0.590618
0.487703 0.591068 0.598841
0.581848 0.611726 0.615996
0.674559 0.640056 0.641059
0.762304 0.675919 0.673184
0.246189 0.714983 0.627800
0.354564 0.714983 0.634237
0.426060 0.712839 0.636942
0.479356 0.709880 0.637730
0.556229 0.717977 0.650407
0.641069 0.735582 0.672647
0.725261 0.761019 0.701927
0.806611 0.792854 0.736783
0.352878 0.835055 0.672030
0.459731 0.836370 0.688299
0.536514 0.837167 0.700928
0.583346 0.833805 0.706156
0.645966 0.838872 0.720995
0.720466 0.854124 0.746954
0.795724 0.877406 0.779680
0.868152 0.907275 0.816226
0.073961 0.080066 0.598811
0.142778 0.086644 0.609767
0.224568 0.097311 0.620565
0.317411 0.111452 0.632807
0.419449 0.129311 0.644983
0.530549 0.150691 0.658813
0.649928 0.176890 0.674321
0.763685 0.218591 0.681951
0.088543 0.158376 0.619360
0.157105 0.164766 0.615862
0.230354 0.173424 0.620522
0.319483 0.188630 0.630330
0.420924 0.210366 0.642849
0.532774 0.236308 0.658096
0.653457 0.267224 0.675561
0.769666 0.313793 0.687455
0.107064 0.246067 0.636715
0.179760 0.250239 0.629193
0.241048 0.252468 0.622232
0.322523 0.261561 0.626940
0.418289 0.275678 0.637614
0.527200 0.295721 0.651601
0.647301 0.323102 0.668656
0.760447 0.370013 0.680775
0.131075 0.345086 0.653325
0.210116 0.348663 0.646074
0.261361 0.345597 0.636947
0.336631 0.351389 0.631552
0.426939 0.362882 0.637937
0.530882 0.382872 0.650435
0.640346 0.414377 0.665238
0.741400 0.458425 0.679821
0.161270 0.457043 0.672943
0.247073 0.460390 0.667008
0.293865 0.454845 0.657358
0.362809 0.457953 0.649791
0.454362 0.474796 0.648538
0.551088 0.500155 0.659513
0.649652 0.530740 0.678303
0.744011 0.569805 0.699852
0.199397 0.583847 0.697649
0.295871 0.587374 0.693165
0.355268 0.584751 0.683509
0.418655 0.586888 0.676978
0.503340 0.600432 0.679942
0.593620 0.623108 0.691461
0.683004 0.652479 0.712229
0.769490 0.688061 0.739389
0.262853 0.718033 0.724110
0.371522 0.720334 0.724169
0.444719 0.720350 0.722634
0.496121 0.718175 0.719026
0.570478 0.727317 0.725873
0.653514 0.746107 0.741986
0.736782 0.772628 0.765919
0.816300 0.805766 0.796682
0.367395 0.839742 0.756800
0.474959 0.842899 0.766798
0.553341 0.845529 0.774856
0.600647 0.843385 0.776704
0.661251 0.848929 0.786344
0.734283 0.864886 0.806721
0.809369 0.888781 0.834885
0.881632 0.919225 0.869021
0.082059 0.088164 0.674213
0.150068 0.096514 0.682048
0.229170 0.108762 0.692719
0.319352 0.124936 0.705107
0.418485 0.144869 0.719150
0.526574 0.168491 0.735027
0.643415 0.196390 0.753247
0.766655 0.230897 0.772477
0.099925 0.166686 0.692754
0.168606 0.175577 0.686572
0.238502 0.185954 0.692866
0.324831 0.203350 0.704739
0.423308 0.227385 0.719231
0.531660 0.255355 0.736246
0.649340 0.288081 0.756364
0.773939 0.328145 0.778287
0.121850 0.253171 0.711664
0.194424 0.259490 0.703785
0.252061 0.262912 0.696853
0.330119 0.273649 0.703059
0.422457 0.289856 0.715945
0.527758 0.312590 0.732054
0.644414 0.343044 0.751534
0.760180 0.386495 0.768533
0.149166 0.350878 0.732434
0.227618 0.356413 0.724592
0.276088 0.354498 0.715788
0.347689 0.361708 0.709605
0.434253 0.375334 0.717077
0.534289 0.400157 0.728755
0.638822 0.434103 0.742380
0.741859 0.474557 0.759281
0.183362 0.461263 0.756476
0.268271 0.466679 0.749755
0.313562 0.462366 0.740323
0.380513 0.468697 0.729639
0.468185 0.488560 0.723804
0.560226 0.515800 0.732111
0.654158 0.548063 0.749256
0.747688 0.585602 0.770767
0.226052 0.586072 0.785727
0.323243 0.592090 0.776842
0.383397 0.592751 0.764358
0.441616 0.596299 0.754215
0.521785 0.611825 0.752679
0.607839 0.636524 0.759364
0.693276 0.667636 0.776684
0.777234 0.703343 0.802158
0.295133 0.718156 0.809264
0.401009 0.723804 0.804573
0.473652 0.726857 0.799545
0.521924 0.726523 0.792827
0.591961 0.737171 0.795312
0.671331 0.757664 0.806595
0.751290 0.785938 0.825580
0.828139 0.820319 0.852049
0.386210 0.844454 0.839825
0.493825 0.849715 0.843981
0.573088 0.854417 0.847334
0.621168 0.853886 0.845928
0.679051 0.859878 0.850867
0.750397 0.876821 0.866052
0.824024 0.901689 0.888996
0.895448 0.932815 0.918285
