gsg/02_Everyday/GSG_LUT_Everyday_AllCrunchedOut.cube
# GSG LUTs 1.0
# Copyright (c) 2016-2020 Greyscalegorilla
# See EULA for licensing and distribution information
# Converted by Briz LUT Converter
LUT_3D_SIZE 8
DOMAIN_MIN 0.000000 0.000000 0.000000
DOMAIN_MAX 0.903226 0.903226 0.903226
0.012943 0.008059 0.015873
0.027413 0.009374 0.017677
0.084210 0.009689 0.020332
0.238686 0.000000 0.021001
0.471401 0.000000 0.017307
0.702690 0.000000 0.005451
0.887093 0.000000 0.000000
1.000000 0.000000 0.012588
0.009106 0.028382 0.025168
0.025444 0.031167 0.018921
0.108928 0.033519 0.012594
0.276851 0.001673 0.010988
0.498362 0.000000 0.002833
0.715913 0.000000 0.000000
0.893088 0.000000 0.000000
0.999959 0.000000 0.000000
0.000000 0.130151 0.054126
0.000000 0.132535 0.036739
0.091517 0.146920 0.009409
0.328257 0.138438 0.000000
0.548475 0.065647 0.000000
0.743811 0.010622 0.000000
0.906602 0.001905 0.000000
1.000000 0.013854 0.000000
0.000000 0.315593 0.124156
0.000000 0.321421 0.093753
0.002645 0.316351 0.051440
0.289938 0.338552 0.000000
0.562809 0.331923 0.000000
0.765936 0.294486 0.000000
0.921450 0.268364 0.000000
1.000000 0.281828 0.000000
0.000000 0.498342 0.215905
0.000000 0.506510 0.184578
0.000000 0.498948 0.147114
0.184859 0.503298 0.064087
0.509389 0.526216 0.000000
0.752961 0.527149 0.000000
0.916167 0.500009 0.000000
1.000000 0.476711 0.000000
0.000000 0.666745 0.339824
0.000000 0.671732 0.316963
0.000000 0.668975 0.275902
0.157586 0.662141 0.229713
0.458848 0.674069 0.141858
0.705491 0.691486 0.009702
0.896239 0.693729 0.000000
0.997491 0.671897 0.000000
0.178881 0.803277 0.505179
0.172033 0.805891 0.490371
0.170756 0.805784 0.449174
0.341405 0.803284 0.419048
0.489426 0.800145 0.369179
0.677871 0.810674 0.298567
0.857979 0.820921 0.148229
0.988481 0.819568 0.000000
0.550301 0.902304 0.692032
0.548485 0.903651 0.684190
0.534908 0.904508 0.655813
0.572049 0.903651 0.633223
0.633071 0.901283 0.602852
0.726735 0.902311 0.562555
0.846578 0.908380 0.507993
0.959629 0.912865 0.399989
0.011958 0.011147 0.037197
0.025679 0.010957 0.033958
0.087393 0.011121 0.032792
0.249793 0.000000 0.027956
0.479130 0.000000 0.009421
0.699196 0.000000 0.000000
0.882288 0.000000 0.000000
0.999017 0.000000 0.000000
0.006220 0.033341 0.050037
0.024221 0.037498 0.050294
0.106497 0.038276 0.042257
0.281917 0.006075 0.027970
0.500915 0.000000 0.003497
0.713381 0.000000 0.000000
0.889944 0.000000 0.000000
0.999705 0.000000 0.000000
0.000000 0.137241 0.101454
0.000016 0.146304 0.096054
0.103195 0.153517 0.060453
0.331135 0.133684 0.012579
0.542778 0.069195 0.000138
0.740336 0.016251 0.000000
0.904473 0.007122 0.000000
1.000000 0.021820 0.000000
0.000000 0.320351 0.175387
0.000000 0.329729 0.166900
0.007919 0.322695 0.120532
0.298979 0.340840 0.033710
0.561734 0.329829 0.000000
0.763323 0.286227 0.000000
0.920146 0.276422 0.000000
1.000000 0.289907 0.000000
0.000000 0.504171 0.262719
0.000000 0.513631 0.255501
0.000000 0.507016 0.202574
0.211947 0.506120 0.144023
0.514954 0.527913 0.016687
0.752155 0.526172 0.000000
0.916128 0.498060 0.000000
1.000000 0.478571 0.000000
0.000000 0.671322 0.380291
0.000000 0.677336 0.374748
0.000110 0.675502 0.320574
0.210658 0.667279 0.277461
0.467991 0.675561 0.209055
0.707810 0.692361 0.057815
0.896078 0.694095 0.000000
0.997491 0.671726 0.000000
0.268660 0.806490 0.537613
0.299549 0.809782 0.533906
0.268700 0.810701 0.489984
0.375397 0.807420 0.454836
0.502680 0.801841 0.404592
0.681497 0.811388 0.340395
0.858699 0.822045 0.215461
0.988179 0.820596 0.027852
0.573010 0.903158 0.710874
0.581229 0.905052 0.708727
0.566959 0.905963 0.682061
0.588791 0.905425 0.654335
0.643672 0.902687 0.623646
0.730084 0.902694 0.583208
0.847222 0.908749 0.532676
0.958613 0.913383 0.434142
0.000000 0.016929 0.114270
0.010458 0.017921 0.115066
0.087090 0.015863 0.105505
0.261852 0.000000 0.100231
0.474208 0.000000 0.102661
0.697824 0.000000 0.066019
0.887061 0.000000 0.009386
1.000000 0.000000 0.000000
0.000000 0.050801 0.130472
0.002469 0.054052 0.136330
0.105996 0.057242 0.131580
0.279579 0.041365 0.124029
0.491053 0.002536 0.114132
0.708134 0.000000 0.070069
0.892458 0.000000 0.009531
0.999743 0.000000 0.000000
0.000000 0.146573 0.171370
0.000000 0.154769 0.173511
0.116664 0.166586 0.172072
0.320952 0.161715 0.149515
0.529588 0.131977 0.116848
0.731054 0.071674 0.055380
0.903561 0.035322 0.005868
1.000000 0.079265 0.000000
0.000000 0.325374 0.254141
0.000000 0.334857 0.256342
0.089417 0.339350 0.238754
0.315911 0.347104 0.184265
0.564245 0.328580 0.108676
0.758199 0.297459 0.018609
0.916418 0.295437 0.000485
1.000000 0.308973 0.000000
0.000000 0.508827 0.340393
0.000000 0.517670 0.341863
0.051158 0.518419 0.319891
0.260556 0.511234 0.261547
0.525649 0.531485 0.192264
0.752088 0.525795 0.055742
0.917125 0.496660 0.000062
1.000000 0.481073 0.000000
0.000000 0.674173 0.445376
0.043899 0.679695 0.447397
0.187201 0.679743 0.428588
0.289906 0.674710 0.369731
0.484122 0.676273 0.316794
0.711702 0.694377 0.234269
0.895212 0.694945 0.074327
0.997418 0.671268 0.000000
0.315275 0.807263 0.580398
0.360862 0.810548 0.584621
0.410562 0.810611 0.572888
0.428429 0.810048 0.521220
0.527728 0.803154 0.475079
0.686969 0.811614 0.423182
0.858597 0.823600 0.340880
0.986229 0.821463 0.177880
0.578024 0.903459 0.731206
0.598723 0.904791 0.735152
0.618279 0.904523 0.727688
0.612667 0.905986 0.690740
0.659598 0.903495 0.662528
0.734895 0.902403 0.624632
0.846909 0.909161 0.583645
0.955460 0.914128 0.502385
0.000000 0.033471 0.252952
0.000000 0.037194 0.257944
0.083315 0.040911 0.272340
0.280632 0.002894 0.253110
0.490083 0.000000 0.230006
0.696823 0.000000 0.221190
0.875720 0.005342 0.226482
0.998101 0.022769 0.173518
0.000000 0.084076 0.272169
0.000000 0.085222 0.278875
0.107673 0.096508 0.289058
0.298518 0.072692 0.270794
0.499585 0.010573 0.247147
0.700883 0.007716 0.241016
0.878313 0.058829 0.235520
0.998177 0.070306 0.173518
0.000000 0.168694 0.285485
0.000000 0.176075 0.290280
0.101648 0.193736 0.307371
0.322637 0.202726 0.303401
0.515396 0.197766 0.284007
0.708710 0.216155 0.279066
0.886506 0.217743 0.244515
0.998985 0.219142 0.167614
0.000000 0.321177 0.336709
0.000000 0.330672 0.341559
0.110420 0.341202 0.342680
0.333605 0.357398 0.342869
0.544906 0.355253 0.317450
0.735751 0.352384 0.285817
0.900912 0.355521 0.237414
0.999631 0.360153 0.142527
0.000000 0.513020 0.433207
0.014928 0.522533 0.440018
0.215330 0.525829 0.436211
0.359437 0.527703 0.414087
0.535406 0.535039 0.362721
0.749421 0.523564 0.298055
0.911365 0.504633 0.216116
0.999927 0.502080 0.086556
0.113494 0.678861 0.534401
0.205321 0.684305 0.538241
0.311389 0.684383 0.531810
0.418778 0.684008 0.509126
0.511625 0.678079 0.450870
0.715197 0.697371 0.403482
0.891128 0.695108 0.321699
0.996740 0.668219 0.138296
0.366733 0.809881 0.643816
0.405587 0.813455 0.648543
0.462459 0.812998 0.644993
0.528659 0.812181 0.628355
0.569480 0.807679 0.575010
0.694171 0.811548 0.532453
0.855940 0.825285 0.480321
0.981341 0.822771 0.379824
0.580913 0.904439 0.762553
0.602684 0.906185 0.766738
0.633847 0.905376 0.765804
0.672622 0.905020 0.757796
0.684167 0.905012 0.719933
0.743423 0.902664 0.685537
0.845252 0.909378 0.653876
0.950127 0.915156 0.593444
0.000000 0.072362 0.417748
0.000000 0.077860 0.424939
0.027520 0.085866 0.439213
0.334554 0.083888 0.457663
0.508893 0.004387 0.416266
0.707060 0.000000 0.384281
0.880210 0.000000 0.377203
0.995765 0.182322 0.385757
0.000000 0.120984 0.426600
0.000000 0.126343 0.433162
0.056169 0.137536 0.445302
0.345985 0.151231 0.464813
0.519215 0.090814 0.428208
0.710272 0.030148 0.395941
0.879184 0.109319 0.390333
0.993952 0.260009 0.402556
0.000000 0.207451 0.421077
0.000000 0.218638 0.434162
0.061812 0.227898 0.452086
0.353867 0.257975 0.474997
0.534771 0.241215 0.452359
0.714154 0.236803 0.423343
0.875544 0.283796 0.421304
0.989394 0.371822 0.431501
0.000000 0.330918 0.444641
0.000000 0.337236 0.448573
0.022858 0.343183 0.448825
0.331768 0.376069 0.478052
0.544119 0.400066 0.484793
0.713423 0.409228 0.467518
0.866722 0.448871 0.470830
0.989760 0.458836 0.434973
0.000000 0.496292 0.503919
0.000199 0.504366 0.509542
0.151986 0.509888 0.509635
0.367390 0.522685 0.513768
0.542019 0.540309 0.517874
0.725717 0.545508 0.498335
0.883906 0.547542 0.468022
0.994888 0.543282 0.409161
0.175315 0.676420 0.610597
0.260856 0.683036 0.617549
0.368797 0.686666 0.619749
0.480786 0.689970 0.616900
0.573966 0.689168 0.594434
0.714598 0.698909 0.553157
0.884126 0.690819 0.493102
0.994784 0.666775 0.394991
0.426105 0.813237 0.715022
0.455382 0.817164 0.719229
0.494614 0.816339 0.714633
0.562746 0.815594 0.707409
0.634107 0.814180 0.688131
0.702147 0.811691 0.639759
0.851193 0.827059 0.608387
0.973244 0.822473 0.533540
0.576495 0.906365 0.800217
0.598023 0.908244 0.803732
0.629758 0.907561 0.802797
0.682500 0.906801 0.801893
0.730715 0.906360 0.792223
0.759705 0.905324 0.755420
0.842335 0.909426 0.727435
0.943139 0.916420 0.686889
0.000000 0.133010 0.587333
0.000000 0.137724 0.591666
0.021973 0.146647 0.602211
0.346117 0.158446 0.621072
0.585050 0.175123 0.642040
0.733016 0.068172 0.596942
0.881351 0.100187 0.556316
0.993615 0.231882 0.544156
0.000000 0.175157 0.587431
0.000000 0.180631 0.593137
0.026846 0.191080 0.603622
0.354939 0.208965 0.623110
0.588965 0.237244 0.646265
0.735629 0.175612 0.604096
0.878830 0.193708 0.562676
0.991500 0.285976 0.551920
0.000000 0.265272 0.581710
0.000000 0.265586 0.590824
0.028641 0.271302 0.603217
0.359764 0.298977 0.624609
0.590079 0.343410 0.652100
0.737232 0.312034 0.618966
0.873227 0.324849 0.579630
0.986908 0.389396 0.573379
0.000000 0.348261 0.560997
0.000000 0.356185 0.568666
0.022287 0.375356 0.586598
0.338873 0.405530 0.620500
0.577417 0.462051 0.655191
0.732692 0.461731 0.640177
0.862514 0.470108 0.608802
0.974613 0.514334 0.608663
0.000000 0.498628 0.605995
0.000000 0.503203 0.609238
0.022457 0.504554 0.607669
0.289328 0.508413 0.608034
0.533429 0.551994 0.645201
0.723615 0.592023 0.664098
0.851679 0.600013 0.647620
0.960499 0.628565 0.647489
0.044317 0.653631 0.666169
0.108585 0.659301 0.671065
0.267527 0.661973 0.671146
0.419961 0.668464 0.673244
0.566071 0.681340 0.680328
0.712466 0.701354 0.689191
0.856104 0.706306 0.672048
0.971951 0.703648 0.638187
0.397953 0.802940 0.761211
0.438269 0.807875 0.767165
0.499239 0.810319 0.769829
0.585583 0.815879 0.774802
0.670713 0.820398 0.775445
0.740421 0.819718 0.757469
0.843902 0.827290 0.726827
0.962972 0.818449 0.671232
0.622625 0.906739 0.849659
0.639891 0.908941 0.852466
0.660395 0.908902 0.851006
0.694426 0.909291 0.848140
0.744014 0.909849 0.844824
0.797694 0.909917 0.834984
0.841274 0.909112 0.801778
0.935845 0.918123 0.780192
0.000000 0.220395 0.747828
0.000000 0.224719 0.750482
0.088621 0.235080 0.757470
0.395459 0.255488 0.771146
0.611857 0.296176 0.790204
0.791944 0.343186 0.801892
0.903598 0.279884 0.762292
0.990315 0.319778 0.711659
0.000000 0.255448 0.746459
0.000000 0.260347 0.750080
0.114797 0.271520 0.757120
0.401022 0.294064 0.771107
0.612715 0.336822 0.790251
0.790096 0.387294 0.802996
0.899455 0.328121 0.763671
0.986936 0.359722 0.714667
0.000000 0.328682 0.741349
0.000000 0.328226 0.746357
0.116266 0.340003 0.754170
0.401409 0.367430 0.769074
0.609811 0.414463 0.789144
0.785616 0.474250 0.805904
0.891027 0.424044 0.769378
0.978060 0.442660 0.724051
0.000000 0.413586 0.721400
0.000000 0.421980 0.728759
0.101100 0.437846 0.742146
0.374622 0.455656 0.761932
0.594205 0.506840 0.784634
0.774274 0.573822 0.808057
0.877339 0.541285 0.779041
0.964472 0.547381 0.740822
0.000000 0.511298 0.717844
0.000000 0.512838 0.719618
0.000000 0.512059 0.719847
0.276850 0.531798 0.737247
0.548368 0.580904 0.772987
0.751052 0.650402 0.806058
0.862768 0.646518 0.791709
0.950711 0.647916 0.762438
0.000000 0.657585 0.758920
0.001057 0.661810 0.762681
0.102707 0.660409 0.760728
0.318447 0.658992 0.758478
0.478837 0.657581 0.756193
0.695237 0.703554 0.789584
0.848782 0.744346 0.808070
0.937099 0.749061 0.793408
0.296684 0.786263 0.805401
0.342476 0.790390 0.809185
0.407538 0.791531 0.809137
0.504130 0.795162 0.810737
0.611518 0.800624 0.813233
0.724888 0.809874 0.818123
0.836374 0.825834 0.825237
0.938377 0.830053 0.812772
0.570226 0.899270 0.875542
0.592802 0.901728 0.878336
0.628691 0.902870 0.879777
0.688705 0.905808 0.883496
0.757533 0.910516 0.888855
0.819331 0.914738 0.890779
0.863302 0.914081 0.878694
0.931017 0.920320 0.860707
0.121974 0.366765 0.886053
0.193329 0.370980 0.886896
0.352919 0.382461 0.889326
0.515389 0.405358 0.893406
0.671667 0.443423 0.898824
0.816191 0.503544 0.904997
0.925902 0.535049 0.904192
0.997141 0.483094 0.880724
0.127367 0.393304 0.884674
0.207162 0.398252 0.886109
0.356668 0.409238 0.888310
0.516045 0.431604 0.892222
0.670195 0.468211 0.897302
0.813096 0.525735 0.903581
0.922099 0.559565 0.903835
0.995483 0.509233 0.880963
0.118417 0.445029 0.881338
0.194851 0.449831 0.883030
0.351252 0.461408 0.885411
0.512134 0.483999 0.889472
0.665576 0.519563 0.894600
0.806809 0.573278 0.901525
0.914686 0.612160 0.903974
0.990166 0.565533 0.882492
0.102130 0.525637 0.871647
0.195126 0.533475 0.874632
0.327205 0.533771 0.878844
0.486757 0.548678 0.884312
0.648997 0.583025 0.890381
0.794072 0.633460 0.898814
0.903647 0.680869 0.905268
0.976700 0.640791 0.885603
0.000000 0.578367 0.856829
0.000000 0.583399 0.860713
0.118363 0.589223 0.864788
0.416680 0.611163 0.873229
0.601225 0.635465 0.883879
0.768996 0.685853 0.895038
0.890497 0.744664 0.907180
0.961103 0.717308 0.890573
0.000000 0.694063 0.867791
0.000000 0.695719 0.869398
0.062240 0.689070 0.866871
0.251174 0.677355 0.862812
0.477554 0.682217 0.866686
0.714116 0.729533 0.886551
0.870205 0.795004 0.906496
0.945397 0.794314 0.898576
0.289344 0.812956 0.889884
0.328877 0.814991 0.891504
0.380150 0.812999 0.890358
0.457471 0.809354 0.888191
0.544866 0.802451 0.884120
0.645302 0.791017 0.877883
0.821612 0.825721 0.895945
0.934549 0.864371 0.910527
0.553804 0.898876 0.915330
0.572085 0.900569 0.916619
0.599140 0.900569 0.916580
0.645672 0.901064 0.916563
0.704181 0.901702 0.916354
0.773911 0.903584 0.916561
0.850063 0.908774 0.918659
0.928941 0.922792 0.925347
