gsg/02_Everyday/GSG_LUT_Everyday_Gallery_Photo.cube
# GSG LUTs 1.0
# Copyright (c) 2016-2020 Greyscalegorilla
# See EULA for licensing and distribution information
# Converted by Briz LUT Converter
LUT_3D_SIZE 32
0.000000 0.000000 0.000000
0.004025 0.000000 0.000000
0.007822 0.000000 0.000000
0.012210 0.000000 0.000000
0.020466 0.000000 0.000000
0.031415 0.000000 0.000000
0.040805 0.000000 0.000000
0.052708 0.000000 0.000000
0.064808 0.000000 0.000000
0.077616 0.000000 0.000000
0.093970 0.000000 0.000000
0.111796 0.000000 0.000000
0.127047 0.000000 0.000000
0.144425 0.000000 0.000000
0.161298 0.000000 0.000000
0.180275 0.000000 0.000000
0.202206 0.000000 0.000000
0.226153 0.000000 0.000000
0.250951 0.000000 0.000000
0.276860 0.000000 0.000000
0.305124 0.000000 0.000000
0.336106 0.000000 0.000000
0.364402 0.000000 0.000000
0.392753 0.000000 0.000000
0.423254 0.000000 0.000000
0.449336 0.000000 0.000000
0.476498 0.000000 0.000000
0.504014 0.000000 0.000000
0.525094 0.000000 0.000000
0.551656 0.000000 0.000000
0.572264 0.000000 0.000000
0.596093 0.000000 0.000000
0.004151 0.011974 0.000000
0.012336 0.011741 0.000000
0.024169 0.008303 0.000000
0.035860 0.008268 0.000000
0.048670 0.007940 0.000000
0.063415 0.007315 0.000000
0.075334 0.004059 0.000000
0.088337 0.004033 0.000000
0.104218 0.004003 0.000000
0.120102 0.003227 0.000000
0.137251 0.001125 0.000000
0.157170 0.000244 0.000000
0.177999 0.000214 0.000000
0.199293 0.000146 0.000000
0.219915 0.000118 0.000000
0.241811 0.000088 0.000000
0.264909 0.000027 0.000000
0.291108 0.000000 0.000000
0.317735 0.000000 0.000000
0.346173 0.000000 0.000000
0.375907 0.000000 0.000000
0.406008 0.000000 0.000000
0.434779 0.000000 0.000000
0.462754 0.000000 0.000000
0.490726 0.000000 0.000000
0.515554 0.000000 0.000000
0.539508 0.000000 0.000000
0.562935 0.000000 0.000000
0.583276 0.000000 0.000000
0.603183 0.000000 0.000000
0.619666 0.000000 0.000000
0.639466 0.000000 0.000000
0.012234 0.028122 0.000252
0.020631 0.024650 0.000252
0.032264 0.024228 0.000236
0.044645 0.023810 0.000236
0.059679 0.020318 0.000210
0.072025 0.019804 0.000026
0.084870 0.017157 0.000000
0.100146 0.016319 0.000000
0.115876 0.015216 0.000000
0.131846 0.012444 0.000000
0.149400 0.011039 0.000000
0.169463 0.008486 0.000000
0.189357 0.007459 0.000000
0.210241 0.005330 0.000000
0.233195 0.004281 0.000000
0.258088 0.003259 0.000000
0.286008 0.001361 0.000000
0.315633 0.000421 0.000000
0.344382 0.000287 0.000000
0.372613 0.000085 0.000000
0.403038 0.000000 0.000000
0.434176 0.000000 0.000000
0.463043 0.000000 0.000000
0.490796 0.000000 0.000000
0.518520 0.000000 0.000000
0.543298 0.000000 0.000000
0.567411 0.000000 0.000000
0.588014 0.000000 0.000000
0.607918 0.000000 0.000000
0.627603 0.000000 0.000000
0.647516 0.000000 0.000000
0.667194 0.000000 0.000000
0.024664 0.048596 0.004616
0.035795 0.048062 0.004597
0.044062 0.045220 0.004017
0.055466 0.043938 0.004017
0.068053 0.040958 0.003648
0.080824 0.039864 0.001026
0.095980 0.037193 0.000378
0.111154 0.035614 0.000373
0.124929 0.032186 0.000348
0.141184 0.029546 0.000331
0.161029 0.027319 0.000224
0.180897 0.023694 0.000000
0.200499 0.021342 0.000000
0.222112 0.018796 0.000000
0.245067 0.014862 0.000000
0.270051 0.012573 0.000000
0.298902 0.010386 0.000000
0.330573 0.007695 0.000000
0.362584 0.005338 0.000000
0.394633 0.002051 0.000000
0.426417 0.000709 0.000000
0.458327 0.000469 0.000000
0.487724 0.000338 0.000000
0.514948 0.000085 0.000000
0.542352 0.000000 0.000000
0.567115 0.000000 0.000000
0.590677 0.000000 0.000000
0.611551 0.000000 0.000000
0.631326 0.000000 0.000000
0.650991 0.000000 0.000000
0.671057 0.000000 0.000000
0.687361 0.000000 0.000000
0.040766 0.072102 0.012242
0.048147 0.072086 0.012129
0.056227 0.071378 0.008718
0.065072 0.067864 0.008334
0.079069 0.064713 0.008277
0.091331 0.063760 0.007403
0.104346 0.060733 0.004852
0.120399 0.058852 0.004804
0.136304 0.055457 0.004455
0.152872 0.051718 0.003923
0.172026 0.048472 0.002871
0.192544 0.044611 0.000583
0.212236 0.040840 0.000441
0.234075 0.036774 0.000256
0.257118 0.032723 0.000000
0.282973 0.028789 0.000000
0.311710 0.024845 0.000000
0.342680 0.020788 0.000000
0.375801 0.015485 0.000000
0.409482 0.010559 0.000000
0.443169 0.008754 0.000000
0.477427 0.005892 0.000000
0.509150 0.004100 0.000000
0.537800 0.001682 0.000000
0.563040 0.000597 0.000000
0.587245 0.000479 0.000000
0.610923 0.000420 0.000000
0.631675 0.000410 0.000000
0.651629 0.000040 0.000000
0.670902 0.000000 0.000000
0.690360 0.000000 0.000000
0.706991 0.000000 0.000000
0.059703 0.096049 0.020899
0.064066 0.095940 0.020744
0.072087 0.092624 0.019485
0.080020 0.091889 0.016974
0.088306 0.089048 0.016060
0.100320 0.087754 0.013345
0.115428 0.084241 0.012550
0.131309 0.081472 0.012436
0.147480 0.079478 0.011387
0.164243 0.075466 0.008444
0.182205 0.071911 0.007522
0.203594 0.068018 0.005492
0.223748 0.063956 0.004242
0.245380 0.059580 0.002615
0.269074 0.055227 0.000612
0.295137 0.050326 0.000305
0.324036 0.045162 0.000000
0.355936 0.038997 0.000000
0.389688 0.031235 0.000000
0.422855 0.025533 0.000000
0.457797 0.021432 0.000000
0.493090 0.015752 0.000000
0.526046 0.010682 0.000000
0.555100 0.008890 0.000000
0.582231 0.006269 0.000000
0.606790 0.004983 0.000000
0.629342 0.004501 0.000000
0.650258 0.003886 0.000000
0.670124 0.001400 0.000000
0.687149 0.001142 0.000000
0.706255 0.000647 0.000000
0.722360 0.000512 0.000000
0.076608 0.120564 0.032652
0.080740 0.119978 0.031364
0.087891 0.119254 0.028890
0.094528 0.116898 0.028605
0.100868 0.115254 0.025386
0.111497 0.113027 0.024325
0.124709 0.111221 0.021430
0.140431 0.108446 0.020337
0.157083 0.104589 0.019064
0.175298 0.101253 0.016028
0.194225 0.098627 0.014011
0.215590 0.094556 0.011871
0.236039 0.090929 0.009592
0.258108 0.086255 0.007071
0.282219 0.081075 0.004890
0.308822 0.075827 0.002647
0.338421 0.069834 0.000659
0.370307 0.063031 0.000256
0.403552 0.055276 0.000000
0.437378 0.048031 0.000000
0.471285 0.041856 0.000000
0.506492 0.034724 0.000000
0.540793 0.027714 0.000000
0.570727 0.022123 0.000000
0.597700 0.018303 0.000000
0.622002 0.014930 0.000000
0.643140 0.013267 0.000000
0.663668 0.009789 0.000000
0.682434 0.009090 0.000000
0.701554 0.008581 0.000000
0.718190 0.005886 0.000000
0.734680 0.004640 0.000000
0.095270 0.147040 0.044106
0.099315 0.144771 0.041627
0.103726 0.144757 0.040935
0.108286 0.144223 0.039939
0.116129 0.141079 0.037355
0.125134 0.140024 0.035788
0.137524 0.137253 0.032547
0.151939 0.135342 0.029752
0.168358 0.131506 0.028371
0.185466 0.128259 0.025819
0.205977 0.124519 0.023435
0.227508 0.120309 0.019441
0.248255 0.116907 0.015991
0.270626 0.112986 0.013668
0.295043 0.108206 0.010950
0.321900 0.102422 0.007255
0.351288 0.095616 0.004632
0.383192 0.089157 0.002145
0.416867 0.082697 0.000548
0.450626 0.075101 0.000149
0.485792 0.067096 0.000000
0.520840 0.059285 0.000000
0.553375 0.051369 0.000000
0.583181 0.044126 0.000000
0.609997 0.038719 0.000000
0.634212 0.034070 0.000000
0.657405 0.028210 0.000000
0.677813 0.023763 0.000000
0.695130 0.021645 0.000000
0.711855 0.018755 0.000000
0.729983 0.017195 0.000000
0.745937 0.014053 0.000000
0.112222 0.173319 0.055953
0.115940 0.173297 0.055188
0.120034 0.172559 0.052960
0.125289 0.171411 0.051792
0.133205 0.169544 0.049265
0.142985 0.167674 0.047739
0.152362 0.165679 0.044770
0.164439 0.163445 0.042002
0.179980 0.160373 0.039955
0.197905 0.157281 0.037108
0.217973 0.153247 0.033203
0.239553 0.149214 0.029321
0.261007 0.145227 0.025562
0.284562 0.141266 0.022137
0.308946 0.136432 0.018504
0.336167 0.130931 0.014400
0.366986 0.124353 0.010607
0.398866 0.117548 0.006498
0.430980 0.111243 0.003620
0.465318 0.103809 0.001593
0.500427 0.095462 0.000313
0.534552 0.087817 0.000000
0.566298 0.080043 0.000000
0.596830 0.072426 0.000000
0.623402 0.066401 0.000000
0.647344 0.059780 0.000000
0.669720 0.053956 0.000000
0.689921 0.047789 0.000000
0.707970 0.042785 0.000000
0.725895 0.038199 0.000000
0.741965 0.034895 0.000000
0.757848 0.031069 0.000000
0.125960 0.204537 0.067021
0.129125 0.204442 0.065098
0.133307 0.201507 0.064542
0.140863 0.200630 0.063651
0.148810 0.200189 0.061223
0.157187 0.197133 0.059727
0.166306 0.196122 0.057080
0.178309 0.193438 0.054758
0.192301 0.191807 0.051794
0.211116 0.187857 0.048954
0.230680 0.184025 0.045122
0.252809 0.179991 0.041150
0.274504 0.175918 0.037256
0.297887 0.171674 0.033266
0.323386 0.166520 0.028664
0.351932 0.161495 0.023532
0.382901 0.155608 0.018360
0.414747 0.147960 0.013378
0.446650 0.142072 0.009308
0.481059 0.135350 0.005859
0.515373 0.127283 0.002281
0.549474 0.119217 0.000656
0.581532 0.111150 0.000144
0.610729 0.103791 0.000000
0.637703 0.097020 0.000000
0.661495 0.090746 0.000000
0.683060 0.083835 0.000000
0.703028 0.078646 0.000000
0.721802 0.071204 0.000000
0.738273 0.064768 0.000000
0.754002 0.060006 0.000000
0.769877 0.054819 0.000000
0.129347 0.238505 0.077829
0.133375 0.237558 0.077777
0.137442 0.235146 0.076189
0.144661 0.234946 0.075637
0.152904 0.234129 0.073724
0.162709 0.231364 0.072003
0.174572 0.230169 0.069353
0.188291 0.227740 0.066194
0.204654 0.225854 0.063978
0.224201 0.222173 0.060811
0.245716 0.219000 0.057694
0.268081 0.214995 0.053717
0.289497 0.210955 0.049849
0.313877 0.206351 0.045653
0.340249 0.200697 0.040585
0.369165 0.195468 0.034684
0.400126 0.189629 0.028886
0.431888 0.182594 0.023283
0.463791 0.176563 0.017854
0.497379 0.169587 0.012682
0.531226 0.161734 0.008043
0.565355 0.153752 0.004558
0.597290 0.145685 0.002331
0.626109 0.138969 0.000994
0.652030 0.132299 0.000587
0.675523 0.125418 0.000107
0.698416 0.119097 0.000000
0.718792 0.112799 0.000000
0.735326 0.105456 0.000000
0.751997 0.099375 0.000000
0.767207 0.093004 0.000000
0.783064 0.084202 0.000000
0.129702 0.276285 0.090630
0.134599 0.274552 0.090579
0.138757 0.274552 0.089003
0.146315 0.274385 0.088134
0.156007 0.272554 0.086691
0.168228 0.270563 0.084945
0.183490 0.269228 0.082615
0.199696 0.266616 0.080067
0.218093 0.264562 0.076899
0.238256 0.261299 0.073459
0.260409 0.258049 0.070873
0.283540 0.254071 0.066983
0.305863 0.249896 0.063208
0.331589 0.244885 0.058647
0.359304 0.239503 0.053426
0.388389 0.234052 0.047723
0.419565 0.228084 0.041702
0.451369 0.221606 0.035362
0.483373 0.215140 0.028503
0.515469 0.208515 0.022879
0.548434 0.201211 0.017883
0.581683 0.193312 0.012446
0.613171 0.185246 0.008319
0.642048 0.177179 0.005520
0.667655 0.171528 0.003634
0.691723 0.164928 0.002310
0.713569 0.157044 0.001280
0.733561 0.150563 0.001051
0.751175 0.144617 0.000962
0.767191 0.136900 0.000872
0.782469 0.130368 0.000867
0.798330 0.120777 0.000780
0.134050 0.314443 0.100996
0.140475 0.314416 0.100996
0.146015 0.313593 0.100960
0.153507 0.313407 0.100217
0.165529 0.311512 0.098091
0.179204 0.310249 0.096669
0.195302 0.308962 0.094168
0.212293 0.306166 0.092215
0.231805 0.304203 0.089170
0.252234 0.301493 0.085991
0.274078 0.297593 0.082847
0.298522 0.293560 0.078967
0.323093 0.289344 0.075104
0.349482 0.284337 0.070897
0.377299 0.279297 0.066109
0.407114 0.273837 0.060806
0.438615 0.267836 0.054719
0.470547 0.261406 0.047591
0.502612 0.254363 0.041199
0.534837 0.248391 0.035371
0.567205 0.241331 0.029253
0.599082 0.233298 0.023017
0.629354 0.225298 0.017331
0.657812 0.217680 0.014409
0.682768 0.212346 0.010945
0.706836 0.205034 0.009268
0.727536 0.196967 0.007139
0.747024 0.189113 0.005731
0.765595 0.183619 0.005357
0.781716 0.176620 0.005105
0.796385 0.168608 0.004997
0.812226 0.160542 0.006263
0.147836 0.357257 0.112379
0.153245 0.357216 0.112379
0.160489 0.355981 0.112272
0.168421 0.355819 0.110686
0.179714 0.354187 0.110195
0.192667 0.353144 0.108094
0.208091 0.351651 0.106098
0.225994 0.349566 0.103174
0.245494 0.347751 0.100671
0.266627 0.344896 0.098017
0.289943 0.341441 0.093850
0.315386 0.337130 0.090044
0.341189 0.332862 0.086385
0.367934 0.328279 0.082091
0.396173 0.323251 0.077737
0.426589 0.317545 0.072961
0.458476 0.311833 0.067521
0.490441 0.305587 0.060972
0.522372 0.298458 0.054921
0.553612 0.291750 0.049150
0.584849 0.285341 0.043362
0.616887 0.277867 0.036950
0.646152 0.270007 0.031989
0.673799 0.262642 0.027583
0.698649 0.256765 0.023793
0.722349 0.249686 0.020832
0.742960 0.241719 0.018015
0.762716 0.233865 0.016127
0.779206 0.227431 0.015692
0.795196 0.221400 0.015440
0.811221 0.212769 0.015188
0.827209 0.204679 0.018024
0.163654 0.402773 0.122494
0.168632 0.402773 0.122469
0.174775 0.402773 0.121646
0.182616 0.402605 0.120442
0.193652 0.400759 0.119372
0.206830 0.398866 0.118067
0.222204 0.398422 0.116186
0.241291 0.396209 0.113578
0.260941 0.394162 0.110405
0.282448 0.391200 0.107735
0.306611 0.388129 0.104349
0.333459 0.383929 0.100714
0.359525 0.380132 0.097325
0.387089 0.375680 0.093580
0.416421 0.370451 0.089141
0.447258 0.364734 0.084679
0.478919 0.359030 0.079670
0.510352 0.353114 0.073980
0.542117 0.346552 0.068684
0.573107 0.339454 0.063163
0.604220 0.333529 0.057694
0.635283 0.326598 0.052117
0.663573 0.319332 0.047722
0.690026 0.311806 0.043416
0.714445 0.305563 0.040225
0.736620 0.298721 0.037489
0.758166 0.291474 0.034235
0.778446 0.284417 0.032918
0.794948 0.277571 0.032481
0.810965 0.270498 0.032322
0.826961 0.261584 0.032717
0.842979 0.253488 0.034550
0.176305 0.450534 0.130553
0.182236 0.450534 0.130494
0.188450 0.450534 0.128717
0.197404 0.450461 0.128501
0.209276 0.449615 0.127468
0.222686 0.448212 0.126305
0.239112 0.446505 0.124170
0.258061 0.445363 0.121849
0.278154 0.442712 0.118908
0.300370 0.440521 0.116261
0.324864 0.437276 0.114023
0.353014 0.433466 0.110541
0.379445 0.429645 0.107276
0.407520 0.424889 0.103694
0.437570 0.419847 0.099266
0.469124 0.414623 0.094964
0.500752 0.408878 0.090606
0.531658 0.402897 0.086057
0.562343 0.397179 0.081287
0.593027 0.391018 0.077033
0.623538 0.384702 0.072459
0.653479 0.377535 0.067479
0.681276 0.371475 0.063245
0.706449 0.364550 0.059614
0.730431 0.358209 0.056465
0.751104 0.351479 0.055092
0.773070 0.344460 0.053475
0.792663 0.339080 0.051707
0.810549 0.331494 0.051366
0.826713 0.323439 0.052127
0.841808 0.315373 0.053476
0.858608 0.307306 0.055355
0.195337 0.498428 0.135594
0.202118 0.498428 0.135564
0.207486 0.498428 0.134649
0.218326 0.498428 0.134563
0.230198 0.498298 0.133513
0.243628 0.496953 0.131594
0.260063 0.494521 0.129971
0.278691 0.493803 0.127456
0.298719 0.490957 0.125555
0.320272 0.489046 0.122888
0.345498 0.485923 0.121032
0.373708 0.482146 0.118156
0.401213 0.478113 0.115168
0.429882 0.473931 0.111826
0.460233 0.469197 0.108235
0.491881 0.463904 0.104478
0.522728 0.458745 0.100640
0.553361 0.453174 0.096656
0.583469 0.447415 0.092513
0.612490 0.442312 0.088938
0.641667 0.435979 0.085047
0.670823 0.429735 0.081189
0.698149 0.423748 0.077809
0.722745 0.417632 0.074361
0.746272 0.411747 0.071602
0.767062 0.405757 0.071156
0.787491 0.399015 0.070685
0.806669 0.392996 0.069211
0.824425 0.386337 0.070251
0.840577 0.379218 0.071394
0.855551 0.371330 0.074102
0.872346 0.363268 0.076907
0.221419 0.545252 0.138556
0.228337 0.544176 0.138526
0.233507 0.543995 0.137619
0.243465 0.543230 0.137531
0.255365 0.542995 0.136585
0.268872 0.541933 0.135378
0.285186 0.540174 0.133229
0.303638 0.538853 0.131418
0.323404 0.536877 0.129812
0.344815 0.533885 0.127548
0.369463 0.530947 0.126146
0.397682 0.527418 0.123503
0.424929 0.523783 0.121169
0.453483 0.519831 0.118372
0.484115 0.515599 0.114969
0.515073 0.510703 0.111739
0.544944 0.505718 0.108567
0.574696 0.500649 0.105308
0.604073 0.495227 0.101795
0.632251 0.490713 0.098709
0.660090 0.484705 0.095686
0.688475 0.479653 0.092745
0.714408 0.473522 0.090325
0.738381 0.468250 0.087842
0.760466 0.463200 0.085890
0.781782 0.456881 0.085598
0.800955 0.451284 0.085732
0.820349 0.445816 0.085294
0.836806 0.439089 0.087190
0.853702 0.433858 0.087857
0.868486 0.426216 0.091670
0.885533 0.419095 0.095726
0.255559 0.586876 0.138304
0.260539 0.586054 0.138281
0.265538 0.585823 0.137587
0.273693 0.583912 0.137577
0.285665 0.583728 0.137485
0.298957 0.582789 0.137008
0.315030 0.580885 0.134299
0.332700 0.579720 0.133171
0.351746 0.578127 0.132379
0.373665 0.574741 0.131283
0.397685 0.571854 0.129494
0.425009 0.568534 0.127057
0.451748 0.565537 0.125062
0.479580 0.561625 0.122728
0.508776 0.557675 0.119749
0.538742 0.553493 0.116776
0.568100 0.548671 0.113930
0.596620 0.543956 0.111487
0.624522 0.539610 0.109034
0.651509 0.535492 0.106582
0.678445 0.530238 0.104074
0.705611 0.525188 0.101891
0.730343 0.519904 0.100128
0.752479 0.515268 0.098855
0.773726 0.510914 0.097436
0.794686 0.504928 0.098134
0.813980 0.499950 0.098467
0.831832 0.495910 0.098573
0.848795 0.488710 0.100351
0.866728 0.484203 0.101925
0.880618 0.478674 0.105939
0.898625 0.471543 0.110221
0.294616 0.622797 0.137485
0.298681 0.621301 0.137485
0.303905 0.621240 0.137485
0.311908 0.620355 0.137485
0.322821 0.620294 0.137465
0.334956 0.619359 0.137062
0.348751 0.616601 0.135195
0.365767 0.615914 0.133333
0.384618 0.613627 0.133333
0.405156 0.611414 0.132842
0.428891 0.608180 0.130847
0.454569 0.605416 0.128847
0.481089 0.602836 0.127185
0.507504 0.599031 0.125004
0.535296 0.595313 0.122977
0.563684 0.591642 0.119954
0.591823 0.587828 0.117441
0.618819 0.583937 0.115042
0.644900 0.580149 0.113499
0.670013 0.575623 0.112040
0.695470 0.570913 0.110430
0.721894 0.566422 0.108710
0.744738 0.561960 0.107070
0.766617 0.557912 0.106615
0.787609 0.553844 0.106282
0.806904 0.549256 0.107598
0.825299 0.544685 0.108062
0.843022 0.540573 0.110172
0.859632 0.535344 0.111299
0.876504 0.531094 0.114283
0.891771 0.525607 0.118355
0.909378 0.519209 0.122636
0.338792 0.654086 0.137485
0.342842 0.653220 0.137485
0.347615 0.653220 0.137485
0.355505 0.653220 0.137256
0.364487 0.652996 0.135090
0.376097 0.651136 0.134807
0.388679 0.649313 0.134260
0.403909 0.648687 0.133277
0.421459 0.646269 0.132505
0.441230 0.644612 0.131759
0.463560 0.641514 0.129886
0.488761 0.638953 0.128567
0.513508 0.636577 0.126763
0.538007 0.633272 0.125478
0.563896 0.629848 0.123692
0.590013 0.626634 0.121250
0.616070 0.623763 0.119388
0.641641 0.620143 0.117207
0.666138 0.616228 0.116350
0.690027 0.611876 0.115881
0.713179 0.608658 0.114401
0.737666 0.605290 0.113280
0.759636 0.601246 0.112352
0.780608 0.597486 0.111661
0.800591 0.593556 0.111710
0.819564 0.589650 0.113201
0.836428 0.586163 0.114939
0.853147 0.582229 0.117375
0.870705 0.578338 0.119909
0.886835 0.574320 0.123721
0.901433 0.569448 0.127748
0.919524 0.563291 0.131868
0.387908 0.684241 0.137485
0.391941 0.683355 0.137458
0.396200 0.681594 0.136540
0.403780 0.681594 0.134724
0.411118 0.681483 0.133646
0.421386 0.680664 0.133578
0.433652 0.679822 0.133033
0.448062 0.677492 0.130621
0.464079 0.676249 0.129851
0.481991 0.674115 0.128468
0.502427 0.672075 0.126871
0.525974 0.669766 0.126110
0.547991 0.667349 0.125182
0.571378 0.664319 0.124074
0.594795 0.661924 0.122343
0.617809 0.658900 0.121176
0.641309 0.656253 0.119196
0.665205 0.653054 0.117414
0.688302 0.649790 0.117051
0.710435 0.646311 0.117104
0.731891 0.643000 0.116522
0.754151 0.640313 0.116184
0.775291 0.637085 0.116016
0.794976 0.633681 0.115714
0.814128 0.629944 0.115566
0.831532 0.627212 0.116455
0.847611 0.624507 0.119276
0.863492 0.620814 0.122562
0.880156 0.617173 0.125088
0.896120 0.613179 0.129124
0.911315 0.609946 0.134929
0.928205 0.604986 0.139021
0.437111 0.707464 0.134712
0.440277 0.707084 0.134700
0.444498 0.706330 0.134307
0.451362 0.706262 0.133510
0.457055 0.705636 0.132862
0.466009 0.705357 0.132348
0.477921 0.703617 0.130225
0.490899 0.702305 0.129002
0.505920 0.701254 0.127540
0.522173 0.699136 0.125113
0.540676 0.697616 0.123171
0.562223 0.695330 0.122686
0.582203 0.693095 0.122411
0.602962 0.690522 0.121543
0.624059 0.688703 0.120018
0.645621 0.685642 0.118667
0.666877 0.683443 0.117777
0.687693 0.681244 0.116656
0.709098 0.678949 0.116681
0.729856 0.675663 0.117122
0.750601 0.672839 0.117059
0.770628 0.670090 0.116972
0.790071 0.666994 0.116972
0.808154 0.663768 0.116972
0.826720 0.661320 0.116917
0.843403 0.659047 0.119169
0.859317 0.655782 0.120836
0.875198 0.653405 0.124455
0.889200 0.650671 0.127912
0.904232 0.646753 0.132761
0.920068 0.644907 0.140293
0.938792 0.641742 0.145307
0.487211 0.727378 0.132672
0.488030 0.727378 0.130492
0.492108 0.727331 0.130316
0.497054 0.726629 0.130274
0.504053 0.726401 0.129875
0.512243 0.726300 0.129571
0.521694 0.725326 0.127925
0.533830 0.723305 0.126297
0.546893 0.722529 0.125405
0.561986 0.721241 0.123707
0.578867 0.719086 0.121155
0.597325 0.717222 0.119565
0.615310 0.715126 0.118690
0.633759 0.713602 0.117878
0.652518 0.711627 0.116904
0.672608 0.709433 0.115367
0.691969 0.707604 0.114521
0.710368 0.705698 0.114017
0.729545 0.703486 0.113967
0.748524 0.700280 0.114112
0.767893 0.698010 0.114212
0.786797 0.695729 0.114131
0.804047 0.693680 0.115745
0.820757 0.691111 0.116832
0.838831 0.688269 0.116972
0.855050 0.686559 0.119488
0.869354 0.683073 0.121109
0.884469 0.681966 0.125023
0.899597 0.678870 0.131231
0.912457 0.677433 0.139176
0.928134 0.674421 0.147245
0.947922 0.671637 0.154799
0.535799 0.746536 0.128953
0.535925 0.746536 0.128217
0.539958 0.746522 0.125956
0.544267 0.746315 0.125774
0.551063 0.746023 0.125651
0.557285 0.743925 0.125121
0.567135 0.743162 0.124537
0.576960 0.742591 0.122762
0.588608 0.742010 0.122243
0.601200 0.740185 0.121225
0.616101 0.738778 0.119177
0.632914 0.737461 0.117286
0.647639 0.735235 0.115378
0.663984 0.734496 0.113619
0.681893 0.732923 0.111803
0.698816 0.730876 0.110852
0.715477 0.728916 0.110429
0.733061 0.727191 0.110046
0.750575 0.724947 0.109851
0.767154 0.722927 0.109967
0.784530 0.720526 0.111661
0.802741 0.718920 0.112900
0.819007 0.716473 0.113573
0.834846 0.715260 0.114325
0.850758 0.712109 0.116124
0.865022 0.711044 0.117890
0.879736 0.707724 0.121491
0.893346 0.707046 0.128093
0.908401 0.705950 0.135886
0.923225 0.703306 0.146796
0.936292 0.702331 0.155059
0.955989 0.698673 0.163370
0.583103 0.763078 0.121856
0.583794 0.763078 0.121838
0.587065 0.763078 0.121298
0.591149 0.763078 0.121438
0.595772 0.763005 0.121166
0.601257 0.762481 0.119200
0.609370 0.761712 0.118466
0.618071 0.759171 0.118185
0.629223 0.759062 0.118239
0.640214 0.758664 0.117316
0.652816 0.757494 0.114885
0.666885 0.755260 0.113363
0.680533 0.754821 0.111347
0.694397 0.753549 0.109984
0.710453 0.751403 0.108609
0.724940 0.750674 0.107129
0.739219 0.748962 0.106267
0.755221 0.747076 0.105894
0.771129 0.745805 0.106563
0.786874 0.743979 0.108377
0.801939 0.742055 0.109554
0.818216 0.740151 0.110935
0.832865 0.738642 0.112747
0.847930 0.736400 0.114244
0.862888 0.735130 0.117275
0.876069 0.734154 0.120791
0.890953 0.731512 0.126494
0.904031 0.731041 0.134573
0.916534 0.728110 0.143040
0.932052 0.727176 0.154202
0.944385 0.727134 0.163052
0.964055 0.723227 0.171184
0.627579 0.779164 0.114656
0.628413 0.779164 0.114656
0.631686 0.779164 0.114672
0.635527 0.779164 0.114900
0.639581 0.779164 0.114849
0.644336 0.779065 0.114481
0.652038 0.777912 0.113952
0.659646 0.775257 0.112032
0.668095 0.775257 0.111058
0.677343 0.775257 0.110698
0.688448 0.774472 0.109478
0.700345 0.772314 0.107495
0.712340 0.771389 0.106514
0.724521 0.771158 0.106062
0.737098 0.770044 0.105512
0.750100 0.768189 0.105147
0.763859 0.767079 0.104773
0.777911 0.766192 0.104839
0.791817 0.764399 0.105880
0.805049 0.763075 0.108133
0.819484 0.762098 0.109290
0.833067 0.760096 0.111796
0.847053 0.758946 0.115532
0.860566 0.757957 0.119193
0.873218 0.756081 0.123094
0.887122 0.755129 0.127448
0.900407 0.754133 0.132235
0.912902 0.752002 0.139869
0.927223 0.751142 0.148017
0.940301 0.750506 0.159253
0.955425 0.747692 0.167651
0.972122 0.746969 0.175722
0.671440 0.794659 0.107172
0.671651 0.794659 0.107172
0.675179 0.794659 0.107147
0.676198 0.794412 0.106820
0.680232 0.792052 0.107122
0.684753 0.791666 0.106154
0.691443 0.791508 0.103829
0.696806 0.791177 0.102970
0.704581 0.791177 0.102596
0.712385 0.791177 0.102405
0.721765 0.790331 0.102281
0.732592 0.788098 0.102012
0.742279 0.787270 0.101910
0.753563 0.787270 0.101871
0.764715 0.787156 0.101720
0.775745 0.786057 0.101382
0.786959 0.784171 0.101130
0.799168 0.783259 0.102082
