gsg/02_Everyday/GSG_LUT_Everyday_CoolMids.cube
# GSG LUTs 1.0
# Copyright (c) 2016-2020 Greyscalegorilla
# See EULA for licensing and distribution information
# Converted by Briz LUT Converter
LUT_3D_SIZE 32
0.000000 0.000000 0.000000
0.029091 0.000008 0.000008
0.061357 0.000260 0.000260
0.093245 0.000536 0.000536
0.121446 0.001418 0.001071
0.149269 0.004947 0.002379
0.176383 0.008240 0.006617
0.204553 0.009847 0.010099
0.232408 0.011233 0.011548
0.256221 0.016779 0.013659
0.284438 0.017078 0.018181
0.311702 0.022577 0.022876
0.334830 0.035401 0.027666
0.356060 0.043145 0.034125
0.378400 0.043160 0.040632
0.402891 0.044500 0.045012
0.427090 0.050928 0.051314
0.449525 0.059096 0.059002
0.472669 0.065068 0.064658
0.498011 0.066612 0.071401
0.520855 0.080602 0.080224
0.543346 0.093198 0.091622
0.567482 0.094962 0.103281
0.591390 0.093119 0.111544
0.613006 0.093686 0.115956
0.634125 0.105045 0.122242
0.655914 0.116909 0.130324
0.678695 0.112939 0.137792
0.698988 0.125543 0.147528
0.718217 0.133837 0.155556
0.738320 0.139273 0.163606
0.760928 0.147497 0.175092
0.000347 0.027421 0.011958
0.027297 0.023624 0.007583
0.058599 0.020889 0.004547
0.089264 0.019231 0.003001
0.115934 0.018916 0.002605
0.145280 0.018511 0.005210
0.173548 0.017639 0.007036
0.200712 0.018002 0.009276
0.226478 0.020527 0.012163
0.251796 0.022559 0.015029
0.279221 0.024055 0.018945
0.305626 0.029263 0.023085
0.330006 0.034993 0.027085
0.353517 0.036717 0.031244
0.375756 0.042730 0.035956
0.398279 0.050503 0.042768
0.422088 0.058733 0.051806
0.445870 0.066445 0.059632
0.469057 0.072197 0.065252
0.492988 0.074943 0.072010
0.517477 0.077974 0.081102
0.541786 0.080537 0.089293
0.565627 0.083357 0.096226
0.588266 0.090715 0.103711
0.610083 0.097052 0.112519
0.632327 0.102256 0.121790
0.654122 0.109640 0.130854
0.673697 0.122079 0.139034
0.695463 0.123660 0.144078
0.715372 0.133623 0.152279
0.735081 0.146469 0.161772
0.757935 0.153720 0.169869
0.011312 0.053212 0.027382
0.033293 0.047942 0.018963
0.058447 0.044459 0.012561
0.085218 0.041701 0.007717
0.113283 0.039362 0.004787
0.142787 0.037935 0.006872
0.170149 0.036937 0.009123
0.196202 0.037530 0.011489
0.221769 0.040132 0.014010
0.247522 0.042430 0.016557
0.273347 0.044891 0.019780
0.298773 0.047905 0.024798
0.323833 0.048628 0.029741
0.348235 0.048171 0.033197
0.371231 0.054341 0.038480
0.393839 0.061132 0.044188
0.417290 0.066491 0.051974
0.441049 0.072478 0.059860
0.464117 0.077245 0.065335
0.487837 0.076774 0.071116
0.513466 0.078115 0.080761
0.538435 0.081415 0.089444
0.561925 0.084697 0.095505
0.585521 0.089203 0.101568
0.607708 0.092689 0.111816
0.629148 0.099656 0.120956
0.650142 0.109812 0.128170
0.670534 0.120084 0.134899
0.691101 0.125821 0.142111
0.711352 0.133690 0.150561
0.732513 0.142288 0.159322
0.755823 0.149781 0.166970
0.019441 0.080397 0.043373
0.041049 0.074625 0.032458
0.060353 0.071193 0.023100
0.082857 0.067877 0.015698
0.111346 0.062873 0.010992
0.138399 0.062374 0.009845
0.164560 0.061547 0.011535
0.190810 0.061699 0.014506
0.217118 0.063591 0.017216
0.242306 0.066188 0.019080
0.267374 0.069117 0.021947
0.292513 0.070597 0.027441
0.317702 0.069557 0.033215
0.342217 0.069085 0.036961
0.365491 0.072633 0.042934
0.388675 0.075966 0.047418
0.412281 0.078686 0.052854
0.435786 0.083294 0.059670
0.459265 0.086688 0.065057
0.483502 0.082333 0.070950
0.509177 0.083498 0.081087
0.533908 0.088996 0.090590
0.557171 0.092107 0.097297
0.581228 0.092708 0.103181
0.603401 0.095570 0.112971
0.624364 0.105249 0.120683
0.645186 0.115833 0.126027
0.667073 0.118249 0.131044
0.687337 0.125339 0.140786
0.708217 0.131760 0.149596
0.729882 0.138616 0.157813
0.751963 0.148537 0.166174
0.020198 0.109008 0.058088
0.045512 0.103037 0.046073
0.064298 0.100219 0.035797
0.083828 0.096242 0.027975
0.108716 0.088949 0.023029
0.131533 0.090197 0.016372
0.157474 0.087419 0.014580
0.185141 0.085536 0.017112
0.212172 0.086713 0.021546
0.236232 0.087887 0.023112
0.262256 0.090450 0.025640
0.288238 0.091642 0.030068
0.313277 0.091196 0.035418
0.337125 0.091554 0.040141
0.359666 0.092807 0.045519
0.382778 0.094802 0.050926
0.406611 0.098108 0.055468
0.430869 0.102305 0.059882
0.455576 0.104399 0.065540
0.480018 0.099743 0.073421
0.504384 0.097440 0.083200
0.528424 0.098985 0.091485
0.551881 0.101486 0.098339
0.574556 0.104889 0.105898
0.596216 0.115265 0.114777
0.618476 0.122519 0.121740
0.640692 0.125136 0.126872
0.661964 0.126386 0.131808
0.684753 0.121490 0.140318
0.706271 0.129778 0.149498
0.726161 0.145298 0.158725
0.745283 0.159187 0.167781
0.032045 0.133483 0.073386
0.051520 0.128997 0.062146
0.069511 0.126081 0.054641
0.088533 0.122681 0.047092
0.109849 0.117831 0.037042
0.132033 0.114043 0.029159
0.156544 0.111544 0.023257
0.182224 0.110738 0.022103
0.208296 0.110815 0.025592
0.233043 0.110842 0.027931
0.258274 0.112776 0.030062
0.283848 0.112451 0.033039
0.309126 0.110158 0.037124
0.333453 0.110166 0.042417
0.356753 0.111548 0.048450
0.378811 0.114384 0.054453
0.401693 0.116969 0.059954
0.425974 0.118662 0.065985
0.449753 0.120430 0.072449
0.472740 0.122238 0.077861
0.496692 0.124554 0.085537
0.521380 0.125256 0.093336
0.545523 0.125053 0.099751
0.568431 0.126673 0.106435
0.591172 0.130283 0.115353
0.614085 0.132584 0.122636
0.636271 0.135111 0.128413
0.657082 0.141418 0.134629
0.678845 0.144901 0.144180
0.699936 0.148947 0.152509
0.720665 0.156067 0.161016
0.741329 0.166868 0.171499
0.037229 0.159589 0.088211
0.058792 0.154937 0.079906
0.076942 0.151299 0.072429
0.093562 0.148342 0.063635
0.110409 0.145803 0.052565
0.133620 0.138950 0.044595
0.155351 0.136379 0.037483
0.178136 0.135779 0.032428
0.203455 0.135056 0.031623
0.228723 0.134344 0.034535
0.253189 0.134486 0.035852
0.278385 0.133610 0.038966
0.304137 0.132175 0.043345
0.328694 0.132230 0.046875
0.352253 0.133287 0.052198
0.374184 0.135825 0.057623
0.395993 0.137996 0.063376
0.419282 0.138570 0.069695
0.443121 0.139652 0.075785
0.466165 0.142153 0.081477
0.491153 0.145312 0.087669
0.516262 0.146135 0.095169
0.540078 0.145348 0.103370
0.563259 0.145984 0.111032
0.585472 0.148452 0.117958
0.608193 0.149785 0.124876
0.630762 0.151600 0.131995
0.651413 0.156582 0.139953
0.673099 0.159656 0.147690
0.694569 0.164562 0.154947
0.715614 0.170554 0.163151
0.737611 0.175611 0.173185
0.044956 0.186254 0.102832
0.065474 0.180773 0.096541
0.083904 0.176600 0.088743
0.100528 0.173389 0.079307
0.116214 0.170842 0.068855
0.136454 0.165216 0.062184
0.155566 0.162602 0.053835
0.175624 0.160766 0.045660
0.198561 0.158658 0.041359
0.224225 0.158068 0.042639
0.248677 0.156445 0.042961
0.273062 0.155519 0.045318
0.297951 0.155791 0.049347
0.322817 0.156039 0.053078
0.346540 0.156170 0.058754
0.369021 0.157675 0.062755
0.390492 0.159383 0.067313
0.413006 0.159893 0.073671
0.436920 0.160415 0.079508
0.460292 0.161236 0.086554
0.485903 0.164166 0.092623
0.511188 0.165658 0.099562
0.534578 0.165252 0.108026
0.557772 0.166305 0.116049
0.579325 0.168893 0.122702
0.601791 0.170926 0.128797
0.624653 0.171944 0.135566
0.646262 0.171745 0.144615
0.667654 0.175595 0.149908
0.688820 0.181385 0.156310
0.710175 0.186254 0.164230
0.732743 0.187136 0.173327
0.059514 0.211777 0.117578
0.072420 0.206170 0.111621
0.089505 0.201969 0.104412
0.108125 0.198064 0.095664
0.125649 0.193476 0.086277
0.140052 0.191758 0.080527
0.158078 0.188818 0.071373
0.176440 0.185094 0.062572
0.195132 0.182042 0.057148
0.220088 0.181588 0.053739
0.245312 0.179141 0.051951
0.268793 0.178239 0.051526
0.291479 0.179754 0.054092
0.316074 0.180005 0.060820
0.340081 0.179067 0.067674
0.363426 0.179435 0.070390
0.385515 0.180460 0.073484
0.408090 0.181121 0.079617
0.431859 0.181915 0.085588
0.454892 0.182132 0.093604
0.479951 0.184648 0.100714
0.505055 0.186310 0.106662
0.528465 0.186388 0.112996
0.551379 0.188681 0.119976
0.573322 0.190033 0.127752
0.595473 0.192359 0.133404
0.618331 0.193612 0.138709
0.641442 0.189527 0.146910
0.662143 0.197069 0.151772
0.682504 0.201135 0.157725
0.703750 0.202315 0.165312
0.726756 0.203773 0.174146
0.074237 0.235740 0.132987
0.085162 0.231717 0.127343
0.097826 0.227012 0.120888
0.111701 0.222541 0.113660
0.126528 0.218895 0.105811
0.143546 0.216211 0.098172
0.161135 0.212153 0.091540
0.177913 0.208987 0.085171
0.194581 0.207670 0.077960
0.216580 0.205650 0.070395
0.240598 0.202766 0.064475
0.264617 0.201707 0.061822
0.287456 0.203036 0.064211
0.310139 0.203607 0.069663
0.333844 0.203263 0.073691
0.357152 0.203584 0.076719
0.379482 0.203243 0.081215
0.402456 0.202791 0.086931
0.426686 0.204101 0.092349
0.449671 0.206235 0.099417
0.474826 0.207174 0.106333
0.499742 0.207352 0.112789
0.522504 0.208069 0.119170
0.545412 0.210666 0.125185
0.568513 0.210233 0.130820
0.590106 0.212037 0.137491
0.611631 0.214691 0.144416
0.635061 0.213091 0.150175
0.655678 0.216350 0.157244
0.676596 0.219311 0.163992
0.698300 0.222058 0.170783
0.720887 0.225562 0.178605
0.088527 0.263122 0.149592
0.098757 0.258191 0.143550
0.108287 0.253663 0.137453
0.118180 0.249258 0.130436
0.130073 0.244799 0.121812
0.147573 0.241881 0.116031
0.162868 0.238213 0.109091
0.178487 0.234981 0.101956
0.196078 0.232892 0.094977
0.215576 0.230831 0.087657
0.236245 0.228248 0.080750
0.259099 0.226111 0.076518
0.282481 0.225771 0.076308
0.303998 0.226930 0.077718
0.326393 0.227603 0.078907
0.349564 0.228344 0.083053
0.372495 0.228214 0.090136
0.396050 0.227394 0.095550
0.420859 0.227328 0.099162
0.444362 0.228644 0.105490
0.469818 0.228410 0.112867
0.494507 0.228465 0.119404
0.516829 0.230363 0.125540
0.538924 0.233739 0.131464
0.561932 0.233538 0.137091
0.583631 0.235179 0.143304
0.605158 0.237166 0.149630
0.628737 0.234486 0.155639
0.649447 0.237205 0.164679
0.670608 0.240433 0.170454
0.692497 0.243628 0.175608
0.714916 0.246831 0.184387
0.096664 0.289897 0.167411
0.106605 0.284474 0.160948
0.114925 0.279616 0.154499
0.123378 0.275363 0.147226
0.133769 0.271656 0.138734
0.149596 0.268379 0.134513
0.164777 0.264380 0.126784
0.180721 0.261017 0.118139
0.198296 0.258602 0.111056
0.216324 0.255564 0.106204
0.234610 0.253290 0.100418
0.254348 0.251370 0.095146
0.276227 0.249853 0.092450
0.298590 0.249766 0.091181
0.320367 0.250864 0.088760
0.343616 0.251852 0.091686
0.367327 0.251799 0.098939
0.390513 0.251228 0.103747
0.414264 0.250848 0.106918
0.438144 0.250897 0.113547
0.464035 0.250183 0.121598
0.488640 0.250323 0.127421
0.510881 0.252315 0.132336
0.532778 0.255476 0.138944
0.555201 0.256423 0.144116
0.576950 0.257746 0.149497
0.598948 0.258803 0.155555
0.622684 0.257204 0.162033
0.643711 0.259237 0.171815
0.664979 0.262356 0.177212
0.686872 0.265307 0.181703
0.709551 0.267494 0.190862
0.097924 0.315042 0.185277
0.109038 0.310424 0.178195
0.117577 0.305102 0.171148
0.126697 0.300431 0.164306
0.137885 0.297732 0.157887
0.150513 0.294078 0.151728
0.166306 0.289603 0.144143
0.183212 0.286010 0.135779
0.200038 0.283757 0.128648
0.217449 0.280059 0.125031
0.235337 0.277477 0.120165
0.252574 0.276066 0.113947
0.271940 0.274428 0.109954
0.295355 0.272447 0.108331
0.317037 0.272567 0.103379
0.339977 0.273309 0.103033
0.363932 0.273516 0.107895
0.386411 0.273626 0.112213
0.408319 0.273977 0.116114
0.431935 0.273678 0.123358
0.457736 0.272851 0.131616
0.482097 0.272901 0.136534
0.504439 0.274178 0.140151
0.526802 0.275922 0.146646
0.549322 0.277390 0.151240
0.571261 0.278627 0.156480
0.593255 0.279547 0.162682
0.616541 0.280874 0.168280
0.638556 0.281919 0.176932
0.659790 0.284208 0.182988
0.681216 0.286867 0.188569
0.704069 0.288700 0.197385
0.100075 0.340809 0.202158
0.113511 0.335988 0.193879
0.122753 0.330953 0.186880
0.132274 0.326039 0.180850
0.144629 0.321541 0.175136
0.154355 0.318447 0.166273
0.167785 0.314869 0.159467
0.183738 0.310799 0.153014
0.200969 0.307404 0.146409
0.218219 0.305530 0.141214
0.236340 0.302399 0.135700
0.253742 0.299706 0.129212
0.272534 0.297711 0.124763
0.294504 0.295326 0.122884
0.314875 0.293989 0.118094
0.336345 0.294227 0.116060
0.359544 0.295256 0.118996
0.382343 0.295869 0.122606
0.404408 0.296204 0.125802
0.427352 0.296309 0.132743
0.451995 0.295481 0.139632
0.475950 0.295764 0.144100
0.498440 0.297398 0.148177
0.520518 0.298181 0.153772
0.543851 0.299247 0.159678
0.566347 0.300713 0.164954
0.587908 0.301816 0.170077
0.609650 0.302680 0.175419
0.632853 0.304051 0.182154
0.654428 0.306434 0.187711
0.675341 0.309151 0.194034
0.697727 0.311434 0.203025
0.105699 0.366915 0.217740
0.119548 0.360940 0.210012
0.129347 0.355808 0.202964
0.138986 0.350971 0.196108
0.151062 0.345918 0.189445
0.159813 0.342623 0.181874
0.172763 0.339613 0.176268
0.187260 0.335928 0.169962
0.202169 0.332077 0.161963
0.219576 0.330096 0.155973
0.238359 0.327315 0.150455
0.255552 0.324543 0.144692
0.273220 0.321740 0.140826
0.293811 0.318500 0.138906
0.312488 0.316541 0.133814
0.332389 0.316037 0.131242
0.354678 0.316350 0.132495
0.377794 0.316880 0.134063
0.400411 0.317754 0.136140
0.422466 0.318506 0.142055
0.446114 0.318525 0.146668
0.470380 0.319091 0.150215
0.493473 0.320487 0.155254
0.514902 0.321616 0.161657
0.537861 0.322527 0.168176
0.560647 0.323904 0.172952
0.582376 0.325007 0.177447
0.603395 0.324993 0.184166
0.626246 0.325850 0.189952
0.648473 0.328251 0.193969
0.670348 0.331139 0.199112
0.692875 0.333318 0.207956
0.110331 0.392170 0.231785
0.125007 0.386242 0.225345
0.134296 0.380835 0.219125
0.143063 0.375533 0.212611
0.154508 0.370215 0.205609
0.165201 0.366573 0.199196
0.178208 0.363699 0.193425
0.191009 0.360776 0.186579
0.203731 0.357635 0.178521
0.220262 0.355193 0.172904
0.238146 0.352189 0.167562
0.255975 0.349057 0.162306
0.274309 0.346057 0.158042
0.293058 0.343190 0.154265
0.310380 0.340966 0.148894
0.329322 0.339095 0.146989
0.351004 0.338168 0.147985
0.373701 0.338578 0.148409
0.395791 0.339675 0.148987
0.417103 0.341220 0.151300
0.440816 0.342264 0.154383
0.465244 0.342575 0.157733
0.488419 0.342727 0.162413
0.511008 0.343332 0.169479
0.532557 0.344826 0.175881
0.554354 0.346291 0.180521
0.576282 0.347173 0.184910
0.597979 0.346963 0.191370
0.619889 0.348970 0.196209
0.642728 0.350362 0.199599
0.665887 0.351670 0.204514
0.688590 0.353901 0.213100
0.116255 0.418134 0.247792
0.127138 0.412950 0.240738
0.136109 0.407137 0.235062
0.145584 0.401270 0.229386
0.157191 0.396196 0.222433
0.168738 0.392521 0.215418
0.180208 0.388809 0.208729
0.192233 0.385707 0.202005
0.205996 0.383152 0.195638
0.221750 0.380039 0.190530
0.238528 0.376767 0.184626
0.256862 0.373635 0.179346
0.275407 0.370733 0.174350
0.292249 0.368231 0.168942
0.309669 0.366357 0.165319
0.327964 0.363701 0.163041
0.348215 0.361538 0.162541
0.369525 0.361436 0.163180
0.390437 0.362362 0.163620
0.411972 0.364061 0.163583
0.436108 0.365122 0.165186
0.460324 0.365132 0.167763
0.483556 0.364804 0.171134
0.507434 0.364795 0.176769
0.528430 0.366126 0.183008
0.549434 0.367490 0.187807
0.571558 0.368242 0.191692
0.594193 0.368231 0.196513
0.616120 0.370840 0.201580
0.638239 0.372411 0.205962
0.660862 0.373483 0.211430
0.684178 0.375328 0.218898
0.120525 0.445209 0.264154
0.126358 0.440140 0.256567
0.135725 0.434228 0.250255
0.147512 0.428396 0.244079
0.160180 0.423505 0.237217
0.170818 0.419615 0.230732
0.180713 0.414671 0.224183
0.193139 0.410838 0.218179
0.208993 0.408329 0.212730
0.224044 0.404751 0.206935
0.240132 0.401536 0.199855
0.257749 0.399087 0.194281
0.275325 0.396319 0.189482
0.291526 0.393075 0.184091
0.309286 0.391534 0.181601
0.327283 0.389030 0.178335
0.345969 0.386396 0.175997
0.365539 0.385527 0.176643
0.385673 0.385638 0.177762
0.407613 0.386136 0.177940
0.431770 0.386671 0.178424
0.455808 0.387125 0.179822
0.479001 0.387539 0.181720
0.502392 0.387837 0.183864
0.524211 0.388364 0.190034
0.545490 0.389268 0.195345
0.567373 0.390291 0.199002
0.590169 0.390823 0.203034
0.612204 0.392621 0.208242
0.633448 0.394591 0.213563
0.655224 0.396582 0.219354
0.679373 0.398133 0.225617
0.120210 0.471362 0.278128
0.126350 0.466168 0.271786
0.134988 0.460801 0.264948
0.146772 0.455302 0.258279
0.161117 0.449977 0.252106
0.172159 0.445303 0.247151
0.182323 0.439946 0.241447
0.195369 0.435928 0.235906
0.211602 0.433534 0.230450
0.225229 0.430320 0.223499
0.239960 0.426936 0.215427
0.256691 0.424541 0.209477
0.274393 0.422214 0.205260
0.290952 0.418735 0.200021
0.308178 0.416706 0.195968
0.326574 0.414367 0.192556
0.345195 0.412139 0.190234
0.363475 0.410717 0.189945
0.382711 0.409495 0.190642
0.403779 0.408451 0.190460
0.427686 0.408372 0.191432
0.451507 0.409316 0.192862
0.474138 0.410511 0.193198
0.496789 0.411028 0.192323
0.519255 0.411250 0.197302
0.540577 0.411887 0.203124
0.561895 0.413172 0.207732
0.584592 0.414860 0.211948
0.606172 0.416365 0.215636
0.627631 0.417343 0.220736
0.649945 0.418507 0.226736
0.673906 0.420536 0.232502
0.123045 0.496625 0.294687
0.130380 0.491184 0.287498
0.135149 0.486011 0.280339
0.143709 0.481186 0.274082
0.159645 0.476225 0.268658
0.171941 0.470158 0.263158
0.182499 0.465449 0.257035
0.195737 0.461842 0.251716
0.212537 0.458714 0.247237
0.226074 0.455371 0.240376
0.239977 0.452229 0.231744
0.256398 0.449404 0.225505
0.274136 0.446933 0.222011
0.290590 0.444586 0.217480
0.307934 0.442305 0.212444
0.326104 0.440187 0.208005
0.345115 0.438093 0.204269
0.364062 0.435829 0.202405
0.382447 0.433533 0.202355
0.400723 0.431730 0.201560
0.423027 0.430548 0.203417
0.446891 0.431202 0.205607
0.469880 0.432927 0.205923
0.492529 0.433399 0.204920
0.514265 0.432921 0.206067
0.535423 0.433618 0.210425
0.556831 0.435172 0.216217
0.579542 0.436956 0.221156
0.601478 0.437744 0.223500
0.623168 0.439101 0.227976
0.645067 0.440913 0.233364
0.667659 0.442420 0.237709
0.129127 0.523786 0.312301
0.134077 0.518573 0.304741
0.136274 0.513601 0.297814
0.144565 0.508554 0.291889
0.163453 0.503068 0.286925
0.175542 0.496379 0.280360
0.186324 0.491945 0.274536
0.199535 0.488791 0.268685
0.215660 0.485809 0.262971
0.228293 0.482195 0.257611
0.242966 0.479086 0.250763
0.258816 0.476170 0.244943
0.275355 0.473654 0.239940
0.291974 0.471730 0.234383
0.308581 0.469573 0.229841
0.326814 0.466845 0.225302
0.345810 0.464214 0.219988
0.364418 0.461798 0.217023
0.382687 0.459330 0.216926
0.399813 0.457474 0.214495
0.420386 0.455397 0.214840
0.443198 0.454919 0.216782
0.465459 0.456026 0.217489
0.486798 0.456463 0.217413
0.508786 0.455603 0.217145
0.530841 0.456459 0.219615
0.552974 0.458423 0.224489
0.575518 0.459614 0.229427
0.597328 0.460390 0.233495
0.618271 0.462287 0.237240
0.639663 0.464319 0.240675
0.662838 0.464571 0.243885
0.137666 0.550120 0.329442
0.139312 0.545252 0.322302
0.141197 0.540452 0.315223
0.149818 0.535469 0.309363
0.168383 0.530004 0.304959
0.179174 0.523536 0.298150
0.191827 0.518624 0.292655
0.205313 0.514885 0.286642
0.218360 0.511896 0.279728
0.230920 0.508844 0.274302
0.246343 0.505880 0.268910
0.261584 0.502794 0.262838
0.276962 0.499941 0.256126
0.293650 0.498016 0.250433
0.309378 0.496337 0.246056
0.327366 0.493497 0.242031
0.346101 0.490342 0.236872
0.364244 0.487727 0.232918
0.382615 0.485273 0.231531
0.399765 0.483352 0.229173
0.419484 0.481095 0.227636
0.440594 0.479864 0.227855
0.461126 0.479927 0.228617
0.481849 0.479955 0.228978
0.504583 0.479243 0.229149
0.527087 0.480224 0.230355
0.549074 0.482073 0.233073
0.571140 0.483012 0.237151
0.592352 0.483690 0.242168
0.613297 0.485271 0.245928
0.635172 0.486710 0.248837
0.659388 0.487172 0.251361
0.145339 0.575501 0.347276
0.146649 0.570533 0.339679
0.148793 0.565576 0.332079
0.155764 0.560796 0.325738
0.169310 0.555946 0.321458
0.179888 0.550041 0.315061
0.194575 0.544870 0.309404
0.208737 0.540369 0.303925
0.220093 0.536771 0.297690
0.232911 0.534255 0.290873
0.247964 0.531403 0.285137
0.263015 0.528021 0.278090
0.278274 0.524562 0.270965
0.294722 0.522669 0.266460
0.310489 0.521367 0.261666
0.327605 0.519171 0.257634
0.345901 0.516073 0.253523
0.364323 0.513049 0.248851
0.382615 0.510358 0.245099
0.400035 0.508031 0.243651
0.419437 0.506219 0.241765
0.439148 0.504811 0.240250
0.458436 0.503669 0.240318
0.479362 0.502672 0.240889
0.501657 0.502534 0.241096
0.523501 0.503606 0.241201
0.545028 0.504999 0.242194
0.566438 0.505857 0.244727
0.587420 0.505923 0.249329
0.609057 0.506804 0.253212
0.631881 0.508047 0.256452
0.656111 0.509512 0.259270
0.146528 0.603135 0.365970
0.151364 0.597720 0.356899
0.154926 0.592285 0.349486
0.159451 0.586514 0.342420
0.166872 0.580393 0.335157
0.179517 0.575106 0.331202
0.192608 0.570620 0.325732
0.208313 0.566543 0.320433
0.224704 0.563182 0.315538
0.234649 0.560000 0.308162
0.247975 0.556015 0.301447
0.263467 0.552709 0.294374
0.279715 0.549833 0.287385
0.295841 0.546729 0.282172
0.312275 0.544763 0.277696
0.328615 0.543655 0.273300
0.346110 0.541565 0.269051
0.364518 0.538339 0.264803
0.382615 0.535484 0.260267
0.401498 0.532455 0.256283
0.420518 0.531752 0.255336
0.439590 0.530174 0.254119
0.458766 0.526838 0.252063
0.477450 0.524122 0.252315
0.497730 0.524746 0.252317
0.519182 0.526378 0.252184
0.540948 0.527557 0.252331
0.562378 0.528047 0.252382
0.583682 0.528365 0.258376
0.605554 0.528910 0.260919
0.628491 0.529777 0.262369
0.654102 0.530064 0.266793
0.152515 0.627650 0.383741
0.156398 0.622690 0.374764
0.159647 0.617698 0.366335
0.162882 0.612199 0.358758
0.167896 0.606289 0.352130
0.182495 0.600043 0.347451
0.196180 0.595098 0.341977
0.210649 0.590797 0.336895
0.226081 0.587193 0.332114
0.239786 0.583993 0.324943
0.253677 0.579881 0.318415
0.268079 0.576561 0.312156
0.283165 0.574262 0.305540
0.298813 0.571278 0.298937
0.315060 0.568581 0.293339
0.331017 0.567649 0.287846
0.348382 0.565787 0.283532
0.366948 0.562562 0.280147
0.384523 0.560375 0.275859
0.401736 0.557817 0.271115
0.420398 0.555463 0.268241
0.439716 0.553266 0.266773
0.458221 0.550942 0.265116
0.475555 0.549274 0.262150
0.494534 0.547215 0.262526
0.516224 0.547333 0.263343
0.538534 0.548776 0.263294
0.558948 0.549238 0.262461
0.581058 0.550223 0.267934
0.603033 0.550782 0.270081
0.627190 0.550425 0.269067
0.653346 0.549789 0.268998
0.156698 0.652219 0.401922
0.158970 0.647430 0.392502
0.161728 0.642634 0.383527
0.167006 0.637705 0.375447
0.176618 0.632154 0.368871
0.188135 0.625381 0.363300
0.201137 0.619988 0.358170
0.214394 0.615198 0.353088
0.228252 0.611328 0.347829
0.245270 0.608315 0.341869
0.259836 0.604498 0.335688
0.273601 0.600675 0.329575
0.287846 0.597986 0.323256
0.302726 0.595565 0.316310
0.317932 0.592958 0.309755
0.333492 0.591512 0.303160
0.350987 0.589723 0.298163
0.369177 0.586865 0.294795
0.385919 0.584588 0.290791
0.402261 0.582987 0.286066
0.421233 0.580082 0.281953
0.440860 0.577306 0.279658
0.459012 0.575539 0.277973
0.476127 0.573498 0.274778
0.494450 0.570294 0.274469
0.514978 0.569122 0.273975
0.536155 0.569634 0.272946
0.556060 0.570135 0.272272
0.580503 0.570583 0.276601
0.604576 0.570529 0.277382
0.629043 0.570004 0.275178
0.654614 0.569057 0.272457
0.161566 0.676970 0.420529
0.163612 0.672181 0.410344
0.166808 0.667365 0.401119
0.174451 0.662165 0.392882
0.187659 0.656915 0.385621
0.195732 0.650595 0.379763
0.206774 0.644972 0.374721
0.219521 0.640096 0.369578
0.233989 0.636189 0.364222
0.250141 0.633263 0.358990
0.263577 0.629709 0.352729
0.277151 0.625473 0.346251
0.291589 0.621796 0.340007
0.305678 0.619691 0.333388
0.320119 0.617799 0.326626
0.335175 0.615770 0.319314
0.352695 0.613688 0.313195
0.370867 0.611200 0.309077
0.387349 0.608522 0.305268
0.404134 0.607560 0.300579
0.423646 0.604925 0.296379
0.443119 0.602116 0.292884
0.460960 0.599997 0.290300
0.478002 0.596518 0.289275
0.496532 0.594298 0.287133
0.515532 0.592691 0.284574
0.535747 0.591082 0.281873
0.557502 0.590007 0.279771
0.582563 0.589736 0.283898
0.606922 0.589683 0.284176
0.631558 0.589208 0.281403
0.657608 0.588215 0.278585
0.174942 0.700611 0.439608
0.177491 0.695794 0.429489
0.182965 0.690122 0.419375
0.188779 0.684474 0.410873
0.193947 0.679687 0.404735
0.206196 0.674946 0.397930
0.215949 0.669208 0.391997
0.228419 0.664132 0.387277
0.244467 0.660609 0.382908
0.255245 0.657503 0.376035
0.264962 0.654497 0.368926
0.277592 0.650561 0.362085
0.292608 0.646579 0.355571
0.306314 0.644605 0.349196
0.320843 0.642867 0.342860
0.336051 0.640323 0.335681
0.353900 0.637302 0.328391
0.372981 0.634470 0.323444
