gsg/02_Everyday/GSG_LUT_Everyday_MutedWarmth.cube
# GSG LUTs 1.0
# Copyright (c) 2016-2020 Greyscalegorilla
# See EULA for licensing and distribution information
# Converted by Briz LUT Converter
LUT_3D_SIZE 32
0.087179 0.087179 0.087179
0.093600 0.087692 0.087692
0.103840 0.088448 0.088448
0.116680 0.089228 0.089228
0.131805 0.090236 0.090236
0.146693 0.091441 0.091481
0.160636 0.093852 0.093907
0.176951 0.096877 0.095317
0.194974 0.099397 0.095506
0.209358 0.101186 0.098318
0.227161 0.104573 0.100587
0.244184 0.105707 0.103029
0.260948 0.105991 0.104762
0.280657 0.108858 0.104967
0.300177 0.110686 0.106243
0.320194 0.111473 0.109457
0.340234 0.110339 0.112860
0.359628 0.108756 0.115515
0.379637 0.108567 0.118287
0.402552 0.108819 0.121210
0.427476 0.110016 0.123920
0.453511 0.111781 0.128426
0.479980 0.113545 0.133278
0.506085 0.115310 0.134554
0.533562 0.117263 0.141549
0.561345 0.119083 0.147922
0.589074 0.121052 0.151830
0.617015 0.122856 0.155359
0.646099 0.124841 0.161976
0.675111 0.126858 0.166521
0.705045 0.128875 0.169388
0.736508 0.130891 0.171429
0.088211 0.093946 0.088188
0.094638 0.094451 0.088464
0.104838 0.095011 0.089228
0.117459 0.096012 0.090013
0.130816 0.096852 0.091189
0.145690 0.098103 0.093513
0.161854 0.099394 0.094680
0.178118 0.100949 0.095724
0.194133 0.103029 0.097564
0.210881 0.106333 0.098953
0.228692 0.110197 0.100889
0.246584 0.113139 0.103238
0.264238 0.114013 0.105370
0.282154 0.114286 0.107310
0.300240 0.116214 0.109831
0.319839 0.118236 0.112115
0.340497 0.118158 0.115010
0.361303 0.115767 0.118244
0.382534 0.113662 0.120734
0.404270 0.113838 0.123165
0.429036 0.112934 0.127085
0.454330 0.112311 0.130692
0.479356 0.113589 0.133711
0.506012 0.115320 0.137648
0.532324 0.117080 0.142271
0.560063 0.119037 0.146273
0.588691 0.121052 0.149496
0.616780 0.122856 0.153210
0.645869 0.124841 0.159779
0.675119 0.126858 0.165001
0.705549 0.128875 0.168899
0.738013 0.131136 0.171767
0.089960 0.099571 0.089243
0.096630 0.100114 0.089748
0.105533 0.101375 0.090773
0.117228 0.102895 0.091725
0.132494 0.104417 0.092250
0.147878 0.105400 0.094508
0.163524 0.106203 0.095744
0.179462 0.107370 0.097169
0.195754 0.109429 0.099358
0.212703 0.112603 0.100382
0.230769 0.116111 0.102730
0.248738 0.119613 0.104898
0.265672 0.122153 0.106696
0.282696 0.122679 0.109176
0.300806 0.122829 0.111717
0.320415 0.124471 0.114002
0.340682 0.125914 0.116758
0.361501 0.124386 0.119594
0.383459 0.121033 0.122100
0.405537 0.117874 0.124949
0.430287 0.115276 0.128236
0.455090 0.114329 0.131075
0.479400 0.115048 0.133970
0.506007 0.115649 0.138045
0.533347 0.117263 0.141480
0.561155 0.119083 0.145504
0.589281 0.121052 0.150443
0.617106 0.122870 0.155801
0.646354 0.124843 0.159864
0.675859 0.126858 0.164766
0.706550 0.128890 0.169867
0.739226 0.131151 0.174761
0.091331 0.106755 0.091079
0.098680 0.107489 0.091337
0.106674 0.108337 0.092550
0.118412 0.109846 0.093706
0.135142 0.112564 0.094175
0.149785 0.113931 0.095372
0.165144 0.114712 0.096927
0.181233 0.115659 0.098762
0.197880 0.117393 0.100685
0.214271 0.120820 0.102136
0.232408 0.124070 0.104369
0.250453 0.127049 0.106460
0.267307 0.130097 0.108418
0.284017 0.131772 0.111040
0.302427 0.131174 0.113485
0.322163 0.132203 0.115927
0.342175 0.134313 0.118363
0.362536 0.133703 0.120614
0.384246 0.130327 0.122862
0.406944 0.125715 0.126073
0.431471 0.122003 0.128636
0.456159 0.119352 0.131096
0.480786 0.117318 0.134355
0.507036 0.116039 0.137923
0.534923 0.117269 0.142105
0.562528 0.119083 0.146219
0.589890 0.121052 0.151390
0.618108 0.123069 0.158194
0.646914 0.124865 0.160507
0.676576 0.126858 0.164772
0.707526 0.129111 0.170659
0.739683 0.131356 0.176856
0.091488 0.117909 0.093379
0.098811 0.118210 0.093433
0.108920 0.117299 0.094177
0.121586 0.117715 0.095265
0.136994 0.121461 0.096633
0.149407 0.124433 0.096984
0.165933 0.125273 0.098529
0.183121 0.125385 0.099998
0.198842 0.126794 0.101563
0.215693 0.131442 0.103778
0.232978 0.134978 0.104977
0.251591 0.136656 0.107106
0.270035 0.137611 0.110207
0.286941 0.139654 0.113212
0.305098 0.141554 0.116260
0.324762 0.142611 0.118111
0.345603 0.143176 0.119912
0.366105 0.142852 0.122212
0.386387 0.141192 0.123972
0.408734 0.139946 0.126525
0.433415 0.136091 0.129670
0.458594 0.128574 0.132556
0.483800 0.120970 0.135402
0.509252 0.117176 0.139343
0.535008 0.117569 0.145639
0.561757 0.119139 0.148664
0.590017 0.121058 0.150849
0.619521 0.123069 0.156880
0.647607 0.124894 0.160262
0.677146 0.126890 0.164528
0.708093 0.129112 0.169583
0.739367 0.131136 0.174745
0.092788 0.131033 0.094529
0.098124 0.130319 0.094478
0.109000 0.129715 0.095156
0.122969 0.130321 0.096641
0.137812 0.132330 0.098224
0.151878 0.134570 0.099235
0.167411 0.137060 0.100933
0.183871 0.138855 0.102522
0.200553 0.140162 0.103725
0.217290 0.143460 0.105505
0.234645 0.145625 0.107020
0.252276 0.146823 0.109132
0.269723 0.147986 0.111497
0.287417 0.150216 0.113728
0.306300 0.152210 0.116749
0.326284 0.151847 0.119532
0.346536 0.151953 0.122370
0.367120 0.153236 0.125082
0.388720 0.152622 0.126919
0.410901 0.150529 0.128804
0.435827 0.145757 0.133047
0.460859 0.139778 0.136637
0.484967 0.133420 0.138880
0.510240 0.125469 0.142825
0.535489 0.121082 0.145888
0.562212 0.120282 0.148900
0.590796 0.121286 0.152694
0.620019 0.123119 0.157208
0.648789 0.125089 0.160916
0.678170 0.127102 0.164449
0.707699 0.129119 0.168253
0.737595 0.131136 0.172366
0.094301 0.142739 0.097853
0.100461 0.142388 0.095997
0.110538 0.142255 0.097431
0.124620 0.142464 0.099873
0.141101 0.143106 0.100941
0.153523 0.146096 0.101163
0.168933 0.147307 0.102390
0.185171 0.148748 0.104224
0.201247 0.151210 0.106298
0.218949 0.153750 0.107993
0.236677 0.155752 0.110111
0.254301 0.156681 0.111697
0.271774 0.157433 0.112986
0.289728 0.159632 0.115621
0.308829 0.162363 0.118815
0.328587 0.163165 0.121371
0.348603 0.163263 0.123746
0.369278 0.164236 0.126388
0.390823 0.164339 0.128870
0.412685 0.162464 0.131285
0.437373 0.160516 0.134686
0.462777 0.156628 0.137879
0.487469 0.150465 0.140545
0.512003 0.144137 0.144005
0.537524 0.133830 0.146044
0.564214 0.126614 0.149317
0.592208 0.123678 0.153877
0.621423 0.123535 0.158831
0.650022 0.125109 0.161447
0.679103 0.127102 0.164947
0.708902 0.129119 0.169047
0.739864 0.131183 0.172397
0.095703 0.153886 0.100831
0.102761 0.154031 0.098856
0.113527 0.154377 0.100495
0.127523 0.154353 0.102685
0.143569 0.154230 0.103444
0.154806 0.158229 0.103038
0.170362 0.158342 0.103767
0.186441 0.159091 0.105583
0.201840 0.162521 0.108305
0.220442 0.164654 0.110213
0.238627 0.166970 0.112785
0.256560 0.168190 0.114253
0.274420 0.168763 0.115377
0.292827 0.170362 0.118390
0.311942 0.172758 0.121624
0.330865 0.174782 0.123506
0.350637 0.175571 0.125327
0.371841 0.176083 0.128142
0.393353 0.176407 0.131025
0.414965 0.175070 0.134196
0.439407 0.175481 0.137454
0.465190 0.173356 0.140309
0.490441 0.167536 0.142946
0.514653 0.162248 0.145595
0.540470 0.151538 0.148431
0.567091 0.141574 0.151885
0.593979 0.133433 0.155740
0.621927 0.124631 0.159624
0.650817 0.125104 0.161361
0.679526 0.127102 0.165150
0.709357 0.129119 0.169870
0.741195 0.131380 0.173823
0.097089 0.165355 0.102470
0.104070 0.165006 0.102743
0.116333 0.165686 0.103671
0.130477 0.166123 0.104356
0.143717 0.166407 0.104920
0.156402 0.170148 0.105168
0.172039 0.170740 0.106149
0.188116 0.171833 0.107758
0.203727 0.174726 0.109944
0.222028 0.176530 0.111760
0.240453 0.179375 0.114190
0.258357 0.181459 0.116477
0.276225 0.182511 0.118561
0.295201 0.183565 0.121199
0.314292 0.184335 0.124283
0.332703 0.186105 0.125844
0.352117 0.188000 0.128023
0.373671 0.188870 0.131218
0.395898 0.188954 0.133731
0.417839 0.187910 0.137218
0.442550 0.187694 0.141648
0.468253 0.186316 0.144887
0.493224 0.182248 0.146767
0.517970 0.175939 0.148844
0.543999 0.170369 0.153095
0.570468 0.163580 0.156583
0.596632 0.152210 0.158861
0.622198 0.133497 0.160429
0.651437 0.128960 0.161922
0.679925 0.128328 0.165658
0.708882 0.129214 0.170923
0.740313 0.131380 0.175336
0.100177 0.177770 0.105857
0.107783 0.177193 0.106191
0.116933 0.177662 0.106785
0.129352 0.178750 0.107119
0.145501 0.180300 0.107284
0.159021 0.181711 0.108037
0.175627 0.182297 0.109817
0.191997 0.183788 0.111842
0.207282 0.186028 0.113296
0.225329 0.186923 0.114341
0.243294 0.189903 0.116057
0.260763 0.192181 0.118415
0.277975 0.193722 0.120800
0.296029 0.195987 0.123054
0.315105 0.197063 0.126076
0.334726 0.198763 0.128774
0.354734 0.200886 0.131787
0.375716 0.201754 0.134336
0.397820 0.201543 0.135817
0.420529 0.201225 0.138777
0.445152 0.200761 0.142725
0.470828 0.199276 0.146237
0.496485 0.196913 0.149094
0.522103 0.194676 0.151685
0.548136 0.188750 0.155454
0.574655 0.181585 0.158870
0.601388 0.173022 0.161928
0.627627 0.160937 0.165440
0.654304 0.146531 0.166531
0.682037 0.136978 0.169960
0.711525 0.132465 0.174133
0.742904 0.132372 0.175407
0.104163 0.191713 0.108803
0.111899 0.191710 0.109299
0.120149 0.191887 0.109536
0.131734 0.192171 0.109504
0.148278 0.192878 0.109317
0.161320 0.194768 0.110483
0.178204 0.196037 0.113420
0.195193 0.197656 0.115849
0.210580 0.199592 0.116461
0.227619 0.199957 0.117434
0.245461 0.201722 0.119404
0.262981 0.203680 0.121615
0.280034 0.205557 0.123790
0.297885 0.207855 0.126167
0.316838 0.209485 0.127968
0.337011 0.211632 0.130926
0.357677 0.213397 0.134995
0.378310 0.214545 0.137197
0.399601 0.215535 0.137929
0.422856 0.215160 0.140817
0.447505 0.214851 0.144787
0.473367 0.213746 0.148184
0.500036 0.211808 0.151318
0.526177 0.211113 0.154781
0.551682 0.206890 0.157895
0.578496 0.201847 0.160904
0.606056 0.194845 0.163929
0.632350 0.182690 0.167386
0.658687 0.170632 0.170603
0.685987 0.158092 0.174025
0.714960 0.146723 0.176459
0.745992 0.138974 0.176368
0.104856 0.205483 0.111576
0.113717 0.206061 0.112162
0.122393 0.206134 0.112499
0.134074 0.205956 0.112745
0.150744 0.205875 0.112888
0.163888 0.207523 0.113994
0.179439 0.209257 0.116080
0.196162 0.210868 0.117810
0.213127 0.212319 0.118900
0.229635 0.213067 0.120726
0.246940 0.213634 0.122760
0.264589 0.214951 0.124478
0.282568 0.217118 0.126645
0.300912 0.219073 0.129259
0.319965 0.220757 0.130646
0.340092 0.223367 0.133662
0.360791 0.225623 0.137715
0.381466 0.227358 0.140094
0.402738 0.229101 0.141424
0.426140 0.228861 0.143774
0.450994 0.228997 0.147364
0.476909 0.228185 0.150914
0.503322 0.226371 0.154409
0.529044 0.226666 0.158165
0.554848 0.223991 0.161027
0.582041 0.220161 0.164085
0.609796 0.214501 0.167361
0.636788 0.204541 0.170730
0.663758 0.197279 0.173949
0.691042 0.187330 0.177056
0.719606 0.173918 0.179255
0.750207 0.157879 0.180448
0.103470 0.218780 0.114916
0.112569 0.219145 0.115570
0.122812 0.219491 0.116096
0.135424 0.219784 0.116955
0.151122 0.220004 0.117846
0.165891 0.220002 0.118469
0.180881 0.221608 0.118466
0.196876 0.223203 0.119225
0.213832 0.224281 0.121347
0.230674 0.225420 0.123652
0.247833 0.226093 0.125484
0.265849 0.227157 0.126956
0.284861 0.228877 0.129250
0.304014 0.230621 0.132254
0.323263 0.232601 0.133946
0.343155 0.235374 0.136943
0.363642 0.237842 0.140004
0.384785 0.239784 0.142370
0.406767 0.241466 0.145416
0.429679 0.241811 0.147914
0.454793 0.242325 0.151032
0.480865 0.241642 0.154965
0.506629 0.240313 0.158931
0.531922 0.242022 0.162212
0.558628 0.240046 0.165237
0.585700 0.236676 0.168579
0.613013 0.232719 0.172137
0.641229 0.226444 0.176018
0.668561 0.220963 0.177086
0.695745 0.215602 0.179660
0.724057 0.206187 0.182815
0.754587 0.188979 0.185616
0.105235 0.232187 0.118177
0.110782 0.231962 0.118480
0.122079 0.232574 0.119115
0.135852 0.233195 0.120099
0.149821 0.233458 0.120855
0.166108 0.233447 0.121504
0.183730 0.234736 0.121683
0.199814 0.236629 0.122790
0.213760 0.238121 0.125104
0.230963 0.238564 0.126558
0.249308 0.240115 0.128424
0.268086 0.241470 0.130243
0.286959 0.242175 0.132773
0.306246 0.243646 0.135682
0.325574 0.246322 0.136919
0.345159 0.248939 0.139392
0.365692 0.250696 0.142230
0.387408 0.252088 0.144491
0.409793 0.253554 0.147605
0.432322 0.254706 0.151545
0.457542 0.255627 0.155077
0.484077 0.255457 0.158777
0.510238 0.254927 0.162710
0.536098 0.256685 0.166053
0.562643 0.255120 0.169343
0.589546 0.253424 0.172634
0.616974 0.251402 0.175739
0.645558 0.245861 0.179141
0.672535 0.241675 0.180385
0.699543 0.237042 0.183176
0.727998 0.230528 0.186100
0.758888 0.221222 0.187223
0.107330 0.245626 0.119942
0.109809 0.245181 0.120182
0.120350 0.245808 0.120840
0.134997 0.246117 0.121722
0.150300 0.245817 0.122464
0.167080 0.246820 0.123120
0.185540 0.248159 0.124037
0.202053 0.250078 0.126274
0.215812 0.251802 0.129543
0.233471 0.252117 0.130394
0.252074 0.253960 0.131620
0.271188 0.255496 0.133648
0.290273 0.256157 0.136381
0.309377 0.257179 0.138399
0.328901 0.258897 0.139457
0.347975 0.261283 0.141547
0.367857 0.263950 0.145279
0.390088 0.265322 0.148174
0.413514 0.265829 0.149941
0.436426 0.267987 0.153681
0.461175 0.269652 0.157233
0.487219 0.270360 0.160495
0.513364 0.270809 0.164386
0.539662 0.270729 0.168285
0.565821 0.268949 0.172253
0.593067 0.267945 0.175512
0.621155 0.267560 0.178245
0.649212 0.266165 0.181500
0.676295 0.263817 0.183444
0.704135 0.258583 0.186577
0.733378 0.252780 0.189168
0.764465 0.249675 0.188672
0.110560 0.260081 0.123242
0.113620 0.258644 0.123990
0.123621 0.258804 0.124731
0.138315 0.259217 0.125331
0.154470 0.259080 0.125583
0.168779 0.260677 0.125839
0.186544 0.262067 0.126961
0.203904 0.263571 0.129526
0.219153 0.265094 0.132634
0.236680 0.265779 0.133137
0.255071 0.267340 0.134419
0.274237 0.268809 0.136154
0.293335 0.270117 0.138435
0.312054 0.271435 0.140648
0.331808 0.272484 0.141904
0.351527 0.274404 0.143873
0.371246 0.276945 0.148159
0.393176 0.278077 0.152064
0.417308 0.278489 0.154021
0.440975 0.281190 0.157432
0.465227 0.283711 0.160334
0.490765 0.285257 0.162496
0.516862 0.286334 0.165734
0.542908 0.286102 0.170815
0.569517 0.284239 0.175255
0.597148 0.283637 0.177734
0.625119 0.284120 0.180165
0.652882 0.283929 0.185087
0.680169 0.282023 0.186989
0.708646 0.278006 0.189538
0.738205 0.274258 0.191717
0.768222 0.274134 0.191870
0.112324 0.274702 0.127402
0.116063 0.272992 0.127642
0.123585 0.272543 0.128252
0.136018 0.273029 0.128734
0.153213 0.273558 0.129052
0.168401 0.275045 0.129766
0.186288 0.276362 0.130897
0.204925 0.277249 0.132714
0.222548 0.278088 0.134488
0.239143 0.279712 0.134926
0.257047 0.280623 0.137599
0.276172 0.282112 0.139695
0.295303 0.284575 0.140838
0.313945 0.286592 0.143035
0.333869 0.287747 0.145201
0.354162 0.288980 0.147228
0.374271 0.290805 0.150862
0.396132 0.292091 0.155276
0.420207 0.292805 0.158242
0.444106 0.294708 0.160811
0.468992 0.297181 0.163631
0.494884 0.298996 0.166322
0.520931 0.300340 0.169551
0.547128 0.301434 0.174597
0.573802 0.300482 0.178451
0.601026 0.300733 0.180759
0.628477 0.301598 0.183507
0.656269 0.300351 0.188819
0.684141 0.298737 0.190314
0.712797 0.296891 0.192461
0.742243 0.295120 0.194860
0.772004 0.294301 0.196534
0.112490 0.288550 0.131080
0.114509 0.287716 0.130596
0.119234 0.287282 0.130742
0.130032 0.287607 0.131421
0.148751 0.288651 0.132514
0.167013 0.289769 0.133987
0.186513 0.290777 0.135248
0.205888 0.291296 0.136497
0.223936 0.292111 0.137217
0.240465 0.294284 0.137472
0.258313 0.294919 0.140597
0.277395 0.296451 0.143719
0.296682 0.299487 0.144782
0.315775 0.301666 0.145420
0.335767 0.303018 0.147914
0.356026 0.304241 0.150642
0.376594 0.305729 0.153736
0.399068 0.307059 0.157231
0.423135 0.308106 0.160217
0.446695 0.309351 0.162758
0.472275 0.311112 0.166827
0.498724 0.312880 0.170439
0.524826 0.314625 0.173260
0.551454 0.316216 0.177214
0.577740 0.316545 0.180186
0.604522 0.317407 0.183114
0.631904 0.318325 0.186573
0.659943 0.317438 0.190723
0.688264 0.317593 0.192259
0.716839 0.316859 0.194651
0.746017 0.315541 0.197408
0.776612 0.313789 0.199315
0.113955 0.302730 0.134972
0.114483 0.302238 0.134351
0.119937 0.302164 0.134682
0.132051 0.302643 0.135618
0.150772 0.303908 0.136855
0.167910 0.305101 0.137980
0.187499 0.305691 0.139360
0.206592 0.306292 0.140478
0.223693 0.307546 0.140856
0.241007 0.309372 0.140895
0.259933 0.310287 0.142424
0.279246 0.311882 0.145889
0.298506 0.314326 0.148379
0.318217 0.316062 0.148007
0.338081 0.317739 0.149788
0.358687 0.319606 0.153521
0.379923 0.320647 0.156598
0.402717 0.321406 0.158598
0.427094 0.323119 0.161632
0.450470 0.324921 0.165680
0.475755 0.326295 0.170357
0.502314 0.328147 0.173020
0.528475 0.330423 0.174484
0.554696 0.331949 0.178072
0.581587 0.333071 0.181101
0.608586 0.334097 0.184222
0.635849 0.334782 0.187670
0.664154 0.334733 0.191495
0.692546 0.336327 0.193596
0.720756 0.336574 0.196186
0.749558 0.335908 0.198815
0.779968 0.334743 0.200323
0.115971 0.319146 0.138154
0.115947 0.317736 0.136235
0.123371 0.317024 0.136655
0.137120 0.317319 0.138107
0.154940 0.318668 0.139227
0.169604 0.320559 0.139628
0.185381 0.321903 0.141518
0.204182 0.322800 0.143338
0.224663 0.323452 0.143870
0.241479 0.324314 0.144271
0.261964 0.325807 0.144632
0.282150 0.327800 0.147235
0.301467 0.329365 0.150695
0.321762 0.330560 0.152276
0.341225 0.332830 0.154488
0.362092 0.334840 0.157609
0.384417 0.336340 0.159398
0.407341 0.337530 0.161042
0.431052 0.338744 0.164915
0.454828 0.340394 0.168928
0.480308 0.341565 0.171564
0.506607 0.343784 0.173713
0.532526 0.346662 0.176488
0.558336 0.348071 0.180376
0.585700 0.349883 0.184208
0.612872 0.351498 0.187698
0.639798 0.352310 0.190376
0.667255 0.352625 0.192263
0.696165 0.354507 0.196363
0.724531 0.355302 0.199431
0.753240 0.355450 0.201832
0.783292 0.355768 0.204025
0.118146 0.336792 0.140927
0.118029 0.335759 0.139504
0.122399 0.335025 0.139658
0.131722 0.334858 0.140740
0.146392 0.334903 0.141486
0.164337 0.336670 0.142223
0.181212 0.338280 0.143996
0.202471 0.339498 0.145906
0.226360 0.340582 0.146740
0.241533 0.341734 0.146484
0.263136 0.343106 0.146605
0.283579 0.345248 0.149751
0.302327 0.346955 0.154199
0.324067 0.347487 0.155653
0.344189 0.349245 0.156862
0.364937 0.351221 0.160247
0.387262 0.353518 0.161987
0.410201 0.355177 0.163409
0.433332 0.355751 0.168153
0.457212 0.357070 0.170912
0.483574 0.359079 0.172775
0.510316 0.361616 0.176082
0.536097 0.364344 0.180116
0.561880 0.366699 0.183824
0.589090 0.368900 0.187680
0.616847 0.369997 0.190541
0.644692 0.370495 0.191865
0.672077 0.371873 0.192316
0.700300 0.373831 0.198001
0.728478 0.375148 0.200610
0.757178 0.376308 0.202723
0.787294 0.377951 0.208311
0.120249 0.354768 0.142707
0.120190 0.354253 0.142647
0.121008 0.353412 0.143004
0.124812 0.352641 0.143566
0.135081 0.352076 0.144026
0.157235 0.353391 0.145402
0.177495 0.354547 0.146833
0.199908 0.355916 0.147822
0.223569 0.358174 0.148213
0.240443 0.359945 0.147990
0.262235 0.361345 0.149071
0.283407 0.363230 0.153323
0.303346 0.365077 0.157588
0.325157 0.365843 0.157353
0.346047 0.367108 0.157891
0.367609 0.369018 0.161943
0.390349 0.371197 0.164256
0.413277 0.372851 0.165635
0.436187 0.373932 0.170331
0.460009 0.375509 0.171884
0.487220 0.377571 0.174282
0.514642 0.379832 0.178798
0.540353 0.382299 0.183134
0.565882 0.384937 0.186426
0.592895 0.387761 0.188459
0.620962 0.388586 0.190280
0.649399 0.388976 0.191729
0.677177 0.391389 0.192874
0.704896 0.393800 0.197773
0.732853 0.395237 0.200346
0.761542 0.396739 0.203019
0.791744 0.399567 0.209028
0.122439 0.372744 0.143621
0.122266 0.372034 0.144066
0.122325 0.370511 0.144905
0.123532 0.369432 0.145386
0.129354 0.369554 0.145773
0.149771 0.370691 0.147107
0.171425 0.371230 0.148298
0.194181 0.372523 0.148570
0.217301 0.375241 0.148114
0.238757 0.377166 0.149292
0.260387 0.378858 0.152289
0.283012 0.380563 0.156573
0.305628 0.382292 0.159179
0.326366 0.383871 0.158603
0.347432 0.385379 0.159683
0.370390 0.387257 0.163418
0.394081 0.389005 0.165813
0.417111 0.390658 0.167671
0.440398 0.392689 0.171658
0.464453 0.394762 0.172280
0.491674 0.396062 0.174890
0.519138 0.397732 0.179920
0.544942 0.400118 0.184172
0.570381 0.402253 0.186499
0.597487 0.405207 0.187088
0.625314 0.406540 0.189074
0.653394 0.407388 0.191990
0.681185 0.410377 0.194492
0.709226 0.413319 0.197575
0.737217 0.414731 0.200806
0.765906 0.416228 0.204180
0.796282 0.419969 0.207578
0.124526 0.390279 0.144921
0.124458 0.389515 0.145061
0.124290 0.388530 0.145500
0.124469 0.388072 0.145794
0.125999 0.388193 0.145915
0.135753 0.388635 0.146544
0.157937 0.388865 0.147733
0.185552 0.390141 0.148307
0.212591 0.392399 0.148221
0.237232 0.393971 0.150370
0.260079 0.395478 0.154921
0.283498 0.397413 0.158149
0.307167 0.399302 0.159192
0.328439 0.400898 0.159899
0.349542 0.402918 0.160182
0.372967 0.404812 0.163318
0.395979 0.407199 0.165993
0.418795 0.409550 0.167918
0.443976 0.411348 0.171586
0.468547 0.413488 0.172194
0.494648 0.415518 0.174981
0.521366 0.417219 0.179987
0.547617 0.419079 0.183075
0.574229 0.421033 0.182204
0.601717 0.423137 0.185044
0.629446 0.424250 0.189507
0.657075 0.425375 0.193514
0.684785 0.429171 0.197094
0.712791 0.432353 0.198922
0.741116 0.435134 0.201930
0.770180 0.437601 0.205085
0.800457 0.440135 0.206901
0.126732 0.408996 0.144543
0.126724 0.408795 0.143618
0.126488 0.407655 0.144272
0.126488 0.406719 0.145031
0.126668 0.406702 0.145038
0.131051 0.406586 0.145344
0.153231 0.406701 0.147058
0.183899 0.407680 0.148851
0.212516 0.410004 0.149416
0.233008 0.412312 0.150332
0.256232 0.414132 0.156313
0.281662 0.416022 0.159698
0.306811 0.417952 0.159147
0.329240 0.419582 0.159479
0.351412 0.421240 0.159928
0.375668 0.423297 0.163993
0.398355 0.425846 0.166375
0.421002 0.428188 0.167443
0.446973 0.430311 0.171302
0.470960 0.432312 0.171798
0.497411 0.435066 0.174414
0.525198 0.437174 0.179761
0.552161 0.438188 0.183459
0.579563 0.438878 0.182911
0.607263 0.440071 0.186093
0.634229 0.442487 0.190641
0.661411 0.445288 0.195071
0.690223 0.447581 0.199940
0.718001 0.449990 0.200979
0.745695 0.453188 0.203942
0.774474 0.456359 0.207345
0.805057 0.458411 0.208917
0.129198 0.428745 0.146489
0.128993 0.428121 0.143258
0.128757 0.427076 0.142061
0.128757 0.426246 0.142092
0.128775 0.425706 0.142422
0.131001 0.425601 0.142685
0.146596 0.425327 0.145599
0.173520 0.426014 0.148655
0.204785 0.428307 0.150060
0.228043 0.431071 0.152209
0.254413 0.433148 0.156770
0.280762 0.434860 0.158769
0.305350 0.436756 0.157677
0.329090 0.438863 0.157867
0.352818 0.440668 0.159622
0.377753 0.443273 0.163766
0.400440 0.445590 0.165120
0.423160 0.447383 0.166081
0.449415 0.449766 0.170499
0.474200 0.451697 0.170985
0.501136 0.453980 0.173969
0.529033 0.456173 0.179841
0.556099 0.457678 0.183751
0.583761 0.457792 0.182944
0.611235 0.459562 0.185918
0.638367 0.462506 0.190303
0.665729 0.465084 0.194298
0.694042 0.466574 0.198349
0.721821 0.469434 0.201747
0.749501 0.472140 0.205026
0.778172 0.474998 0.206824
0.808074 0.477829 0.205979
0.131514 0.448864 0.148647
0.131268 0.447908 0.144070
0.131230 0.447325 0.141158
0.131210 0.446760 0.140230
0.131025 0.445967 0.140878
0.131687 0.444963 0.141527
0.137820 0.444429 0.144826
0.155718 0.445021 0.147807
0.187077 0.447184 0.149700
0.220654 0.450088 0.153870
0.252594 0.451988 0.155489
0.279915 0.453600 0.155468
0.303770 0.455702 0.155576
0.328531 0.458213 0.157434
0.353641 0.460510 0.159995
0.378637 0.463560 0.162372
0.401747 0.465934 0.162132
0.425381 0.467387 0.163547
0.451692 0.469494 0.168626
0.477597 0.471205 0.169632
0.504892 0.472739 0.173142
0.532300 0.475055 0.179259
0.559073 0.477359 0.182714
0.587015 0.477904 0.180967
0.614217 0.480757 0.183876
0.642009 0.483297 0.188648
0.669941 0.484690 0.192603
0.696873 0.486300 0.195492
0.724849 0.490117 0.200287
0.753000 0.492405 0.202776
0.781701 0.494541 0.202907
0.811005 0.498767 0.201646
0.133782 0.468817 0.146197
0.133751 0.468682 0.144515
0.133751 0.468398 0.143916
0.133748 0.468131 0.143977
0.133664 0.467558 0.144231
0.133350 0.464051 0.145642
0.134481 0.463031 0.147224
0.140742 0.463957 0.147800
0.162284 0.466319 0.148107
0.208007 0.469749 0.150448
0.245084 0.471101 0.151116
0.276261 0.472645 0.151367
0.302901 0.475391 0.154486
0.327514 0.477829 0.160358
0.353614 0.480208 0.162115
0.378231 0.483011 0.161014
0.402740 0.485735 0.158534
0.428850 0.487762 0.160161
