gsg/02_Everyday/GSG_LUT_Everyday_SimpleMilky.cube
# GSG LUTs 1.0
# Copyright (c) 2016-2020 Greyscalegorilla
# See EULA for licensing and distribution information
# Converted by Briz LUT Converter
LUT_3D_SIZE 32
0.127961 0.122589 0.088400
0.134539 0.123101 0.088385
0.142006 0.123904 0.087896
0.152050 0.125417 0.087644
0.164339 0.126992 0.087361
0.178384 0.129048 0.086817
0.195289 0.131364 0.086061
0.215274 0.133995 0.085194
0.239096 0.137020 0.083808
0.266840 0.140116 0.081831
0.299185 0.143314 0.079152
0.336035 0.146166 0.075781
0.377660 0.148308 0.071369
0.423813 0.149411 0.065816
0.473205 0.149364 0.058852
0.523991 0.148135 0.052810
0.574154 0.146244 0.050794
0.622222 0.144897 0.050794
0.667265 0.144992 0.050794
0.709079 0.147245 0.050794
0.748088 0.152097 0.050794
0.783670 0.160046 0.050794
0.816220 0.170334 0.050794
0.846351 0.182985 0.050794
0.874899 0.197668 0.050794
0.901753 0.213975 0.050794
0.927606 0.232045 0.050794
0.952042 0.251298 0.050794
0.975580 0.272693 0.050794
0.996967 0.295514 0.050794
0.999945 0.319634 0.050794
1.000000 0.345543 0.050794
0.127969 0.129174 0.089425
0.133553 0.129732 0.089165
0.141289 0.131658 0.088439
0.152256 0.132735 0.087918
0.164817 0.134032 0.087421
0.179110 0.135647 0.087030
0.196071 0.137948 0.086018
0.216261 0.140574 0.084941
0.240155 0.143669 0.083483
0.268026 0.146948 0.081250
0.300288 0.150312 0.078396
0.337304 0.153592 0.074922
0.378830 0.156189 0.070259
0.424625 0.157960 0.064450
0.473512 0.158441 0.057788
0.524022 0.157977 0.052542
0.574174 0.157120 0.050794
0.622100 0.156529 0.050794
0.666887 0.156998 0.050794
0.708593 0.159365 0.050794
0.747437 0.164221 0.050794
0.782759 0.171502 0.050794
0.815048 0.181109 0.050794
0.845106 0.193039 0.050794
0.873459 0.206565 0.050794
0.900262 0.222167 0.050794
0.926111 0.239098 0.050794
0.950552 0.257925 0.050794
0.974091 0.278376 0.050794
0.995707 0.300620 0.050794
0.999905 0.324227 0.050794
1.000000 0.349616 0.050794
0.128189 0.136862 0.090937
0.133016 0.137610 0.090960
0.139723 0.138694 0.090649
0.150193 0.141073 0.089659
0.163350 0.142647 0.088408
0.178759 0.143844 0.087332
0.196081 0.145708 0.086163
0.216573 0.148152 0.084647
0.240797 0.151408 0.082929
0.269161 0.154777 0.080569
0.301768 0.158412 0.077632
0.338796 0.162042 0.073666
0.380263 0.165074 0.068970
0.425932 0.167323 0.063043
0.474813 0.168574 0.056493
0.525070 0.168892 0.052030
0.574823 0.168806 0.050794
0.622473 0.168745 0.050794
0.667130 0.169643 0.050794
0.708675 0.172366 0.050794
0.747248 0.177303 0.050794
0.782305 0.184386 0.050794
0.814334 0.193365 0.050794
0.844318 0.204164 0.050794
0.872500 0.216971 0.050794
0.899445 0.231451 0.050794
0.925141 0.247705 0.050794
0.949764 0.265982 0.050794
0.973335 0.285495 0.050794
0.994951 0.306939 0.050794
0.999880 0.330208 0.050794
1.000000 0.355067 0.050794
0.127796 0.146607 0.092449
0.132357 0.147118 0.092924
0.137850 0.147899 0.092505
0.146760 0.149586 0.092139
0.159991 0.152854 0.090609
0.176096 0.155279 0.088562
0.195180 0.157387 0.086344
0.216688 0.159295 0.084616
0.241430 0.162251 0.082565
0.269919 0.165851 0.079885
0.302721 0.169900 0.076608
0.339934 0.173895 0.072440
0.381858 0.177536 0.067248
0.427817 0.180370 0.061007
0.476619 0.182242 0.054998
0.526554 0.183353 0.051615
0.575848 0.183943 0.050794
0.623013 0.184762 0.050794
0.667307 0.186376 0.050794
0.708592 0.189325 0.050794
0.746742 0.194108 0.050794
0.781432 0.200606 0.050794
0.813210 0.208812 0.050794
0.843111 0.218812 0.050794
0.871464 0.230833 0.050794
0.898460 0.244348 0.050794
0.924156 0.259758 0.050794
0.948957 0.277030 0.050794
0.972576 0.296122 0.050794
0.994194 0.316805 0.050794
0.999856 0.339070 0.050794
1.000000 0.363118 0.050794
0.125810 0.158297 0.094088
0.130371 0.158800 0.094552
0.135823 0.159335 0.094744
0.143914 0.160868 0.094453
0.155267 0.163172 0.093387
0.171206 0.167274 0.091496
0.190739 0.171303 0.088485
0.214002 0.174715 0.085137
0.240501 0.177866 0.081939
0.269890 0.180949 0.078862
0.303167 0.185032 0.075322
0.340666 0.189397 0.070755
0.382488 0.193518 0.065299
0.428540 0.197070 0.058745
0.477555 0.199751 0.053156
0.527686 0.201629 0.051029
0.577060 0.203113 0.050794
0.624106 0.204488 0.050794
0.668187 0.206533 0.050794
0.709244 0.209815 0.050794
0.746984 0.214501 0.050794
0.781367 0.220642 0.050794
0.813442 0.228413 0.050794
0.843302 0.237630 0.050794
0.871541 0.248813 0.050794
0.898472 0.261541 0.050794
0.924103 0.275959 0.050794
0.948647 0.292217 0.050794
0.972344 0.310273 0.050794
0.993915 0.329944 0.050794
0.999847 0.351385 0.050794
1.000000 0.374398 0.050794
0.121769 0.173122 0.096609
0.126293 0.173582 0.096815
0.131828 0.173968 0.096858
0.139994 0.175245 0.096861
0.150811 0.177547 0.096047
0.165393 0.180676 0.094676
0.184530 0.185766 0.092173
0.208465 0.191822 0.088066
0.236660 0.197223 0.083063
0.268675 0.201678 0.078038
0.303632 0.205337 0.073267
0.342055 0.209176 0.068206
0.384386 0.213284 0.062365
0.430486 0.217227 0.056072
0.479387 0.220598 0.052053
0.529238 0.223256 0.050899
0.578312 0.225521 0.050794
0.625312 0.227772 0.050794
0.669494 0.230405 0.050794
0.710543 0.233834 0.050794
0.747993 0.238261 0.050794
0.783245 0.244432 0.050794
0.817885 0.253094 0.050794
0.848497 0.262554 0.050794
0.876372 0.272956 0.050794
0.902863 0.284855 0.050794
0.928088 0.298281 0.050794
0.952165 0.313649 0.050794
0.975225 0.330686 0.050794
0.996300 0.349479 0.050794
0.999923 0.369890 0.050794
1.000000 0.391863 0.050794
0.113782 0.192438 0.099319
0.118076 0.192753 0.099092
0.124337 0.193509 0.099408
0.133340 0.194374 0.099857
0.144601 0.196432 0.099234
0.159383 0.199567 0.098066
0.177824 0.203603 0.096102
0.201207 0.209551 0.092708
0.230279 0.217624 0.086827
0.264132 0.225169 0.079500
0.301954 0.231040 0.072060
0.343343 0.235550 0.064620
0.387524 0.238964 0.057712
0.434291 0.242104 0.052784
0.483111 0.245362 0.051010
0.532555 0.248525 0.050794
0.581133 0.251448 0.050794
0.627774 0.254296 0.050794
0.671878 0.257422 0.050794
0.712770 0.261168 0.050794
0.750043 0.265613 0.050794
0.784472 0.271132 0.050794
0.816891 0.278057 0.050794
0.847052 0.286330 0.050794
0.875106 0.295903 0.050794
0.901657 0.306935 0.050794
0.927063 0.319390 0.050794
0.950995 0.333547 0.050794
0.974028 0.349473 0.050794
0.994955 0.367029 0.050794
0.999879 0.386340 0.050794
1.000000 0.407271 0.050794
0.097751 0.215613 0.102958
0.101684 0.216180 0.101532
0.109746 0.216936 0.102052
0.120723 0.217758 0.102772
0.133781 0.219389 0.102970
0.149861 0.222348 0.101871
0.169405 0.226066 0.100048
0.192565 0.230885 0.097626
0.220615 0.237797 0.092967
0.255301 0.247961 0.084666
0.294981 0.257333 0.074565
0.338646 0.264326 0.064073
0.385839 0.269254 0.055143
0.435015 0.272461 0.051329
0.484573 0.274731 0.050794
0.533795 0.277026 0.050794
0.581983 0.279596 0.050794
0.628276 0.282565 0.050794
0.671778 0.285926 0.050794
0.712010 0.289698 0.050794
0.748777 0.293867 0.050794
0.782609 0.298868 0.050794
0.814361 0.304975 0.050794
0.844334 0.312280 0.050794
0.872693 0.320869 0.050794
0.899492 0.330758 0.050794
0.924936 0.342264 0.050794
0.948964 0.355355 0.050794
0.972012 0.370006 0.050794
0.993175 0.386445 0.050794
0.999822 0.404521 0.050794
1.000000 0.424404 0.050794
0.072354 0.243468 0.107306
0.074970 0.244161 0.104868
0.083300 0.244917 0.105266
0.095924 0.245721 0.106028
0.113349 0.247091 0.106788
0.133670 0.249426 0.106817
0.156283 0.253027 0.105116
0.181492 0.257623 0.102613
0.210046 0.263072 0.098864
0.243700 0.271150 0.092627
0.284538 0.282815 0.082030
0.330256 0.293420 0.068537
0.379222 0.301162 0.056680
0.431049 0.306512 0.051548
0.483587 0.309826 0.050794
0.534289 0.311399 0.050794
0.582672 0.312342 0.050794
0.628394 0.314026 0.050794
0.671086 0.316493 0.050794
0.710538 0.319754 0.050794
0.746809 0.323720 0.050794
0.780358 0.328206 0.050794
0.811850 0.333643 0.050794
0.841704 0.340204 0.050794
0.869997 0.348012 0.050794
0.896782 0.357070 0.050794
0.922226 0.367412 0.050794
0.946583 0.379323 0.050794
0.969737 0.392746 0.050794
0.991142 0.407949 0.050794
0.999757 0.424972 0.050794
1.000000 0.443751 0.050794
0.054780 0.275647 0.113096
0.055367 0.276228 0.109700
0.057688 0.276920 0.109473
0.063776 0.277783 0.110259
0.081470 0.279033 0.111372
0.104135 0.280910 0.112431
0.133451 0.284038 0.111690
0.164566 0.288416 0.109260
0.196942 0.293547 0.105605
0.231584 0.299719 0.101057
0.271448 0.308810 0.093230
0.318512 0.321247 0.079541
0.369705 0.332638 0.064028
0.423279 0.340979 0.053890
0.477942 0.346603 0.050949
0.531510 0.349872 0.050794
0.581880 0.351031 0.050794
0.627922 0.350917 0.050794
0.670123 0.350949 0.050794
0.708897 0.352414 0.050794
0.744623 0.355046 0.050794
0.777800 0.358808 0.050794
0.809009 0.363490 0.050794
0.838655 0.369238 0.050794
0.866761 0.376211 0.050794
0.893505 0.384326 0.050794
0.918949 0.393760 0.050794
0.943306 0.404749 0.050794
0.966623 0.417209 0.050794
0.988282 0.431445 0.050794
0.999665 0.447431 0.050794
1.000000 0.464918 0.050794
0.050794 0.311206 0.120785
0.050794 0.311957 0.116749
0.050836 0.312563 0.115318
0.051920 0.313506 0.116129
0.057190 0.314648 0.117502
0.067885 0.316280 0.119068
0.097685 0.318856 0.119993
0.136139 0.322909 0.118341
0.176825 0.327870 0.114889
0.216707 0.333632 0.110724
0.257835 0.340177 0.105089
0.304431 0.349978 0.095436
0.357891 0.363371 0.079852
0.414522 0.375601 0.062916
0.471016 0.384219 0.053408
0.525981 0.389539 0.050997
0.577986 0.392129 0.050794
0.625770 0.392472 0.050794
0.668909 0.391596 0.050794
0.707774 0.390565 0.050794
0.743193 0.390106 0.050794
0.775990 0.391852 0.050794
0.806908 0.395266 0.050794
0.836305 0.400182 0.050794
0.864290 0.406261 0.050794
0.890952 0.413556 0.050794
0.916315 0.422289 0.050794
0.940659 0.432210 0.050794
0.963834 0.443703 0.050794
0.985639 0.457069 0.050794
0.999580 0.471949 0.050794
1.000000 0.488298 0.050794
0.050794 0.350404 0.130813
0.050794 0.351160 0.126474
0.050794 0.351916 0.123497
0.050794 0.352711 0.124243
0.050875 0.353925 0.125809
0.052745 0.355477 0.127803
0.064799 0.357505 0.129814
0.096726 0.360956 0.130044
0.144985 0.365656 0.127533
0.195281 0.371279 0.123693
0.242733 0.377408 0.118935
0.291306 0.384981 0.112589
0.345243 0.396139 0.101965
0.403739 0.409226 0.084873
0.463165 0.421044 0.066891
0.520067 0.429243 0.055882
0.572902 0.433577 0.051674
0.621656 0.435174 0.050794
0.666320 0.434933 0.050794
0.706475 0.433475 0.050794
0.742302 0.431470 0.050794
0.775225 0.430276 0.050794
0.806081 0.430701 0.050794
0.835127 0.433625 0.050794
0.862878 0.438362 0.050794
0.889369 0.444708 0.050794
0.914561 0.452506 0.050794
0.938804 0.461619 0.050794
0.961668 0.472111 0.050794
0.983523 0.484437 0.050794
0.999512 0.498201 0.050794
1.000000 0.513758 0.050794
0.050794 0.392816 0.143795
0.050794 0.393477 0.139447
0.050794 0.394234 0.135227
0.050794 0.395014 0.135649
0.050794 0.396073 0.137256
0.050794 0.397527 0.139540
0.052213 0.399299 0.141990
0.065111 0.401892 0.144181
0.104018 0.406063 0.143484
0.164131 0.411304 0.140427
0.223040 0.417268 0.136307
0.277424 0.423738 0.131561
0.331577 0.431237 0.125117
0.388251 0.440572 0.114381
0.448025 0.452012 0.097444
0.507589 0.463074 0.078156
0.562619 0.470433 0.063295
0.612186 0.473748 0.055075
0.657505 0.474590 0.051586
0.698783 0.473922 0.050794
0.736184 0.472291 0.050794
0.770372 0.470386 0.050794
0.801946 0.468892 0.050794
0.831414 0.468800 0.050794
0.859327 0.470854 0.050794
0.885917 0.475236 0.050794
0.911206 0.481661 0.050794
0.935326 0.489918 0.050794
0.958256 0.499771 0.050794
0.980355 0.511273 0.050794
0.998953 0.524252 0.050794
1.000000 0.539029 0.050794
0.050794 0.435866 0.159998
0.050794 0.436378 0.156137
0.050794 0.437128 0.151313
0.050794 0.437802 0.150593
0.050794 0.438736 0.152200
0.050794 0.439930 0.154508
0.050794 0.441384 0.157190
0.052651 0.443281 0.160372
0.070154 0.446345 0.161990
0.123016 0.450697 0.160516
0.195250 0.456083 0.157443
0.260025 0.461815 0.153705
0.317510 0.467548 0.149160
0.373506 0.473697 0.143182
0.430620 0.481426 0.133571
0.489506 0.491321 0.118498
0.547277 0.501364 0.099133
0.599655 0.508058 0.080240
0.645847 0.510703 0.066928
0.687526 0.510984 0.058821
0.726045 0.510203 0.053218
0.761787 0.508962 0.051025
0.795010 0.507548 0.050794
0.825624 0.506416 0.050794
0.854207 0.506335 0.050794
0.881126 0.508005 0.050794
0.906675 0.511955 0.050794
0.931015 0.518375 0.050794
0.954199 0.527051 0.050794
0.976462 0.537883 0.050794
0.996915 0.550289 0.050794
1.000000 0.564292 0.050794
0.050794 0.477585 0.179692
0.050794 0.478204 0.176138
0.050794 0.478837 0.171876
0.050794 0.479365 0.169136
0.050794 0.480139 0.170757
0.050794 0.481072 0.173162
0.050794 0.482266 0.175893
0.050794 0.483750 0.179591
0.054111 0.485769 0.182917
0.085113 0.488902 0.183737
0.163308 0.493351 0.182131
0.239993 0.498264 0.179423
0.303207 0.503145 0.176038
0.360790 0.508051 0.172061
0.416375 0.513021 0.167069
0.472016 0.519162 0.159624
0.528664 0.527676 0.147382
0.583858 0.536977 0.130563
0.633280 0.543209 0.112405
0.676152 0.545385 0.094077
0.715066 0.545505 0.077743
0.751502 0.545129 0.068503
0.785851 0.544541 0.062416
0.817939 0.543875 0.056137
0.847864 0.543501 0.051640
0.875619 0.543942 0.050794
0.901699 0.545760 0.050794
0.926458 0.549476 0.050794
0.949920 0.556040 0.050794
0.972415 0.565253 0.050794
0.993537 0.576890 0.050794
1.000000 0.590224 0.050794
0.050794 0.516870 0.203025
0.050794 0.517382 0.199374
0.050794 0.517893 0.195660
0.050794 0.518520 0.191686
0.050794 0.519154 0.193202
0.050794 0.519847 0.195658
0.050794 0.520857 0.198568
0.050794 0.521955 0.202240
0.050794 0.523441 0.206328
0.067427 0.525536 0.209429
0.135728 0.528809 0.209817
0.219588 0.532814 0.208274
0.289613 0.536828 0.205848
0.349219 0.540897 0.202985
0.404775 0.544759 0.199597
0.458271 0.548674 0.195621
0.511199 0.553573 0.190148
0.564675 0.560986 0.181681
0.616926 0.569668 0.169307
0.663478 0.575621 0.153367
0.703969 0.578038 0.136257
0.740834 0.578743 0.121417
0.775538 0.578935 0.106199
0.808422 0.579049 0.089471
0.839480 0.579352 0.076312
0.868609 0.580112 0.070001
0.895789 0.581398 0.064154
0.921236 0.583954 0.056614
0.945004 0.588406 0.053931
0.967884 0.595050 0.052753
0.989504 0.604733 0.051541
1.000000 0.616677 0.050794
0.050794 0.553043 0.229115
0.050794 0.553331 0.225752
0.050794 0.554697 0.223137
0.050794 0.555311 0.219101
0.050794 0.555816 0.220032
0.050794 0.556358 0.222399
0.050794 0.557107 0.225365
0.050794 0.557917 0.228834
0.050794 0.559013 0.233085
0.061609 0.560498 0.237385
0.116257 0.562640 0.240131
0.204085 0.565738 0.240141
0.279981 0.569053 0.238659
0.341006 0.572341 0.236576
0.396481 0.575537 0.234083
0.448907 0.578688 0.231269
0.499233 0.581700 0.228009
0.548574 0.585621 0.224046
0.598483 0.592042 0.218641
0.647528 0.600150 0.210792
0.691760 0.606568 0.200008
0.730426 0.609724 0.187128
0.765544 0.611071 0.172707
0.798652 0.612096 0.156926
0.830068 0.613114 0.142239
0.859994 0.614524 0.129011
0.888084 0.616356 0.113805
0.914661 0.619102 0.094442
0.939145 0.622774 0.084993
0.962558 0.628154 0.079127
0.984576 0.635560 0.076411
1.000000 0.645161 0.074867
0.050794 0.586640 0.257694
0.050794 0.587093 0.255136
0.050794 0.589390 0.253994
0.050794 0.590006 0.250471
0.050794 0.590390 0.250578
0.050794 0.590872 0.252714
0.050794 0.591285 0.255667
0.050794 0.591934 0.258972
0.050794 0.592747 0.262993
0.060207 0.593731 0.267579
0.111517 0.595065 0.272046
0.200116 0.597345 0.274136
0.277141 0.600007 0.273718
0.338048 0.602653 0.272334
0.392629 0.605259 0.270561
0.443615 0.607890 0.268462
0.492249 0.610260 0.266173
0.538861 0.612638 0.263754
0.584446 0.615839 0.261076
0.630618 0.621572 0.257630
0.676606 0.629547 0.252482
0.718822 0.636436 0.244983
0.755788 0.640504 0.235722
0.789195 0.642781 0.225412
0.820711 0.644623 0.214498
0.850654 0.646722 0.202053
0.879052 0.649199 0.188083
0.906203 0.652382 0.170999
0.931674 0.656466 0.157684
0.956017 0.661885 0.146618
0.978611 0.668506 0.141630
0.998527 0.676750 0.140021
0.050794 0.618134 0.288826
0.050794 0.618669 0.286868
0.050794 0.620119 0.285361
0.050794 0.620842 0.282234
0.050794 0.621235 0.281886
0.050794 0.621576 0.283802
0.050794 0.621876 0.286589
0.050794 0.622371 0.289747
0.050794 0.622871 0.293544
0.063724 0.623522 0.298072
0.122998 0.624502 0.303225
0.208289 0.626097 0.307276
0.280787 0.628076 0.308321
0.339427 0.630261 0.307677
0.392067 0.632493 0.306553
0.441138 0.634750 0.305159
0.487862 0.636819 0.303634
0.532506 0.638892 0.301979
0.575437 0.641014 0.300278
0.617523 0.643914 0.298508
0.660285 0.649226 0.296440
0.703500 0.657091 0.293342
0.743863 0.664813 0.288321
0.779279 0.669975 0.281463
0.811108 0.673085 0.273516
0.840955 0.675990 0.264915
0.869424 0.679274 0.255866
0.896593 0.683146 0.245906
0.922591 0.687869 0.235036
0.947535 0.693613 0.224044
0.971280 0.700496 0.214841
0.993485 0.708527 0.210682
0.050794 0.646989 0.320840
0.050794 0.647496 0.319222
0.050794 0.648107 0.317291
0.050794 0.648840 0.314515
0.050794 0.649313 0.313939
0.050794 0.649541 0.315822
0.050794 0.649685 0.318379
0.050794 0.650048 0.321273
0.052030 0.650440 0.324953
0.074769 0.650904 0.329296
0.148567 0.651769 0.334468
0.228610 0.652909 0.339651
0.292482 0.654301 0.342562
0.346579 0.656072 0.343022
0.396140 0.657977 0.342465
0.442584 0.659891 0.341647
0.486917 0.661830 0.340618
0.529408 0.663847 0.339543
0.570403 0.665863 0.338549
0.610074 0.667938 0.337448
0.648810 0.670697 0.336402
0.688439 0.675744 0.335424
0.729147 0.683832 0.334107
0.767731 0.692423 0.331346
0.801560 0.698652 0.326437
0.831602 0.702897 0.320059
0.860042 0.707076 0.313265
0.887211 0.711746 0.306353
0.913301 0.717157 0.299168
0.938351 0.723576 0.291262
0.962598 0.730890 0.282828
0.985632 0.739234 0.275899
0.050794 0.674245 0.353956
0.050794 0.674591 0.352599
0.050794 0.675101 0.350944
0.050794 0.675686 0.348601
0.050794 0.676159 0.347654
0.050794 0.676372 0.349486
0.050794 0.676388 0.351773
0.051114 0.676533 0.354606
0.060246 0.676893 0.358099
0.106755 0.677404 0.362228
0.188069 0.678188 0.367180
0.258308 0.679033 0.372479
0.312667 0.680007 0.376927
0.360985 0.681363 0.378975
0.406314 0.682965 0.379070
0.449422 0.684643 0.378524
0.490828 0.686452 0.377885
0.530799 0.688393 0.377336
0.569605 0.690409 0.376814
0.607265 0.692426 0.376264
0.643654 0.694600 0.375799
0.679486 0.697338 0.375427
0.716061 0.702100 0.375432
0.754011 0.710330 0.375443
0.790817 0.720014 0.374534
0.822870 0.727417 0.371325
0.851597 0.733025 0.366362
0.878629 0.738664 0.361400
0.904557 0.744875 0.356489
0.929592 0.751927 0.351334
0.953686 0.759768 0.346154
0.976903 0.768475 0.340872
0.050794 0.700721 0.388397
0.050794 0.701141 0.387134
0.050794 0.701474 0.385734
0.050794 0.701808 0.383552
0.050794 0.702131 0.382556
0.050794 0.702344 0.384072
0.052363 0.702344 0.386198
0.063281 0.702399 0.388911
0.095963 0.702756 0.392228
0.168081 0.703406 0.396320
0.238503 0.704045 0.400900
0.293277 0.704743 0.405885
0.339326 0.705423 0.410940
0.381599 0.706396 0.414550
0.422047 0.707716 0.415601
0.461276 0.709267 0.415449
0.499389 0.710946 0.415116
0.536471 0.712753 0.414825
0.572689 0.714599 0.414528
0.608044 0.716547 0.414242
0.642484 0.718614 0.413990
0.675971 0.720824 0.413738
0.708844 0.723428 0.413715
0.742160 0.727967 0.413914
0.777367 0.736119 0.414865
0.812139 0.746685 0.415557
0.842656 0.755256 0.413573
0.870114 0.762478 0.410276
0.895845 0.769695 0.406994
0.920701 0.777307 0.404042
0.944700 0.785828 0.400963
0.967915 0.794809 0.398283
0.050794 0.726244 0.421970
0.050794 0.726567 0.421051
0.050794 0.726819 0.419582
0.050794 0.727071 0.417749
0.051778 0.727300 0.416960
0.060487 0.727390 0.418339
0.077517 0.727569 0.420416
0.115995 0.727764 0.422947
0.174487 0.728097 0.426268
0.235997 0.728654 0.430065
0.286320 0.729181 0.434217
0.329152 0.729733 0.438680
0.368401 0.730265 0.443570
0.405268 0.730945 0.447931
0.440987 0.731995 0.450335
0.476253 0.733412 0.450814
0.511072 0.734961 0.450741
0.545254 0.736547 0.450573
0.578857 0.738334 0.450422
0.611943 0.740214 0.450348
0.644322 0.742164 0.450275
0.675873 0.744346 0.450202
0.706619 0.746615 0.450302
0.736561 0.749146 0.450224
0.766861 0.753171 0.450374
0.799121 0.761288 0.452007
0.831875 0.772553 0.453918
0.861321 0.782884 0.453471
0.887516 0.791699 0.451875
0.912162 0.800077 0.450308
0.936146 0.809038 0.448854
0.959187 0.818457 0.448068
0.069999 0.751270 0.455174
0.071296 0.751703 0.454399
0.072267 0.751956 0.453058
0.073938 0.752190 0.451552
0.080491 0.752270 0.450991
0.112168 0.752468 0.452369
0.158864 0.752720 0.454433
0.205049 0.752972 0.456840
0.251244 0.753240 0.459806
0.292441 0.753557 0.463051
0.329598 0.753874 0.466640
0.364696 0.754256 0.470617
0.398280 0.754760 0.474986
0.430609 0.755291 0.479585
0.462123 0.755998 0.483130
0.493657 0.757091 0.484472
0.525224 0.758510 0.484565
0.556555 0.760022 0.484443
0.587670 0.761713 0.484415
0.618458 0.763615 0.484526
0.648802 0.765607 0.484713
0.678629 0.767666 0.484777
0.707612 0.769877 0.484950
0.735844 0.772145 0.485109
0.763288 0.774701 0.484950
0.790795 0.778756 0.485594
0.820221 0.786692 0.487816
0.851190 0.798994 0.490894
0.879442 0.810846 0.492152
0.904549 0.820896 0.492119
0.928376 0.830372 0.492042
0.951341 0.840128 0.492702
0.152491 0.776037 0.486935
0.157155 0.776533 0.486358
0.161085 0.776785 0.485290
0.167754 0.777032 0.484238
0.183398 0.777234 0.484076
0.212255 0.777456 0.485424
0.246429 0.777549 0.487329
0.278942 0.777801 0.489623
0.309980 0.778053 0.492166
0.340453 0.778360 0.495207
0.370390 0.778747 0.498446
0.400100 0.779085 0.502119
0.429285 0.779516 0.506073
0.457846 0.779905 0.510402
0.486005 0.780519 0.514516
0.514191 0.781420 0.517067
0.542701 0.782709 0.517778
0.571369 0.784222 0.517752
0.600028 0.785876 0.517862
0.628590 0.787674 0.518091
0.656868 0.789618 0.518343
0.684721 0.791634 0.518557
0.711976 0.793824 0.518792
0.738535 0.796093 0.519184
0.764434 0.798551 0.519399
0.789327 0.801357 0.519671
0.814240 0.805301 0.520462
0.840989 0.812995 0.522902
0.870152 0.826091 0.527177
0.897475 0.839401 0.530303
0.921749 0.850308 0.532007
0.944535 0.860168 0.533601
0.248060 0.801528 0.518784
0.250970 0.801828 0.517876
0.254165 0.802080 0.517059
0.259365 0.802313 0.516178
0.272892 0.802387 0.516624
0.292015 0.802600 0.517791
0.313213 0.802647 0.519612
0.336107 0.802899 0.521722
0.360030 0.803151 0.524027
0.384510 0.803474 0.526614
0.409681 0.803899 0.529733
0.435218 0.804238 0.533145
0.460821 0.804724 0.536818
0.486322 0.805199 0.540770
0.511588 0.805814 0.544926
0.536815 0.806593 0.548359
0.562535 0.807650 0.549952
0.588722 0.809067 0.550238
0.615104 0.810721 0.550380
0.641478 0.812486 0.550632
0.667802 0.814408 0.551011
0.693776 0.816424 0.551333
0.719231 0.818614 0.551725
0.744277 0.820883 0.552216
0.768542 0.823341 0.552531
0.791911 0.825900 0.552942
0.814559 0.828879 0.553437
0.837029 0.832529 0.554400
0.861060 0.839658 0.556851
0.888832 0.853349 0.562184
0.915374 0.867691 0.567094
0.938966 0.878648 0.570137
0.317712 0.827445 0.549364
0.319567 0.827697 0.548773
0.321795 0.827949 0.548014
0.326022 0.828178 0.547359
0.337025 0.828209 0.548138
0.351310 0.828455 0.549443
0.367635 0.828674 0.551215
0.385804 0.828972 0.553121
0.405605 0.829436 0.555496
0.426542 0.829911 0.558222
0.448428 0.830402 0.561180
0.470893 0.830880 0.564544
0.493602 0.831463 0.568088
0.516530 0.832093 0.571760
0.539455 0.832707 0.575785
0.562352 0.833463 0.579658
0.585551 0.834366 0.582163
0.609389 0.835661 0.583026
0.633662 0.837315 0.583379
0.657935 0.838954 0.583717
0.682207 0.840797 0.584127
0.706288 0.842814 0.584604
0.730066 0.845004 0.585096
0.753269 0.847272 0.585600
0.775683 0.849572 0.586074
0.797638 0.852046 0.586569
0.818906 0.854805 0.587245
0.839428 0.857618 0.587816
0.859646 0.861044 0.588539
0.881185 0.867114 0.591026
0.907826 0.880896 0.597581
0.934491 0.895569 0.604656
0.374509 0.854898 0.580677
0.375842 0.855143 0.579959
0.377638 0.855189 0.579450
0.383033 0.855418 0.579432
0.391935 0.855449 0.580224
0.403346 0.855667 0.581343
0.416419 0.855741 0.582888
0.431312 0.856000 0.584496
0.447843 0.856284 0.586451
0.465500 0.856569 0.588785
0.484345 0.856922 0.591276
0.504023 0.857426 0.594201
0.524269 0.857943 0.597373
0.544872 0.858377 0.600696
0.565445 0.858772 0.604163
0.586242 0.859412 0.607949
0.607408 0.860294 0.611255
0.629113 0.861453 0.612977
