gsg/02_Everyday/GSG_LUT_Everyday_SkinToneHelper.cube
# GSG LUTs 1.0
# Copyright (c) 2016-2020 Greyscalegorilla
# See EULA for licensing and distribution information
# Converted by Briz LUT Converter
LUT_3D_SIZE 32
0.000000 0.000000 0.000000
0.021521 0.000000 0.000000
0.046177 0.000000 0.000000
0.074284 0.000000 0.000000
0.106613 0.000000 0.000000
0.143464 0.000000 0.000000
0.183765 0.000000 0.000000
0.226334 0.000000 0.000000
0.269755 0.000000 0.000000
0.313151 0.000000 0.000000
0.355689 0.000000 0.000000
0.397274 0.000000 0.000000
0.437890 0.000000 0.000000
0.477207 0.000000 0.000000
0.514892 0.000000 0.000000
0.549907 0.000000 0.000000
0.581795 0.000000 0.000000
0.611359 0.000000 0.000000
0.639529 0.000000 0.000000
0.666659 0.000000 0.000000
0.692906 0.000000 0.000000
0.718870 0.000000 0.000000
0.745008 0.000000 0.000000
0.771043 0.000000 0.000000
0.797385 0.000000 0.000000
0.824247 0.000000 0.000000
0.851833 0.000000 0.000000
0.879775 0.000000 0.000000
0.908638 0.000000 0.000000
0.938312 0.000000 0.000000
0.968766 0.000000 0.000000
1.000000 0.000000 0.000000
0.000000 0.021521 0.000000
0.021696 0.021674 0.000000
0.052187 0.026381 0.000000
0.089309 0.028290 0.000000
0.128583 0.027881 0.000000
0.168722 0.026797 0.000000
0.210359 0.025913 0.000000
0.252723 0.025226 0.000000
0.294853 0.024756 0.000000
0.336383 0.024397 0.000000
0.377182 0.023945 0.000000
0.416999 0.023660 0.000000
0.455921 0.023473 0.000000
0.493875 0.023347 0.000000
0.529903 0.023184 0.000000
0.562800 0.023050 0.000000
0.593114 0.022907 0.000000
0.621637 0.022891 0.000000
0.648869 0.022742 0.000000
0.675257 0.022630 0.000000
0.701136 0.022619 0.000000
0.726832 0.022611 0.000000
0.752533 0.022435 0.000000
0.778418 0.022358 0.000000
0.804752 0.022350 0.000000
0.831415 0.022342 0.000000
0.858750 0.022340 0.000000
0.886864 0.022334 0.000000
0.915538 0.022333 0.000000
0.945189 0.022325 0.000000
0.975643 0.022325 0.000000
1.000000 0.022080 0.000000
0.000000 0.046177 0.000000
0.021521 0.046177 0.000000
0.046458 0.046516 0.000000
0.079600 0.051953 0.000000
0.122645 0.057266 0.000000
0.172421 0.060600 0.000000
0.224916 0.062323 0.000000
0.275655 0.062324 0.000000
0.323054 0.061260 0.000000
0.367481 0.060003 0.000000
0.409452 0.058826 0.000000
0.449475 0.057565 0.000000
0.487848 0.056449 0.000000
0.524214 0.055532 0.000000
0.557289 0.054688 0.000000
0.587578 0.054008 0.000000
0.616030 0.053321 0.000000
0.643056 0.052761 0.000000
0.669085 0.052350 0.000000
0.694498 0.051909 0.000000
0.719695 0.051519 0.000000
0.744908 0.051229 0.000000
0.770294 0.050945 0.000000
0.795947 0.050660 0.000000
0.822041 0.050375 0.000000
0.848676 0.050103 0.000000
0.876017 0.050027 0.000000
0.904145 0.049795 0.000000
0.932850 0.049733 0.000000
0.962518 0.049502 0.000000
0.991998 0.049456 0.000000
1.000000 0.049210 0.000000
0.000000 0.074284 0.000000
0.021521 0.074284 0.000000
0.046177 0.074284 0.000000
0.074626 0.074775 0.000000
0.111352 0.080313 0.000000
0.158433 0.087792 0.000000
0.211968 0.094027 0.000000
0.267586 0.098422 0.000000
0.322541 0.101492 0.000000
0.374745 0.103243 0.000000
0.423312 0.103624 0.000000
0.468199 0.102730 0.000000
0.509765 0.101292 0.000000
0.547043 0.099697 0.000000
0.580024 0.098098 0.000000
0.610163 0.096574 0.000000
0.638290 0.095025 0.000000
0.664967 0.093584 0.000000
0.690897 0.092379 0.000000
0.716393 0.091273 0.000000
0.741532 0.090182 0.000000
0.766900 0.089266 0.000000
0.792433 0.088420 0.000000
0.818328 0.087601 0.000000
0.844573 0.086778 0.000000
0.871636 0.086165 0.000000
0.899134 0.085592 0.000000
0.927534 0.085035 0.000000
0.956733 0.084482 0.000000
0.985624 0.084135 0.000000
0.999594 0.083620 0.000000
1.000000 0.083312 0.000000
0.000000 0.106613 0.000000
0.021521 0.106613 0.000000
0.046177 0.106613 0.000000
0.074284 0.106613 0.000000
0.106997 0.107272 0.000000
0.147806 0.113104 0.000000
0.197468 0.121920 0.000000
0.252303 0.130204 0.000000
0.308315 0.137063 0.000000
0.363013 0.142448 0.000000
0.415643 0.146510 0.000000
0.465913 0.149488 0.000000
0.512849 0.151437 0.000000
0.554381 0.151878 0.000000
0.590444 0.151279 0.000000
0.622893 0.150060 0.000000
0.652793 0.148430 0.000000
0.680946 0.146556 0.000000
0.708162 0.144601 0.000000
0.734693 0.142597 0.000000
0.760897 0.140697 0.000000
0.787233 0.139012 0.000000
0.813644 0.137251 0.000000
0.840418 0.135760 0.000000
0.867687 0.134213 0.000000
0.895468 0.132972 0.000000
0.923795 0.131681 0.000000
0.953019 0.130541 0.000000
0.981977 0.129435 0.000000
0.999012 0.128359 0.000000
1.000000 0.127491 0.000000
1.000000 0.126669 0.000000
0.000000 0.143464 0.000000
0.021521 0.143464 0.000000
0.046177 0.143464 0.000000
0.074284 0.143464 0.000000
0.106613 0.143464 0.000000
0.143860 0.144223 0.000000
0.187646 0.149975 0.000000
0.238553 0.159701 0.000000
0.293103 0.169622 0.000000
0.347990 0.178419 0.000000
0.401620 0.185811 0.000000
0.453441 0.191802 0.000000
0.502852 0.196513 0.000000
0.547960 0.200377 0.000000
0.587844 0.203419 0.000000
0.623801 0.205342 0.000000
0.656810 0.205956 0.000000
0.687699 0.205620 0.000000
0.717231 0.204576 0.000000
0.745942 0.203013 0.000000
0.774147 0.201072 0.000000
0.802241 0.198927 0.000000
0.830335 0.196740 0.000000
0.858734 0.194646 0.000000
0.887471 0.192430 0.000000
0.916643 0.190326 0.000000
0.946531 0.188441 0.000000
0.976986 0.186595 0.000000
0.998142 0.184749 0.000000
1.000000 0.183095 0.000000
1.000000 0.181498 0.000000
1.000000 0.180109 0.000000
0.000000 0.183765 0.000000
0.021521 0.183765 0.000000
0.046177 0.183765 0.000000
0.074284 0.183765 0.000000
0.106613 0.183765 0.000000
0.143464 0.183765 0.000000
0.184146 0.184641 0.000000
0.229778 0.190386 0.000000
0.280604 0.200306 0.000000
0.333767 0.211184 0.000000
0.387019 0.221351 0.000000
0.439189 0.230180 0.000000
0.489787 0.237727 0.000000
0.536832 0.244087 0.000000
0.578662 0.249357 0.000000
0.616468 0.253583 0.000000
0.651600 0.257100 0.000000
0.685022 0.260016 0.000000
0.717196 0.261951 0.000000
0.748438 0.262708 0.000000
0.779075 0.262581 0.000000
0.809560 0.261646 0.000000
0.840012 0.260284 0.000000
0.870483 0.258464 0.000000
0.901310 0.256415 0.000000
0.932448 0.254265 0.000000
0.964215 0.252054 0.000000
0.994482 0.249834 0.000000
0.999828 0.247572 0.000000
1.000000 0.245303 0.000000
1.000000 0.243179 0.000000
1.000000 0.241112 0.000000
0.000000 0.226334 0.000000
0.021521 0.226334 0.000000
0.046177 0.226334 0.000000
0.074284 0.226334 0.000000
0.106613 0.226334 0.000000
0.143464 0.226334 0.000000
0.183765 0.226334 0.000000
0.226718 0.227231 0.000000
0.272839 0.232638 0.000000
0.322538 0.242513 0.000000
0.373854 0.253752 0.000000
0.425311 0.264602 0.000000
0.475846 0.274418 0.000000
0.524019 0.283127 0.000000
0.567589 0.290561 0.000000
0.606747 0.296937 0.000000
0.642994 0.302377 0.000000
0.677400 0.306911 0.000000
0.710639 0.310775 0.000000
0.743408 0.313945 0.000000
0.776061 0.316614 0.000000
0.808767 0.318415 0.000000
0.841457 0.319246 0.000000
0.874425 0.319353 0.000000
0.907659 0.318774 0.000000
0.941183 0.317588 0.000000
0.975138 0.315981 0.000000
0.997478 0.314162 0.000000
1.000000 0.312096 0.000000
1.000000 0.309946 0.000000
1.000000 0.307608 0.000000
1.000000 0.305337 0.000000
0.000000 0.269755 0.000000
0.021521 0.269755 0.000000
0.046177 0.269755 0.000000
0.074284 0.269755 0.000000
0.106613 0.269755 0.000000
0.143464 0.269755 0.000000
0.183765 0.269755 0.000000
0.226334 0.269755 0.000000
0.270129 0.270690 0.000000
0.315886 0.275812 0.000000
0.363901 0.285221 0.000000
0.413331 0.296366 0.000000
0.462858 0.307458 0.000000
0.511224 0.317808 0.000000
0.555945 0.327084 0.000000
0.596113 0.335320 0.000000
0.633205 0.342549 0.000000
0.668292 0.348870 0.000000
0.702109 0.354381 0.000000
0.735475 0.359073 0.000000
0.768698 0.363116 0.000000
0.802138 0.366517 0.000000
0.836121 0.369418 0.000000
0.870959 0.371971 0.000000
0.906210 0.373684 0.000000
0.942004 0.374659 0.000000
0.978354 0.374882 0.000000
0.997942 0.374380 0.000000
1.000000 0.373379 0.000000
1.000000 0.372034 0.000000
1.000000 0.370477 0.000000
1.000000 0.368545 0.000000
0.000000 0.313151 0.000000
0.021521 0.313151 0.000000
0.046177 0.313151 0.000000
0.074284 0.313151 0.000000
0.106613 0.313151 0.000000
0.143464 0.313151 0.000000
0.183765 0.313151 0.000000
0.226334 0.313151 0.000000
0.269755 0.313151 0.000000
0.313504 0.314057 0.000000
0.358158 0.318761 0.000000
0.404529 0.327602 0.000000
0.452047 0.338340 0.000000
0.499497 0.349378 0.000000
0.544559 0.359945 0.000000
0.585461 0.369631 0.000000
0.623094 0.378441 0.000000
0.658568 0.386338 0.000000
0.692782 0.393378 0.000000
0.726441 0.399477 0.000000
0.759967 0.404821 0.000000
0.793707 0.409646 0.000000
0.828078 0.413777 0.000000
0.863177 0.417257 0.000000
0.899145 0.420386 0.000000
0.936069 0.423197 0.000000
0.974222 0.425442 0.000000
0.997448 0.427147 0.000000
1.000000 0.428083 0.000000
1.000000 0.428464 0.000000
1.000000 0.428157 0.000000
1.000000 0.427524 0.000000
0.000000 0.355689 0.000000
0.021521 0.355689 0.000000
0.046177 0.355689 0.000000
0.074284 0.355689 0.000000
0.106613 0.355689 0.000000
0.143464 0.355689 0.000000
0.183765 0.355689 0.000000
0.226334 0.355689 0.000000
0.269755 0.355689 0.000000
0.313151 0.355689 0.000000
0.356010 0.356543 0.000000
0.399405 0.360869 0.000000
0.444211 0.369169 0.000000
0.489864 0.379427 0.000000
0.534322 0.390271 0.000000
0.575273 0.400832 0.000000
0.613084 0.410741 0.000000
0.648832 0.419862 0.000000
0.683304 0.428212 0.000000
0.717035 0.435667 0.000000
0.750612 0.442343 0.000000
0.784444 0.448415 0.000000
0.818969 0.453766 0.000000
0.854118 0.458396 0.000000
0.890354 0.462586 0.000000
0.927496 0.466298 0.000000
0.965894 0.469630 0.000000
0.996378 0.472473 0.000000
1.000000 0.475018 0.000000
1.000000 0.477147 0.000000
1.000000 0.478764 0.000000
1.000000 0.479688 0.000000
0.000000 0.397274 0.000000
0.021521 0.397274 0.000000
0.046177 0.397274 0.000000
0.074284 0.397274 0.000000
0.106613 0.397274 0.000000
0.143464 0.397274 0.000000
0.183765 0.397274 0.000000
0.226334 0.397274 0.000000
0.269755 0.397274 0.000000
0.313151 0.397274 0.000000
0.355689 0.397274 0.000000
0.397554 0.398113 0.000000
0.439727 0.402086 0.000000
0.482901 0.409799 0.000000
0.525898 0.419655 0.000000
0.566261 0.430139 0.000000
0.603894 0.440519 0.000000
0.639552 0.450471 0.000000
0.673934 0.459762 0.000000
0.707576 0.468392 0.000000
0.741171 0.476343 0.000000
0.774918 0.483515 0.000000
0.809328 0.489907 0.000000
0.844388 0.495636 0.000000
0.880535 0.500820 0.000000
0.917727 0.505414 0.000000
0.956208 0.509541 0.000000
0.993394 0.513090 0.000000
0.999807 0.516325 0.000000
1.000000 0.519300 0.000000
1.000000 0.521779 0.000000
1.000000 0.524140 0.000000
0.000000 0.437890 0.000000
0.021521 0.437890 0.000000
0.046177 0.437890 0.000000
0.074284 0.437890 0.000000
0.106613 0.437890 0.000000
0.143464 0.437890 0.000000
0.183765 0.437890 0.000000
0.226334 0.437890 0.000000
0.269755 0.437890 0.000000
0.313151 0.437890 0.000000
0.355689 0.437890 0.000000
0.397274 0.437890 0.000000
0.438122 0.438644 0.000000
0.478945 0.442258 0.000000
0.519895 0.449374 0.000000
0.559092 0.458679 0.000000
0.596009 0.468847 0.000000
0.631212 0.479003 0.000000
0.665194 0.488912 0.000000
0.698536 0.498329 0.000000
0.731870 0.507029 0.000000
0.765400 0.515012 0.000000
0.799571 0.522183 0.000000
0.834370 0.528613 0.000000
0.870256 0.534480 0.000000
0.907443 0.539706 0.000000
0.945724 0.544425 0.000000
0.985340 0.548587 0.000000
0.999063 0.552355 0.000000
1.000000 0.555762 0.000000
1.000000 0.558756 0.000000
1.000000 0.561479 0.000000
0.000000 0.477207 0.000000
0.021521 0.477207 0.000000
0.046177 0.477207 0.000000
0.074284 0.477207 0.000000
0.106613 0.477207 0.000000
0.143464 0.477207 0.000000
0.183765 0.477207 0.000000
0.226334 0.477207 0.000000
0.269755 0.477207 0.000000
0.313151 0.477207 0.000000
0.355689 0.477207 0.000000
0.397274 0.477207 0.000000
0.437890 0.477207 0.000000
0.477504 0.477920 0.000000
0.516491 0.481256 0.000000
0.554061 0.487934 0.000000
0.589779 0.496741 0.000000
0.624046 0.506358 0.000000
0.657347 0.516124 0.000000
0.690260 0.525566 0.000000
0.723162 0.534381 0.000000
0.756258 0.542621 0.000000
0.789975 0.550139 0.000000
0.824454 0.556971 0.000000
0.860001 0.563332 0.000000
0.896822 0.569116 0.000000
0.934823 0.574325 0.000000
0.974309 0.579041 0.000000
0.997994 0.583335 0.000000
1.000000 0.587219 0.000000
1.000000 0.590730 0.000000
1.000000 0.593871 0.000000
0.000000 0.514892 0.000000
0.021521 0.514892 0.000000
0.046177 0.514892 0.000000
0.074284 0.514892 0.000000
0.106613 0.514892 0.000000
0.143464 0.514892 0.000000
0.183765 0.514892 0.000000
0.226334 0.514892 0.000000
0.269755 0.514892 0.000000
0.313151 0.514892 0.000000
0.355689 0.514892 0.000000
0.397274 0.514892 0.000000
0.437890 0.514892 0.000000
0.477207 0.514892 0.000000
0.515134 0.515618 0.000000
0.551186 0.518718 0.000000
0.585416 0.524743 0.000000
0.618467 0.532705 0.000000
0.650892 0.541427 0.000000
0.683057 0.550217 0.000000
0.715191 0.558777 0.000000
0.747773 0.566978 0.000000
0.780914 0.574776 0.000000
0.814937 0.581990 0.000000
0.850001 0.588664 0.000000
0.886301 0.594805 0.000000
0.923900 0.600626 0.000000
0.963012 0.605761 0.000000
0.996897 0.610558 0.000000
1.000000 0.614992 0.000000
1.000000 0.619025 0.000000
1.000000 0.622655 0.000000
0.000000 0.549907 0.000000
0.021521 0.549907 0.000000
0.046177 0.549907 0.000000
0.074284 0.549907 0.000000
0.106613 0.549907 0.000000
0.143464 0.549907 0.000000
0.183765 0.549907 0.000000
0.226334 0.549907 0.000000
0.269755 0.549907 0.000000
0.313151 0.549907 0.000000
0.355689 0.549907 0.000000
0.397274 0.549907 0.000000
0.437890 0.549907 0.000000
0.477207 0.549907 0.000000
0.514892 0.549907 0.000000
0.550090 0.550517 0.000000
0.582942 0.553152 0.000000
0.614643 0.558382 0.000000
0.645905 0.565424 0.000000
0.676980 0.573228 0.000000
0.708236 0.581257 0.000000
0.740048 0.589246 0.000000
0.772592 0.597101 0.000000
0.806007 0.604553 0.000000
0.840428 0.611479 0.000000
0.876181 0.617985 0.000000
0.913260 0.624204 0.000000
0.951852 0.629841 0.000000
0.991328 0.635158 0.000000
0.999680 0.639986 0.000000
1.000000 0.644531 0.000000
1.000000 0.648698 0.000000
0.000000 0.581795 0.000000
0.021521 0.581795 0.000000
0.046177 0.581795 0.000000
0.074284 0.581795 0.000000
0.106613 0.581795 0.000000
0.143464 0.581795 0.000000
0.183765 0.581795 0.000000
0.226334 0.581795 0.000000
0.269755 0.581795 0.000000
0.313151 0.581795 0.000000
0.355689 0.581795 0.000000
0.397274 0.581795 0.000000
0.437890 0.581795 0.000000
0.477207 0.581795 0.000000
0.514892 0.581795 0.000000
0.549907 0.581795 0.000000
0.581978 0.582283 0.000000
0.612439 0.584589 0.000000
0.642401 0.589282 0.000000
0.672329 0.595598 0.000000
0.702625 0.602781 0.000000
0.733441 0.610290 0.000000
0.765123 0.617934 0.000000
0.797758 0.625350 0.000000
0.831496 0.632471 0.000000
0.866598 0.639237 0.000000
0.903027 0.645716 0.000000
0.940968 0.651832 0.000000
0.980362 0.657670 0.000000
0.998972 0.663019 0.000000
1.000000 0.667962 0.000000
1.000000 0.672646 0.000000
0.000000 0.611359 0.000000
0.021521 0.611359 0.000000
0.046177 0.611359 0.000000
0.074284 0.611359 0.000000
0.106613 0.611359 0.000000
0.143464 0.611359 0.000000
0.183765 0.611359 0.000000
0.226334 0.611359 0.000000
0.269755 0.611359 0.000000
0.313151 0.611359 0.000000
0.355689 0.611359 0.000000
0.397274 0.611359 0.000000
0.437890 0.611359 0.000000
0.477207 0.611359 0.000000
0.514892 0.611359 0.000000
0.549907 0.611359 0.000000
0.581795 0.611359 0.000000
0.611541 0.611843 0.000000
0.640400 0.613938 0.000000
0.669155 0.618182 0.000000
0.698272 0.623980 0.000000
0.728091 0.630647 0.000000
0.758775 0.637811 0.000000
0.790457 0.645015 0.000000
0.823471 0.652205 0.000000
0.857711 0.659204 0.000000
0.893446 0.665944 0.000000
0.930628 0.672424 0.000000
0.969348 0.678643 0.000000
0.998258 0.684374 0.000000
1.000000 0.689845 0.000000
1.000000 0.695033 0.000000
0.000000 0.639529 0.000000
0.021521 0.639529 0.000000
0.046177 0.639529 0.000000
0.074284 0.639529 0.000000
0.106613 0.639529 0.000000
0.143464 0.639529 0.000000
0.183765 0.639529 0.000000
0.226334 0.639529 0.000000
0.269755 0.639529 0.000000
0.313151 0.639529 0.000000
0.355689 0.639529 0.000000
0.397274 0.639529 0.000000
0.437890 0.639529 0.000000
0.477207 0.639529 0.000000
0.514892 0.639529 0.000000
0.549907 0.639529 0.000000
0.581795 0.639529 0.000000
0.611359 0.639529 0.000000
0.639648 0.639945 0.000000
0.667327 0.641834 0.000000
0.695235 0.645663 0.000000
0.723952 0.651134 0.000000
0.753585 0.657449 0.000000
0.784331 0.664238 0.000000
0.816317 0.671229 0.000000
0.849738 0.678278 0.000000
0.884671 0.685250 0.000000
0.921068 0.691990 0.000000
0.959008 0.698470 0.000000
0.995862 0.704594 0.000000
0.999941 0.710547 0.000000
1.000000 0.716145 0.000000
0.000000 0.666659 0.000000
0.021521 0.666659 0.000000
0.046177 0.666659 0.000000
0.074284 0.666659 0.000000
0.106613 0.666659 0.000000
0.143464 0.666659 0.000000
0.183765 0.666659 0.000000
0.226334 0.666659 0.000000
0.269755 0.666659 0.000000
0.313151 0.666659 0.000000
0.355689 0.666659 0.000000
0.397274 0.666659 0.000000
0.437890 0.666659 0.000000
0.477207 0.666659 0.000000
0.514892 0.666659 0.000000
0.549907 0.666659 0.000000
0.581795 0.666659 0.000000
0.611359 0.666659 0.000000
0.639529 0.666659 0.000000
0.666717 0.667006 0.000000
0.693621 0.668624 0.000000
0.721175 0.672322 0.000000
0.749628 0.677451 0.000000
0.779366 0.683538 0.000000
0.810374 0.690112 0.000000
0.842809 0.696961 0.000000
0.876712 0.703864 0.000000
0.912288 0.710816 0.000000
0.949447 0.717556 0.000000
0.988254 0.724036 0.000000
0.999700 0.730401 0.000000
1.000000 0.736516 0.000000
0.000000 0.692906 0.000000
0.021521 0.692906 0.000000
0.046177 0.692906 0.000000
0.074284 0.692906 0.000000
0.106613 0.692906 0.000000
0.143464 0.692906 0.000000
0.183765 0.692906 0.000000
0.226334 0.692906 0.000000
0.269755 0.692906 0.000000
0.313151 0.692906 0.000000
0.355689 0.692906 0.000000
0.397274 0.692906 0.000000
0.437890 0.692906 0.000000
0.477207 0.692906 0.000000
0.514892 0.692906 0.000000
0.549907 0.692906 0.000000
0.581795 0.692906 0.000000
0.611359 0.692906 0.000000
0.639529 0.692906 0.000000
0.666659 0.692906 0.000000
0.693018 0.693186 0.000000
0.719609 0.694860 0.000000
0.747067 0.698380 0.000000
0.775665 0.703287 0.000000
0.805542 0.709146 0.000000
0.836847 0.715663 0.000000
0.869823 0.722307 0.000000
0.904328 0.729300 0.000000
0.940666 0.736138 0.000000
0.978604 0.742863 0.000000
0.999387 0.749579 0.000000
1.000000 0.756052 0.000000
0.000000 0.718870 0.000000
0.021521 0.718870 0.000000
0.046177 0.718870 0.000000
0.074284 0.718870 0.000000
0.106613 0.718870 0.000000
0.143464 0.718870 0.000000
0.183765 0.718870 0.000000
0.226334 0.718870 0.000000
0.269755 0.718870 0.000000
0.313151 0.718870 0.000000
0.355689 0.718870 0.000000
0.397274 0.718870 0.000000
0.437890 0.718870 0.000000
0.477207 0.718870 0.000000
0.514892 0.718870 0.000000
0.549907 0.718870 0.000000
0.581795 0.718870 0.000000
0.611359 0.718870 0.000000
0.639529 0.718870 0.000000
0.666659 0.718870 0.000000
0.692906 0.718870 0.000000
0.718977 0.719191 0.000000
0.745562 0.720830 0.000000
0.773080 0.724144 0.000000
0.801827 0.728922 0.000000
0.832071 0.734761 0.000000
0.864079 0.741080 0.000000
0.897482 0.747744 0.000000
0.932846 0.754539 0.000000
0.969833 0.761500 0.000000
0.999102 0.768477 0.000000
1.000000 0.775210 0.000000
0.000000 0.745008 0.000000
0.021521 0.745008 0.000000
0.046177 0.745008 0.000000
0.074284 0.745008 0.000000
0.106613 0.745008 0.000000
0.143464 0.745008 0.000000
0.183765 0.745008 0.000000
0.226334 0.745008 0.000000
0.269755 0.745008 0.000000
0.313151 0.745008 0.000000
0.355689 0.745008 0.000000
0.397274 0.745008 0.000000
0.437890 0.745008 0.000000
0.477207 0.745008 0.000000
0.514892 0.745008 0.000000
0.549907 0.745008 0.000000
0.581795 0.745008 0.000000
0.611359 0.745008 0.000000
0.639529 0.745008 0.000000
0.666659 0.745008 0.000000
0.692906 0.745008 0.000000
0.718870 0.745008 0.000000
0.745058 0.745310 0.000000
0.771686 0.746760 0.000000
0.799392 0.750008 0.000000
0.828595 0.754652 0.000000
0.859417 0.760256 0.000000
0.891751 0.766535 0.000000
0.926074 0.773288 0.000000
0.962183 0.780160 0.000000
0.998015 0.787207 0.000000
1.000000 0.794194 0.000000
0.000000 0.771043 0.000000
0.021521 0.771043 0.000000
0.046177 0.771043 0.000000
0.074284 0.771043 0.000000
0.106613 0.771043 0.000000
0.143464 0.771043 0.000000
0.183765 0.771043 0.000000
0.226334 0.771043 0.000000
0.269755 0.771043 0.000000
0.313151 0.771043 0.000000
0.355689 0.771043 0.000000
0.397274 0.771043 0.000000
0.437890 0.771043 0.000000
0.477207 0.771043 0.000000
0.514892 0.771043 0.000000
0.549907 0.771043 0.000000
0.581795 0.771043 0.000000
0.611359 0.771043 0.000000
0.639529 0.771043 0.000000
0.666659 0.771043 0.000000
0.692906 0.771043 0.000000
0.718870 0.771043 0.000000
0.745008 0.771043 0.000000
0.771136 0.771276 0.000000
0.798035 0.772693 0.000000
0.826238 0.775897 0.000000
0.855960 0.780471 0.000000
0.887241 0.786064 0.000000
0.920360 0.792410 0.000000
0.955476 0.799181 0.000000
0.992369 0.806223 0.000000
1.000000 0.813281 0.000000
0.000000 0.797385 0.000000
0.021521 0.797385 0.000000
0.046177 0.797385 0.000000
0.074284 0.797385 0.000000
0.106613 0.797385 0.000000
0.143464 0.797385 0.000000
0.183765 0.797385 0.000000
0.226334 0.797385 0.000000
0.269755 0.797385 0.000000
0.313151 0.797385 0.000000
0.355689 0.797385 0.000000
0.397274 0.797385 0.000000
0.437890 0.797385 0.000000
0.477207 0.797385 0.000000
0.514892 0.797385 0.000000
0.549907 0.797385 0.000000
0.581795 0.797385 0.000000
0.611359 0.797385 0.000000
0.639529 0.797385 0.000000
0.666659 0.797385 0.000000
0.692906 0.797385 0.000000
0.718870 0.797385 0.000000
0.745008 0.797385 0.000000
0.771043 0.797385 0.000000
0.797470 0.797598 0.000000
0.824884 0.799001 0.000000
0.853602 0.802216 0.000000
0.883843 0.806793 0.000000
0.915863 0.812391 0.000000
0.949933 0.818741 0.000000
0.985662 0.825576 0.000000
1.000000 0.832628 0.000000
0.000000 0.824247 0.000000
0.021521 0.824247 0.000000
0.046177 0.824247 0.000000
0.074284 0.824247 0.000000
0.106613 0.824247 0.000000
0.143464 0.824247 0.000000
0.183765 0.824247 0.000000
0.226334 0.824247 0.000000
0.269755 0.824247 0.000000
0.313151 0.824247 0.000000
0.355689 0.824247 0.000000
0.397274 0.824247 0.000000
0.437890 0.824247 0.000000
0.477207 0.824247 0.000000
0.514892 0.824247 0.000000
0.549907 0.824247 0.000000
0.581795 0.824247 0.000000
0.611359 0.824247 0.000000
0.639529 0.824247 0.000000
0.666659 0.824247 0.000000
0.692906 0.824247 0.000000
0.718870 0.824247 0.000000
0.745008 0.824247 0.000000
0.771043 0.824247 0.000000
0.797385 0.824247 0.000000
0.824323 0.824437 0.000000
0.852252 0.825824 0.000000
0.881655 0.829053 0.000000
0.912660 0.833634 0.000000
0.945504 0.839236 0.000000
0.980127 0.845591 0.000000
1.000000 0.852432 0.000000
0.000000 0.851833 0.000000
0.021521 0.851833 0.000000
0.046177 0.851833 0.000000
0.074284 0.851833 0.000000
0.106613 0.851833 0.000000
0.143464 0.851833 0.000000
0.183765 0.851833 0.000000
0.226334 0.851833 0.000000
0.269755 0.851833 0.000000
0.313151 0.851833 0.000000
0.355689 0.851833 0.000000
0.397274 0.851833 0.000000
0.437890 0.851833 0.000000
0.477207 0.851833 0.000000
0.514892 0.851833 0.000000
0.549907 0.851833 0.000000
0.581795 0.851833 0.000000
0.611359 0.851833 0.000000
0.639529 0.851833 0.000000
0.666659 0.851833 0.000000
0.692906 0.851833 0.000000
0.718870 0.851833 0.000000
0.745008 0.851833 0.000000
0.771043 0.851833 0.000000
0.797385 0.851833 0.000000
0.824247 0.851833 0.000000
0.851867 0.851999 0.000000
0.880377 0.853190 0.000000
0.910348 0.856407 0.000000
0.942107 0.860993 0.000000
0.975685 0.866600 0.000000
1.000000 0.872961 0.000000
0.000000 0.879775 0.000000
0.021521 0.879775 0.000000
0.046177 0.879775 0.000000
0.074284 0.879775 0.000000
0.106613 0.879775 0.000000
0.143464 0.879775 0.000000
0.183765 0.879775 0.000000
0.226334 0.879775 0.000000
0.269755 0.879775 0.000000
0.313151 0.879775 0.000000
0.355689 0.879775 0.000000
0.397274 0.879775 0.000000
0.437890 0.879775 0.000000
0.477207 0.879775 0.000000
0.514892 0.879775 0.000000
0.549907 0.879775 0.000000
0.581795 0.879775 0.000000
0.611359 0.879775 0.000000
