gsg/02_Everyday/GSG_LUT_Everyday_MutedWarmth.cube
# GSG LUTs 1.0
# Copyright (c) 2016-2020 Greyscalegorilla
# See EULA for licensing and distribution information
# Converted by Briz LUT Converter
LUT_3D_SIZE 8
DOMAIN_MIN 0.000000 0.000000 0.000000
DOMAIN_MAX 0.903226 0.903226 0.903226
0.087179 0.087179 0.087179
0.131805 0.090236 0.090236
0.194974 0.099397 0.095506
0.260948 0.105991 0.104762
0.340234 0.110339 0.112860
0.427476 0.110016 0.123920
0.533562 0.117263 0.141549
0.646099 0.124841 0.161976
0.091488 0.117909 0.093379
0.136994 0.121461 0.096633
0.198842 0.126794 0.101563
0.270035 0.137611 0.110207
0.345603 0.143176 0.119912
0.433415 0.136091 0.129670
0.535008 0.117569 0.145639
0.647607 0.124894 0.160262
0.097089 0.165355 0.102470
0.143717 0.166407 0.104920
0.203727 0.174726 0.109944
0.276225 0.182511 0.118561
0.352117 0.188000 0.128023
0.442550 0.187694 0.141648
0.543999 0.170369 0.153095
0.651437 0.128960 0.161922
0.103470 0.218780 0.114916
0.151122 0.220004 0.117846
0.213832 0.224281 0.121347
0.284861 0.228877 0.129250
0.363642 0.237842 0.140004
0.454793 0.242325 0.151032
0.558628 0.240046 0.165237
0.668561 0.220963 0.177086
0.112324 0.274702 0.127402
0.153213 0.273558 0.129052
0.222548 0.278088 0.134488
0.295303 0.284575 0.140838
0.374271 0.290805 0.150862
0.468992 0.297181 0.163631
0.573802 0.300482 0.178451
0.684141 0.298737 0.190314
0.118146 0.336792 0.140927
0.146392 0.334903 0.141486
0.226360 0.340582 0.146740
0.302327 0.346955 0.154199
0.387262 0.353518 0.161987
0.483574 0.359079 0.172775
0.589090 0.368900 0.187680
0.700300 0.373831 0.198001
0.126732 0.408996 0.144543
0.126668 0.406702 0.145038
0.212516 0.410004 0.149416
0.306811 0.417952 0.159147
0.398355 0.425846 0.166375
0.497411 0.435066 0.174414
0.607263 0.440071 0.186093
0.718001 0.449990 0.200979
0.136272 0.490937 0.140053
0.135824 0.486284 0.141305
0.152558 0.485962 0.142703
0.299187 0.495663 0.156921
0.403742 0.504418 0.157870
0.511384 0.513671 0.168748
0.622869 0.520795 0.178467
0.733806 0.528916 0.195812
0.087944 0.087944 0.114254
0.110248 0.089815 0.110107
0.168246 0.096411 0.112844
0.235678 0.105018 0.113860
0.306156 0.111758 0.117500
0.389653 0.108134 0.122772
0.489005 0.114081 0.132919
0.599543 0.121788 0.153877
0.093316 0.111292 0.110365
0.155760 0.158853 0.161886
0.218587 0.164439 0.160492
0.288033 0.171909 0.162008
0.365556 0.180156 0.166191
0.458015 0.175240 0.171562
0.559640 0.143094 0.174134
0.670063 0.127184 0.183515
0.101626 0.155508 0.120872
0.164515 0.208903 0.173504
0.227500 0.212746 0.165475
0.298019 0.220633 0.166893
0.378230 0.227202 0.171175
0.470521 0.229173 0.176411
0.575610 0.220021 0.182474
0.683049 0.189138 0.189077
0.105771 0.207985 0.133339
0.167773 0.261916 0.184475
0.232689 0.267138 0.177722
0.306702 0.272019 0.171558
0.388765 0.279485 0.175760
0.482783 0.285945 0.182302
0.588586 0.286246 0.189979
0.700014 0.279627 0.197162
0.109879 0.261835 0.148652
0.160976 0.319509 0.193359
0.239174 0.324701 0.189923
0.317301 0.330869 0.184179
0.400374 0.337051 0.182495
0.497600 0.344961 0.187877
0.605408 0.352341 0.196469
0.716549 0.353835 0.201882
0.116660 0.320859 0.159735
0.134748 0.386472 0.203440
0.233413 0.393490 0.200596
0.323722 0.400270 0.191222
0.412741 0.406324 0.186639
0.513815 0.413230 0.188105
0.620732 0.423802 0.194805
0.732549 0.431266 0.202906
0.125071 0.390705 0.169536
0.134785 0.464841 0.209026
0.209038 0.469114 0.203809
0.325605 0.476931 0.197077
0.423360 0.484560 0.192274
0.527492 0.492916 0.187461
0.638590 0.500832 0.186631
0.749503 0.510759 0.198153
0.134534 0.469912 0.173528
0.144766 0.548153 0.209917
0.155128 0.549070 0.196440
0.317032 0.557926 0.191701
0.430870 0.565951 0.174177
0.540205 0.575385 0.174534
0.652523 0.583294 0.178801
0.764322 0.590901 0.186001
0.089377 0.092119 0.154043
0.100421 0.092427 0.148497
0.144510 0.098412 0.145940
0.209984 0.105193 0.144269
0.280271 0.109986 0.148728
0.357365 0.114312 0.150825
0.449904 0.112211 0.155537
0.553594 0.119122 0.165813
0.091891 0.113261 0.150428
0.140853 0.163905 0.202192
0.198329 0.168224 0.201106
0.262759 0.176806 0.200719
0.337675 0.183375 0.202522
0.424390 0.182392 0.204335
0.521366 0.168201 0.207079
0.627973 0.128649 0.208356
0.100899 0.148933 0.150833
0.166748 0.199430 0.202546
0.248794 0.255523 0.257606
0.323420 0.263250 0.257114
0.407437 0.268508 0.259101
0.503293 0.272098 0.261223
0.607728 0.268454 0.264343
0.718584 0.259699 0.267918
0.106297 0.198331 0.161462
0.173752 0.254031 0.214017
0.259954 0.312305 0.267123
0.337121 0.321070 0.263498
0.422388 0.328463 0.265279
0.520527 0.335177 0.266542
0.627753 0.340748 0.270438
0.739041 0.341080 0.274371
0.114581 0.248844 0.172733
0.173325 0.309658 0.224870
0.259939 0.377200 0.279777
0.345437 0.386114 0.273913
0.434572 0.391590 0.265860
0.534558 0.400854 0.269270
0.643426 0.409389 0.272352
0.753812 0.417871 0.276330
0.115600 0.307530 0.184965
0.156222 0.374291 0.234689
0.253175 0.451744 0.289532
0.350894 0.461442 0.285172
0.445843 0.468711 0.275849
0.549041 0.475823 0.270616
0.659089 0.486083 0.272494
0.769378 0.496200 0.275433
0.123934 0.375938 0.195349
0.134023 0.449707 0.243184
0.219130 0.532141 0.295027
0.353001 0.542662 0.292761
0.455356 0.550536 0.282549
0.563710 0.558161 0.275224
0.674705 0.565552 0.269387
0.784529 0.576932 0.268455
0.133239 0.452891 0.201259
0.143632 0.531214 0.249875
0.167834 0.611985 0.299781
0.347784 0.625117 0.299004
0.465512 0.633196 0.286472
0.577319 0.640477 0.274537
0.690102 0.647385 0.264649
0.798677 0.655871 0.254825
0.090992 0.091150 0.196999
0.095342 0.093853 0.188386
0.137525 0.097631 0.185357
0.188733 0.104812 0.183768
0.252967 0.112329 0.183424
0.326078 0.118159 0.185685
0.412063 0.114326 0.187578
0.510263 0.117091 0.194623
0.093629 0.117834 0.193730
0.135166 0.164055 0.243448
0.183582 0.172265 0.241794
0.239872 0.179083 0.240590
0.309463 0.185312 0.240163
0.390798 0.188515 0.241722
0.486184 0.180359 0.243169
0.585942 0.145871 0.244386
0.098911 0.150157 0.191325
0.157570 0.203130 0.244952
0.236977 0.258425 0.301350
0.299753 0.268218 0.302858
0.378381 0.275284 0.302638
0.470155 0.279068 0.304187
0.572649 0.278878 0.306102
0.681243 0.273468 0.309584
0.108772 0.187999 0.192655
0.178436 0.244122 0.245994
0.266196 0.306028 0.306911
0.368269 0.373701 0.369720
0.458052 0.384108 0.371109
0.559015 0.391772 0.371832
0.667651 0.399273 0.374999
0.776707 0.402337 0.376038
0.118248 0.238691 0.202417
0.184670 0.298264 0.256628
0.274354 0.367797 0.318130
0.380217 0.445968 0.384020
0.474924 0.457651 0.378771
0.578671 0.466943 0.378779
0.688189 0.476513 0.381703
0.796674 0.485958 0.382546
0.118527 0.294833 0.213000
0.169950 0.361801 0.266379
0.270588 0.441175 0.328952
0.384332 0.525925 0.395844
0.487807 0.538316 0.390538
0.592530 0.545109 0.381978
0.703562 0.555951 0.381592
0.810533 0.566780 0.384312
0.122880 0.360943 0.224355
0.135005 0.432841 0.274472
0.252236 0.520688 0.338929
0.388462 0.609783 0.409162
0.497279 0.622400 0.403692
0.607396 0.628975 0.391538
0.718397 0.635328 0.382472
0.823469 0.646147 0.382854
0.131805 0.434699 0.233202
0.142384 0.513494 0.285504
0.203478 0.599958 0.346028
0.394568 0.691805 0.421364
0.511625 0.703369 0.415401
0.623785 0.709955 0.402462
0.734391 0.716014 0.391114
0.836062 0.723049 0.380473
0.091827 0.095892 0.240592
0.093133 0.095694 0.233201
0.125538 0.100802 0.227165
0.176775 0.106174 0.224406
0.228996 0.114619 0.222242
0.299778 0.120390 0.221332
0.379455 0.122272 0.223072
0.470739 0.115333 0.227177
0.094724 0.120523 0.234833
0.115755 0.167043 0.287705
0.173223 0.174243 0.286817
0.227067 0.180990 0.283533
0.284913 0.185981 0.280328
0.362027 0.191253 0.280991
0.450996 0.190655 0.281931
0.549719 0.174938 0.282382
0.100290 0.154607 0.233646
0.140724 0.206160 0.289273
0.224715 0.260925 0.350051
0.287131 0.270019 0.349846
0.351619 0.277567 0.346675
0.438076 0.283163 0.346604
0.536110 0.285174 0.349319
0.641584 0.281521 0.350370
0.105457 0.191568 0.232020
0.168669 0.245240 0.288405
0.255148 0.308587 0.353128
0.356549 0.376703 0.422963
0.433407 0.390598 0.424851
0.529602 0.399310 0.425677
0.635520 0.406147 0.426221
0.744345 0.412481 0.427990
0.115129 0.229114 0.232758
0.190885 0.288498 0.290288
0.280055 0.357046 0.355108
0.389906 0.439527 0.429751
0.513438 0.520682 0.500609
0.619561 0.532408 0.502606
0.728184 0.541719 0.503382
0.833857 0.552321 0.503950
0.124325 0.282477 0.242152
0.193549 0.349367 0.301021
0.283381 0.426849 0.366054
0.400284 0.516911 0.443526
0.530728 0.602494 0.517310
0.639902 0.616325 0.511999
0.749229 0.626856 0.510920
0.852721 0.637845 0.511978
0.121624 0.345055 0.253485
0.155800 0.418591 0.310149
0.272864 0.506585 0.378782
0.406117 0.600177 0.457275
0.544972 0.685649 0.531683
0.655632 0.698244 0.525683
0.762619 0.704726 0.513833
0.862644 0.715448 0.512009
0.130553 0.418175 0.264532
0.141323 0.496984 0.318855
0.243843 0.587240 0.388280
0.411259 0.682102 0.470876
0.562833 0.764268 0.547237
0.673654 0.776262 0.540153
0.778555 0.781330 0.526133
0.874268 0.786803 0.514067
0.093513 0.100634 0.287959
0.093513 0.103111 0.280318
0.108708 0.103045 0.272852
0.163982 0.109772 0.268930
0.217484 0.116242 0.265503
0.274650 0.123853 0.263200
0.349243 0.126305 0.264508
0.436062 0.117468 0.263419
0.096498 0.126828 0.283015
0.103902 0.171752 0.337338
0.156247 0.177359 0.334910
0.215487 0.183954 0.330984
0.272828 0.190346 0.327517
0.332933 0.196323 0.324590
0.418525 0.196902 0.324337
0.513794 0.190115 0.323685
0.100171 0.159140 0.278241
0.118900 0.208401 0.338308
0.204724 0.263891 0.403627
0.272578 0.273065 0.402563
0.338303 0.279413 0.398985
0.407649 0.286710 0.395851
0.501556 0.290494 0.395955
0.604510 0.289244 0.396643
0.104659 0.195582 0.277447
0.148862 0.248285 0.335638
0.239538 0.311957 0.406379
0.342496 0.380689 0.479621
0.418716 0.394528 0.481482
0.497439 0.401766 0.478363
0.599343 0.409847 0.478580
0.706298 0.415994 0.479504
0.113209 0.233011 0.275555
0.178247 0.290745 0.336154
0.268327 0.359206 0.405756
0.378450 0.441503 0.484974
0.502757 0.524422 0.561046
0.592218 0.541284 0.565056
0.698146 0.550705 0.564535
0.803044 0.560453 0.565520
0.123944 0.274029 0.274529
0.196248 0.339057 0.338237
0.292518 0.415040 0.408843
0.410738 0.504442 0.488241
0.543964 0.596657 0.570803
0.681935 0.680589 0.644405
0.787806 0.693445 0.646668
0.884143 0.703497 0.646280
0.122210 0.332400 0.285412
0.183274 0.406201 0.348103
0.289798 0.491695 0.420206
0.419488 0.585481 0.501403
0.560755 0.678031 0.585068
0.703048 0.761438 0.662016
0.807461 0.773912 0.656454
0.899334 0.782830 0.654953
0.129324 0.401750 0.297741
0.141951 0.479859 0.356609
0.272666 0.572140 0.431916
0.428095 0.667379 0.515384
0.579240 0.756907 0.599532
0.723676 0.832401 0.676636
0.823351 0.843479 0.671387
0.907967 0.847450 0.656750
0.095317 0.105810 0.339990
0.095365 0.107818 0.331202
0.096766 0.108309 0.321973
0.143164 0.112927 0.315813
0.205526 0.118467 0.312877
0.261587 0.126637 0.308957
0.324128 0.129944 0.306138
0.403773 0.131553 0.307637
0.098365 0.132427 0.335045
0.105201 0.178687 0.394336
0.119864 0.180570 0.388356
0.193597 0.187646 0.384280
0.257826 0.194096 0.380015
0.321782 0.197166 0.375719
0.387820 0.203793 0.372419
0.479065 0.199986 0.371338
0.101784 0.162532 0.330865
0.109581 0.213493 0.391591
0.174736 0.266973 0.459452
0.255534 0.276401 0.460170
0.322772 0.282550 0.454938
0.394388 0.290207 0.450698
0.469396 0.294628 0.449013
0.567492 0.295675 0.447899
0.105924 0.198862 0.326874
0.122420 0.251519 0.388515
0.214821 0.314524 0.462627
0.327604 0.384660 0.538536
0.403643 0.397676 0.540923
0.482858 0.405375 0.536694
0.564470 0.414108 0.534392
0.669463 0.421296 0.534635
0.110374 0.236185 0.323199
0.151341 0.293078 0.388542
0.250539 0.362837 0.462756
0.362787 0.444790 0.544390
0.489541 0.527495 0.621478
0.578171 0.544273 0.625159
0.664173 0.553554 0.622129
0.767524 0.564386 0.621914
0.116015 0.276301 0.321591
0.183327 0.340604 0.387414
0.277535 0.416355 0.462390
0.399074 0.506224 0.545107
0.533578 0.598836 0.628861
0.673038 0.686046 0.706398
0.762633 0.703267 0.711402
0.857939 0.712892 0.710713
0.120609 0.321485 0.321937
0.196926 0.393145 0.388911
0.301753 0.478546 0.463423
0.430855 0.572048 0.548336
0.571463 0.665531 0.631630
0.717491 0.756509 0.717316
0.843880 0.830801 0.787848
0.924674 0.841152 0.789099
0.128504 0.387585 0.333296
0.153214 0.465043 0.397342
0.297019 0.557121 0.476362
0.442852 0.652754 0.560906
0.591587 0.743256 0.645647
0.738440 0.826928 0.731301
0.862162 0.893184 0.803560
0.936064 0.900238 0.797129
0.097365 0.111560 0.396723
0.097337 0.113545 0.385595
0.097121 0.113646 0.376835
0.112848 0.119081 0.367441
0.187182 0.124146 0.363989
0.248298 0.131980 0.359086
0.309601 0.138436 0.356921
0.377408 0.136705 0.353447
0.100201 0.137859 0.390309
0.107227 0.183900 0.453898
0.107228 0.185681 0.446208
0.161518 0.191043 0.439211
0.238935 0.197472 0.435420
0.308347 0.202171 0.429136
0.374551 0.207168 0.426337
0.447977 0.208779 0.422773
0.103909 0.169574 0.384897
0.111160 0.218152 0.449857
0.125988 0.269306 0.516255
0.231238 0.279751 0.517852
0.306105 0.286540 0.513518
0.379646 0.293290 0.508844
0.455013 0.298365 0.505843
0.533676 0.302218 0.501948
0.107994 0.205109 0.380863
0.115418 0.255478 0.446278
0.180296 0.318090 0.519211
0.308459 0.388374 0.598053
0.390082 0.400657 0.599713
0.470222 0.409363 0.596389
0.552022 0.417972 0.592287
0.635326 0.426118 0.590052
0.112170 0.241205 0.376245
0.123790 0.297130 0.443673
0.225663 0.366629 0.519725
0.346815 0.448600 0.603722
0.476912 0.531466 0.679666
0.565426 0.547388 0.684279
0.650228 0.557696 0.680357
0.734759 0.568467 0.678718
0.116980 0.281404 0.373268
0.144771 0.342920 0.441353
0.256769 0.420822 0.519828
0.384538 0.510139 0.604042
0.522058 0.602436 0.687532
0.663232 0.688616 0.763938
0.750661 0.706379 0.768280
0.828605 0.715643 0.765775
0.122021 0.324726 0.371436
0.169560 0.394964 0.440971
0.289948 0.480369 0.520732
0.419517 0.574422 0.606065
0.562147 0.667526 0.690045
0.708677 0.758730 0.772363
0.835319 0.836295 0.843239
0.904354 0.848865 0.847978
0.127815 0.374181 0.371887
0.173095 0.451981 0.440879
0.314579 0.543243 0.522144
0.455174 0.639145 0.608772
0.601716 0.730944 0.692248
0.746635 0.816140 0.774696
0.870066 0.888812 0.852243
0.951025 0.938448 0.909694
