gsg/02_Everyday/GSG_LUT_Everyday_SimpleWarm.cube
# GSG LUTs 1.0
# Copyright (c) 2016-2020 Greyscalegorilla
# See EULA for licensing and distribution information
# Converted by Briz LUT Converter
LUT_3D_SIZE 32
0.050794 0.050794 0.050794
0.054866 0.052062 0.051542
0.060317 0.053590 0.052078
0.068415 0.055378 0.053062
0.079664 0.057521 0.053850
0.094017 0.060664 0.054780
0.109977 0.064351 0.055284
0.128197 0.067462 0.055843
0.150317 0.069542 0.056536
0.176336 0.069731 0.057111
0.205861 0.067762 0.057710
0.238245 0.063279 0.057789
0.273725 0.056977 0.057442
0.311804 0.052212 0.056836
0.351822 0.050794 0.055859
0.392761 0.050794 0.054362
0.434227 0.050794 0.052598
0.475820 0.050794 0.051235
0.517129 0.050794 0.050794
0.557919 0.050794 0.050794
0.598031 0.050794 0.050794
0.636866 0.050794 0.050794
0.674662 0.050794 0.050794
0.712041 0.050794 0.050794
0.749915 0.050794 0.050794
0.786797 0.050794 0.050794
0.820891 0.050794 0.050794
0.852503 0.050794 0.050794
0.882217 0.050794 0.050794
0.910339 0.050794 0.050794
0.937138 0.050794 0.050794
0.963370 0.050794 0.050794
0.050794 0.064729 0.055126
0.051246 0.065492 0.054606
0.058336 0.066532 0.053826
0.068240 0.068327 0.052807
0.080996 0.070602 0.051980
0.096268 0.073134 0.052690
0.112639 0.075767 0.053545
0.132494 0.077733 0.054075
0.155449 0.078540 0.054756
0.181593 0.078207 0.055262
0.211028 0.075894 0.055691
0.243575 0.071501 0.055764
0.279050 0.064406 0.055418
0.316822 0.056435 0.054705
0.356300 0.051817 0.053589
0.396975 0.050798 0.052242
0.438170 0.050794 0.051262
0.479356 0.050794 0.050900
0.520292 0.050794 0.050794
0.560671 0.050794 0.050794
0.600266 0.050794 0.050794
0.638586 0.050794 0.050794
0.676032 0.050794 0.050794
0.713146 0.050794 0.050794
0.750571 0.050794 0.050794
0.786725 0.050794 0.050794
0.820248 0.050794 0.050794
0.851346 0.050794 0.050794
0.880547 0.050794 0.050794
0.908614 0.050794 0.050794
0.935413 0.050794 0.050794
0.961393 0.050794 0.050794
0.050794 0.081067 0.060940
0.050875 0.081799 0.060176
0.054042 0.082331 0.059152
0.065820 0.083550 0.057822
0.080518 0.085029 0.055815
0.098005 0.086654 0.053919
0.116947 0.087882 0.052934
0.138010 0.088996 0.052501
0.161539 0.089401 0.052727
0.188146 0.088556 0.053183
0.217782 0.086363 0.053599
0.250266 0.082084 0.053480
0.285576 0.074873 0.053145
0.323316 0.064831 0.052386
0.362648 0.055189 0.051407
0.402915 0.051227 0.051022
0.443459 0.050824 0.050904
0.484003 0.050794 0.050794
0.524529 0.050794 0.050794
0.564609 0.050794 0.050794
0.603759 0.050794 0.050794
0.641713 0.050794 0.050794
0.678569 0.050794 0.050794
0.715302 0.050794 0.050794
0.752447 0.050794 0.050794
0.787749 0.050794 0.050794
0.820660 0.050794 0.050794
0.851457 0.050794 0.050794
0.880413 0.050794 0.050794
0.908206 0.050794 0.050794
0.934957 0.050794 0.050794
0.960684 0.050794 0.050794
0.050794 0.100642 0.066990
0.050801 0.101091 0.066250
0.051613 0.101343 0.065249
0.061943 0.101617 0.063946
0.079847 0.102122 0.062132
0.100148 0.102801 0.059703
0.121782 0.103464 0.057629
0.145198 0.103992 0.055719
0.170165 0.103842 0.054495
0.197532 0.103165 0.053144
0.227673 0.101579 0.051976
0.260476 0.097911 0.051319
0.295624 0.091380 0.051058
0.332872 0.081693 0.051014
0.371591 0.069033 0.050915
0.411116 0.057580 0.050794
0.451021 0.052254 0.050794
0.490919 0.051007 0.050794
0.530543 0.050794 0.050794
0.569732 0.050794 0.050794
0.608092 0.050794 0.050794
0.645436 0.050794 0.050794
0.682097 0.050794 0.050794
0.718798 0.050794 0.050794
0.755333 0.050794 0.050794
0.790014 0.050794 0.050794
0.822375 0.050794 0.050794
0.852827 0.050794 0.050794
0.881680 0.050794 0.050794
0.908995 0.050794 0.050794
0.935248 0.050908 0.050794
0.960684 0.054149 0.050794
0.050794 0.122132 0.073040
0.050794 0.122170 0.072465
0.050933 0.122394 0.071708
0.054656 0.122675 0.070451
0.073988 0.122896 0.069105
0.101210 0.122861 0.066879
0.127168 0.122659 0.064276
0.152911 0.122473 0.061343
0.179985 0.121981 0.058623
0.208699 0.120957 0.056309
0.239373 0.119107 0.054346
0.272350 0.115991 0.052805
0.307649 0.110936 0.051446
0.344666 0.103458 0.050867
0.382964 0.092822 0.050794
0.422074 0.079060 0.050794
0.461410 0.065180 0.050794
0.500740 0.055768 0.050794
0.539701 0.052040 0.050794
0.578007 0.051025 0.050794
0.615513 0.050794 0.050794
0.652504 0.050794 0.050794
0.689503 0.050794 0.050794
0.726196 0.050794 0.050794
0.761869 0.050794 0.050794
0.795452 0.050794 0.050794
0.826866 0.050794 0.050794
0.856435 0.051096 0.050794
0.884438 0.053531 0.050794
0.911113 0.057825 0.050794
0.936932 0.062701 0.050794
0.961755 0.096057 0.050794
0.050794 0.146812 0.079168
0.050794 0.147057 0.078214
0.050807 0.147124 0.077624
0.051794 0.147568 0.076387
0.063149 0.147793 0.075306
0.095402 0.147828 0.073567
0.131138 0.147662 0.071039
0.161849 0.146658 0.068321
0.191253 0.145225 0.065076
0.221897 0.143654 0.061859
0.254309 0.141584 0.058526
0.288209 0.138545 0.055470
0.323745 0.134120 0.052963
0.360470 0.128138 0.051361
0.398194 0.120110 0.050794
0.436577 0.109593 0.050794
0.474983 0.096314 0.050794
0.513388 0.081263 0.050794
0.551629 0.067564 0.050794
0.589340 0.059091 0.050794
0.626199 0.055933 0.050794
0.664203 0.054708 0.050794
0.705892 0.054322 0.050794
0.744172 0.055176 0.050794
0.778899 0.056822 0.050794
0.811059 0.058548 0.050794
0.840815 0.060454 0.050794
0.868869 0.064745 0.050794
0.895584 0.083828 0.050794
0.921000 0.115595 0.050794
0.945428 0.144499 0.050794
0.969065 0.175635 0.050794
0.050794 0.177234 0.085722
0.050794 0.177486 0.084966
0.050794 0.177738 0.084178
0.050908 0.177990 0.082928
0.054835 0.178249 0.081665
0.081281 0.178510 0.079578
0.126770 0.178503 0.077040
0.169455 0.177905 0.074097
0.205201 0.175879 0.070597
0.238605 0.173317 0.066647
0.272699 0.170760 0.062471
0.308135 0.167646 0.058090
0.344740 0.163651 0.053927
0.381669 0.158506 0.051416
0.418727 0.152170 0.050794
0.456012 0.144535 0.050794
0.493352 0.135517 0.050794
0.530691 0.125009 0.050794
0.567750 0.113815 0.050794
0.604461 0.103004 0.050794
0.640876 0.093544 0.050794
0.677645 0.086699 0.050794
0.715291 0.084868 0.050794
0.751477 0.090299 0.050794
0.785242 0.100508 0.050794
0.816374 0.111549 0.050794
0.845129 0.123883 0.050794
0.872150 0.138118 0.050794
0.897867 0.157217 0.050794
0.922379 0.179629 0.050794
0.946218 0.202590 0.050794
0.969380 0.226003 0.050794
0.050794 0.210438 0.092111
0.050794 0.210690 0.091299
0.050794 0.210942 0.090512
0.050794 0.211199 0.089209
0.051355 0.211533 0.087456
0.062210 0.212006 0.085343
0.109295 0.212231 0.082876
0.163213 0.212136 0.079616
0.210828 0.211536 0.075595
0.251110 0.208870 0.071077
0.288218 0.205827 0.066036
0.324644 0.202320 0.060342
0.361781 0.198314 0.054905
0.399228 0.193847 0.051644
0.436457 0.188723 0.050794
0.473184 0.182913 0.050794
0.509553 0.176546 0.050794
0.545799 0.169653 0.050794
0.581818 0.162840 0.050794
0.617601 0.156315 0.050794
0.653455 0.150925 0.050794
0.689045 0.147884 0.050794
0.724095 0.148835 0.050794
0.758222 0.154770 0.050794
0.790244 0.164495 0.050794
0.820088 0.176574 0.050794
0.847946 0.190680 0.050794
0.874054 0.204146 0.050794
0.898972 0.218570 0.050794
0.923020 0.234116 0.050794
0.946153 0.251179 0.050794
0.968931 0.269558 0.050794
0.050794 0.248186 0.097530
0.050794 0.248438 0.096467
0.050794 0.248690 0.095679
0.050794 0.248960 0.094395
0.050794 0.249407 0.092780
0.054203 0.249911 0.090407
0.083345 0.250380 0.087692
0.144306 0.250698 0.084137
0.203580 0.250748 0.079482
0.255194 0.249612 0.074232
0.300267 0.247146 0.068106
0.340342 0.243657 0.061348
0.378219 0.239505 0.055049
0.415602 0.235052 0.051571
0.452905 0.230314 0.050794
0.489785 0.225403 0.050794
0.526153 0.220369 0.050794
0.561971 0.215348 0.050794
0.597469 0.210938 0.050794
0.632539 0.207401 0.050794
0.667019 0.205061 0.050794
0.700789 0.204606 0.050794
0.733908 0.207024 0.050794
0.765943 0.212504 0.050794
0.796208 0.220261 0.050794
0.824528 0.230469 0.050794
0.851207 0.242714 0.050794
0.876593 0.256104 0.050794
0.900804 0.269764 0.050794
0.923959 0.283279 0.050794
0.946609 0.297281 0.050794
0.968679 0.312600 0.050794
0.050794 0.290378 0.101390
0.050794 0.290630 0.100283
0.050794 0.290882 0.099353
0.050794 0.291134 0.097996
0.050794 0.291418 0.096285
0.051409 0.291922 0.093640
0.062992 0.292440 0.090612
0.113874 0.293017 0.086739
0.184870 0.293487 0.081364
0.247770 0.293390 0.075333
0.302751 0.292304 0.068497
0.351596 0.289870 0.060757
0.393625 0.286069 0.054078
0.431861 0.281516 0.051237
0.469172 0.276836 0.050794
0.506232 0.272368 0.050794
0.543088 0.268156 0.050794
0.579244 0.264334 0.050794
0.614385 0.260942 0.050794
0.648233 0.258336 0.050794
0.680857 0.256725 0.050794
0.712570 0.256906 0.050794
0.743529 0.259227 0.050794
0.773368 0.263780 0.050794
0.801719 0.270284 0.050794
0.828567 0.278492 0.050794
0.854050 0.288693 0.050794
0.878439 0.300548 0.050794
0.901946 0.313807 0.050794
0.924633 0.328183 0.050794
0.946874 0.341010 0.050794
0.968569 0.354626 0.050794
0.050794 0.335531 0.103691
0.050794 0.335781 0.102921
0.050794 0.335962 0.101716
0.050794 0.336287 0.100106
0.050794 0.336561 0.098216
0.050794 0.337009 0.095313
0.052907 0.337627 0.091600
0.078283 0.338401 0.087183
0.155171 0.339216 0.081601
0.231560 0.339822 0.074720
0.295844 0.339802 0.067077
0.354137 0.339412 0.058878
0.406676 0.338550 0.052813
0.450775 0.335356 0.050890
0.489500 0.330789 0.050794
0.526538 0.326249 0.050794
0.562890 0.322012 0.050794
0.598283 0.318213 0.050794
0.632377 0.314971 0.050794
0.665022 0.312448 0.050794
0.696107 0.310894 0.050794
0.725963 0.310878 0.050794
0.754958 0.312691 0.050794
0.782755 0.316144 0.050794
0.809223 0.321285 0.050794
0.834389 0.327768 0.050794
0.858665 0.336082 0.050794
0.882086 0.345897 0.050794
0.904493 0.357318 0.050794
0.926618 0.370463 0.050794
0.948095 0.383827 0.050794
0.969530 0.396944 0.050794
0.050794 0.384411 0.104951
0.050794 0.384658 0.104100
0.050794 0.384762 0.103045
0.050794 0.385080 0.101255
0.050794 0.385332 0.099118
0.050794 0.385635 0.096006
0.050794 0.386246 0.091494
0.061029 0.387077 0.086538
0.118942 0.388238 0.080346
0.207374 0.389496 0.072756
0.284092 0.390391 0.064212
0.350661 0.392203 0.056166
0.413945 0.395376 0.051822
0.468426 0.395237 0.050794
0.512711 0.391743 0.050794
0.550874 0.386903 0.050794
0.586274 0.382016 0.050794
0.620149 0.377643 0.050794
0.652631 0.373898 0.050794
0.683678 0.370921 0.050794
0.713202 0.369110 0.050794
0.741555 0.368661 0.050794
0.768726 0.369450 0.050794
0.794416 0.371627 0.050794
0.819047 0.375272 0.050794
0.842621 0.380060 0.050794
0.865344 0.386358 0.050794
0.887424 0.393954 0.050794
0.908765 0.403045 0.050794
0.929931 0.413775 0.050794
0.950701 0.425837 0.050794
0.971444 0.438568 0.050794
0.050794 0.437000 0.106400
0.050794 0.437155 0.105203
0.050794 0.437300 0.104147
0.050794 0.437314 0.102294
0.050794 0.437456 0.099527
0.050794 0.437544 0.096144
0.050794 0.437854 0.091271
0.053295 0.438525 0.085737
0.084487 0.439678 0.078813
0.176827 0.441120 0.070464
0.267666 0.442615 0.061073
0.341881 0.444568 0.053677
0.408722 0.447087 0.051069
0.469484 0.448172 0.050794
0.522285 0.447142 0.050794
0.565679 0.443753 0.050794
0.601861 0.438801 0.050794
0.634622 0.433780 0.050794
0.665494 0.429234 0.050794
0.694914 0.425507 0.050794
0.722998 0.422916 0.050794
0.750028 0.421588 0.050794
0.776033 0.421454 0.050794
0.800687 0.422501 0.050794
0.824260 0.424674 0.050794
0.846863 0.428054 0.050794
0.868642 0.432562 0.050794
0.889807 0.438464 0.050794
0.910578 0.445640 0.050794
0.931077 0.454389 0.050794
0.951316 0.464375 0.050794
0.971633 0.475749 0.050794
0.050794 0.487999 0.109189
0.050794 0.487995 0.107686
0.050794 0.487890 0.106432
0.050794 0.487774 0.104539
0.050794 0.487544 0.101377
0.050794 0.487249 0.097775
0.050794 0.487309 0.092863
0.050794 0.487543 0.087000
0.065343 0.488214 0.079425
0.137589 0.489393 0.070775
0.240974 0.490984 0.060987
0.326939 0.492662 0.053377
0.396970 0.494080 0.050919
0.460477 0.495195 0.050794
0.518549 0.495824 0.050794
0.569212 0.495029 0.050794
0.610467 0.491781 0.050794
0.644242 0.486808 0.050794
0.673990 0.481574 0.050794
0.701912 0.477066 0.050794
0.728733 0.473598 0.050794
0.754585 0.471265 0.050794
0.779606 0.470197 0.050794
0.803637 0.470170 0.050794
0.826727 0.471124 0.050794
0.848864 0.473336 0.050794
0.870094 0.476446 0.050794
0.890861 0.480762 0.050794
0.911131 0.486506 0.050794
0.931205 0.493473 0.050794
0.951128 0.501690 0.050794
0.971287 0.511245 0.050794
0.050794 0.535468 0.115129
0.050794 0.535460 0.113833
0.050794 0.535208 0.112205
0.050794 0.534932 0.110402
0.050794 0.534428 0.107108
0.050794 0.533964 0.103478
0.050794 0.533737 0.098615
0.050794 0.533704 0.092909
0.054699 0.534025 0.085139
0.097601 0.534798 0.076466
0.209321 0.536275 0.066509
0.308764 0.537800 0.057124
0.384345 0.538991 0.052192
0.450166 0.539865 0.050922
0.509916 0.540518 0.050794
0.564526 0.540914 0.050794
0.612132 0.540129 0.050794
0.650670 0.537010 0.050794
0.681568 0.531963 0.050794
0.708591 0.526880 0.050794
0.734183 0.522746 0.050794
0.758943 0.519576 0.050794
0.782924 0.517502 0.050794
0.806206 0.516411 0.050794
0.828637 0.516426 0.050794
0.850361 0.517514 0.050794
0.871409 0.519438 0.050794
0.891810 0.522567 0.050794
0.911872 0.526796 0.050794
0.931694 0.532172 0.050794
0.951494 0.538857 0.050794
0.971539 0.546819 0.050794
0.050794 0.579204 0.125558
0.050794 0.579200 0.124530
0.050794 0.579062 0.122896
0.050794 0.578798 0.121264
0.050794 0.578415 0.118413
0.050794 0.578053 0.114938
0.050794 0.577801 0.110345
0.050794 0.577633 0.105105
0.050794 0.577763 0.098061
0.078656 0.578142 0.089895
0.183191 0.579200 0.080123
0.290010 0.580215 0.069412
0.371924 0.580930 0.060137
0.439924 0.581413 0.054466
0.500451 0.581563 0.051636
0.555675 0.581632 0.050794
0.606022 0.581823 0.050794
0.650035 0.581237 0.050794
0.685754 0.578296 0.050794
0.714344 0.573667 0.050794
0.739346 0.569149 0.050794
0.763146 0.565368 0.050794
0.786207 0.562541 0.050794
0.808670 0.560665 0.050794
0.830515 0.559795 0.050794
0.851611 0.559965 0.050794
0.872337 0.560870 0.050794
0.892583 0.562958 0.050794
0.912536 0.565905 0.050794
0.932223 0.569978 0.050794
0.951885 0.575217 0.050794
0.971673 0.581638 0.050794
0.050794 0.619158 0.141061
0.050794 0.619211 0.140220
0.050794 0.620797 0.140415
0.050794 0.620768 0.138844
0.050794 0.620403 0.136579
0.050794 0.620130 0.133336
0.050794 0.619772 0.129451
0.050794 0.619547 0.124800
0.050794 0.619384 0.119057
0.072948 0.619337 0.112228
0.164017 0.619873 0.104131
0.274633 0.620413 0.094827
0.362564 0.620738 0.083909
0.432427 0.620830 0.073229
0.493336 0.620590 0.064553
0.548125 0.620147 0.058803
0.598081 0.619882 0.054575
0.643891 0.620143 0.051647
0.684311 0.619682 0.050794
0.717543 0.617041 0.050794
0.744416 0.613092 0.050794
0.767842 0.609100 0.050794
0.789992 0.605703 0.050794
0.811544 0.603177 0.050794
0.832674 0.601461 0.050794
0.853120 0.600720 0.050794
0.873301 0.600715 0.050794
0.893246 0.601673 0.050794
0.912825 0.603676 0.050794
0.932475 0.606602 0.050794
0.952137 0.610671 0.050794
0.971799 0.615542 0.050794
0.050794 0.656268 0.162039
0.050794 0.656526 0.161516
0.050794 0.660262 0.163727
0.050794 0.660456 0.162556
0.050794 0.660105 0.160603
0.050794 0.659813 0.158070
0.050794 0.659330 0.154993
0.050794 0.658940 0.150904
0.050794 0.658521 0.146277
0.068881 0.658152 0.140805
0.150710 0.658207 0.135069
0.264971 0.658395 0.128626
0.357428 0.658414 0.120184
0.428232 0.658174 0.109990
0.488973 0.657673 0.098906
0.543055 0.656977 0.087255
0.591978 0.656278 0.075537
0.636875 0.655951 0.065913
0.678279 0.655994 0.059490
0.715344 0.655364 0.054565
0.746546 0.653352 0.051506
0.772115 0.650286 0.050794
0.794202 0.646721 0.050794
0.814830 0.643579 0.050794
0.835114 0.641126 0.050794
0.854887 0.639512 0.050794
0.874412 0.638704 0.050794
0.893699 0.638558 0.050794
0.912967 0.639612 0.050794
0.932342 0.641634 0.050794
0.951987 0.644556 0.050794
0.971783 0.648399 0.050794
0.050794 0.690472 0.187294
0.050794 0.690927 0.186842
0.050794 0.693001 0.187894
0.050794 0.693219 0.187217
0.050794 0.693114 0.185841
0.050794 0.692946 0.183993
0.050794 0.692442 0.181318
0.050794 0.691905 0.177921
0.050794 0.691292 0.174148
0.067230 0.690858 0.169827
0.144509 0.690685 0.165522
0.258201 0.690635 0.161036
0.351766 0.690449 0.155419
0.422754 0.690094 0.148423
0.483121 0.689480 0.140106
0.536576 0.688792 0.129833
0.584808 0.688182 0.117993
0.628889 0.687629 0.105512
0.669555 0.687326 0.092197
0.707322 0.687179 0.078885
0.741702 0.686911 0.069100
0.771610 0.685934 0.063125
0.796314 0.683630 0.057243
0.817328 0.680499 0.052001
0.836986 0.677570 0.050794
0.856067 0.675347 0.050794
0.875071 0.673904 0.050794
0.893870 0.673029 0.050794
0.912722 0.673335 0.050794
0.931852 0.674579 0.050794
0.951346 0.676614 0.050794
0.971247 0.679672 0.050794
0.050794 0.720548 0.213612
0.050794 0.720903 0.213423
0.050794 0.721391 0.213392
0.050794 0.721634 0.212855
0.050794 0.721750 0.211957
0.050794 0.721541 0.210572
0.050794 0.721037 0.208140
0.050794 0.720511 0.205335
0.050794 0.719895 0.202164
0.071907 0.719351 0.198775
0.157528 0.719178 0.195236
0.261237 0.719091 0.191644
0.348026 0.718781 0.187639
0.418048 0.718397 0.183085
0.477645 0.717870 0.177775
0.530271 0.717232 0.171370
0.577751 0.716728 0.163702
0.621239 0.716306 0.154481
0.661412 0.716011 0.143362
0.698741 0.715942 0.130948
0.733662 0.716182 0.118819
0.766019 0.716542 0.106209
0.794669 0.716333 0.090961
0.818601 0.714511 0.076748
0.838847 0.711771 0.069107
0.857558 0.709249 0.059407
0.876011 0.707315 0.051856
0.894501 0.706049 0.050794
0.913136 0.705854 0.050794
0.931966 0.706483 0.050794
0.951341 0.707746 0.050794
0.971090 0.710024 0.050794
0.050794 0.748308 0.242034
0.050794 0.748563 0.242034
0.050794 0.748899 0.242002
0.050794 0.749136 0.241475
0.050794 0.749183 0.240687
0.050794 0.748891 0.239507
0.050794 0.748387 0.237384
0.050794 0.747847 0.235078
0.055673 0.747240 0.232379
0.096229 0.746859 0.229700
0.190229 0.746635 0.226921
0.277720 0.746441 0.223720
0.351571 0.746095 0.220475
0.417673 0.745627 0.217295
0.475559 0.745134 0.213685
0.526808 0.744582 0.209427
0.573214 0.744159 0.204426
0.615811 0.743865 0.198721
0.655285 0.743705 0.192403
0.692067 0.743818 0.185099
0.726529 0.744070 0.176682
0.759017 0.744546 0.166873
0.789521 0.745302 0.154816
0.817011 0.745553 0.141587
0.840224 0.744333 0.126611
0.859816 0.742006 0.101556
0.877973 0.739895 0.078624
0.896035 0.738379 0.067667
0.914474 0.737696 0.055307
0.933113 0.737804 0.051007
0.952475 0.738456 0.050794
0.972130 0.740116 0.050794
0.050794 0.775289 0.273930
0.050794 0.775535 0.273759
0.050794 0.775606 0.273567
0.050794 0.775509 0.273040
0.050794 0.775328 0.272209
0.050794 0.775036 0.270782
0.050794 0.774532 0.268936
0.054791 0.774010 0.267054
0.085320 0.773508 0.265046
0.158100 0.773304 0.263012
0.239487 0.773116 0.260785
0.305221 0.772752 0.258068
0.364025 0.772405 0.255151
0.422502 0.771901 0.252585
0.477184 0.771397 0.249962
0.526344 0.770973 0.247003
0.571067 0.770595 0.243486
0.612292 0.770263 0.239455
0.650701 0.770056 0.235125
0.686585 0.770035 0.230492
0.720291 0.770223 0.225305
0.752035 0.770529 0.219647
0.782191 0.770974 0.212895
0.810789 0.771715 0.204623
0.837202 0.772321 0.193650
0.859955 0.771401 0.177361
0.879156 0.769514 0.155007
0.897016 0.767779 0.128549
0.915184 0.766758 0.092806
0.933643 0.766361 0.076648
0.952835 0.766812 0.067929
0.972484 0.767797 0.053937
0.050794 0.799929 0.306432
0.050794 0.800000 0.306353
0.050794 0.799995 0.306085
0.050794 0.799905 0.305558
0.050794 0.799631 0.304729
0.052862 0.799217 0.303384
0.066234 0.798858 0.301944
0.090589 0.798393 0.300358
0.155669 0.798086 0.298773
0.227846 0.797854 0.297116
0.287043 0.797574 0.295088
0.336295 0.797095 0.292565
0.382601 0.796703 0.289952
0.431244 0.796305 0.287534
0.480789 0.795801 0.285390
0.527400 0.795331 0.283288
0.570172 0.794953 0.280852
0.609852 0.794667 0.277989
0.647006 0.794415 0.274882
0.681776 0.794312 0.271531
0.714604 0.794470 0.267897
0.745632 0.794722 0.264015
0.775161 0.794974 0.259427
0.803262 0.795331 0.253831
0.830012 0.795840 0.247062
0.855870 0.796626 0.240014
0.878374 0.796165 0.230442
0.897268 0.794557 0.211346
0.915287 0.793454 0.183828
0.933648 0.792740 0.159845
0.952759 0.792835 0.133043
0.972405 0.793399 0.091827
0.050794 0.823081 0.340328
0.050969 0.823081 0.340502
0.056790 0.823081 0.340246
0.065645 0.823057 0.339887
0.073219 0.822774 0.339068
0.086356 0.822309 0.337837
0.133603 0.822045 0.336751
0.184589 0.821701 0.335490
0.239178 0.821308 0.333837
0.287634 0.821004 0.332202
0.329866 0.820544 0.330131
0.368484 0.820040 0.327797
0.405340 0.819560 0.325323
0.444067 0.819019 0.322793
0.486943 0.818410 0.320745
0.530061 0.817905 0.318950
0.570507 0.817434 0.316995
0.608356 0.817094 0.314744
0.644044 0.816842 0.312451
0.677668 0.816851 0.310051
0.709501 0.816961 0.307522
0.739732 0.817149 0.304827
0.768682 0.817401 0.301655
0.796210 0.817653 0.297715
0.822648 0.817905 0.293159
0.848673 0.818704 0.288189
0.874004 0.820045 0.283496
0.896361 0.819727 0.277795
0.915569 0.818600 0.264634
0.934011 0.817803 0.246612
0.952946 0.817580 0.224847
0.972405 0.818063 0.197487
0.081421 0.843940 0.374107
0.083749 0.844129 0.374343
0.104634 0.844129 0.374116
0.137676 0.844124 0.374207
0.167206 0.844036 0.373778
0.195998 0.843766 0.372916
0.233133 0.843672 0.372067
0.270497 0.843408 0.370978
0.305294 0.843113 0.369667
0.338360 0.842790 0.368348
0.370554 0.842347 0.366509
0.401817 0.842038 0.364631
0.432257 0.841656 0.362563
0.463412 0.841129 0.360148
0.498409 0.840592 0.357990
0.536568 0.840088 0.356317
0.574250 0.839584 0.354719
0.609868 0.839214 0.353062
0.643723 0.838962 0.351301
0.675810 0.838893 0.349562
0.706456 0.839036 0.347757
0.735688 0.839269 0.345841
0.763708 0.839521 0.343693
0.790605 0.839773 0.341046
0.816620 0.840025 0.338051
0.842052 0.840366 0.334555
0.867261 0.841281 0.330871
0.892527 0.843042 0.327672
0.915012 0.843030 0.324992
0.934643 0.842318 0.316545
0.953761 0.842034 0.303904
0.973162 0.842325 0.289369
0.213833 0.864697 0.410784
0.221726 0.864745 0.411217
0.234141 0.864745 0.410971
0.251326 0.864745 0.410789
0.270330 0.864713 0.410321
0.290492 0.864469 0.409737
0.312267 0.864294 0.408933
0.335451 0.864201 0.407958
0.359607 0.863949 0.407015
0.384531 0.863683 0.405762
0.409907 0.863398 0.404404
0.435602 0.863145 0.402977
0.461177 0.862875 0.401226
0.486757 0.862574 0.399059
0.514594 0.862184 0.396983
0.546955 0.861680 0.395432
0.581063 0.861278 0.394123
0.614153 0.861003 0.392813
0.645869 0.860751 0.391591
0.676207 0.860648 0.390466
0.705489 0.860806 0.389456
0.733611 0.861058 0.388238
0.760589 0.861170 0.386707
0.786674 0.861511 0.384880
0.811965 0.861814 0.382780
0.836832 0.862066 0.380382
0.861264 0.862398 0.377549
0.885774 0.863378 0.374499
0.911226 0.865294 0.372692
0.933838 0.865352 0.372591
0.954336 0.865298 0.368630
0.973973 0.865343 0.359738
0.315357 0.884801 0.449368
0.321671 0.884801 0.449439
0.327757 0.884801 0.449200
0.336218 0.884801 0.449136
0.347299 0.884795 0.448816
0.360315 0.884755 0.448339
0.375575 0.884722 0.447998
0.392637 0.884713 0.447633
0.411330 0.884725 0.447279
0.431228 0.884836 0.446864
0.451963 0.884796 0.446384
0.473218 0.884828 0.445671
0.494750 0.884919 0.444762
0.516352 0.884793 0.443442
0.538855 0.884523 0.441725
0.564397 0.884230 0.440309
0.593568 0.883958 0.439260
0.623649 0.883818 0.438422
0.652866 0.883658 0.437727
0.681220 0.883681 0.437141
0.708628 0.883786 0.436581
0.735124 0.883965 0.435844
0.760784 0.884190 0.434979
0.785804 0.884308 0.433767
0.810261 0.884517 0.432395
0.834386 0.884769 0.430816
0.858217 0.885021 0.428600
0.881994 0.885342 0.426394
0.906055 0.886109 0.424357
0.931019 0.887528 0.423276
0.954342 0.888413 0.426005
0.975753 0.888850 0.426476
0.394053 0.905778 0.492442
0.397667 0.905778 0.492434
0.401730 0.905764 0.492197
0.407251 0.905565 0.492133
0.414453 0.905565 0.491465
0.423293 0.905531 0.490966
0.434008 0.905353 0.490494
0.446399 0.905305 0.490022
0.460023 0.905148 0.489441
0.475103 0.905172 0.488654
0.491291 0.905172 0.488103
0.508226 0.905107 0.487293
0.525800 0.904990 0.486235
0.543662 0.904888 0.484719
0.561806 0.904636 0.482749
0.581886 0.904384 0.481019
0.605854 0.904132 0.480011
0.632547 0.904014 0.479707
