gsg/02_Everyday/GSG_LUT_Everyday_SimpleMilky.cube
# GSG LUTs 1.0
# Copyright (c) 2016-2020 Greyscalegorilla
# See EULA for licensing and distribution information
# Converted by Briz LUT Converter
LUT_3D_SIZE 8
DOMAIN_MIN 0.000000 0.000000 0.000000
DOMAIN_MAX 0.903226 0.903226 0.903226
0.127961 0.122589 0.088400
0.164339 0.126992 0.087361
0.239096 0.137020 0.083808
0.377660 0.148308 0.071369
0.574154 0.146244 0.050794
0.748088 0.152097 0.050794
0.874899 0.197668 0.050794
0.975580 0.272693 0.050794
0.125810 0.158297 0.094088
0.155267 0.163172 0.093387
0.240501 0.177866 0.081939
0.382488 0.193518 0.065299
0.577060 0.203113 0.050794
0.746984 0.214501 0.050794
0.871541 0.248813 0.050794
0.972344 0.310273 0.050794
0.072354 0.243468 0.107306
0.113349 0.247091 0.106788
0.210046 0.263072 0.098864
0.379222 0.301162 0.056680
0.582672 0.312342 0.050794
0.746809 0.323720 0.050794
0.869997 0.348012 0.050794
0.969737 0.392746 0.050794
0.050794 0.392816 0.143795
0.050794 0.396073 0.137256
0.104018 0.406063 0.143484
0.331577 0.431237 0.125117
0.562619 0.470433 0.063295
0.736184 0.472291 0.050794
0.859327 0.470854 0.050794
0.958256 0.499771 0.050794
0.050794 0.553043 0.229115
0.050794 0.555816 0.220032
0.050794 0.559013 0.233085
0.279981 0.569053 0.238659
0.499233 0.581700 0.228009
0.691760 0.606568 0.200008
0.830068 0.613114 0.142239
0.939145 0.622774 0.084993
0.050794 0.674245 0.353956
0.050794 0.676159 0.347654
0.060246 0.676893 0.358099
0.312667 0.680007 0.376927
0.490828 0.686452 0.377885
0.643654 0.694600 0.375799
0.790817 0.720014 0.374534
0.904557 0.744875 0.356489
0.152491 0.776037 0.486935
0.183398 0.777234 0.484076
0.309980 0.778053 0.492166
0.429285 0.779516 0.506073
0.542701 0.782709 0.517778
0.656868 0.789618 0.518343
0.764434 0.798551 0.519399
0.870152 0.826091 0.527177
0.421584 0.881744 0.609760
0.439054 0.882043 0.610501
0.486631 0.882808 0.616281
0.554715 0.884313 0.626485
0.628491 0.885123 0.637991
0.710509 0.890653 0.643223
0.791552 0.898431 0.646422
0.866290 0.907525 0.650042
0.130553 0.127693 0.128308
0.163149 0.130663 0.130707
0.238302 0.135702 0.129623
0.371557 0.147037 0.133984
0.566520 0.145396 0.127314
0.741348 0.156538 0.107353
0.867179 0.208902 0.084897
0.968934 0.285171 0.059990
0.129902 0.164521 0.136714
0.161803 0.169936 0.139221
0.239848 0.179923 0.140669
0.380433 0.193552 0.137576
0.573044 0.201385 0.124780
0.741996 0.217460 0.104238
0.865356 0.257454 0.082291
0.966347 0.320851 0.060007
0.081282 0.252811 0.166924
0.135841 0.258865 0.168205
0.220334 0.271637 0.163633
0.388504 0.298528 0.141998
0.583526 0.309207 0.117905
0.743477 0.324820 0.098428
0.864092 0.352052 0.080256
0.963562 0.399286 0.062059
0.050794 0.399155 0.224977
0.050839 0.404095 0.221115
0.125641 0.412914 0.212439
0.340934 0.433556 0.206190
0.563065 0.466920 0.172047
0.732137 0.466118 0.124947
0.853524 0.470782 0.109162
0.953008 0.503158 0.109674
0.050794 0.555153 0.311961
0.050794 0.557640 0.298701
0.052444 0.561653 0.288685
0.301914 0.569359 0.299880
0.504901 0.581506 0.292621
0.690946 0.605519 0.274963
0.827747 0.612125 0.241445
0.935797 0.622265 0.213878
0.050875 0.672533 0.410570
0.052371 0.674020 0.402276
0.099967 0.676195 0.396011
0.341072 0.679289 0.414191
0.500963 0.685421 0.418197
0.646179 0.693983 0.416581
0.789157 0.719393 0.415176
0.902344 0.744693 0.399452
0.259135 0.774548 0.520212
0.272434 0.775249 0.515228
0.334063 0.776775 0.513172
0.443859 0.778458 0.526145
0.551027 0.781812 0.539456
0.660281 0.789081 0.540277
0.764668 0.798129 0.540740
0.869277 0.826170 0.547211
0.446251 0.880260 0.627417
0.452570 0.881243 0.624100
0.491591 0.882108 0.626603
0.558513 0.883699 0.636284
0.633714 0.886110 0.649759
0.712767 0.891163 0.655439
0.792116 0.898449 0.657626
0.866279 0.907538 0.660575
0.100768 0.135366 0.237977
0.144735 0.137635 0.242963
0.233608 0.142299 0.254279
0.376498 0.133830 0.256732
0.569552 0.118640 0.259401
0.735097 0.191767 0.280741
0.856054 0.276004 0.299271
0.957450 0.346541 0.304299
0.091378 0.177180 0.251014
0.137445 0.179552 0.257154
0.232820 0.187372 0.266564
0.381563 0.189744 0.269206
0.571339 0.203274 0.275599
0.732639 0.258591 0.295532
0.854311 0.312956 0.302943
0.955450 0.374312 0.306693
0.051600 0.263233 0.278012
0.088817 0.269296 0.281593
0.223039 0.284835 0.290161
0.390331 0.302679 0.296893
0.578747 0.327378 0.303951
0.734214 0.353918 0.307535
0.852858 0.389621 0.311177
0.952032 0.438538 0.316245
0.050794 0.411222 0.329991
0.050794 0.417135 0.333335
0.179428 0.430210 0.341673
0.369732 0.446940 0.344299
0.575759 0.467661 0.329426
0.729944 0.472051 0.320954
0.846741 0.492592 0.327079
0.944877 0.527862 0.334585
0.050794 0.562052 0.403467
0.050794 0.564289 0.407143
0.204923 0.569991 0.416785
0.360555 0.577684 0.414258
0.526435 0.588487 0.414246
0.694344 0.609237 0.403047
0.826028 0.615579 0.383215
0.929887 0.629525 0.374706
0.086987 0.674292 0.490280
0.199656 0.675610 0.495956
0.318151 0.678677 0.497479
0.402206 0.683011 0.490274
0.529198 0.687917 0.500852
0.656435 0.697118 0.499429
0.789378 0.722193 0.497137
0.900069 0.747188 0.483474
0.387149 0.774383 0.587407
0.403087 0.775052 0.585805
0.422694 0.777435 0.576175
0.479464 0.780570 0.572842
0.573609 0.783520 0.586500
0.671227 0.790567 0.588692
0.768559 0.800238 0.588572
0.870301 0.829699 0.593303
0.501623 0.879664 0.669602
0.506318 0.880437 0.666387
0.518718 0.882604 0.658860
0.569186 0.884962 0.661302
0.642341 0.887394 0.673458
0.717296 0.892137 0.682048
0.794089 0.899758 0.683702
0.866912 0.908919 0.685989
0.050794 0.145984 0.419670
0.051547 0.148816 0.424605
0.173514 0.154100 0.435140
0.357708 0.154990 0.451471
0.559052 0.125162 0.450260
0.731058 0.141206 0.432574
0.847044 0.282817 0.447187
0.934450 0.423023 0.496024
0.050794 0.190870 0.431277
0.051034 0.193452 0.435601
0.171387 0.201413 0.444542
0.361403 0.209827 0.459243
0.562861 0.202281 0.458617
0.728658 0.231889 0.444156
0.841348 0.341250 0.463498
0.929779 0.455390 0.507791
0.050794 0.280395 0.444178
0.050794 0.285633 0.448194
0.158231 0.298675 0.460107
0.368162 0.317099 0.474883
0.567282 0.329014 0.476944
0.719814 0.369756 0.474347
0.829236 0.447057 0.500688
0.925645 0.507997 0.520009
0.050794 0.413788 0.476902
0.050794 0.419026 0.478856
0.128168 0.432644 0.484155
0.378648 0.456743 0.495610
0.565341 0.478156 0.505603
0.706456 0.507326 0.514021
0.822206 0.538186 0.522075
0.923044 0.570689 0.525426
0.050794 0.565191 0.516038
0.050794 0.568199 0.518079
0.150964 0.575696 0.524193
0.406991 0.586764 0.535667
0.555618 0.597915 0.543070
0.697751 0.612623 0.536385
0.818230 0.623583 0.531103
0.917454 0.649355 0.534641
0.067001 0.678906 0.564180
0.137958 0.680107 0.567465
0.327005 0.682588 0.574994
0.477953 0.686645 0.588112
0.569126 0.693012 0.590375
0.671053 0.701887 0.592235
0.791601 0.726072 0.588302
0.899092 0.748779 0.576650
0.354424 0.776730 0.630076
0.392765 0.777250 0.633107
0.468439 0.778566 0.640716
0.546116 0.782000 0.646114
0.600932 0.787284 0.641739
0.685535 0.793466 0.649370
0.774115 0.803490 0.648303
0.872556 0.833890 0.649462
0.519947 0.880247 0.712015
0.540305 0.880536 0.714341
0.575358 0.881942 0.716222
0.597996 0.885962 0.706574
0.650558 0.889708 0.706894
0.722630 0.893774 0.719143
0.796129 0.901418 0.720777
0.867843 0.910634 0.722090
0.050794 0.165174 0.587089
0.050794 0.168664 0.589767
0.055561 0.176408 0.594989
0.300098 0.185920 0.604370
0.518283 0.193114 0.616801
0.705830 0.198793 0.614606
0.835555 0.263378 0.591663
0.930883 0.393145 0.601117
0.050794 0.210902 0.591413
0.050794 0.214601 0.593565
0.058731 0.222858 0.598368
0.309359 0.235629 0.607157
0.522070 0.251352 0.619161
0.704080 0.265966 0.617514
0.831651 0.320300 0.597574
0.926306 0.430956 0.609018
0.050794 0.301429 0.596046
0.050794 0.306549 0.598976
0.067532 0.317957 0.604953
0.330867 0.336130 0.613340
0.530523 0.361191 0.624412
0.698982 0.382345 0.624628
0.822963 0.423974 0.611816
0.916872 0.506073 0.627116
0.050794 0.418465 0.605048
0.050794 0.423962 0.605972
0.099263 0.438765 0.609249
0.368466 0.465971 0.620099
0.542886 0.491103 0.631844
0.691445 0.510171 0.635990
0.811206 0.539739 0.633527
0.906343 0.595387 0.651203
0.050794 0.551934 0.623896
0.050794 0.555419 0.624717
0.186294 0.564453 0.627349
0.404651 0.579395 0.632491
0.558613 0.599637 0.640865
0.690498 0.618516 0.650860
0.803669 0.643123 0.657332
0.902765 0.671808 0.662797
0.050794 0.673213 0.649050
0.091531 0.675487 0.650662
0.294924 0.681068 0.654584
0.447483 0.687750 0.658446
0.583140 0.697250 0.666114
0.689208 0.708636 0.674045
0.798284 0.727088 0.670004
0.900053 0.746551 0.664657
0.264384 0.780185 0.687067
0.314495 0.780737 0.687876
0.404444 0.782021 0.689878
0.516982 0.784883 0.695831
0.630361 0.790103 0.707277
0.701594 0.797991 0.709545
0.781307 0.808068 0.710869
0.877130 0.837755 0.709033
0.428334 0.883375 0.741081
0.456426 0.883553 0.742536
0.518281 0.884362 0.746769
0.604829 0.886592 0.756209
0.673995 0.891018 0.759236
0.727460 0.896624 0.758710
0.798107 0.903461 0.765596
0.869392 0.912822 0.766002
0.050794 0.198314 0.706708
0.050794 0.202442 0.707814
0.050794 0.211967 0.710237
0.249284 0.226952 0.715241
0.475293 0.248659 0.722019
0.659995 0.287146 0.730015
0.807762 0.330207 0.731307
0.915759 0.401148 0.724692
0.050794 0.242411 0.707234
0.050794 0.246146 0.708254
0.050794 0.255397 0.710602
0.269813 0.270937 0.715224
0.483425 0.294810 0.721841
0.661261 0.334114 0.729920
0.804706 0.373275 0.731825
0.912216 0.432336 0.726229
0.050794 0.330519 0.709014
0.050794 0.335535 0.710204
0.058934 0.345806 0.712589
0.314968 0.363415 0.716927
0.503475 0.389315 0.723107
0.665169 0.426298 0.731418
0.799203 0.456653 0.734783
0.906471 0.498261 0.732063
0.050794 0.436835 0.708234
0.050794 0.443003 0.709228
0.145358 0.458843 0.712602
0.376173 0.482461 0.719018
0.531806 0.504491 0.725798
0.671265 0.532291 0.734771
0.794688 0.553374 0.741064
0.901348 0.578199 0.740104
0.050794 0.552011 0.714842
0.051532 0.555828 0.715294
0.236089 0.565385 0.716547
0.409660 0.580668 0.719562
0.554179 0.602577 0.727937
0.678061 0.624081 0.739011
0.794652 0.639836 0.747766
0.898486 0.661244 0.748529
0.098573 0.661501 0.728601
0.201006 0.663965 0.729583
0.328641 0.669019 0.731076
0.452970 0.677449 0.733593
0.572012 0.689382 0.737710
0.687176 0.707751 0.746355
0.797389 0.728271 0.757700
0.894159 0.755493 0.764770
0.267398 0.772375 0.757640
0.309419 0.773539 0.758161
0.388728 0.776414 0.759075
0.485774 0.783299 0.762084
0.592344 0.790977 0.764321
0.704915 0.802058 0.771681
0.792260 0.815146 0.779362
0.885714 0.839015 0.775476
0.340552 0.887260 0.800518
0.371475 0.887707 0.800384
0.436643 0.888781 0.800229
0.527096 0.890687 0.800147
0.634033 0.893628 0.803307
0.740387 0.899066 0.814589
0.803035 0.906803 0.818121
0.872593 0.916108 0.819534
0.050794 0.252093 0.810981
0.050794 0.256662 0.811910
0.050794 0.266651 0.812872
0.271275 0.284344 0.815304
0.481642 0.311410 0.818556
0.649069 0.353764 0.823065
0.786887 0.412027 0.828431
0.893257 0.457691 0.830120
0.050794 0.291628 0.809412
0.050794 0.295508 0.810130
0.051354 0.304877 0.811105
0.294546 0.321940 0.813524
0.490409 0.348401 0.816796
0.650981 0.388057 0.821224
0.784812 0.440277 0.826940
0.889671 0.480158 0.828952
0.050794 0.375372 0.809751
0.050794 0.379047 0.810190
0.097839 0.387833 0.811183
0.346895 0.404643 0.813528
0.514681 0.428541 0.816669
0.660101 0.461771 0.821345
0.785280 0.503813 0.828053
0.886965 0.534889 0.832089
0.050794 0.472231 0.808384
0.051344 0.477129 0.808703
0.237038 0.491323 0.810599
0.404861 0.508086 0.813763
0.543540 0.526452 0.817613
0.672145 0.550928 0.823180
0.786781 0.581327 0.830853
0.884700 0.602168 0.837038
0.050794 0.570581 0.806501
0.090034 0.573553 0.806788
0.279841 0.581347 0.808398
0.424849 0.594143 0.812056
0.560069 0.612891 0.817690
0.677905 0.630635 0.824224
0.786106 0.653697 0.833277
0.883922 0.671522 0.842490
0.175969 0.670929 0.814857
0.240938 0.672669 0.815183
0.339859 0.676511 0.815679
0.450313 0.682644 0.816560
0.561891 0.690875 0.818296
0.679572 0.708286 0.827074
0.787214 0.730903 0.839011
0.885966 0.748384 0.849557
0.307056 0.768154 0.829620
0.339204 0.769236 0.829890
0.404216 0.771776 0.830606
0.490925 0.776328 0.831948
0.586845 0.783141 0.834009
0.686555 0.793807 0.837675
0.787763 0.813071 0.846141
0.887493 0.838175 0.858070
0.347484 0.878723 0.864045
0.372969 0.879684 0.864406
0.428982 0.881942 0.864880
0.507185 0.885833 0.865577
0.594107 0.893562 0.867809
0.692945 0.901191 0.867632
0.804274 0.910636 0.874164
0.880717 0.921401 0.881355
0.050794 0.339895 0.913025
0.053078 0.344097 0.913317
0.194982 0.354349 0.913370
0.395925 0.372848 0.914018
0.551667 0.400105 0.914949
0.688011 0.437550 0.916231
0.804125 0.484146 0.918314
0.895767 0.536706 0.921248
0.050879 0.373483 0.911636
0.059602 0.377353 0.911876
0.236916 0.386778 0.912130
0.410438 0.403680 0.912754
0.557808 0.428432 0.913550
0.689601 0.461928 0.914881
0.803294 0.504048 0.917202
0.893906 0.551937 0.920251
0.062334 0.443687 0.910254
0.148839 0.447272 0.910537
0.301983 0.455160 0.910806
0.441600 0.469481 0.911857
0.572892 0.489017 0.912711
0.695246 0.515111 0.914225
0.803389 0.549072 0.916885
0.891499 0.588375 0.920658
0.151012 0.525051 0.908837
0.238376 0.530111 0.909175
0.351837 0.538733 0.909613
0.469041 0.549454 0.910842
0.587673 0.564083 0.912338
0.701109 0.582968 0.914398
0.803262 0.607891 0.917784
0.888846 0.639077 0.922201
0.170305 0.606365 0.907530
0.238254 0.608280 0.908150
0.339373 0.611665 0.908944
0.464849 0.621768 0.910406
0.587266 0.635060 0.912269
0.698509 0.649040 0.914903
0.799615 0.669236 0.918954
0.885602 0.697039 0.924736
0.239958 0.698256 0.908749
0.280987 0.698711 0.908737
0.358172 0.699621 0.908683
0.455891 0.701356 0.909394
0.564625 0.704818 0.912229
0.687429 0.719262 0.916811
0.794281 0.739223 0.922510
0.882976 0.766237 0.929437
0.315610 0.793585 0.917620
0.343339 0.793886 0.917815
0.402264 0.794675 0.917831
0.483845 0.796249 0.918235
0.576468 0.798234 0.918779
0.674579 0.801536 0.919839
0.783333 0.816315 0.925424
0.878981 0.842053 0.933086
0.387181 0.885631 0.929291
0.407183 0.885928 0.929293
0.452620 0.886996 0.929541
0.520169 0.889123 0.930133
0.600831 0.892403 0.930938
0.689596 0.897771 0.932038
0.785562 0.906751 0.933800
0.883849 0.922852 0.938570
