gsg/02_Everyday/GSG_LUT_Everyday_Shaken_Not_Stirred.cube
# GSG LUTs 1.0
# Copyright (c) 2016-2020 Greyscalegorilla
# See EULA for licensing and distribution information
# Converted by Briz LUT Converter
LUT_3D_SIZE 32
0.048352 0.052503 0.038339
0.057671 0.056544 0.041876
0.066919 0.060814 0.045658
0.078814 0.064871 0.049462
0.091449 0.069124 0.053433
0.106188 0.073118 0.056922
0.121943 0.076852 0.060199
0.139612 0.080326 0.063311
0.158707 0.083477 0.065832
0.179621 0.086179 0.068140
0.202198 0.088542 0.069904
0.226594 0.090386 0.071322
0.253094 0.091804 0.072078
0.281807 0.092552 0.072220
0.313175 0.092552 0.071464
0.347166 0.091725 0.069881
0.384095 0.089960 0.067360
0.416866 0.091276 0.068053
0.445429 0.095451 0.071866
0.474410 0.099886 0.076049
0.504061 0.104581 0.080334
0.534468 0.109370 0.084785
0.565568 0.114333 0.089495
0.595919 0.120280 0.095191
0.625161 0.127339 0.101997
0.653362 0.135240 0.109843
0.680113 0.144740 0.119138
0.706369 0.154571 0.128930
0.732364 0.165505 0.139643
0.758328 0.176596 0.150711
0.783583 0.188869 0.162984
0.808791 0.201221 0.175336
0.057671 0.067384 0.046658
0.066761 0.071409 0.050187
0.076205 0.075450 0.053707
0.087556 0.079712 0.057197
0.099449 0.083745 0.060465
0.113661 0.087779 0.063686
0.128895 0.091726 0.066601
0.146046 0.095264 0.069052
0.164626 0.098738 0.071249
0.185094 0.101883 0.073114
0.207410 0.104670 0.074534
0.231546 0.107110 0.075523
0.257880 0.108893 0.075917
0.286486 0.110153 0.075535
0.317712 0.110559 0.074147
0.351334 0.110358 0.072153
0.387352 0.109505 0.069629
0.419643 0.111328 0.070456
0.448493 0.115763 0.074383
0.477834 0.120459 0.078574
0.507592 0.125409 0.083020
0.538175 0.130456 0.087728
0.569536 0.135679 0.092520
0.600142 0.141711 0.098584
0.629257 0.149157 0.105915
0.657593 0.157571 0.114283
0.684609 0.167173 0.123894
0.711133 0.177225 0.134372
0.737610 0.188412 0.145636
0.763858 0.199763 0.157003
0.789609 0.212296 0.170010
0.815101 0.224664 0.182890
0.066698 0.082603 0.054929
0.076050 0.086384 0.058435
0.085264 0.090195 0.061712
0.096109 0.094425 0.064737
0.107454 0.098444 0.067726
0.120950 0.102514 0.070430
0.135648 0.106695 0.072840
0.152315 0.110489 0.074833
0.170546 0.114207 0.076738
0.190557 0.117661 0.078250
0.212581 0.120848 0.079232
0.236430 0.123699 0.079850
0.262487 0.126031 0.079717
0.290916 0.127536 0.078706
0.322102 0.128299 0.076753
0.355225 0.128717 0.074481
0.390358 0.128733 0.071818
0.422419 0.131151 0.072630
0.451377 0.135830 0.076695
0.480871 0.140770 0.081130
0.511043 0.145811 0.085677
0.541970 0.151029 0.090551
0.573590 0.156501 0.095430
0.604281 0.162976 0.101686
0.633412 0.170772 0.109655
0.661588 0.179465 0.118596
0.688973 0.189331 0.128741
0.716015 0.199643 0.139523
0.742799 0.210877 0.151275
0.769323 0.222465 0.163384
0.795351 0.235259 0.176698
0.821561 0.247903 0.190090
0.074993 0.099287 0.062492
0.084866 0.103045 0.065776
0.094575 0.106823 0.069250
0.105138 0.110557 0.072275
0.116010 0.114346 0.075206
0.129127 0.118358 0.077471
0.143064 0.122392 0.079616
0.158950 0.126364 0.081221
0.176460 0.130064 0.082364
0.195860 0.133451 0.083228
0.217110 0.136476 0.083761
0.240276 0.139320 0.083688
0.265798 0.141636 0.082915
0.293696 0.143141 0.081234
0.324245 0.144007 0.078551
0.356722 0.144673 0.075731
0.391322 0.144937 0.072783
0.423128 0.147465 0.073362
0.452099 0.152145 0.077427
0.481759 0.157084 0.081877
0.512190 0.162141 0.086566
0.543377 0.167521 0.091512
0.575258 0.173084 0.096570
0.606209 0.179940 0.103086
0.635601 0.188415 0.111528
0.664239 0.197675 0.120996
0.691953 0.207870 0.131833
0.719479 0.218466 0.142990
0.746762 0.229963 0.155236
0.773805 0.241812 0.167843
0.800330 0.254866 0.181698
0.826602 0.267998 0.195612
0.082965 0.116617 0.069928
0.093366 0.120153 0.073173
0.103793 0.123871 0.076433
0.114125 0.127133 0.079425
0.124680 0.130608 0.082327
0.137117 0.134423 0.084566
0.150524 0.138424 0.086494
0.165680 0.142329 0.087644
0.182417 0.145882 0.088266
0.201060 0.149269 0.088397
0.221601 0.152294 0.088220
0.244146 0.155059 0.087449
0.269006 0.157233 0.085847
0.296291 0.158751 0.083514
0.326177 0.159636 0.080268
0.358101 0.160423 0.076955
0.392034 0.160834 0.073535
0.423475 0.163361 0.073975
0.452574 0.167989 0.078026
0.482461 0.172882 0.082591
0.513100 0.178049 0.087211
0.544525 0.183475 0.092058
0.576666 0.189162 0.097240
0.607854 0.196353 0.103998
0.637497 0.205072 0.113017
0.666523 0.214705 0.122990
0.694740 0.225297 0.134124
0.722758 0.236311 0.145898
0.750330 0.248060 0.158656
0.777839 0.260107 0.171545
0.804669 0.273386 0.186087
0.831455 0.286746 0.200496
0.090197 0.135389 0.076403
0.101166 0.138879 0.079436
0.112322 0.142369 0.082676
0.122596 0.145256 0.085368
0.132932 0.148109 0.088017
0.145143 0.151815 0.090406
0.158289 0.155563 0.092772
0.173081 0.159345 0.093977
0.189122 0.163073 0.094503
0.207153 0.166489 0.094238
0.226955 0.169514 0.093309
0.248836 0.172293 0.091819
0.273159 0.174493 0.089481
0.299900 0.176116 0.086350
0.329152 0.177148 0.082447
0.360296 0.178038 0.078719
0.393428 0.178709 0.075170
0.424483 0.181216 0.075371
0.453582 0.185443 0.079303
0.483469 0.189987 0.083697
0.513971 0.194868 0.088219
0.545465 0.199994 0.092895
0.577825 0.205380 0.097846
0.609075 0.212112 0.104670
0.638883 0.220445 0.113704
0.667817 0.229737 0.123668
0.696357 0.239841 0.134980
0.724663 0.250520 0.146788
0.752495 0.262161 0.159738
0.780301 0.274001 0.172883
0.807600 0.287228 0.187648
0.834865 0.300587 0.202355
0.096814 0.155036 0.082311
0.108609 0.158319 0.085343
0.120441 0.161721 0.088508
0.130564 0.163955 0.090723
0.140856 0.166436 0.092969
0.153042 0.169704 0.095782
0.166008 0.173231 0.098579
0.180493 0.176974 0.100138
0.196010 0.180743 0.100563
0.213404 0.184290 0.100014
0.232669 0.187364 0.098532
0.253998 0.190231 0.096236
0.277721 0.192550 0.093096
0.303797 0.194309 0.089310
0.332408 0.195508 0.084648
0.362774 0.196469 0.080531
0.394996 0.197400 0.076900
0.425586 0.199856 0.077000
0.454685 0.203730 0.080763
0.484543 0.208014 0.084927
0.515057 0.212472 0.089339
0.546567 0.217109 0.093860
0.578928 0.222023 0.098710
0.610178 0.228249 0.105368
0.639986 0.235903 0.114228
0.669123 0.244501 0.124156
0.697751 0.254054 0.135468
0.726244 0.264213 0.147276
0.754373 0.275376 0.160270
0.782591 0.287039 0.173611
0.810160 0.300013 0.188434
0.837686 0.313270 0.203505
0.102501 0.175982 0.087439
0.115268 0.179204 0.090409
0.127657 0.182395 0.093368
0.137997 0.184279 0.095304
0.148111 0.186130 0.097130
0.160329 0.189033 0.099829
0.173422 0.192254 0.102593
0.187716 0.195781 0.104583
0.203058 0.199456 0.105665
0.220102 0.202931 0.105140
0.238763 0.206247 0.103391
0.259455 0.209197 0.100631
0.282623 0.211522 0.096836
0.308072 0.213518 0.092293
0.336017 0.214945 0.086971
0.365645 0.216262 0.082574
0.396956 0.217482 0.079074
0.427153 0.219852 0.079160
0.456221 0.223466 0.082721
0.485969 0.227490 0.086801
0.516554 0.231596 0.091051
0.548135 0.235923 0.095482
0.580495 0.240577 0.100154
0.611786 0.246397 0.106739
0.641609 0.253587 0.115794
0.670905 0.261836 0.125868
0.699782 0.270907 0.137201
0.728411 0.280593 0.149009
0.756910 0.291420 0.162180
0.785218 0.302398 0.175541
0.813035 0.315030 0.190555
0.840821 0.327772 0.205491
0.107543 0.198228 0.091662
0.121027 0.201258 0.094438
0.134165 0.204360 0.097259
0.144752 0.205807 0.098934
0.154981 0.207341 0.100476
0.167198 0.209559 0.102709
0.180303 0.212296 0.105124
0.194691 0.215512 0.107604
0.210114 0.218976 0.109466
0.226807 0.222459 0.109417
0.244963 0.225889 0.107823
0.265196 0.228908 0.104904
0.287722 0.231510 0.100499
0.312571 0.233647 0.095332
0.339857 0.235225 0.089368
0.368808 0.236802 0.084713
0.399241 0.238380 0.081407
0.428946 0.240860 0.081555
0.457912 0.244279 0.085116
0.487723 0.248030 0.089119
0.518382 0.252015 0.093238
0.549963 0.256171 0.097582
0.582323 0.260564 0.102099
0.613754 0.266124 0.108676
0.643625 0.273103 0.117942
0.672972 0.280902 0.128378
0.702073 0.289506 0.139785
0.731127 0.298846 0.151648
0.759797 0.309178 0.164827
0.788353 0.319694 0.178246
0.816430 0.331870 0.193326
0.844476 0.344094 0.208452
0.111332 0.221986 0.094584
0.125416 0.224938 0.097205
0.139310 0.227784 0.099590
0.150322 0.229030 0.101012
0.161070 0.230217 0.102349
0.173276 0.231964 0.104219
0.186356 0.234121 0.106184
0.200922 0.236858 0.108558
0.216427 0.239989 0.110628
0.233059 0.243211 0.111389
0.251148 0.246532 0.110706
0.270932 0.249557 0.108200
0.292863 0.252448 0.103844
0.317149 0.254778 0.098292
0.343833 0.256616 0.091661
0.372008 0.258453 0.086886
0.401660 0.260291 0.084007
0.430935 0.262855 0.084399
0.459924 0.266200 0.087918
0.489811 0.269743 0.091713
0.520469 0.273523 0.095791
0.552050 0.277506 0.100051
0.584411 0.281713 0.104560
0.615842 0.287032 0.111345
0.645768 0.293891 0.120816
0.675277 0.301325 0.131350
0.704684 0.309634 0.142830
0.733948 0.318495 0.154862
0.763032 0.328370 0.168129
0.791932 0.338608 0.181791
0.820274 0.350456 0.197062
0.848580 0.362236 0.212265
0.113616 0.247509 0.096286
0.128481 0.250282 0.098394
0.143156 0.252955 0.100519
0.154941 0.254087 0.101698
0.166311 0.254846 0.102898
0.178558 0.256183 0.104261
0.191492 0.257609 0.105771
0.206154 0.259825 0.107625
0.222053 0.262456 0.109434
0.238945 0.265266 0.110991
0.257214 0.268352 0.111717
0.276813 0.271377 0.110246
0.298147 0.274372 0.106476
0.321806 0.276972 0.100957
0.347934 0.279105 0.093832
0.375378 0.281208 0.089106
0.404249 0.283266 0.086829
0.433203 0.285856 0.087502
0.462192 0.289023 0.090921
0.492079 0.292551 0.094701
0.522789 0.296144 0.098653
0.554344 0.299951 0.102877
0.586679 0.304132 0.107591
0.618110 0.309323 0.114577
0.648231 0.315881 0.124215
0.677861 0.323037 0.134925
0.707640 0.331085 0.146649
0.737041 0.339535 0.158791
0.766221 0.349198 0.172295
0.795381 0.359184 0.186291
0.823756 0.370604 0.201660
0.851999 0.382197 0.217196
0.114601 0.274678 0.096514
0.130335 0.277448 0.098194
0.145875 0.280021 0.099980
0.158433 0.280901 0.100980
0.170447 0.281435 0.101899
0.182900 0.282149 0.102843
0.195779 0.282916 0.103972
0.210548 0.284612 0.105345
0.226663 0.286765 0.106916
0.243879 0.289177 0.108644
0.262382 0.291850 0.109930
0.282099 0.294727 0.109506
0.303338 0.297601 0.107070
0.326599 0.300169 0.102390
0.352082 0.302548 0.095458
0.378873 0.304917 0.091233
0.407053 0.307149 0.089871
0.435598 0.309819 0.090905
0.464548 0.312936 0.094285
0.494488 0.316273 0.097964
0.525282 0.319768 0.101745
0.556812 0.323463 0.106081
0.588998 0.327591 0.111054
0.620443 0.332718 0.118178
0.650782 0.338930 0.128095
0.680742 0.345858 0.138949
0.710725 0.353591 0.150829
0.740297 0.361842 0.163292
0.769036 0.371484 0.177303
0.797505 0.381396 0.191820
0.824760 0.392734 0.207717
0.851692 0.404325 0.223861
0.113908 0.304045 0.095065
0.130680 0.306618 0.096480
0.147159 0.308937 0.097863
0.160619 0.309670 0.098750
0.173650 0.310118 0.099409
0.186199 0.310175 0.100052
0.198897 0.310402 0.100679
0.213815 0.311502 0.101657
0.230133 0.313134 0.102863
0.247824 0.315026 0.104096
0.266705 0.317209 0.105336
0.286766 0.319686 0.105905
0.308189 0.322300 0.105514
0.331269 0.324850 0.102408
0.356140 0.327283 0.096495
0.382380 0.329804 0.093359
0.410039 0.332248 0.093119
0.438284 0.334912 0.094600
0.467163 0.337894 0.097854
0.497200 0.341069 0.101493
0.528014 0.344443 0.105213
0.559500 0.348104 0.109686
0.591520 0.352231 0.114987
0.622948 0.357171 0.122399
0.653498 0.363197 0.132527
0.683692 0.370013 0.143703
0.713719 0.377463 0.155809
0.743208 0.385581 0.168742
0.770939 0.395296 0.183643
0.798063 0.405365 0.198808
0.823129 0.416866 0.215628
0.848005 0.428461 0.232463
0.111670 0.335476 0.092174
0.129690 0.337636 0.093434
0.147270 0.339605 0.094656
0.161881 0.340242 0.095293
0.175958 0.340638 0.095771
0.188467 0.340247 0.096008
0.200953 0.339860 0.096057
0.215928 0.340377 0.096648
0.232544 0.341410 0.097441
0.250680 0.342782 0.098414
0.270033 0.344493 0.099556
0.290513 0.346550 0.100757
0.312340 0.348702 0.101769
0.335464 0.351011 0.100514
0.360085 0.353367 0.096981
0.385989 0.355831 0.095638
0.413234 0.358299 0.096544
0.441262 0.360904 0.098586
0.470141 0.363819 0.101753
0.500114 0.366931 0.105266
0.530986 0.370168 0.108850
0.562392 0.373776 0.113441
0.594382 0.377904 0.119181
0.625636 0.382809 0.127154
0.655920 0.388822 0.137975
0.685687 0.395600 0.149966
0.715024 0.403212 0.162995
0.743732 0.411412 0.176782
0.770503 0.421177 0.192286
0.796688 0.431154 0.208212
0.820536 0.442450 0.225416
0.844476 0.453834 0.242664
0.108078 0.368892 0.087857
0.127435 0.370680 0.089228
0.146453 0.372359 0.090441
0.162363 0.372749 0.090945
0.177549 0.373013 0.091343
0.189999 0.372317 0.090941
0.202161 0.371388 0.090351
0.217103 0.371379 0.090485
0.233980 0.371781 0.091071
0.252449 0.372633 0.091898
0.272323 0.373823 0.093021
0.293323 0.375360 0.094442
0.315671 0.376991 0.095937
0.339163 0.378873 0.096839
0.363866 0.380900 0.097030
0.389580 0.383113 0.098248
0.416564 0.385507 0.100342
0.444539 0.388037 0.102871
0.473418 0.390838 0.106038
0.503305 0.393884 0.109465
0.534121 0.397038 0.112994
0.565548 0.400607 0.117756
0.597369 0.404734 0.123935
0.628282 0.409744 0.132802
0.657862 0.415965 0.144664
0.686753 0.422996 0.157899
0.714534 0.430988 0.172440
0.741755 0.439593 0.187473
0.767790 0.449182 0.203552
0.793207 0.459002 0.220025
0.817114 0.469801 0.237233
0.840947 0.480665 0.254622
0.109662 0.400985 0.088786
0.129702 0.402501 0.090295
0.149655 0.404064 0.091630
0.166501 0.404439 0.092233
0.182520 0.404656 0.092488
0.194908 0.403718 0.091777
0.206674 0.402600 0.090788
0.221241 0.402179 0.090524
0.237799 0.402183 0.090780
0.256148 0.402670 0.091520
0.276138 0.403546 0.092648
0.297213 0.404726 0.094080
0.319715 0.406036 0.095690
0.343249 0.407631 0.097611
0.367830 0.409469 0.099754
0.393414 0.411470 0.102137
0.420200 0.413803 0.104723
0.448052 0.416332 0.107511
0.476931 0.418979 0.110609
0.506745 0.422074 0.114131
0.537440 0.425316 0.118057
0.568414 0.429039 0.123797
0.599526 0.433410 0.131391
0.629766 0.438577 0.141603
0.658704 0.445035 0.154475
0.686831 0.452140 0.168641
0.713789 0.460147 0.184032
0.740194 0.468667 0.199867
0.765658 0.478014 0.216302
0.790649 0.487589 0.233038
0.814546 0.497999 0.250506
0.838245 0.508346 0.267903
0.116468 0.431612 0.095341
0.136898 0.433129 0.096979
0.157250 0.434700 0.098444
0.174604 0.435204 0.099165
0.190948 0.435536 0.099421
0.203186 0.434598 0.098688
0.214643 0.433455 0.097570
0.228576 0.432876 0.097147
0.244190 0.432619 0.097143
0.261925 0.432883 0.097659
0.281436 0.433588 0.098616
0.302165 0.434598 0.099833
0.324358 0.435858 0.101264
0.347607 0.437323 0.103031
0.372059 0.439088 0.105116
0.397513 0.441028 0.107308
0.424168 0.443231 0.109764
0.451890 0.445699 0.112484
0.480712 0.448273 0.115452
0.510372 0.451392 0.119307
0.540725 0.454927 0.124046
0.570968 0.459125 0.131551
0.600900 0.464018 0.141625
0.630119 0.469611 0.153690
0.658342 0.476069 0.167636
0.685921 0.483044 0.182408
0.712675 0.490710 0.198002
0.738950 0.498839 0.214077
0.764284 0.507795 0.230544
0.789145 0.516862 0.247398
0.812911 0.526996 0.264997
0.836606 0.536957 0.282524
0.123542 0.463185 0.102296
0.144484 0.464839 0.104057
0.165112 0.466534 0.105652
0.182974 0.467163 0.106385
0.199672 0.467510 0.106749
0.212021 0.466675 0.106030
0.223281 0.465509 0.104860
0.236580 0.464777 0.104164
0.251249 0.464261 0.103900
0.268330 0.464303 0.104156
0.287274 0.464843 0.104853
0.307605 0.465682 0.105857
0.329406 0.466891 0.107212
0.352372 0.468274 0.108873
0.376685 0.469978 0.110751
0.402009 0.471852 0.113072
0.428603 0.474064 0.115950
0.456261 0.476540 0.119240
0.484873 0.479276 0.122984
0.514185 0.482508 0.127804
0.544063 0.486281 0.133600
0.573614 0.490681 0.142472
0.602693 0.495679 0.154337
0.631213 0.501378 0.167665
0.658993 0.507564 0.182332
0.686189 0.514343 0.197540
0.712661 0.521673 0.213305
0.738778 0.529522 0.229399
0.763974 0.537991 0.246094
0.788712 0.546663 0.263097
0.812340 0.556399 0.280704
0.835897 0.566096 0.298484
0.130994 0.495703 0.109748
0.152307 0.497609 0.111513
0.173211 0.499320 0.113214
0.191583 0.500199 0.113961
0.208665 0.500674 0.114449
0.221252 0.499839 0.113703
0.232625 0.498645 0.112490
0.245207 0.497743 0.111560
0.258974 0.497003 0.110999
0.275242 0.496922 0.110930
0.293666 0.497326 0.111467
0.313526 0.498039 0.112250
0.334996 0.499114 0.113459
0.357642 0.500370 0.114987
0.381613 0.501942 0.116751
0.406867 0.503877 0.119431
0.433461 0.506219 0.123147
0.460972 0.508834 0.127710
0.489311 0.511895 0.133079
0.518161 0.515365 0.139393
0.547519 0.519264 0.146544
0.576475 0.523628 0.156546
0.604998 0.528311 0.169430
0.633080 0.533709 0.183521
0.660562 0.539549 0.198440
0.687498 0.546043 0.213876
0.713710 0.553113 0.229809
0.739567 0.560579 0.246049
0.764502 0.568669 0.262862
0.789216 0.577070 0.279980
0.812738 0.586302 0.297731
0.836039 0.595730 0.315625
0.138855 0.529418 0.117610
0.160588 0.531427 0.119529
0.182049 0.533144 0.121385
0.200801 0.534129 0.122296
0.218397 0.534735 0.123017
0.231456 0.534185 0.122313
0.243134 0.533097 0.121071
0.254955 0.532055 0.119895
0.267528 0.531043 0.118816
0.282858 0.530710 0.118397
0.300704 0.530993 0.118737
0.320235 0.531516 0.119676
0.341502 0.532427 0.121300
0.364126 0.533578 0.123509
0.388173 0.535003 0.126268
0.413429 0.536916 0.130032
0.439869 0.539234 0.134915
0.467038 0.541904 0.140783
0.494962 0.544984 0.147451
0.523243 0.548497 0.154925
0.551926 0.552340 0.163108
0.580308 0.556549 0.173627
0.608417 0.561144 0.186601
0.636022 0.566228 0.200811
0.663179 0.571770 0.215886
0.689855 0.578004 0.231439
0.715932 0.584687 0.247603
0.741553 0.591780 0.263973
0.766228 0.599597 0.280934
0.790777 0.607737 0.298066
0.814145 0.616610 0.315916
0.837339 0.625625 0.333964
0.147079 0.564268 0.125992
0.169335 0.566119 0.128171
0.191402 0.567847 0.130287
0.210586 0.568979 0.131443
0.228755 0.569629 0.132282
0.242717 0.569422 0.131823
0.254853 0.568545 0.130633
0.265890 0.567446 0.128957
0.276869 0.566190 0.127186
0.291161 0.565672 0.126409
0.308398 0.565761 0.126645
0.327624 0.566080 0.127972
0.349033 0.566809 0.130576
0.371802 0.567726 0.134235
0.396235 0.569026 0.139086
0.421518 0.570806 0.144677
0.447698 0.572994 0.150991
0.474458 0.575501 0.158067
0.501790 0.578455 0.165776
0.529396 0.581833 0.174040
0.557299 0.585553 0.182943
0.585072 0.589558 0.193453
0.612727 0.594027 0.205601
0.640072 0.598835 0.219223
0.666864 0.604214 0.234389
0.693244 0.610097 0.250125
0.719140 0.616410 0.266399
0.744516 0.623227 0.282921
0.768931 0.630784 0.299988
0.793220 0.638517 0.317277
0.816480 0.647120 0.335290
0.839513 0.655780 0.353279
0.158707 0.598480 0.137705
0.181312 0.600415 0.140145
0.203729 0.602308 0.142521
0.223262 0.603553 0.143929
0.241825 0.604514 0.144950
0.256498 0.604449 0.144751
0.269171 0.603891 0.143771
0.279590 0.602602 0.142067
0.289604 0.601107 0.140264
0.303107 0.600345 0.139748
0.319967 0.600057 0.140550
0.338907 0.600087 0.142682
0.360257 0.600536 0.146327
0.382822 0.601347 0.151140
0.406968 0.602533 0.157308
0.431830 0.604095 0.164091
0.457493 0.606152 0.171324
0.483599 0.608571 0.179141
0.510201 0.611485 0.187453
0.537062 0.614810 0.196240
0.564184 0.618389 0.205613
0.591347 0.622277 0.215932
0.618482 0.626657 0.227376
0.645313 0.631376 0.240157
0.671842 0.636604 0.254661
0.697980 0.642176 0.270071
0.723477 0.648213 0.286297
0.748566 0.654769 0.303039
0.772870 0.662067 0.320288
0.796760 0.669458 0.337674
0.819833 0.677635 0.355776
0.842609 0.686029 0.373847
0.173626 0.632085 0.152798
0.196487 0.634275 0.155498
0.218996 0.636255 0.158135
0.238789 0.637695 0.159803
0.257622 0.638999 0.161084
0.272706 0.639289 0.161145
0.285982 0.638993 0.160459
0.296121 0.637544 0.159194
0.305550 0.635611 0.157985
0.318804 0.634387 0.158599
0.335460 0.633604 0.160743
0.354134 0.633290 0.164152
0.375001 0.633570 0.168770
0.397055 0.634202 0.174194
0.420365 0.635251 0.180606
0.444400 0.636732 0.187716
0.469234 0.638749 0.195331
0.494559 0.641167 0.203395
0.520280 0.643981 0.211925
0.546288 0.647233 0.221021
0.572629 0.650762 0.230572
0.599065 0.654739 0.240813
0.625501 0.659052 0.251724
0.651702 0.663721 0.263561
0.677947 0.668754 0.276622
0.703703 0.674205 0.291140
0.728840 0.680015 0.307381
0.753656 0.686312 0.324219
0.777771 0.693192 0.341549
0.801335 0.700307 0.359105
0.824142 0.708315 0.377218
0.846831 0.716279 0.395368
0.190523 0.665973 0.169766
0.213460 0.668246 0.172726
0.236150 0.670582 0.175647
0.256051 0.672094 0.177931
0.275355 0.673457 0.179683
0.291096 0.673696 0.180437
0.305076 0.673272 0.180738
0.315500 0.671604 0.180327
0.324858 0.669291 0.179880
0.337800 0.667599 0.181441
0.353844 0.666482 0.184527
0.371882 0.665886 0.188698
0.391952 0.665951 0.193886
0.413172 0.666399 0.199627
0.435578 0.667489 0.206144
0.458700 0.668982 0.213289
0.482623 0.670905 0.221071
0.507079 0.673323 0.229356
0.531978 0.676096 0.238114
0.557176 0.679207 0.247359
0.582620 0.682783 0.257055
0.608210 0.686750 0.267237
0.633865 0.690976 0.277811
0.659608 0.695624 0.289188
0.685293 0.700603 0.301324
0.710504 0.705892 0.314705
0.735332 0.711607 0.330333
0.759888 0.717673 0.346622
0.783579 0.724229 0.363882
0.807035 0.731246 0.381504
0.829593 0.738899 0.399622
0.852093 0.746528 0.417953
0.208862 0.700382 0.188294
0.231801 0.703037 0.191520
0.254588 0.705495 0.194904
0.275051 0.706970 0.197804
0.294761 0.707911 0.200524
0.311508 0.707529 0.202695
0.326574 0.706650 0.204602
0.337699 0.704612 0.205413
0.347431 0.702169 0.205990
0.359716 0.700115 0.207972
0.374590 0.698665 0.211099
0.391523 0.697936 0.215333
0.410594 0.697814 0.220578
0.430799 0.698224 0.226500
0.452286 0.699257 0.233054
0.474593 0.700741 0.240290
0.497702 0.702632 0.248202
0.521244 0.704959 0.256552
0.545277 0.707622 0.265485
0.569695 0.710731 0.274836
0.594317 0.714274 0.284694
0.619105 0.718154 0.295051
0.643979 0.722360 0.305755
0.668894 0.727008 0.316981
0.693783 0.731986 0.328760
0.718568 0.737225 0.341344
0.742965 0.742928 0.355374
0.767231 0.748774 0.370236
0.790605 0.755240 0.387325
0.813853 0.761898 0.404947
0.836156 0.769404 0.423248
0.858206 0.776777 0.441459
0.228697 0.734720 0.208382
0.251846 0.737091 0.212467
0.275037 0.739511 0.216384
0.295864 0.740404 0.220038
0.315931 0.741045 0.223838
0.333696 0.740438 0.227375
0.349636 0.739115 0.230676
0.361542 0.736944 0.232699
0.371779 0.734334 0.234026
0.383471 0.732150 0.236220
0.396980 0.730418 0.239245
0.412569 0.729536 0.243326
0.430598 0.729379 0.248480
0.449845 0.729706 0.254315
0.470431 0.730600 0.260958
0.491753 0.731986 0.268329
0.513981 0.733774 0.276269
0.536712 0.736075 0.284727
0.559939 0.738820 0.293781
0.583455 0.741901 0.303276
0.607221 0.745354 0.313246
0.631228 0.749214 0.323793
0.655461 0.753421 0.334617
0.679612 0.757922 0.345965
0.703706 0.762850 0.357585
0.727800 0.768089 0.369820
0.751814 0.773792 0.382584
0.775467 0.779590 0.396242
0.798530 0.785871 0.412653
0.821518 0.792406 0.429665
0.843561 0.799524 0.447791
0.865296 0.806830 0.465942
0.250707 0.768798 0.230848
0.274534 0.770017 0.236189
0.298229 0.771410 0.241462
0.319335 0.771743 0.246284
0.339840 0.771946 0.250920
0.357859 0.771178 0.255303
0.374407 0.769987 0.259270
0.387094 0.768063 0.261984
0.397905 0.765733 0.263962
0.409136 0.763535 0.266225
0.421183 0.761689 0.268877
0.435528 0.760564 0.272715
0.452437 0.760195 0.277719
0.470538 0.760462 0.283610
0.490203 0.761355 0.290301
0.510696 0.762606 0.297586
0.532012 0.764370 0.305632
0.553864 0.766671 0.314215
0.576310 0.769325 0.323409
0.599017 0.772311 0.333018
0.621983 0.775745 0.343139
0.645210 0.779605 0.353652
0.668551 0.783812 0.364716
0.692027 0.788278 0.376218
0.715393 0.793194 0.387972
0.738872 0.798432 0.400205
0.762053 0.803964 0.412761
0.785086 0.809907 0.426038
0.807850 0.816172 0.440975
0.830386 0.822511 0.456361
0.852155 0.829525 0.473943
0.873630 0.836622 0.491465
0.274205 0.801552 0.255276
0.298585 0.801690 0.261693
0.322579 0.802050 0.267880
0.343949 0.802062 0.273776
0.364744 0.801831 0.279357
0.382961 0.801255 0.284294
0.399722 0.800366 0.288782
0.413237 0.798882 0.292074
0.424798 0.796833 0.294702
0.435590 0.794731 0.297067
0.446226 0.792653 0.299431
0.459428 0.791267 0.303084
0.475144 0.790720 0.307980
0.492269 0.790891 0.313669
0.511034 0.791666 0.320337
0.530527 0.792895 0.327717
0.550933 0.794659 0.335783
0.571985 0.796843 0.344502
