gsg/02_Everyday/GSG_LUT_Everyday_Mr_Green.cube
# GSG LUTs 1.0
# Copyright (c) 2016-2020 Greyscalegorilla
# See EULA for licensing and distribution information
# Converted by Briz LUT Converter
LUT_3D_SIZE 32
0.098168 0.099634 0.107692
0.105235 0.100146 0.107708
0.112860 0.100949 0.108196
0.125495 0.102462 0.108449
0.140935 0.103974 0.108701
0.156973 0.105487 0.108992
0.173957 0.106999 0.109496
0.191626 0.108401 0.110000
0.210595 0.109410 0.110505
0.230864 0.110347 0.111009
0.252511 0.110946 0.111434
0.275718 0.111024 0.111686
0.300484 0.110583 0.112033
0.326913 0.109622 0.112537
0.355162 0.108031 0.113151
0.385112 0.105660 0.114026
0.416873 0.102131 0.114782
0.450581 0.096640 0.115286
0.486250 0.088810 0.115507
0.523999 0.078491 0.115207
0.564299 0.065729 0.114388
0.607791 0.054102 0.112884
0.653968 0.050794 0.110252
0.702123 0.050794 0.106322
0.751719 0.050794 0.100335
0.802615 0.050794 0.092402
0.853377 0.050794 0.082240
0.902769 0.050794 0.070164
0.950380 0.050794 0.057592
0.992973 0.050794 0.051156
0.999858 0.050794 0.050794
1.000000 0.050794 0.050794
0.095348 0.109803 0.110993
0.103495 0.110118 0.111971
0.111906 0.112074 0.111312
0.125218 0.113613 0.111708
0.140710 0.115032 0.111725
0.157198 0.116023 0.111968
0.174346 0.116961 0.112212
0.192622 0.117703 0.112456
0.211608 0.118449 0.112702
0.231959 0.119049 0.112886
0.253858 0.119296 0.112968
0.277233 0.119375 0.113301
0.302008 0.119031 0.113808
0.328441 0.118429 0.114423
0.356690 0.117346 0.115184
0.386648 0.115483 0.115936
0.418413 0.112470 0.116684
0.452251 0.107785 0.117173
0.488035 0.101424 0.117141
0.525792 0.092468 0.116880
0.566101 0.080151 0.115995
0.609259 0.065732 0.114233
0.654918 0.054015 0.111347
0.702558 0.050879 0.107340
0.752008 0.050794 0.101723
0.802499 0.050794 0.093899
0.852953 0.050794 0.083327
0.902085 0.050794 0.070967
0.949436 0.050794 0.058136
0.992225 0.050794 0.051190
0.999835 0.050794 0.050794
1.000000 0.050794 0.050794
0.090779 0.122896 0.115026
0.101514 0.123414 0.116816
0.110979 0.124466 0.116771
0.124060 0.126736 0.115398
0.139269 0.127344 0.114819
0.156472 0.127735 0.114748
0.174374 0.127955 0.114735
0.193216 0.128230 0.114738
0.212746 0.128638 0.114809
0.233480 0.128791 0.115054
0.255407 0.128854 0.115244
0.278882 0.128922 0.115428
0.303917 0.128670 0.116021
0.330512 0.128220 0.116863
0.358777 0.127252 0.117752
0.388964 0.125542 0.118390
0.420860 0.122928 0.118886
0.454598 0.119267 0.119365
0.490510 0.114056 0.119297
0.528504 0.106639 0.118780
0.569057 0.096508 0.117781
0.612118 0.082915 0.115853
0.657344 0.067268 0.112891
0.704656 0.054901 0.108708
0.753492 0.051432 0.102835
0.803631 0.050876 0.094929
0.853842 0.050794 0.084338
0.902716 0.050794 0.072140
0.949807 0.050794 0.059106
0.992336 0.050794 0.051251
0.999838 0.050824 0.050794
1.000000 0.051802 0.050794
0.081650 0.139627 0.119201
0.095374 0.140147 0.122135
0.107392 0.140453 0.122913
0.121212 0.141692 0.122345
0.137230 0.143776 0.119883
0.154319 0.143338 0.118560
0.173183 0.143032 0.118163
0.193236 0.142762 0.118167
0.213714 0.142651 0.118392
0.235042 0.142423 0.118587
0.257481 0.142251 0.119012
0.281272 0.142132 0.119351
0.306592 0.141871 0.119846
0.333461 0.141492 0.120428
0.361986 0.140654 0.121160
0.392213 0.139300 0.121774
0.424251 0.137206 0.122140
0.458235 0.134105 0.122232
0.494039 0.129967 0.122055
0.531976 0.124552 0.121329
0.572532 0.117124 0.119997
0.615274 0.107223 0.117972
0.660175 0.094485 0.114986
0.707226 0.079418 0.110743
0.755978 0.064426 0.104675
0.806075 0.055551 0.096330
0.856237 0.053523 0.085435
0.904863 0.053002 0.072578
0.951647 0.053051 0.059225
0.993890 0.053836 0.051257
0.999887 0.055780 0.050794
1.000000 0.071645 0.050794
0.069298 0.157430 0.124841
0.084332 0.158139 0.127433
0.099900 0.158360 0.129397
0.116169 0.158279 0.130267
0.132963 0.159927 0.129179
0.151431 0.161735 0.126029
0.170348 0.161311 0.123640
0.191304 0.160482 0.122823
0.212928 0.159785 0.123179
0.235524 0.159682 0.123845
0.259181 0.159522 0.124378
0.283933 0.159148 0.124813
0.309887 0.158813 0.125243
0.337217 0.158226 0.125571
0.366039 0.157359 0.126010
0.396556 0.156233 0.126362
0.428887 0.154611 0.126581
0.463131 0.152259 0.126384
0.499232 0.149177 0.125829
0.537591 0.145049 0.124830
0.578208 0.139695 0.123359
0.621139 0.133121 0.121120
0.666653 0.124907 0.117796
0.713766 0.115116 0.112916
0.762274 0.104433 0.106587
0.811907 0.093979 0.097992
0.861416 0.085605 0.086804
0.909359 0.080793 0.073654
0.955205 0.081707 0.060008
0.995764 0.089828 0.051305
0.999944 0.105197 0.050794
1.000000 0.126945 0.050794
0.056481 0.176533 0.131340
0.067676 0.177070 0.132689
0.086881 0.177331 0.136368
0.106489 0.177156 0.137851
0.126603 0.177490 0.138502
0.146434 0.179114 0.137186
0.167536 0.181241 0.133767
0.189544 0.181714 0.130500
0.211589 0.180504 0.128910
0.235044 0.179575 0.129015
0.259948 0.179265 0.130080
0.286282 0.179139 0.131237
0.313682 0.178943 0.131992
0.342020 0.178567 0.132271
0.371581 0.177764 0.132299
0.402669 0.176678 0.132339
0.435541 0.175206 0.132257
0.470148 0.173370 0.131697
0.506878 0.171174 0.130735
0.545797 0.168225 0.129346
0.586771 0.164610 0.127437
0.631389 0.160377 0.124678
0.681469 0.155768 0.120588
0.730330 0.150607 0.115115
0.778769 0.145317 0.108112
0.827956 0.140537 0.098948
0.876020 0.137262 0.087239
0.922270 0.136683 0.073570
0.965996 0.140557 0.059332
0.997877 0.148594 0.051258
0.999993 0.161424 0.050794
1.000000 0.177644 0.050794
0.051581 0.196794 0.139044
0.053761 0.197542 0.139062
0.067430 0.198021 0.142654
0.090801 0.198086 0.146033
0.115961 0.197859 0.147549
0.140065 0.198033 0.148141
0.162816 0.199727 0.146809
0.186281 0.202562 0.143002
0.210545 0.203767 0.138631
0.234365 0.202684 0.135967
0.260435 0.201663 0.135395
0.287918 0.201235 0.136414
0.316798 0.201250 0.138007
0.347139 0.201308 0.139195
0.378464 0.200997 0.139618
0.410823 0.200344 0.139397
0.444638 0.199278 0.138918
0.480207 0.197883 0.138071
0.517874 0.196305 0.136681
0.557659 0.194397 0.134772
0.599316 0.192166 0.132343
0.643206 0.189707 0.129095
0.689702 0.187245 0.124790
0.737395 0.184703 0.119068
0.785960 0.182495 0.111597
0.834689 0.181360 0.101951
0.881964 0.181474 0.089771
0.927247 0.183263 0.075588
0.969711 0.188110 0.060503
0.998301 0.195411 0.051328
1.000000 0.205577 0.050794
1.000000 0.218465 0.050794
0.050794 0.217685 0.147418
0.050873 0.218382 0.147026
0.054230 0.218992 0.148605
0.071116 0.219431 0.153952
0.099960 0.219236 0.156429
0.129244 0.219023 0.157716
0.155824 0.219101 0.158462
0.180895 0.221238 0.156914
0.206680 0.224493 0.152671
0.232812 0.226267 0.147731
0.259320 0.226024 0.144075
0.287728 0.225504 0.142225
0.317442 0.224975 0.142443
0.348731 0.224908 0.144181
0.381808 0.225271 0.145764
0.416577 0.225645 0.146480
0.452603 0.225678 0.146358
0.489694 0.225144 0.145368
0.528176 0.224186 0.143621
0.568159 0.223119 0.141238
0.609689 0.221908 0.138252
0.653035 0.220623 0.134598
0.698287 0.219724 0.129836
0.745295 0.219222 0.123594
0.793334 0.219186 0.115645
0.841079 0.220018 0.105650
0.887302 0.221832 0.093245
0.931715 0.225053 0.078592
0.972886 0.229994 0.063064
0.998497 0.237000 0.051491
1.000000 0.246033 0.050794
1.000000 0.257088 0.050794
0.050794 0.239679 0.156052
0.050794 0.240262 0.155798
0.051004 0.241242 0.155771
0.055973 0.241770 0.160183
0.078223 0.241884 0.165018
0.112783 0.241816 0.166925
0.145434 0.241435 0.168455
0.174571 0.241742 0.169261
0.201885 0.244118 0.167426
0.229582 0.247862 0.162887
0.258374 0.250847 0.157466
0.288106 0.252169 0.152420
0.317845 0.251543 0.149101
0.349568 0.250803 0.148458
0.383735 0.251011 0.149646
0.419831 0.251786 0.151127
0.457745 0.252892 0.152111
0.497281 0.253897 0.152084
0.537861 0.254411 0.150826
0.579060 0.254529 0.148393
0.621069 0.254424 0.144945
0.664206 0.254202 0.140705
0.709047 0.254433 0.135402
0.755337 0.255290 0.128639
0.802482 0.256684 0.120317
0.849011 0.258745 0.109945
0.894039 0.261571 0.097467
0.937336 0.265548 0.082430
0.977060 0.270920 0.065992
0.998757 0.277549 0.051969
1.000000 0.285823 0.050804
1.000000 0.295845 0.050794
0.050794 0.263114 0.165016
0.050794 0.263807 0.164685
0.050794 0.264804 0.164309
0.051246 0.265617 0.166302
0.058970 0.266204 0.172438
0.089044 0.266289 0.176304
0.129501 0.265989 0.178140
0.164975 0.265579 0.179590
0.196220 0.266035 0.180271
0.225610 0.268796 0.178411
0.255425 0.273358 0.173569
0.286811 0.277436 0.167109
0.318849 0.279576 0.160985
0.350685 0.279352 0.156786
0.384761 0.279079 0.154658
0.421769 0.279793 0.154174
0.460666 0.281216 0.155081
0.501311 0.283059 0.156121
0.543831 0.285052 0.156118
0.587779 0.287090 0.154607
0.631955 0.288733 0.151619
0.676177 0.290079 0.147207
0.721022 0.291433 0.141468
0.766573 0.293245 0.134205
0.812464 0.295553 0.125417
0.857619 0.298362 0.114890
0.901180 0.301836 0.102399
0.943147 0.306289 0.087203
0.981442 0.311654 0.070251
0.999031 0.318040 0.054149
1.000000 0.325634 0.050870
1.000000 0.334625 0.050794
0.050794 0.288448 0.174422
0.050794 0.288968 0.173915
0.050794 0.289981 0.173335
0.050794 0.291071 0.173369
0.051775 0.292107 0.178750
0.064563 0.292656 0.185092
0.105279 0.292519 0.187844
0.149847 0.292180 0.189539
0.187667 0.291952 0.191175
0.221053 0.292734 0.191783
0.252504 0.296070 0.189560
0.284839 0.301517 0.184109
0.319276 0.307006 0.177180
0.353628 0.310034 0.170277
0.387917 0.310841 0.164609
0.424635 0.311486 0.160279
0.463768 0.312592 0.158095
0.505139 0.314439 0.157916
0.548586 0.317073 0.158223
0.593627 0.320323 0.157918
0.639929 0.323839 0.156180
0.687069 0.327570 0.152656
0.733966 0.331003 0.147256
0.780234 0.334312 0.140011
0.825291 0.337469 0.131080
0.868765 0.340707 0.120311
0.910732 0.344261 0.107903
0.951155 0.348730 0.093008
0.987378 0.353798 0.076167
0.999401 0.359769 0.059336
1.000000 0.366697 0.051264
1.000000 0.374737 0.050794
0.050794 0.316468 0.184088
0.050794 0.317072 0.183486
0.050794 0.318012 0.182630
0.050794 0.319289 0.181915
0.050834 0.320685 0.184719
0.053890 0.321693 0.192066
0.077345 0.322116 0.197199
0.125710 0.322025 0.199370
0.173481 0.321651 0.201134
0.213636 0.321511 0.202787
0.249189 0.322509 0.203251
0.283554 0.326889 0.200598
0.319585 0.334242 0.194854
0.356607 0.340809 0.187137
0.394049 0.345272 0.178828
0.431842 0.347806 0.170931
0.469959 0.348684 0.164808
0.510659 0.349803 0.161003
0.554741 0.352395 0.158718
0.600417 0.356091 0.157819
0.647280 0.360495 0.156929
0.695663 0.365629 0.154703
0.744813 0.371325 0.150514
0.793360 0.377103 0.144464
0.839238 0.381982 0.136375
0.882153 0.386174 0.126328
0.922566 0.389747 0.114624
0.960962 0.393676 0.100715
0.994107 0.398213 0.084546
0.999816 0.403428 0.068170
1.000000 0.409330 0.055133
1.000000 0.416495 0.052093
0.050794 0.347631 0.193635
0.050794 0.348482 0.192871
0.050794 0.349269 0.191857
0.050794 0.350568 0.190790
0.050794 0.352196 0.190984
0.051252 0.353530 0.197666
0.059111 0.354544 0.205337
0.094294 0.354642 0.208771
0.149985 0.354390 0.210682
0.200472 0.354094 0.212490
0.242907 0.353929 0.214228
0.281168 0.355558 0.214572
0.318048 0.360838 0.211447
0.355587 0.368366 0.204617
0.394822 0.375715 0.195640
0.435124 0.381654 0.185735
0.474835 0.385232 0.176343
0.514139 0.386618 0.168735
0.556097 0.388305 0.162585
0.601707 0.391813 0.157828
0.649192 0.396514 0.154901
0.697871 0.402262 0.152531
0.747394 0.408929 0.149597
0.796818 0.416154 0.145215
0.844298 0.422969 0.139249
0.889078 0.429286 0.131732
0.930029 0.434240 0.122313
0.967611 0.438604 0.110699
0.997044 0.442722 0.096640
0.999981 0.447092 0.081874
1.000000 0.452055 0.068172
1.000000 0.458183 0.060696
0.050794 0.380614 0.202505
0.050794 0.381512 0.201738
0.050794 0.382299 0.200614
0.050794 0.383583 0.199287
0.050794 0.385109 0.197958
0.050794 0.386711 0.202069
0.052138 0.388113 0.210727
0.066954 0.388829 0.216910
0.114678 0.388735 0.219449
0.176876 0.388513 0.221244
0.229944 0.388334 0.223205
0.274416 0.388383 0.225103
0.314597 0.390315 0.225173
0.353192 0.395848 0.221249
0.392637 0.404005 0.213404
0.434100 0.412577 0.203201
0.476559 0.419843 0.191792
0.517737 0.424384 0.180794
0.558068 0.426546 0.171218
0.601352 0.429345 0.162152
0.648022 0.433642 0.154457
0.697083 0.439518 0.148394
0.746841 0.446479 0.144400
0.796004 0.454110 0.140846
0.843734 0.461656 0.137286
0.889255 0.469081 0.132501
0.931834 0.475816 0.126800
0.970446 0.482059 0.119982
0.997599 0.486880 0.110796
1.000000 0.491315 0.101188
1.000000 0.495448 0.090318
1.000000 0.500540 0.082658
0.050794 0.415637 0.210855
0.050794 0.416396 0.209976
0.050794 0.417284 0.208808
0.050794 0.418475 0.207247
0.050794 0.420133 0.205203
0.050794 0.421972 0.206020
0.050794 0.423641 0.214213
0.053545 0.425219 0.223104
0.076964 0.425630 0.227330
0.137587 0.425531 0.229461
0.206079 0.425488 0.231435
0.261727 0.425310 0.233574
0.308171 0.425430 0.235451
0.350302 0.427643 0.235224
0.390844 0.433792 0.230474
0.432319 0.442927 0.221525
0.475631 0.452502 0.209905
0.519473 0.460694 0.196867
0.562466 0.466577 0.183869
0.605087 0.470698 0.171333
0.648931 0.474220 0.159444
0.695831 0.478973 0.148724
0.745519 0.485855 0.139211
0.794986 0.493510 0.132379
0.842428 0.500918 0.128295
0.887472 0.508247 0.126735
0.930249 0.515469 0.125043
0.969412 0.522645 0.123197
0.997506 0.529013 0.120804
1.000000 0.534913 0.119533
1.000000 0.539121 0.115932
1.000000 0.543976 0.114278
0.050794 0.452999 0.218803
0.050794 0.453878 0.217791
0.050794 0.454787 0.216614
0.050794 0.456076 0.214669
0.050794 0.457780 0.212110
0.050794 0.459899 0.210478
0.050794 0.461979 0.216584
0.050794 0.464174 0.226654
0.056415 0.465357 0.234031
0.093345 0.465532 0.237168
0.168377 0.465532 0.239174
0.239994 0.465404 0.241356
0.296339 0.465027 0.243516
0.344394 0.465074 0.245436
0.388304 0.467474 0.244817
0.430509 0.474201 0.239187
0.473371 0.484109 0.228880
0.517791 0.494400 0.215888
0.563183 0.503683 0.201385
0.608534 0.511621 0.185752
0.653016 0.517643 0.170077
0.697060 0.521839 0.155546
0.743641 0.527097 0.140782
0.792585 0.534216 0.126341
0.840378 0.541497 0.116256
0.885369 0.548489 0.113828
0.927692 0.555326 0.115203
0.966773 0.562250 0.119107
0.997251 0.568966 0.123520
1.000000 0.575312 0.129669
1.000000 0.580768 0.135721
1.000000 0.586419 0.143700
0.050794 0.492954 0.226492
0.050794 0.493869 0.225354
0.050794 0.495892 0.224168
0.050794 0.497404 0.222056
0.050794 0.499011 0.218945
0.050794 0.501300 0.215983
0.050794 0.503698 0.218430
0.050794 0.506063 0.228500
0.051373 0.508027 0.239032
0.065539 0.508764 0.244446
0.122552 0.508764 0.246948
0.205041 0.508635 0.249090
0.276771 0.508258 0.251331
0.333803 0.507724 0.253726
0.383251 0.507498 0.255644
0.428468 0.510061 0.254613
0.471915 0.517432 0.247949
0.515876 0.527987 0.236469
0.561406 0.539011 0.222308
0.608334 0.549648 0.205747
0.655598 0.559525 0.187129
0.701312 0.566989 0.168312
0.745227 0.571938 0.150157
0.790906 0.577553 0.130049
0.837203 0.583598 0.112417
0.882373 0.590029 0.101065
0.924687 0.596264 0.099228
0.963748 0.602318 0.105373
0.996048 0.608465 0.119153
0.999935 0.614290 0.133104
1.000000 0.619958 0.147312
1.000000 0.625743 0.162858
0.050794 0.535901 0.234054
0.050794 0.536879 0.232931
0.050794 0.540313 0.231722
0.050794 0.541964 0.229462
0.050794 0.543675 0.226070
0.050794 0.545866 0.222012
0.050794 0.548366 0.220792
0.050794 0.550798 0.229691
0.050794 0.553170 0.241931
0.053867 0.554633 0.251009
0.080630 0.554780 0.254886
0.153947 0.554602 0.257127
0.244092 0.554308 0.259577
0.316912 0.553783 0.262052
0.374309 0.552977 0.264619
0.424779 0.552736 0.266644
0.471161 0.555667 0.265055
0.515559 0.563620 0.257357
0.560280 0.574689 0.244787
0.606494 0.586205 0.229237
0.654033 0.597644 0.210884
0.702179 0.608635 0.189676
0.748461 0.617485 0.167321
0.792537 0.623573 0.145045
0.835731 0.628275 0.121813
0.878353 0.632560 0.102630
0.920320 0.637839 0.090179
0.959400 0.643031 0.090017
0.992596 0.648262 0.108537
0.999718 0.653278 0.131101
1.000000 0.658164 0.154119
1.000000 0.663287 0.175903
0.050794 0.581401 0.241758
0.050794 0.582592 0.240454
0.050794 0.584866 0.238984
0.050794 0.586512 0.236475
0.050794 0.588436 0.232894
0.050794 0.590531 0.228102
0.050794 0.593052 0.224544
0.050794 0.595541 0.230547
0.050794 0.597962 0.243140
0.050794 0.600068 0.255804
0.056509 0.600638 0.262539
0.100247 0.600386 0.265375
0.197088 0.600134 0.267950
0.289888 0.599736 0.270618
0.359127 0.599127 0.273395
0.416390 0.598399 0.276314
0.467391 0.598329 0.278189
0.514182 0.601779 0.276067
0.558881 0.610099 0.267743
0.603819 0.621056 0.254403
0.649807 0.632505 0.238154
0.697139 0.644189 0.218765
0.745217 0.655935 0.195876
0.791856 0.665922 0.170811
0.835656 0.673141 0.144960
0.875327 0.676308 0.122891
0.914564 0.679362 0.102750
0.953132 0.683663 0.092340
0.986993 0.687904 0.103071
0.999362 0.692012 0.127491
1.000000 0.695973 0.155944
1.000000 0.700311 0.186159
0.050794 0.627784 0.249423
0.050794 0.629039 0.248055
0.050794 0.630171 0.246325
0.050794 0.631716 0.243585
0.050794 0.633597 0.240033
0.050794 0.635668 0.235062
0.050794 0.638035 0.230119
0.050794 0.640346 0.232109
0.050794 0.642548 0.244380
0.050794 0.644760 0.259430
0.050794 0.645857 0.270438
0.069653 0.645754 0.275093
0.145133 0.645405 0.277805
0.250673 0.645114 0.280641
0.337599 0.644697 0.283679
0.403428 0.644074 0.286858
0.459967 0.643318 0.290017
0.510723 0.643689 0.292028
0.557409 0.647480 0.289747
0.601802 0.655695 0.280956
0.645988 0.666324 0.267433
0.691104 0.677422 0.251277
0.737533 0.688968 0.231964
0.784761 0.700895 0.208626
0.830965 0.711872 0.182569
0.873106 0.719154 0.157810
0.910327 0.721903 0.137863
0.946507 0.724645 0.119375
0.980497 0.727910 0.119351
0.998945 0.731088 0.135962
1.000000 0.734014 0.160685
1.000000 0.737264 0.195132
0.050794 0.674639 0.258246
0.050794 0.675734 0.256812
0.050794 0.676763 0.254995
0.050794 0.678137 0.252322
0.050794 0.679750 0.248856
0.050794 0.681481 0.243869
0.050794 0.683485 0.238054
0.050794 0.685663 0.236428
0.050794 0.687499 0.247715
0.050794 0.689275 0.264120
0.050794 0.690668 0.279255
0.055129 0.690874 0.287310
0.099506 0.690403 0.290754
0.205895 0.690121 0.293858
0.310726 0.689850 0.297247
0.387811 0.689228 0.300687
0.450448 0.688553 0.304252
0.505601 0.688015 0.307888
0.555519 0.688598 0.310244
0.601273 0.692629 0.307871
0.644544 0.700774 0.298976
0.687412 0.710739 0.285915
0.731158 0.721051 0.270280
0.775972 0.732079 0.251887
0.821557 0.743854 0.230033
0.866200 0.754952 0.205733
0.906695 0.762724 0.184056
0.941686 0.766077 0.168189
0.974655 0.768773 0.157757
0.998121 0.770655 0.164246
0.999985 0.772673 0.182740
1.000000 0.774477 0.210981
0.050794 0.721612 0.269313
0.050794 0.722284 0.267793
0.050794 0.723126 0.266003
0.050794 0.724069 0.263704
0.050794 0.725261 0.260110
0.050794 0.726642 0.255321
0.050794 0.728299 0.249485
0.050794 0.730153 0.246029
0.050794 0.731684 0.255246
0.050794 0.733048 0.271867
0.050794 0.734316 0.289762
0.050794 0.734810 0.302633
0.074478 0.734349 0.308047
0.162111 0.733878 0.311346
0.278955 0.733636 0.315120
0.371679 0.733105 0.318991
0.440562 0.732475 0.322988
0.499663 0.731837 0.327154
0.552650 0.731263 0.331413
0.600834 0.731962 0.334044
0.644867 0.736000 0.331552
0.686244 0.743473 0.322730
0.727198 0.752408 0.310103
0.768611 0.761789 0.295546
0.811047 0.771891 0.278787
0.854249 0.783002 0.259422
0.896650 0.794086 0.238574
0.935344 0.802684 0.220813
0.968781 0.807701 0.209761
0.995642 0.809272 0.207960
0.999912 0.809724 0.217644
1.000000 0.810792 0.238836
0.050794 0.766072 0.282894
0.050794 0.766578 0.281558
0.050794 0.767167 0.280102
0.050794 0.767930 0.277815
0.050794 0.768791 0.274518
0.050794 0.769884 0.270237
0.050794 0.771119 0.265184
0.050794 0.772650 0.261298
0.050794 0.773876 0.267819
0.050794 0.774778 0.283956
0.050794 0.775602 0.303575
0.050794 0.776004 0.320844
0.058078 0.775607 0.329502
0.119600 0.774950 0.333578
0.247983 0.774698 0.337704
0.358203 0.774209 0.342106
0.432436 0.773579 0.346444
0.494644 0.772941 0.351003
0.549834 0.772185 0.355930
0.599995 0.771602 0.360817
0.645819 0.772384 0.363802
0.687462 0.776277 0.361308
0.726369 0.783208 0.352735
0.764584 0.790957 0.341037
0.803044 0.798871 0.327404
0.842663 0.808022 0.312855
0.883103 0.818494 0.297061
0.922654 0.829401 0.280316
0.959130 0.839065 0.266296
0.989777 0.845312 0.261594
0.999731 0.845445 0.266297
1.000000 0.845201 0.277262
0.050794 0.808161 0.300343
0.050794 0.808659 0.299082
0.050794 0.808992 0.297782
0.050794 0.809561 0.295834
0.050794 0.810162 0.293244
0.050794 0.810983 0.289723
0.050794 0.811864 0.285767
0.050794 0.812947 0.282312
0.050794 0.813708 0.286504
0.050794 0.814090 0.302068
0.050794 0.814393 0.322166
0.050794 0.814414 0.342226
0.051898 0.813919 0.355687
0.103418 0.813142 0.361697
0.236011 0.812703 0.366025
0.353351 0.812115 0.370753
0.430190 0.811392 0.375445
0.493743 0.810666 0.380303
0.549842 0.809910 0.385563
0.600860 0.809154 0.391155
0.647733 0.808601 0.396813
0.690555 0.809504 0.400250
0.728946 0.813359 0.397763
0.764688 0.819447 0.389465
0.799798 0.826009 0.378697
0.835166 0.833023 0.367143
0.871591 0.841239 0.355102
0.908548 0.851131 0.343335
0.944837 0.861615 0.331577
0.977743 0.871548 0.322640
0.998120 0.878241 0.323023
1.000000 0.877711 0.332735
0.050794 0.846540 0.321454
0.050794 0.846853 0.320584
0.050794 0.847292 0.319683
0.050794 0.847619 0.318279
0.050794 0.848130 0.316519
0.050794 0.848691 0.314178
0.050794 0.849300 0.311556
0.050794 0.850100 0.309117
0.050794 0.850731 0.311992
0.050794 0.850873 0.327330
0.050794 0.850656 0.347584
0.050794 0.850246 0.369497
0.058021 0.849588 0.387837
0.120954 0.848785 0.396701
0.252994 0.848281 0.401675
0.365311 0.847658 0.406672
0.439840 0.846805 0.411462
0.502035 0.845957 0.416489
0.557118 0.845091 0.422009
0.607290 0.844255 0.427900
0.653480 0.843499 0.434208
0.696357 0.842967 0.440497
0.735406 0.843866 0.444373
0.769872 0.847554 0.441733
0.801973 0.852978 0.434103
0.833566 0.858586 0.424781
0.865348 0.864554 0.415046
0.897821 0.871820 0.405785
0.930995 0.880945 0.398499
0.963155 0.890710 0.392013
0.991184 0.900326 0.388447
1.000000 0.907078 0.393927
0.050794 0.882075 0.348505
0.050794 0.882329 0.348346
0.050794 0.882626 0.347774
0.050794 0.882883 0.346916
0.050794 0.883184 0.346001
0.050794 0.883485 0.344993
0.050794 0.883833 0.343973
0.050794 0.884386 0.343232
0.050794 0.884762 0.346285
0.050794 0.884523 0.361015
0.050794 0.883925 0.381243
0.050933 0.883014 0.403325
0.084370 0.882143 0.424254
0.191162 0.881378 0.437762
0.310668 0.880670 0.444566
0.398518 0.879940 0.449407
0.465339 0.879058 0.454298
0.522972 0.878183 0.459451
0.574696 0.877285 0.465028
0.622100 0.876427 0.471096
0.666059 0.875671 0.477665
0.707161 0.874914 0.484454
0.745339 0.874359 0.491238
0.779953 0.875082 0.495282
0.809774 0.878624 0.492263
0.837508 0.883388 0.485505
0.865009 0.888149 0.477725
0.892633 0.893088 0.469732
0.920629 0.899160 0.463081
0.949831 0.907504 0.459889
0.977743 0.916493 0.458933
0.998425 0.925519 0.460893
0.050794 0.914246 0.383134
0.050794 0.914492 0.383132
0.050794 0.914546 0.383061
0.050794 0.914778 0.383171
0.050794 0.914845 0.383471
0.050794 0.915097 0.383838
0.050794 0.915357 0.384689
0.050794 0.915650 0.386290
0.050794 0.915806 0.391079
0.050794 0.915364 0.405127
0.050794 0.914412 0.424627
0.058889 0.913331 0.446310
0.132056 0.912206 0.468984
0.282051 0.911324 0.487035
0.392118 0.910568 0.495900
0.456496 0.909712 0.500689
0.511721 0.908830 0.505605
0.561444 0.907942 0.510893
0.607144 0.906952 0.516562
0.649802 0.906093 0.522659
0.689744 0.905205 0.529144
0.727195 0.904376 0.536016
0.762237 0.903620 0.543090
0.794796 0.903162 0.549867
0.823750 0.904040 0.553549
0.848269 0.907237 0.550637
0.871474 0.911108 0.544855
0.894600 0.915011 0.538739
0.917392 0.919056 0.532238
0.940969 0.923911 0.527652
0.965828 0.931499 0.529162
0.989649 0.939714 0.533759
0.050794 0.943629 0.428115
0.050794 0.943654 0.428554
0.050794 0.943450 0.429022
0.050794 0.943479 0.429957
0.050794 0.943456 0.431174
0.050794 0.943303 0.432855
0.050794 0.943295 0.435103
0.050794 0.943108 0.438186
0.050794 0.942795 0.444004
0.052584 0.941953 0.457199
0.062725 0.940656 0.475162
0.122936 0.939197 0.495982
0.271042 0.937647 0.519195
0.403694 0.936172 0.539034
0.476849 0.934977 0.549124
0.525155 0.933972 0.554161
0.568699 0.933090 0.558857
0.609577 0.932213 0.563947
