gsg/02_Everyday/GSG_LUT_Everyday_CoolMids.cube
# GSG LUTs 1.0
# Copyright (c) 2016-2020 Greyscalegorilla
# See EULA for licensing and distribution information
# Converted by Briz LUT Converter
LUT_3D_SIZE 8
DOMAIN_MIN 0.000000 0.000000 0.000000
DOMAIN_MAX 0.903226 0.903226 0.903226
0.000000 0.000000 0.000000
0.121446 0.001418 0.001071
0.232408 0.011233 0.011548
0.334830 0.035401 0.027666
0.427090 0.050928 0.051314
0.520855 0.080602 0.080224
0.613006 0.093686 0.115956
0.698988 0.125543 0.147528
0.020198 0.109008 0.058088
0.108716 0.088949 0.023029
0.212172 0.086713 0.021546
0.313277 0.091196 0.035418
0.406611 0.098108 0.055468
0.504384 0.097440 0.083200
0.596216 0.115265 0.114777
0.684753 0.121490 0.140318
0.059514 0.211777 0.117578
0.125649 0.193476 0.086277
0.195132 0.182042 0.057148
0.291479 0.179754 0.054092
0.385515 0.180460 0.073484
0.479951 0.184648 0.100714
0.573322 0.190033 0.127752
0.662143 0.197069 0.151772
0.097924 0.315042 0.185277
0.137885 0.297732 0.157887
0.200038 0.283757 0.128648
0.271940 0.274428 0.109954
0.363932 0.273516 0.107895
0.457736 0.272851 0.131616
0.549322 0.277390 0.151240
0.638556 0.281919 0.176932
0.116255 0.418134 0.247792
0.157191 0.396196 0.222433
0.205996 0.383152 0.195638
0.275407 0.370733 0.174350
0.348215 0.361538 0.162541
0.436108 0.365122 0.165186
0.528430 0.366126 0.183008
0.616120 0.370840 0.201580
0.129127 0.523786 0.312301
0.163453 0.503068 0.286925
0.215660 0.485809 0.262971
0.275355 0.473654 0.239940
0.345810 0.464214 0.219988
0.420386 0.455397 0.214840
0.508786 0.455603 0.217145
0.597328 0.460390 0.233495
0.152515 0.627650 0.383741
0.167896 0.606289 0.352130
0.226081 0.587193 0.332114
0.283165 0.574262 0.305540
0.348382 0.565787 0.283532
0.420398 0.555463 0.268241
0.494534 0.547215 0.262526
0.581058 0.550223 0.267934
0.177463 0.725157 0.455016
0.197679 0.704300 0.419784
0.250445 0.685265 0.399587
0.297345 0.670076 0.370187
0.359721 0.659876 0.344879
0.432297 0.649044 0.321757
0.510065 0.638644 0.306230
0.587290 0.629403 0.297406
0.006097 0.001505 0.127126
0.085469 0.006693 0.075674
0.192852 0.010549 0.055912
0.293504 0.026192 0.037902
0.388703 0.044758 0.039618
0.485327 0.066286 0.068347
0.576643 0.097163 0.099475
0.665436 0.112741 0.132943
0.022764 0.093175 0.098203
0.146352 0.143564 0.142861
0.238529 0.140569 0.126679
0.334665 0.139070 0.111905
0.429366 0.140703 0.108211
0.524825 0.146822 0.108741
0.615649 0.158333 0.125832
0.703335 0.161023 0.159317
0.060796 0.199481 0.151806
0.154996 0.244399 0.198307
0.224031 0.232100 0.175569
0.319183 0.230405 0.160073
0.408323 0.230944 0.152562
0.501156 0.233308 0.153622
0.595051 0.235409 0.159790
0.680637 0.241462 0.176639
0.089920 0.303415 0.214219
0.164758 0.349134 0.262455
0.229040 0.334355 0.239433
0.301430 0.323976 0.213023
0.387377 0.322418 0.203234
0.480608 0.324055 0.200333
0.570573 0.327913 0.202278
0.658058 0.331160 0.209831
0.112365 0.404064 0.273816
0.171985 0.451363 0.323318
0.234073 0.435236 0.301019
0.298198 0.423745 0.275843
0.372437 0.414348 0.254450
0.460576 0.414837 0.247564
0.550992 0.416120 0.247741
0.637155 0.420714 0.248601
0.111250 0.511001 0.339086
0.170267 0.557906 0.392795
0.240160 0.538621 0.368890
0.303585 0.525455 0.341081
0.372440 0.515826 0.317487
0.445889 0.507001 0.298898
0.533451 0.507824 0.292749
0.620913 0.510347 0.292681
0.127305 0.615571 0.409136
0.188805 0.659081 0.462207
0.254108 0.641876 0.437141
0.316241 0.624909 0.412013
0.379290 0.615231 0.383327
0.448970 0.606281 0.358583
0.527319 0.595782 0.337579
0.621510 0.592746 0.327332
0.164031 0.714169 0.480375
0.228777 0.751353 0.521074
0.290396 0.732853 0.496534
0.352594 0.713565 0.468602
0.413146 0.701349 0.437909
0.481839 0.690759 0.407305
0.557531 0.679082 0.380607
0.634833 0.667861 0.358828
0.019489 0.003498 0.243058
0.071758 0.004691 0.194310
0.160379 0.007476 0.148233
0.260055 0.017858 0.126097
0.352856 0.046152 0.113139
0.447539 0.061462 0.105115
0.542569 0.078491 0.109265
0.632248 0.099710 0.126101
0.026630 0.103054 0.213485
0.129093 0.151557 0.252933
0.209201 0.154130 0.214019
0.302792 0.155398 0.196028
0.392710 0.156282 0.184185
0.487207 0.159204 0.175177
0.580430 0.160484 0.175809
0.669254 0.166862 0.181196
0.066978 0.187249 0.193505
0.162203 0.234472 0.240718
0.252727 0.284549 0.287332
0.341175 0.283474 0.271310
0.431254 0.283542 0.260417
0.522595 0.282804 0.253564
0.611697 0.285938 0.252047
0.697366 0.289904 0.249793
0.092441 0.290624 0.245141
0.167386 0.339191 0.294664
0.255715 0.386047 0.344608
0.327621 0.378085 0.323467
0.416048 0.376675 0.310395
0.505349 0.376140 0.302374
0.593706 0.379516 0.296836
0.680470 0.382162 0.294065
0.113803 0.393007 0.307068
0.171071 0.442279 0.357832
0.258660 0.489284 0.410708
0.327890 0.478459 0.388202
0.400136 0.468923 0.363339
0.486988 0.468276 0.351022
0.576569 0.469974 0.342612
0.662348 0.471255 0.336386
0.104712 0.499490 0.371910
0.174561 0.547493 0.426036
0.259183 0.594784 0.480689
0.336146 0.579523 0.456841
0.400545 0.569933 0.428431
0.475215 0.560032 0.404054
0.563901 0.559378 0.389277
0.659194 0.555338 0.375861
0.116403 0.602609 0.441859
0.185967 0.650293 0.496720
0.274516 0.692113 0.544904
0.360182 0.674513 0.519397
0.424634 0.660933 0.489955
0.498101 0.649991 0.456926
0.576329 0.638054 0.429323
0.668994 0.634413 0.410004
0.140294 0.702324 0.512578
0.218250 0.742979 0.556877
0.328317 0.776413 0.594361
0.403669 0.759401 0.568552
0.467226 0.743169 0.540088
0.535176 0.731336 0.507122
0.608316 0.719601 0.474176
0.684179 0.708382 0.446614
0.013116 0.003884 0.362417
0.051946 0.008850 0.315968
0.145552 0.012562 0.266400
0.227086 0.023089 0.221827
0.322581 0.029737 0.198445
0.413736 0.059904 0.185506
0.505617 0.079789 0.177686
0.594596 0.101260 0.177318
0.027139 0.102158 0.333132
0.104491 0.152609 0.373140
0.194902 0.157089 0.329311
0.273928 0.163839 0.287216
0.361691 0.167089 0.266759
0.451951 0.170785 0.255032
0.544684 0.172446 0.246211
0.634589 0.176430 0.241212
0.051002 0.194093 0.302404
0.138562 0.243668 0.350172
0.233118 0.289077 0.399805
0.314664 0.297766 0.361105
0.400140 0.299442 0.344074
0.489233 0.299397 0.333471
0.579649 0.298386 0.323444
0.665800 0.304652 0.318162
0.091960 0.276948 0.289117
0.172105 0.326437 0.337400
0.259793 0.379463 0.391516
0.351391 0.431485 0.444784
0.439452 0.431137 0.429633
0.527488 0.432554 0.416717
0.616100 0.432840 0.407039
0.700041 0.436749 0.397734
0.101863 0.379156 0.342140
0.171408 0.428948 0.395176
0.259319 0.483067 0.451553
0.353091 0.533207 0.508011
0.428436 0.526356 0.486924
0.516687 0.525221 0.469976
0.606549 0.524118 0.455398
0.701590 0.520898 0.439383
0.108954 0.485307 0.406902
0.167366 0.534571 0.461842
0.256008 0.586678 0.519762
0.361930 0.633141 0.571849
0.441818 0.620704 0.548207
0.519940 0.610190 0.516292
0.615300 0.604482 0.494764
0.710472 0.600379 0.474772
0.100478 0.588086 0.476092
0.175958 0.638693 0.530726
0.274631 0.685425 0.582813
0.402327 0.720916 0.621902
0.482091 0.705579 0.598917
0.552873 0.693951 0.565420
0.628983 0.682295 0.534229
0.721252 0.677349 0.511626
0.130924 0.688768 0.546977
0.206445 0.731393 0.592280
0.324202 0.769392 0.632562
0.444198 0.803711 0.666998
0.521868 0.788124 0.644310
0.590093 0.773962 0.614623
0.659987 0.762680 0.581008
0.733933 0.751514 0.549100
0.000000 0.005459 0.490102
0.005603 0.002800 0.440990
0.115574 0.010457 0.387736
0.211270 0.021104 0.333097
0.290402 0.027704 0.289569
0.382301 0.044457 0.266720
0.474524 0.065453 0.252906
0.563549 0.084537 0.243946
0.000507 0.107526 0.455411
0.029526 0.155261 0.495309
0.159720 0.157761 0.452083
0.252877 0.165873 0.401221
0.330085 0.174492 0.358004
0.421982 0.174901 0.336422
0.511741 0.183042 0.323652
0.601181 0.185261 0.312421
0.020421 0.200346 0.422285
0.092484 0.248379 0.471196
0.199030 0.294767 0.518362
0.290818 0.301068 0.479303
0.370384 0.308456 0.436513
0.458803 0.311721 0.415725
0.547909 0.314922 0.402156
0.632578 0.316162 0.392762
0.071548 0.284434 0.396821
0.138632 0.334768 0.448096
0.230009 0.386410 0.503394
0.329410 0.439543 0.558616
0.411932 0.447816 0.525335
0.500191 0.449580 0.505601
0.587872 0.449988 0.492213
0.672138 0.452108 0.479763
0.101488 0.366987 0.386298
0.172435 0.417218 0.439111
0.259139 0.471030 0.496594
0.356054 0.529288 0.557133
0.454516 0.576141 0.604957
0.552645 0.572578 0.582737
0.650462 0.567860 0.562858
0.745306 0.564167 0.543134
0.090686 0.470155 0.445038
0.163521 0.522181 0.499951
0.261478 0.574972 0.557285
0.365546 0.627895 0.612659
0.488654 0.664623 0.648668
0.571929 0.654190 0.623860
0.666644 0.648418 0.601361
0.760421 0.643539 0.579682
0.102902 0.576840 0.512583
0.172608 0.625900 0.567104
0.271631 0.673672 0.619174
0.403263 0.715310 0.660365
0.523998 0.749044 0.692928
0.605235 0.736202 0.669719
0.679805 0.724709 0.639280
0.771089 0.718749 0.615736
0.107222 0.676348 0.580053
0.196002 0.720655 0.627739
0.319244 0.759441 0.666294
0.444152 0.797886 0.705210
0.558735 0.830333 0.735592
0.639722 0.816161 0.713104
0.709207 0.803080 0.683123
0.781895 0.791646 0.651984
0.000000 0.004955 0.617708
0.000000 0.004191 0.570596
0.017501 0.003973 0.521178
0.176288 0.014734 0.463017
0.271634 0.030296 0.407402
0.350522 0.039862 0.361456
0.444144 0.049890 0.338375
0.532529 0.080500 0.323180
0.000000 0.107212 0.583355
0.000000 0.161215 0.620069
0.064762 0.157384 0.578154
0.215097 0.164251 0.528247
0.307923 0.176427 0.477901
0.388572 0.183222 0.434601
0.481137 0.184058 0.410808
0.569500 0.191571 0.395017
0.000000 0.205052 0.551140
0.004097 0.252348 0.591621
0.143366 0.297038 0.636748
0.254136 0.302973 0.601765
0.345633 0.311215 0.556645
0.426281 0.319868 0.515148
0.517189 0.322989 0.493890
0.603849 0.327295 0.478333
0.001577 0.291507 0.519180
0.068146 0.341084 0.567005
0.189297 0.392504 0.622226
0.298693 0.443746 0.672917
0.388608 0.450676 0.641572
0.469778 0.459609 0.602476
0.558307 0.462836 0.582064
0.644536 0.465062 0.566203
0.047302 0.374942 0.497951
0.130396 0.425836 0.551695
0.226413 0.479652 0.606651
0.329253 0.534780 0.664965
0.437062 0.580069 0.711190
0.531929 0.584958 0.675445
0.630248 0.582621 0.649736
0.723997 0.578852 0.629362
0.098826 0.457568 0.492115
0.166097 0.509100 0.546102
0.257685 0.563492 0.601951
0.367534 0.616666 0.657520
0.492052 0.658621 0.697070
0.614289 0.692007 0.727321
0.711266 0.688222 0.704519
0.804414 0.682586 0.684153
0.075281 0.560472 0.550679
0.169067 0.612072 0.605130
0.269648 0.661469 0.656043
0.400981 0.703700 0.697324
0.527829 0.742838 0.733904
0.647866 0.776487 0.763928
0.729801 0.766521 0.740754
0.819385 0.759895 0.719100
0.104269 0.663461 0.617095
0.184628 0.709457 0.663060
0.314137 0.747475 0.702586
0.442854 0.786918 0.739478
0.561661 0.824599 0.773633
0.677484 0.857473 0.802065
0.757287 0.844753 0.780750
0.828358 0.832915 0.752241
0.000000 0.007216 0.736957
0.000000 0.006452 0.693663
0.000000 0.005443 0.647285
0.079615 0.007506 0.594703
0.232522 0.019729 0.539000
0.329257 0.036302 0.485048
0.408142 0.055484 0.438271
0.501464 0.057751 0.413481
0.000000 0.106439 0.704942
0.000000 0.164363 0.735890
0.000402 0.159637 0.695668
0.146410 0.160958 0.652305
0.272950 0.170962 0.604152
0.365042 0.182578 0.555100
0.444309 0.195156 0.512756
0.536447 0.195778 0.490559
0.000000 0.205977 0.672087
0.000000 0.256067 0.708655
0.034897 0.300483 0.743938
0.207956 0.304467 0.714053
0.313954 0.310786 0.675904
0.404432 0.322308 0.631624
0.482106 0.331623 0.592488
0.572950 0.335413 0.571855
0.000000 0.297726 0.641850
0.000377 0.344888 0.681467
0.129945 0.397395 0.730213
0.267649 0.448696 0.777736
0.360508 0.455203 0.751439
0.447577 0.462048 0.713029
0.526047 0.472051 0.676017
0.616081 0.473041 0.655112
0.000000 0.380494 0.617118
0.055224 0.431253 0.661975
0.187617 0.485622 0.715666
0.302266 0.540981 0.771079
0.417223 0.584974 0.811874
0.513511 0.586761 0.779808
0.602642 0.590673 0.738047
0.699030 0.588096 0.712971
0.012166 0.463378 0.598756
0.125824 0.516895 0.650973
0.232395 0.570388 0.704732
0.344114 0.622006 0.754291
0.474949 0.662014 0.793121
0.601207 0.696295 0.823279
0.691502 0.700042 0.790616
0.785087 0.696891 0.766182
0.079262 0.548653 0.594815
0.163897 0.599938 0.646503
0.270518 0.650180 0.698420
0.404705 0.692981 0.737793
0.529895 0.732033 0.774020
0.652606 0.770593 0.809074
0.768666 0.802119 0.834628
0.859840 0.798634 0.814170
0.091547 0.647695 0.652072
0.180736 0.695086 0.699374
0.314565 0.735360 0.737353
0.442042 0.775384 0.773831
0.565428 0.813420 0.807238
0.683208 0.851198 0.839951
0.795036 0.884499 0.866473
0.869811 0.875109 0.846879
0.000000 0.009721 0.841806
0.000000 0.008712 0.804805
0.000000 0.007925 0.763274
0.000381 0.006926 0.718538
0.165092 0.013635 0.664068
0.295776 0.024975 0.610454
0.382015 0.053052 0.560484
0.464369 0.061074 0.514756
0.000000 0.103359 0.809849
0.000000 0.160514 0.838018
0.000000 0.161103 0.801972
0.031087 0.154614 0.762323
0.224598 0.165275 0.718824
0.335914 0.176747 0.672765
0.421838 0.194869 0.626993
0.499761 0.205190 0.587965
0.000000 0.210902 0.779388
0.000000 0.260095 0.811962
0.001418 0.306094 0.839598
0.156042 0.308384 0.813860
0.280070 0.311788 0.780723
0.377123 0.320694 0.742004
0.461838 0.334111 0.701900
0.537681 0.344626 0.666325
0.000000 0.302999 0.752508
0.000000 0.352773 0.786518
0.071045 0.402311 0.825779
0.240276 0.453809 0.870232
0.335119 0.459775 0.848134
0.424133 0.465022 0.815903
0.507112 0.474898 0.779396
0.584568 0.482496 0.743490
0.000000 0.389723 0.728345
0.001909 0.436285 0.765729
0.146105 0.491868 0.813302
0.280413 0.546424 0.864743
0.402159 0.589610 0.900218
0.496439 0.589641 0.873257
0.588523 0.591676 0.835052
0.671793 0.595972 0.796940
0.000000 0.472869 0.706655
0.042675 0.522331 0.749954
0.195268 0.578701 0.802922
0.325531 0.628135 0.848907
0.461666 0.666217 0.883396
0.587887 0.699814 0.911222
0.677282 0.702191 0.882993
0.759087 0.705447 0.846077
0.000000 0.553498 0.692662
0.127918 0.607831 0.743496
0.251198 0.656684 0.790359
0.387300 0.697606 0.826870
0.515707 0.736776 0.860543
0.640717 0.774492 0.894025
0.757189 0.807324 0.920862
0.840863 0.809982 0.891061
0.079641 0.635583 0.691226
0.183211 0.683615 0.740342
0.316291 0.724346 0.775622
0.446447 0.763841 0.811427
0.569567 0.802323 0.843626
0.686966 0.840311 0.875314
0.800663 0.878097 0.905507
0.904168 0.909705 0.927540
