gsg/02_Everyday/GSG_LUT_Everyday_ContrastyCool.cube
# GSG LUTs 1.0
# Copyright (c) 2016-2020 Greyscalegorilla
# See EULA for licensing and distribution information
# Converted by Briz LUT Converter
LUT_3D_SIZE 32
0.058608 0.059585 0.024420
0.060609 0.059333 0.022396
0.062310 0.059144 0.020221
0.066966 0.059900 0.019465
0.073079 0.060688 0.018803
0.081555 0.061578 0.018764
0.091260 0.061924 0.018606
0.102989 0.062736 0.018914
0.116539 0.063807 0.019481
0.131978 0.065068 0.020379
0.149340 0.066407 0.021639
0.168608 0.068006 0.023073
0.189909 0.069865 0.024932
0.213069 0.071882 0.027051
0.238355 0.073898 0.029320
0.265721 0.076151 0.031707
0.295088 0.078546 0.034227
0.326456 0.081082 0.036882
0.359762 0.083713 0.039513
0.395234 0.086384 0.042184
0.432668 0.089314 0.044956
0.472299 0.092174 0.048060
0.514097 0.095120 0.051857
0.557895 0.098145 0.056253
0.604151 0.101170 0.060979
0.652219 0.104392 0.065966
0.702871 0.107464 0.071417
0.755319 0.110489 0.076962
0.810650 0.113734 0.082949
0.867730 0.116783 0.089228
0.928024 0.120044 0.095766
0.989499 0.123321 0.102320
0.061342 0.066659 0.023892
0.062357 0.065642 0.021608
0.063790 0.064908 0.019188
0.068130 0.064908 0.018164
0.073440 0.065137 0.017204
0.080976 0.065421 0.016700
0.090156 0.065918 0.016338
0.101371 0.066531 0.016643
0.114463 0.067594 0.017206
0.129637 0.068920 0.018108
0.146659 0.070435 0.019365
0.165502 0.072129 0.020891
0.186634 0.074153 0.022816
0.209678 0.076386 0.024893
0.234704 0.078923 0.027413
0.261696 0.081697 0.030056
0.290811 0.084738 0.032837
0.322041 0.087783 0.035484
0.355228 0.090965 0.038150
0.390542 0.094255 0.041073
0.427873 0.097543 0.043788
0.467331 0.100834 0.046968
0.508695 0.104127 0.050841
0.552338 0.107596 0.055061
0.598206 0.110950 0.059727
0.645965 0.114434 0.064904
0.696351 0.117971 0.070196
0.748332 0.121302 0.075702
0.803365 0.124809 0.081689
0.859956 0.128354 0.087739
0.919966 0.131892 0.094246
0.981173 0.135429 0.100555
0.062933 0.074473 0.022726
0.063902 0.072929 0.020213
0.064846 0.071446 0.017992
0.068680 0.070681 0.016480
0.073502 0.070209 0.015091
0.080702 0.070230 0.014573
0.089222 0.070500 0.014208
0.100111 0.071043 0.014447
0.112694 0.071850 0.014884
0.127416 0.072996 0.015881
0.144163 0.074565 0.017047
0.162729 0.076476 0.018727
0.183492 0.078729 0.020727
0.206115 0.081282 0.022939
0.230865 0.084281 0.025453
0.257695 0.087519 0.028201
0.286769 0.091023 0.031210
0.317838 0.094662 0.034086
0.350756 0.098287 0.036858
0.385793 0.101956 0.039781
0.422848 0.105573 0.042648
0.462029 0.109257 0.045741
0.503117 0.113033 0.049522
0.546319 0.116814 0.053901
0.591854 0.120608 0.058612
0.639527 0.124392 0.063594
0.689498 0.128200 0.068841
0.741372 0.132000 0.074347
0.795960 0.135812 0.080320
0.852268 0.139839 0.086368
0.911789 0.143683 0.092418
0.972492 0.147513 0.098712
0.065706 0.086163 0.023026
0.066217 0.084129 0.020512
0.067122 0.082351 0.018268
0.070672 0.081109 0.016755
0.075006 0.080147 0.015334
0.081941 0.079850 0.014597
0.090137 0.079668 0.014183
0.100576 0.079945 0.014219
0.112822 0.080527 0.014591
0.127041 0.081564 0.015400
0.143267 0.082800 0.016559
0.161313 0.084287 0.018133
0.181556 0.086255 0.019883
0.203659 0.088438 0.021944
0.227888 0.091023 0.024341
0.254197 0.093852 0.026942
0.282621 0.096942 0.029690
0.313160 0.100172 0.032345
0.345650 0.103553 0.035104
0.380167 0.107048 0.038002
0.416686 0.110552 0.040860
0.455354 0.114073 0.043782
0.495929 0.117775 0.047303
0.538781 0.121557 0.051440
0.583872 0.125527 0.055896
0.631030 0.129382 0.060822
0.680672 0.133578 0.066048
0.732084 0.137691 0.071551
0.786382 0.141973 0.077296
0.842407 0.146327 0.083320
0.901667 0.150898 0.089369
0.962133 0.155508 0.095663
0.068573 0.099177 0.023876
0.069077 0.096875 0.021357
0.069751 0.094604 0.018927
0.072989 0.093258 0.017385
0.076860 0.091807 0.015936
0.083472 0.091053 0.015001
0.091222 0.090584 0.014518
0.101345 0.090559 0.014376
0.113127 0.090669 0.014691
0.126999 0.091259 0.015328
0.142737 0.092235 0.016383
0.160283 0.093384 0.017708
0.180019 0.094864 0.019303
0.201620 0.096637 0.021240
0.225329 0.098745 0.023476
0.251118 0.100965 0.025846
0.278907 0.103437 0.028350
0.308698 0.106178 0.030973
0.340568 0.109152 0.033589
0.374565 0.112281 0.036240
0.410441 0.115526 0.039001
0.448650 0.118936 0.041774
0.488788 0.122606 0.045044
0.531128 0.126354 0.049061
0.575846 0.130292 0.053330
0.622526 0.134293 0.058155
0.671647 0.138498 0.063185
0.722703 0.142964 0.068597
0.776705 0.147468 0.074134
0.832201 0.152401 0.080078
0.891152 0.157408 0.086124
0.951483 0.162661 0.092355
0.072102 0.115255 0.025468
0.072606 0.112687 0.022993
0.073250 0.109972 0.020718
0.076029 0.108126 0.018977
0.079607 0.106380 0.017522
0.085739 0.105331 0.016519
0.093222 0.104416 0.015857
0.103013 0.104146 0.015707
0.114346 0.104116 0.015991
0.127788 0.104306 0.016555
0.143226 0.104993 0.017362
0.160410 0.105882 0.018529
0.179732 0.107102 0.020017
0.200960 0.108527 0.021734
0.224172 0.110250 0.023733
0.249459 0.112192 0.025945
0.276749 0.114294 0.028299
0.306040 0.116669 0.030661
0.337407 0.119264 0.033141
0.370884 0.122036 0.035645
0.406377 0.125005 0.038324
0.443997 0.128155 0.041070
0.483697 0.131537 0.044149
0.525579 0.134984 0.047777
0.569580 0.138652 0.051905
0.615683 0.142360 0.056347
0.664252 0.146298 0.061220
0.714595 0.150435 0.066215
0.767978 0.154669 0.071657
0.822747 0.159069 0.077125
0.881087 0.163758 0.083062
0.940431 0.168671 0.088826
0.075631 0.132774 0.027579
0.076233 0.129952 0.025304
0.076948 0.127162 0.022876
0.079419 0.124849 0.021131
0.082668 0.122694 0.019607
0.088354 0.121344 0.018425
0.095497 0.120129 0.017754
0.104898 0.119435 0.017519
0.116093 0.119185 0.017633
0.129215 0.119185 0.018102
0.144181 0.119501 0.018764
0.160966 0.120113 0.019842
0.179931 0.121042 0.021167
0.200744 0.122206 0.022844
0.223603 0.123670 0.024696
0.248495 0.125275 0.026674
0.275394 0.127141 0.028768
0.304300 0.129243 0.030895
0.335267 0.131604 0.033137
0.368243 0.134076 0.035535
0.403216 0.136706 0.038152
0.440348 0.139595 0.040726
0.479542 0.142572 0.043627
0.520904 0.145548 0.047174
0.564263 0.148902 0.051096
0.609772 0.152185 0.055277
0.657639 0.155783 0.059719
0.707429 0.159337 0.064461
0.759921 0.163222 0.069606
0.814086 0.166973 0.074618
0.871506 0.171178 0.080038
0.930064 0.175415 0.085533
0.079215 0.152318 0.030155
0.080282 0.149238 0.027943
0.081457 0.146241 0.025756
0.083453 0.143681 0.023940
0.086164 0.141369 0.022238
0.091558 0.139587 0.021047
0.098276 0.138112 0.020292
0.107373 0.137145 0.019886
0.118141 0.136555 0.019906
0.130962 0.136232 0.020229
0.145667 0.136388 0.020873
0.162173 0.136689 0.021844
0.180787 0.137288 0.022999
0.201230 0.138226 0.024444
0.223796 0.139429 0.026042
0.248333 0.140869 0.027867
0.274870 0.142577 0.029729
0.303378 0.144418 0.031732
0.333971 0.146520 0.033834
0.366566 0.148731 0.036116
0.401075 0.151101 0.038422
0.437839 0.153730 0.040874
0.476577 0.156485 0.043893
0.517418 0.159217 0.047295
0.560452 0.162311 0.050998
0.605339 0.165379 0.054977
0.652693 0.168562 0.059168
0.701972 0.171995 0.063774
0.753943 0.175467 0.068549
0.807456 0.178991 0.073287
0.864293 0.182993 0.078256
0.922132 0.187081 0.083430
0.082997 0.173618 0.032928
0.084395 0.170349 0.030976
0.086041 0.167332 0.029020
0.087734 0.164435 0.027027
0.089787 0.161692 0.025318
0.094911 0.159650 0.024042
0.101315 0.157914 0.023128
0.110152 0.156644 0.022679
0.120611 0.155697 0.022537
0.133013 0.155199 0.022795
0.147414 0.154960 0.023333
0.163592 0.155068 0.024153
0.181897 0.155602 0.025121
0.202116 0.156396 0.026308
0.224313 0.157339 0.027755
0.248558 0.158518 0.029321
0.274803 0.159998 0.031020
0.302947 0.161610 0.032888
0.333194 0.163452 0.034905
0.365529 0.165442 0.037033
0.399738 0.167616 0.039119
0.436091 0.170007 0.041632
0.474373 0.172592 0.044578
0.514759 0.175193 0.047784
0.557435 0.178060 0.051391
0.601895 0.181020 0.055304
0.648900 0.184032 0.059325
0.697743 0.187270 0.063516
0.749260 0.190604 0.068120
0.802375 0.194116 0.072669
0.858579 0.198056 0.077382
0.915893 0.202206 0.082106
0.086707 0.196550 0.035771
0.088697 0.193349 0.034009
0.090814 0.190240 0.032302
0.092230 0.186973 0.030368
0.093849 0.183905 0.028581
0.098622 0.181591 0.027209
0.104614 0.179536 0.026281
0.113174 0.178022 0.025759
0.123319 0.176851 0.025515
0.135429 0.176060 0.025586
0.149491 0.175612 0.025973
0.165409 0.175460 0.026656
0.183426 0.175734 0.027433
0.203342 0.176297 0.028471
0.225278 0.177021 0.029690
0.249210 0.177975 0.031069
0.275101 0.179288 0.032581
0.302989 0.180732 0.034322
0.332967 0.182386 0.036225
0.365012 0.184257 0.038182
0.398844 0.186358 0.040244
0.434873 0.188601 0.042782
0.472895 0.190870 0.045728
0.513020 0.193449 0.048882
0.555296 0.196203 0.052330
0.599454 0.199033 0.055999
0.646047 0.202024 0.059971
0.694540 0.205200 0.063942
0.745787 0.208689 0.068187
0.798303 0.212152 0.072568
0.854154 0.215844 0.077028
0.911024 0.219552 0.081492
0.090236 0.221301 0.038796
0.092998 0.218189 0.037116
0.095593 0.214902 0.035511
0.096814 0.211446 0.033731
0.098080 0.207962 0.031880
0.102441 0.205360 0.030646
0.108143 0.202899 0.029619
0.116294 0.201164 0.028918
0.126105 0.199842 0.028520
0.137983 0.198749 0.028532
0.151851 0.198133 0.028812
0.167509 0.197774 0.029237
0.185230 0.197787 0.029856
0.204827 0.198163 0.030667
0.226503 0.198763 0.031750
0.250259 0.199584 0.033085
0.275931 0.200677 0.034557
0.303565 0.201910 0.036122
0.333225 0.203483 0.037755
0.364937 0.205263 0.039600
0.398558 0.207165 0.041774
0.434302 0.209319 0.044374
0.472038 0.211588 0.047264
0.511903 0.214038 0.050324
0.553919 0.216686 0.053687
0.597817 0.219575 0.057198
0.644150 0.222585 0.061005
0.692231 0.225610 0.064800
0.743124 0.229076 0.069022
0.795299 0.232450 0.073079
0.850565 0.236045 0.077425
0.907007 0.239734 0.081791
0.093678 0.247871 0.041735
0.097129 0.244594 0.040307
0.100295 0.241286 0.038710
0.101485 0.237496 0.036937
0.102408 0.233751 0.035157
0.106434 0.230889 0.033897
0.111811 0.228169 0.032731
0.119473 0.226153 0.032010
0.129129 0.224547 0.031502
0.140659 0.223294 0.031366
0.154212 0.222415 0.031506
0.169610 0.221939 0.031794
0.187101 0.221748 0.032400
0.206523 0.221863 0.033109
0.228028 0.222317 0.034078
0.251529 0.223015 0.035233
0.277025 0.223979 0.036530
0.304431 0.225121 0.037930
0.333806 0.226473 0.039623
0.365294 0.228195 0.041538
0.398707 0.230021 0.043768
0.434164 0.232058 0.046339
0.471677 0.234298 0.049084
0.511307 0.236684 0.052155
0.553062 0.239249 0.055410
0.596700 0.241917 0.058814
0.642845 0.244878 0.062254
0.690605 0.247903 0.065981
0.740843 0.251604 0.070360
0.792399 0.255482 0.074677
0.846643 0.259773 0.079619
0.902123 0.264335 0.084604
0.096955 0.276072 0.044791
0.100935 0.272701 0.043433
0.104833 0.269386 0.042050
0.106022 0.265493 0.040280
0.106892 0.261561 0.038516
0.110506 0.258372 0.037174
0.115544 0.255452 0.036008
0.122924 0.253086 0.035251
0.132230 0.251171 0.034621
0.143472 0.249703 0.034413
0.156809 0.248676 0.034394
0.171980 0.247995 0.034669
0.189211 0.247682 0.035173
0.208382 0.247595 0.035802
0.229802 0.247860 0.036591
0.253047 0.248430 0.037583
0.278332 0.249264 0.038766
0.305605 0.250360 0.040222
0.334799 0.251621 0.041987
0.366111 0.253123 0.043901
0.399260 0.254851 0.046172
0.434542 0.256780 0.048659
0.471956 0.258903 0.051353
0.511372 0.261145 0.054307
0.552867 0.263791 0.057448
0.596321 0.266444 0.060703
0.642277 0.269313 0.064060
0.689567 0.272570 0.067860
0.738914 0.276905 0.072706
0.789675 0.281702 0.077779
0.842498 0.287516 0.083807
0.896672 0.293639 0.089992
0.100028 0.305880 0.048627
0.104635 0.302458 0.047115
0.109172 0.299035 0.045580
0.110477 0.294992 0.043724
0.111486 0.290916 0.042026
0.114710 0.287360 0.040536
0.119276 0.284296 0.039265
0.126362 0.281643 0.038426
0.135305 0.279531 0.037796
0.146307 0.277878 0.037544
0.159351 0.276591 0.037371
0.174315 0.275650 0.037507
0.191421 0.275135 0.037906
0.210458 0.274922 0.038390
0.231683 0.275032 0.039110
0.254764 0.275471 0.040159
0.279866 0.276175 0.041420
0.306968 0.277143 0.042948
0.335988 0.278357 0.044712
0.367112 0.279767 0.046626
0.400154 0.281371 0.048801
0.435299 0.283264 0.051165
0.472486 0.285281 0.053826
0.511718 0.287555 0.056780
0.552900 0.290307 0.059964
0.596109 0.293351 0.063480
0.641430 0.296613 0.067365
0.688167 0.300587 0.071742
0.736859 0.305660 0.077116
0.786849 0.311137 0.082849
0.838899 0.318060 0.089552
0.892197 0.325220 0.096459
0.102800 0.337327 0.053133
0.108073 0.333936 0.051621
0.113221 0.330475 0.050077
0.114801 0.326315 0.048050
0.116115 0.322078 0.045982
0.118914 0.318244 0.044356
0.122987 0.314855 0.042824
0.129724 0.312049 0.041782
0.138399 0.309660 0.041123
0.149159 0.307803 0.040757
0.162042 0.306333 0.040506
0.176746 0.305172 0.040592
0.193690 0.304467 0.040887
0.212667 0.304054 0.041412
0.233760 0.304050 0.042228
0.256727 0.304360 0.043294
0.281626 0.304933 0.044555
0.308530 0.305770 0.046022
0.337436 0.306856 0.047737
0.368427 0.308220 0.049651
0.401323 0.309804 0.051826
0.436417 0.311611 0.054094
0.473426 0.313593 0.056631
0.512502 0.316135 0.059635
0.553351 0.319262 0.063237
0.595976 0.322908 0.067477
0.640518 0.327352 0.072354
0.686496 0.332284 0.077676
0.734639 0.338180 0.083721
0.784079 0.344309 0.089985
0.835988 0.351653 0.097208
0.889031 0.359187 0.104384
0.105337 0.370523 0.058159
0.111253 0.366998 0.056647
0.117042 0.363543 0.055095
0.119015 0.359258 0.052944
0.120738 0.354989 0.050723
0.123236 0.350873 0.048856
0.126789 0.347112 0.047163
0.133062 0.344075 0.045891
0.141511 0.341495 0.045076
0.152076 0.339317 0.044518
0.164654 0.337721 0.044217
0.179219 0.336427 0.044224
0.196031 0.335594 0.044525
0.214936 0.335043 0.045059
0.235915 0.334848 0.045815
0.258679 0.334962 0.046808
0.283509 0.335405 0.048007
0.310339 0.336177 0.049344
0.339107 0.337185 0.050998
0.369970 0.338493 0.052985
0.402820 0.340239 0.055281
0.437834 0.342206 0.057912
0.474710 0.344472 0.060758
0.513472 0.347491 0.064276
0.554122 0.351138 0.068425
0.596297 0.355305 0.073293
0.640415 0.360507 0.078842
0.685864 0.366135 0.084722
0.733696 0.372572 0.091304
0.782874 0.379346 0.098090
0.834523 0.387089 0.105719
0.887306 0.395021 0.113277
0.107606 0.405435 0.063453
0.114168 0.401906 0.061940
0.120486 0.398330 0.060389
0.123109 0.394032 0.058238
0.125385 0.389633 0.055984
0.127671 0.385347 0.053877
0.130623 0.381219 0.052054
0.136506 0.377923 0.050623
0.144597 0.375083 0.049548
0.154902 0.372644 0.048803
0.167260 0.370869 0.048462
0.181695 0.369485 0.048383
0.198426 0.368442 0.048586
0.217277 0.367813 0.048966
0.238127 0.367504 0.049722
0.260761 0.367480 0.050654
0.285525 0.367858 0.051723
0.312287 0.368500 0.052999
0.340998 0.369451 0.054580
0.371860 0.370836 0.056669
0.404711 0.372794 0.059306
0.439554 0.375277 0.062669
0.476259 0.378193 0.066426
0.514798 0.381770 0.070761
0.555187 0.386035 0.075593
0.597102 0.390750 0.081010
0.641065 0.396262 0.086868
0.686494 0.402150 0.093118
0.734212 0.408960 0.099976
0.783143 0.416243 0.107259
0.834653 0.424506 0.115164
0.887306 0.432959 0.123234
0.109473 0.441932 0.069014
0.116693 0.438407 0.067502
0.123678 0.434951 0.065949
0.127057 0.430530 0.063796
0.129771 0.426111 0.061631
0.131862 0.421531 0.059264
0.134329 0.417044 0.057204
0.139818 0.413487 0.055638
0.147557 0.410422 0.054441
0.157636 0.407823 0.053536
0.169861 0.405825 0.052972
0.184174 0.404309 0.052755
0.200874 0.403091 0.052878
0.219693 0.402252 0.053211
0.240395 0.401872 0.053829
0.263037 0.401849 0.054760
0.287879 0.402228 0.055975
0.314787 0.402886 0.057536
0.343644 0.403922 0.059464
0.374635 0.405600 0.061990
0.407531 0.407783 0.065240
0.442294 0.410639 0.069160
0.478877 0.414070 0.073600
0.517282 0.418068 0.078425
0.557454 0.422703 0.083834
0.599220 0.427797 0.089582
0.643048 0.433704 0.095809
0.688456 0.439991 0.102444
0.736067 0.447199 0.109699
0.784875 0.454866 0.117365
0.836378 0.463641 0.125668
0.889299 0.472732 0.133451
0.110985 0.480200 0.074812
0.118845 0.476674 0.073299
0.126610 0.473190 0.071749
0.130759 0.468796 0.069623
0.134042 0.464319 0.067415
0.135974 0.459507 0.064911
0.138040 0.454760 0.062590
0.143180 0.450943 0.060790
0.150622 0.447645 0.059482
0.160377 0.444868 0.058545
0.172478 0.442611 0.057822
0.186745 0.440873 0.057395
0.203482 0.439576 0.057435
0.222167 0.438650 0.057643
0.242742 0.438110 0.058065
0.265496 0.438085 0.059110
0.290671 0.438463 0.060716
0.317900 0.439322 0.062960
0.347150 0.440765 0.065814
0.378306 0.442743 0.069093
0.411202 0.445195 0.072978
0.445965 0.448322 0.077287
0.482548 0.452092 0.082166
0.520871 0.456382 0.087324
0.560905 0.461191 0.093079
0.602639 0.466635 0.099138
0.646493 0.472922 0.105724
0.691782 0.479583 0.112760
0.739375 0.487294 0.120393
0.788184 0.495377 0.128463
0.840235 0.504666 0.135906
0.893962 0.514420 0.141943
0.112198 0.520367 0.080610
0.120731 0.516838 0.079097
0.129132 0.513262 0.077553
0.134062 0.508953 0.075513
0.138028 0.504364 0.073213
0.139903 0.499381 0.070668
0.141623 0.494374 0.068116
0.146502 0.490297 0.066176
0.153658 0.486739 0.064635
0.163106 0.483745 0.063543
0.175116 0.481333 0.062729
0.189558 0.479389 0.062334
0.206573 0.477949 0.062450
0.225475 0.476923 0.062924
0.246467 0.476364 0.063750
0.269583 0.476332 0.065236
0.295071 0.476788 0.067310
0.322478 0.477782 0.070105
0.351893 0.479436 0.073623
0.383134 0.481683 0.077508
0.416127 0.484383 0.081817
0.450943 0.487754 0.086524
0.487420 0.491677 0.091677
0.525700 0.496184 0.097193
0.565770 0.501370 0.103247
0.607515 0.507191 0.109769
0.651455 0.513883 0.116664
0.696802 0.520959 0.124181
0.744401 0.529041 0.132241
0.794050 0.537771 0.138581
0.846845 0.547735 0.144531
0.901004 0.558116 0.149900
0.113207 0.562243 0.086407
0.122360 0.558714 0.084900
0.131450 0.555138 0.083498
0.137160 0.550829 0.081326
0.141809 0.546229 0.079148
0.143669 0.541122 0.076450
0.145261 0.535825 0.073789
0.149844 0.531360 0.071665
0.156618 0.527542 0.069864
0.165851 0.524361 0.068557
0.177927 0.521868 0.067706
0.192769 0.519697 0.067487
0.210166 0.518083 0.067941
0.229636 0.516980 0.069011
0.251409 0.516476 0.070709
0.275061 0.516520 0.072929
0.300810 0.517106 0.075686
0.328425 0.518232 0.078939
0.357911 0.519957 0.082773
0.389153 0.522321 0.087016
0.422206 0.525195 0.091622
0.457056 0.528792 0.096652
0.493577 0.532909 0.102030
0.531876 0.537766 0.107965
0.572019 0.543326 0.114345
0.613785 0.549428 0.121203
0.657726 0.556460 0.128641
0.703429 0.564030 0.135727
0.752077 0.572690 0.141889
0.802363 0.582035 0.147091
0.855531 0.592617 0.153067
0.909859 0.603521 0.159258
0.113884 0.606081 0.092205
0.123731 0.602552 0.090695
0.133591 0.598976 0.089223
0.139928 0.594667 0.087116
0.145302 0.590045 0.084877
0.147450 0.584754 0.082222
0.149025 0.579211 0.079404
0.153537 0.574513 0.077266
0.160367 0.570307 0.075674
0.170022 0.566842 0.074522
0.182794 0.564087 0.074013
0.198014 0.561767 0.074197
0.215811 0.559991 0.075201
0.235667 0.558888 0.076912
0.257954 0.558384 0.079270
0.281973 0.558390 0.082021
0.307896 0.559020 0.085217
0.335681 0.560274 0.088905
0.365205 0.562135 0.092977
0.396549 0.564567 0.097411
0.429560 0.567604 0.102384
0.464463 0.571462 0.107733
0.501099 0.575839 0.113489
0.539545 0.581020 0.119797
0.579731 0.586862 0.126586
0.621631 0.593358 0.133742
0.666436 0.600821 0.139643
0.713027 0.608898 0.145183
0.762330 0.618157 0.150513
0.812830 0.628030 0.156272
0.866092 0.639132 0.163183
0.920509 0.650723 0.170909
0.114215 0.651739 0.098003
0.124848 0.648215 0.096491
0.135651 0.644796 0.094935
0.142695 0.640325 0.092750
0.148795 0.635670 0.090584
0.151259 0.630147 0.087833
0.153013 0.624505 0.084984
0.157722 0.619591 0.083059
0.165056 0.615019 0.081878
0.175915 0.611144 0.081468
0.189707 0.608097 0.081904
0.205568 0.605632 0.082787
0.223743 0.603738 0.084387
0.243893 0.602529 0.086488
0.266218 0.601946 0.089188
0.290312 0.601904 0.092242
0.316365 0.602623 0.095787
0.344188 0.603915 0.099768
0.373713 0.605821 0.104112
0.405105 0.608499 0.108846
0.438319 0.611722 0.114130
0.473253 0.615778 0.119768
0.509982 0.620415 0.125962
0.548537 0.625856 0.132603
0.589414 0.632093 0.138373
0.632411 0.639092 0.143738
0.677829 0.647075 0.148863
0.724922 0.655672 0.154211
0.774288 0.665452 0.160365
0.825023 0.675683 0.167245
0.878469 0.687462 0.176042
0.933066 0.699657 0.185939
0.114286 0.699319 0.103620
0.125877 0.695973 0.101926
0.137389 0.692453 0.100390
0.145775 0.688068 0.098484
0.153199 0.683241 0.096443
0.156857 0.677626 0.094191
0.159772 0.671748 0.091917
0.165366 0.666388 0.090586
0.173099 0.661397 0.089888
0.184274 0.657208 0.090113
0.198546 0.653843 0.091301
0.214811 0.651085 0.092837
0.233273 0.649093 0.094858
0.253622 0.647653 0.097331
0.275915 0.647016 0.100291
0.300004 0.647068 0.103605
0.326094 0.647824 0.107354
0.354016 0.649116 0.111502
0.383623 0.651127 0.116116
0.415125 0.653968 0.121251
0.448501 0.657479 0.126865
0.483560 0.661712 0.132886
0.520889 0.666680 0.138163
0.560482 0.672433 0.143081
0.602054 0.679126 0.147907
0.645516 0.686498 0.152937
0.691168 0.694967 0.158650
0.738509 0.703927 0.164876
0.788072 0.714367 0.172543
0.839060 0.725070 0.181769
0.892591 0.737434 0.191686
0.947261 0.750152 0.201891
0.114286 0.748978 0.108787
0.126725 0.745699 0.107214
0.139201 0.742294 0.105527
0.149397 0.737784 0.104166
0.159139 0.732876 0.102930
0.165005 0.727056 0.101746
0.170189 0.720869 0.100886
0.176675 0.714988 0.100321
0.184489 0.709493 0.100291
0.195581 0.704904 0.100926
0.209723 0.701258 0.102326
0.225858 0.698220 0.104207
0.244263 0.696081 0.106440
0.264650 0.694576 0.109095
0.286943 0.693845 0.112315
0.311124 0.693828 0.115890
0.337311 0.694584 0.119866
0.365268 0.695980 0.124348
0.395013 0.698113 0.129307
0.426865 0.701097 0.134393
0.460900 0.704762 0.138853
0.496910 0.709295 0.143225
0.534878 0.714609 0.147726
0.574879 0.720782 0.152487
0.616890 0.727832 0.157736
0.660604 0.735631 0.163657
0.706504 0.744449 0.170504
0.753941 0.754009 0.178943
0.803739 0.764872 0.188334
0.854811 0.776260 0.197831
0.908529 0.789156 0.208243
0.963394 0.802395 0.218717
0.114680 0.800520 0.114420
0.128930 0.797237 0.113312
0.143677 0.793690 0.112189
0.156226 0.789110 0.111543
0.167648 0.784017 0.111018
0.175810 0.778108 0.111073
0.182816 0.771650 0.111344
0.189956 0.765363 0.111515
0.197720 0.759247 0.111997
0.208592 0.754299 0.112917
0.222474 0.750254 0.114475
0.238418 0.746954 0.116483
0.256712 0.744577 0.118954
0.276978 0.742952 0.121836
0.299360 0.742195 0.125316
0.323676 0.742148 0.129151
0.349993 0.742904 0.133083
0.378478 0.744438 0.136705
0.409067 0.746800 0.140324
0.441582 0.749900 0.144304
0.476081 0.753840 0.148350
0.512560 0.758588 0.152750
0.550859 0.764116 0.157600
0.591079 0.770590 0.163198
0.633227 0.778067 0.169431
0.677169 0.786216 0.177016
0.723329 0.795470 0.185929
0.770978 0.805589 0.195055
0.821029 0.816930 0.204797
0.872310 0.828885 0.214724
0.926285 0.842305 0.225652
0.981212 0.856261 0.236843
0.116413 0.854086 0.120422
0.134439 0.850392 0.120894
0.152938 0.846787 0.121371
0.167451 0.842010 0.121924
0.180727 0.836821 0.122492
0.190192 0.830582 0.123173
0.198361 0.824167 0.123881
0.205524 0.817434 0.124472
0.212853 0.810878 0.124934
0.223313 0.805352 0.126114
0.236934 0.801013 0.127851
0.252781 0.797454 0.129730
0.271268 0.794895 0.131828
0.291802 0.793155 0.134164
0.314536 0.792280 0.136754
0.339287 0.792233 0.139581
0.366263 0.793095 0.142748
0.395171 0.794754 0.146170
0.426075 0.797164 0.149870
0.458938 0.800409 0.154018
0.493584 0.804490 0.158607
0.530250 0.809549 0.163770
0.568809 0.815388 0.169804
0.609290 0.822122 0.176990
0.651661 0.829896 0.185215
0.695852 0.838481 0.193729
0.742273 0.848246 0.202768
0.790182 0.858708 0.212212
0.840309 0.870542 0.222372
0.891830 0.883017 0.233046
0.945866 0.897156 0.244708
0.997519 0.911686 0.256883
0.122470 0.909094 0.123707
0.144825 0.905314 0.124909
0.165914 0.901487 0.126324
0.182451 0.896475 0.127719
0.197541 0.891303 0.128941
0.208424 0.885152 0.130288
0.217513 0.878536 0.131305
0.224686 0.871414 0.132438
0.231384 0.864249 0.133428
0.241493 0.858343 0.134745
0.254772 0.853592 0.136358
0.270530 0.849773 0.138285
0.288920 0.846970 0.140521
0.309512 0.845083 0.142873
0.332405 0.844184 0.145572
0.357352 0.844137 0.148750
0.384450 0.844910 0.152215
0.413532 0.846601 0.156080
