gsg/02_Everyday/GSG_LUT_Everyday_Gallery_Photo.cube
# GSG LUTs 1.0
# Copyright (c) 2016-2020 Greyscalegorilla
# See EULA for licensing and distribution information
# Converted by Briz LUT Converter
LUT_3D_SIZE 5
DOMAIN_MIN 0.000000 0.000000 0.000000
DOMAIN_MAX 0.903226 0.903226 0.903226
0.000000 0.000000 0.000000
0.052708 0.000000 0.000000
0.161298 0.000000 0.000000
0.336106 0.000000 0.000000
0.525094 0.000000 0.000000
0.095270 0.147040 0.044106
0.151939 0.135342 0.029752
0.295043 0.108206 0.010950
0.520840 0.059285 0.000000
0.695130 0.021645 0.000000
0.163654 0.402773 0.122494
0.241291 0.396209 0.113578
0.416421 0.370451 0.089141
0.635283 0.326598 0.052117
0.794948 0.277571 0.032481
0.387908 0.684241 0.137485
0.448062 0.677492 0.130621
0.594795 0.661924 0.122343
0.754151 0.640313 0.116184
0.880156 0.617173 0.125088
0.711773 0.807389 0.094978
0.733126 0.806838 0.093886
0.790697 0.803151 0.093513
0.864799 0.795337 0.112661
0.944604 0.791099 0.159273
0.000000 0.000000 0.108386
0.076246 0.000000 0.088812
0.203816 0.000025 0.063153
0.395254 0.000000 0.030658
0.580338 0.000000 0.017905
0.096719 0.164302 0.164268
0.153470 0.151238 0.151571
0.308936 0.123807 0.120369
0.537824 0.078961 0.067533
0.725274 0.032375 0.035228
0.151940 0.423814 0.225330
0.237775 0.415912 0.216364
0.424118 0.389984 0.188434
0.650001 0.345153 0.148530
0.813958 0.288622 0.124528
0.384115 0.702021 0.254455
0.446047 0.696551 0.250121
0.596591 0.680579 0.234288
0.758028 0.659877 0.221129
0.886406 0.636913 0.231280
0.711520 0.827078 0.222420
0.732996 0.826585 0.222653
0.790463 0.822732 0.226748
0.864837 0.816782 0.239207
0.947694 0.811097 0.276749
0.000000 0.011722 0.265966
0.080606 0.003907 0.255844
0.224620 0.000000 0.227815
0.432175 0.000453 0.184891
0.614845 0.000000 0.167685
0.098361 0.189291 0.353662
0.152554 0.176790 0.349289
0.313209 0.149884 0.321697
0.547066 0.111302 0.273111
0.725524 0.074020 0.248832
0.124337 0.454572 0.454390
0.220058 0.447742 0.447745
0.423325 0.423276 0.423011
0.658738 0.376475 0.380614
0.830714 0.316915 0.355231
0.354174 0.738840 0.522635
0.421315 0.735625 0.516029
0.583158 0.720847 0.502125
0.747503 0.699985 0.489442
0.886242 0.674804 0.481508
0.687913 0.874527 0.504956
0.711666 0.872842 0.505141
0.770587 0.869213 0.507335
0.849515 0.863230 0.514183
0.934825 0.854001 0.537287
0.003663 0.048706 0.472969
0.087105 0.024661 0.483564
0.240959 0.017930 0.455689
0.467758 0.007337 0.409272
0.644939 0.006365 0.375950
0.090616 0.224755 0.599199
0.155098 0.212213 0.603095
0.322378 0.186078 0.573628
0.557575 0.148432 0.518136
0.729223 0.116896 0.478915
0.118023 0.488227 0.707507
0.222177 0.481541 0.703796
0.427119 0.454927 0.679449
0.652750 0.413144 0.631448
0.816180 0.355882 0.592768
0.362554 0.766530 0.781038
0.426882 0.763097 0.775323
0.575173 0.752242 0.756970
0.733181 0.732397 0.732584
0.867805 0.703580 0.710349
0.656662 0.911781 0.785498
0.678835 0.909130 0.782077
0.740544 0.904856 0.776368
0.822564 0.896573 0.770899
0.913517 0.885593 0.764511
0.018914 0.097192 0.650833
0.119112 0.070014 0.659597
0.281337 0.061325 0.627846
0.500937 0.040097 0.576676
0.670400 0.026486 0.536858
0.107249 0.243150 0.763676
0.183231 0.234360 0.764773
0.364591 0.208882 0.727796
0.584220 0.175342 0.668014
0.741209 0.144498 0.621346
0.179024 0.504715 0.857987
0.272100 0.493504 0.852335
0.472742 0.472098 0.819614
0.671576 0.434052 0.772535
0.819326 0.382178 0.731451
0.423824 0.784412 0.918798
0.477009 0.779978 0.912043
0.602142 0.767813 0.894011
0.739374 0.749292 0.869328
0.862338 0.722854 0.843275
0.675819 0.928631 0.936855
0.694180 0.927937 0.936077
0.745591 0.924043 0.928434
0.817535 0.916447 0.918067
0.905046 0.905196 0.905002
