gsg/02_Everyday/GSG_LUT_Everyday_Heroic_Warmth.cube
# GSG LUTs 1.0
# Copyright (c) 2016-2020 Greyscalegorilla
# See EULA for licensing and distribution information
# Converted by Briz LUT Converter
LUT_3D_SIZE 5
DOMAIN_MIN 0.000000 0.000000 0.000000
DOMAIN_MAX 0.903226 0.903226 0.903226
0.077656 0.085958 0.068620
0.163882 0.123416 0.108630
0.286211 0.140588 0.128977
0.442625 0.151444 0.140778
0.595919 0.181189 0.166631
0.123880 0.180031 0.122935
0.195128 0.201563 0.141696
0.296348 0.214756 0.145251
0.438150 0.223532 0.148560
0.595224 0.244631 0.169832
0.143078 0.307810 0.148537
0.212446 0.311488 0.151568
0.309087 0.317145 0.155154
0.440191 0.324889 0.160491
0.599924 0.356401 0.195958
0.173461 0.461286 0.169199
0.232579 0.454155 0.167013
0.334255 0.462432 0.182709
0.481467 0.494120 0.223532
0.637466 0.540762 0.288029
0.261412 0.631510 0.229091
0.340980 0.637087 0.257723
0.448478 0.653740 0.297312
0.582394 0.686990 0.360518
0.720812 0.735153 0.442574
0.080752 0.090141 0.089369
0.165158 0.125180 0.134906
0.285313 0.140588 0.166862
0.439921 0.151926 0.187806
0.594331 0.182735 0.215046
0.125889 0.180318 0.149266
0.192108 0.199236 0.169831
0.296256 0.208992 0.182193
0.434148 0.220924 0.197321
0.589551 0.244830 0.221856
0.144250 0.304989 0.190635
0.204296 0.309418 0.190932
0.303895 0.312505 0.199069
0.436128 0.322189 0.213287
0.594414 0.366186 0.260666
0.174414 0.457960 0.219646
0.232258 0.451206 0.220278
0.340733 0.466789 0.246177
0.486805 0.500623 0.290193
0.639380 0.550541 0.352217
0.272514 0.632762 0.288482
0.359654 0.638657 0.320979
0.464189 0.657369 0.361624
0.594943 0.693454 0.423586
0.729736 0.744661 0.503184
0.085801 0.098232 0.145780
0.174012 0.128818 0.194345
0.289934 0.145228 0.239602
0.441191 0.156615 0.272918
0.596600 0.188473 0.299326
0.125747 0.187199 0.206863
0.192161 0.199986 0.238013
0.297746 0.208233 0.261649
0.433591 0.221843 0.281090
0.588554 0.247837 0.303898
0.147510 0.307285 0.265490
0.204202 0.309031 0.272866
0.302065 0.311184 0.281726
0.438113 0.328411 0.301191
0.591799 0.381226 0.345662
0.178841 0.457655 0.303123
0.239011 0.454145 0.306910
0.353285 0.474334 0.334276
0.496713 0.511052 0.372723
0.644917 0.564382 0.427109
0.288406 0.637289 0.368937
0.379034 0.645784 0.395279
0.484202 0.664611 0.435573
0.611940 0.703459 0.493555
0.742701 0.757785 0.569469
0.089054 0.105014 0.249037
0.185125 0.126263 0.307338
0.304407 0.143310 0.353299
0.445405 0.164402 0.386222
0.601442 0.197865 0.412124
0.115590 0.194563 0.318146
0.190718 0.200027 0.358357
0.301098 0.210553 0.376477
0.436077 0.226066 0.396406
0.591571 0.255041 0.416516
0.139430 0.314597 0.381079
0.207058 0.311542 0.388313
0.303820 0.313191 0.397920
0.444976 0.341461 0.418621
0.597432 0.399110 0.448625
0.187272 0.460760 0.419404
0.254669 0.464307 0.426000
0.369792 0.486675 0.443894
0.513144 0.526828 0.471906
0.655885 0.584239 0.518404
0.310630 0.645626 0.471669
0.403523 0.657304 0.492844
0.506680 0.678246 0.524757
0.635205 0.718996 0.577704
0.761988 0.776580 0.648790
0.086053 0.106983 0.419434
0.192971 0.125356 0.464968
0.313829 0.148400 0.492426
0.451652 0.174422 0.520304
0.607176 0.210800 0.543535
0.109386 0.199716 0.476106
0.196761 0.206242 0.493158
0.305542 0.216841 0.512454
0.440080 0.233203 0.532495
0.596236 0.268044 0.547815
0.148148 0.320167 0.518059
0.213498 0.316128 0.525804
0.313051 0.322964 0.529478
0.455293 0.362262 0.541394
0.607637 0.420166 0.559658
0.201835 0.466533 0.555635
0.280958 0.476868 0.553551
0.394749 0.502430 0.557831
0.534296 0.546838 0.572371
0.672315 0.607032 0.611501
0.336965 0.657135 0.585303
0.432463 0.672134 0.599121
0.533225 0.695511 0.620931
0.659769 0.739186 0.663739
0.785495 0.799837 0.728290
