gsg/02_Everyday/GSG_LUT_Everyday_LetThereBeLight.cube
# GSG LUTs 1.0
# Copyright (c) 2016-2020 Greyscalegorilla
# See EULA for licensing and distribution information
# Converted by Briz LUT Converter
LUT_3D_SIZE 5
DOMAIN_MIN 0.000000 0.000000 0.000000
DOMAIN_MAX 0.903226 0.903226 0.903226
0.000000 0.000000 0.000000
0.202741 0.020418 0.019631
0.400181 0.076190 0.068242
0.645130 0.146875 0.135775
0.830367 0.199819 0.187325
0.104659 0.199307 0.071677
0.235354 0.212320 0.086726
0.487710 0.231588 0.113214
0.767505 0.255989 0.154496
0.917731 0.256539 0.203376
0.051778 0.410965 0.142723
0.206266 0.423680 0.148181
0.510205 0.451566 0.174634
0.813057 0.462933 0.188159
0.958553 0.432127 0.177797
0.025389 0.596179 0.258317
0.145834 0.604256 0.242195
0.529560 0.645449 0.267101
0.841023 0.684968 0.279375
0.983512 0.673425 0.240285
0.272165 0.728623 0.530994
0.361910 0.736059 0.526384
0.608225 0.761700 0.520099
0.879200 0.807231 0.536306
0.991887 0.803134 0.473226
0.000000 0.019851 0.115562
0.207415 0.072485 0.155623
0.415694 0.124572 0.193072
0.673309 0.187973 0.230259
0.853887 0.223350 0.237243
0.096578 0.215745 0.214628
0.228490 0.228579 0.228104
0.507318 0.250262 0.252111
0.788679 0.253964 0.258267
0.944477 0.232174 0.218654
0.055590 0.435623 0.267046
0.181691 0.449010 0.268043
0.512268 0.473501 0.285913
0.828459 0.480741 0.297288
0.971472 0.421754 0.236722
0.001639 0.625395 0.355130
0.130086 0.637742 0.355869
0.512404 0.676027 0.362384
0.847012 0.715400 0.371936
0.988278 0.693745 0.315978
0.210424 0.747997 0.591174
0.325084 0.757364 0.592652
0.575322 0.782409 0.584463
0.875396 0.830201 0.600012
0.992318 0.823389 0.530752
0.003907 0.072394 0.246808
0.214917 0.126975 0.284139
0.431966 0.178354 0.321076
0.701524 0.243542 0.362275
0.879331 0.279972 0.376467
0.081899 0.231481 0.387650
0.212988 0.243743 0.420132
0.500265 0.267717 0.446360
0.796425 0.296886 0.456728
0.955608 0.307765 0.411402
0.030419 0.462917 0.457592
0.144744 0.476093 0.472886
0.504109 0.504253 0.504162
0.848505 0.507554 0.512427
0.980658 0.411622 0.425687
0.000000 0.686494 0.555871
0.014309 0.700155 0.563868
0.471468 0.741785 0.581260
0.851090 0.781887 0.586996
0.995045 0.741688 0.507257
0.046716 0.787627 0.708490
0.216437 0.797658 0.714091
0.526914 0.833231 0.732694
0.859034 0.882970 0.748550
0.996272 0.881621 0.689586
0.014203 0.139887 0.408106
0.218967 0.194814 0.449624
0.443947 0.249963 0.494631
0.727441 0.318281 0.544353
0.907850 0.355550 0.558949
0.075356 0.237915 0.597179
0.178947 0.274459 0.652455
0.485272 0.331678 0.680004
0.805822 0.394219 0.701170
0.975705 0.410742 0.669195
0.019139 0.467646 0.664773
0.097378 0.477010 0.697376
0.478105 0.502646 0.762308
0.847991 0.524734 0.806981
0.997460 0.458975 0.764008
0.000000 0.722864 0.723509
0.000235 0.738852 0.739888
0.426389 0.787431 0.788204
0.844681 0.843920 0.844885
1.000000 0.798731 0.808862
0.000142 0.822271 0.813576
0.043774 0.835208 0.824814
0.456358 0.875253 0.857650
0.830146 0.939017 0.906027
0.999905 0.958513 0.890067
0.027217 0.223065 0.583347
0.207989 0.274892 0.645816
0.451727 0.334518 0.698316
0.744658 0.405433 0.757226
0.935676 0.446640 0.779253
0.050073 0.297749 0.733946
0.091167 0.329830 0.801094
0.448549 0.397080 0.853197
0.806301 0.477351 0.908663
0.994583 0.510264 0.911107
0.014757 0.379197 0.793964
0.093891 0.380554 0.847681
0.437565 0.421956 0.915800
0.833137 0.514818 0.989248
1.000000 0.550609 0.997099
0.000016 0.692008 0.820761
0.000016 0.703264 0.837023
0.356861 0.738276 0.892302
0.826533 0.781861 0.986186
1.000000 0.753952 1.000000
0.000000 0.815107 0.823760
0.000000 0.827487 0.836308
0.324828 0.871961 0.878124
0.786191 0.953485 0.955781
1.000000 1.000000 1.000000
