gsg/02_Everyday/GSG_LUT_Everyday_WarmEmbrace.cube
# GSG LUTs 1.0
# Copyright (c) 2016-2020 Greyscalegorilla
# See EULA for licensing and distribution information
# Converted by Briz LUT Converter
LUT_3D_SIZE 32
0.019780 0.025885 0.000000
0.021041 0.023876 0.000000
0.022632 0.022301 0.000000
0.029257 0.023585 0.000000
0.037040 0.025224 0.000000
0.048367 0.027862 0.000000
0.061397 0.031092 0.000000
0.076710 0.034062 0.000000
0.094230 0.036772 0.000063
0.114420 0.039293 0.000386
0.137233 0.041656 0.000733
0.162819 0.043499 0.000473
0.191524 0.044917 0.000000
0.223270 0.045768 0.000000
0.258640 0.046020 0.000000
0.297625 0.045563 0.000000
0.340226 0.044177 0.000000
0.380283 0.045209 0.000000
0.418094 0.048486 0.000000
0.455457 0.052960 0.000000
0.492670 0.058411 0.000788
0.530639 0.064122 0.005026
0.569648 0.070093 0.010824
0.609516 0.076506 0.016803
0.650542 0.083060 0.023231
0.692276 0.089811 0.029785
0.735145 0.097026 0.036748
0.778888 0.104337 0.044019
0.823632 0.112088 0.051550
0.868959 0.120131 0.059341
0.915751 0.128197 0.067391
0.962637 0.136508 0.075458
0.035913 0.049328 0.010635
0.037418 0.046807 0.008350
0.038984 0.044687 0.005986
0.045113 0.045215 0.006002
0.052564 0.046333 0.006244
0.063079 0.048412 0.006510
0.075219 0.050965 0.006934
0.090264 0.053732 0.007155
0.107517 0.056505 0.007320
0.127449 0.059280 0.007225
0.150089 0.061985 0.006791
0.175675 0.064348 0.005837
0.204474 0.066287 0.004366
0.236373 0.067764 0.002070
0.271751 0.068796 0.000198
0.310619 0.069364 0.000004
0.353082 0.069279 0.000000
0.392582 0.071478 0.000000
0.429357 0.076083 0.000005
0.466296 0.081344 0.000693
0.503514 0.087064 0.004440
0.541823 0.093203 0.010073
0.580997 0.099513 0.016046
0.621230 0.106186 0.022283
0.662387 0.113000 0.028776
0.704327 0.120208 0.035534
0.747450 0.127526 0.042751
0.791239 0.135057 0.050061
0.836212 0.143062 0.057599
0.881791 0.151136 0.065398
0.928607 0.159447 0.073685
0.975501 0.168010 0.082004
0.051999 0.072992 0.022608
0.053544 0.070195 0.020087
0.055340 0.067326 0.017707
0.060995 0.067111 0.017463
0.067957 0.067697 0.017388
0.077931 0.069272 0.016902
0.089382 0.071366 0.016374
0.103923 0.073930 0.015650
0.120729 0.076703 0.015030
0.140458 0.079542 0.014137
0.163076 0.082550 0.012907
0.188630 0.085397 0.011156
0.217403 0.087833 0.008973
0.249385 0.089897 0.006022
0.284976 0.091662 0.002288
0.323787 0.093205 0.000191
0.365779 0.094372 0.000000
0.404600 0.097806 0.000000
0.440489 0.103494 0.000261
0.477035 0.109451 0.003742
0.514412 0.115674 0.009298
0.552975 0.122158 0.015180
0.592409 0.128740 0.021241
0.632727 0.135677 0.027669
0.674084 0.142776 0.034240
0.716284 0.150251 0.041204
0.759481 0.157843 0.048483
0.803496 0.165650 0.055810
0.848728 0.173718 0.063577
0.894347 0.182031 0.071622
0.941407 0.190602 0.079940
0.988562 0.199204 0.088274
0.067328 0.100035 0.032668
0.069419 0.096955 0.030147
0.071765 0.093833 0.027751
0.077656 0.093073 0.027246
0.084588 0.092943 0.026978
0.094364 0.094257 0.026818
0.105766 0.096092 0.026689
0.120041 0.098447 0.025599
0.136510 0.101201 0.024096
0.155802 0.103974 0.022163
0.178062 0.106739 0.019899
0.203103 0.109488 0.017115
0.231451 0.112056 0.013788
0.263134 0.114120 0.009742
0.298234 0.115874 0.004994
0.335889 0.117649 0.001290
0.376176 0.119336 0.000046
0.414017 0.123014 0.000091
0.449659 0.128688 0.002233
0.486250 0.134789 0.007019
0.523730 0.141258 0.012722
0.562456 0.147993 0.018685
0.602144 0.155014 0.024942
0.642721 0.162302 0.031620
0.684338 0.170021 0.038444
0.726817 0.177898 0.045669
0.770472 0.185971 0.053208
0.814783 0.194299 0.060816
0.860276 0.202886 0.068825
0.906155 0.211484 0.076914
0.953475 0.220338 0.085477
0.999779 0.229430 0.094049
0.081949 0.128048 0.042026
0.084924 0.124557 0.039571
0.088292 0.121371 0.037250
0.094419 0.120066 0.036482
0.101355 0.119213 0.036020
0.111163 0.120212 0.036378
0.122549 0.121787 0.036816
0.136547 0.123888 0.035556
0.152609 0.126464 0.033078
0.171577 0.129213 0.030221
0.193349 0.131918 0.026977
0.217970 0.134460 0.023213
0.245866 0.136886 0.018711
0.276926 0.138950 0.013499
0.311524 0.140618 0.007663
0.347957 0.142518 0.003070
0.386423 0.144726 0.000817
0.423380 0.148646 0.001394
0.458905 0.154177 0.005126
0.495482 0.160302 0.010453
0.533105 0.166824 0.016157
0.571909 0.173697 0.022141
0.611753 0.181080 0.028676
0.652558 0.188814 0.035464
0.694427 0.196793 0.042484
0.737294 0.205221 0.049917
0.781239 0.213785 0.057679
0.825783 0.222569 0.065706
0.871503 0.231612 0.073801
0.917639 0.240488 0.082099
0.965220 0.249785 0.090890
1.000000 0.259112 0.099500
0.094647 0.158242 0.047879
0.099217 0.154917 0.045992
0.103895 0.151491 0.044387
0.110221 0.149608 0.043338
0.117195 0.148015 0.042478
0.127304 0.148337 0.042981
0.138942 0.149592 0.043498
0.152972 0.151513 0.042954
0.168969 0.154004 0.041393
0.187676 0.156595 0.038459
0.209175 0.159368 0.034118
0.233448 0.162054 0.029258
0.260972 0.164496 0.023745
0.291771 0.166584 0.017256
0.326013 0.168366 0.010215
0.361441 0.170564 0.005714
0.398085 0.173313 0.003856
0.434064 0.177463 0.005323
0.469447 0.182875 0.009910
0.505936 0.188805 0.015124
0.543533 0.195051 0.020787
0.582323 0.201809 0.026875
0.622139 0.208972 0.033164
0.662933 0.216563 0.039828
0.704936 0.224357 0.046982
0.747670 0.232502 0.054252
0.791719 0.240977 0.061964
0.836326 0.249720 0.069957
0.882051 0.258722 0.078239
0.928386 0.267793 0.086557
0.976225 0.277142 0.095348
1.000000 0.286510 0.104210
0.106164 0.189925 0.052007
0.112459 0.186348 0.050850
0.118809 0.182876 0.049875
0.125271 0.180272 0.048659
0.132353 0.178073 0.047588
0.142983 0.177841 0.047879
0.155101 0.178475 0.048392
0.169394 0.180225 0.048867
0.185423 0.182508 0.048534
0.203941 0.185078 0.045791
0.225129 0.187885 0.040805
0.249107 0.190571 0.035081
0.276503 0.193110 0.028364
0.307003 0.195372 0.020828
0.340908 0.197274 0.012730
0.375363 0.199928 0.008598
0.410309 0.203302 0.008537
0.445390 0.207670 0.010871
0.480681 0.212915 0.015550
0.517140 0.218488 0.020639
0.554587 0.224444 0.026090
0.593304 0.230958 0.031935
0.632975 0.237715 0.038143
0.673709 0.244835 0.044772
0.715517 0.252474 0.051755
0.758194 0.260278 0.058813
0.802072 0.268462 0.066446
0.846823 0.276945 0.074253
0.892618 0.285730 0.082508
0.938958 0.294737 0.090827
0.986949 0.304281 0.099618
1.000000 0.313860 0.108685
0.115861 0.223727 0.052826
0.123519 0.219952 0.052072
0.131327 0.216390 0.051357
0.138538 0.213181 0.050381
0.146062 0.210148 0.049360
0.157221 0.209340 0.049660
0.169906 0.209369 0.050258
0.184732 0.210484 0.051082
0.201273 0.212464 0.051560
0.219961 0.214888 0.049614
0.241010 0.217795 0.045532
0.264898 0.220501 0.039490
0.292034 0.223152 0.031535
0.322085 0.225641 0.023426
0.355306 0.227739 0.015492
0.388868 0.230670 0.012213
0.422699 0.234508 0.013843
0.457293 0.238985 0.017031
0.492583 0.244027 0.021678
0.528922 0.249484 0.026744
0.566292 0.255382 0.032195
0.604973 0.261743 0.037906
0.644665 0.268297 0.044051
0.685374 0.275214 0.050534
0.727058 0.282607 0.057423
0.769703 0.290310 0.064513
0.813581 0.298318 0.071992
0.858332 0.306549 0.079719
0.904305 0.315302 0.087967
0.950664 0.324125 0.096286
0.996489 0.333603 0.105077
1.000000 0.343125 0.114089
0.123865 0.258955 0.051566
0.132948 0.255108 0.050752
0.141968 0.251258 0.050171
0.150042 0.247371 0.049404
0.158550 0.243955 0.048659
0.170315 0.242376 0.048924
0.183691 0.241726 0.049628
0.199145 0.242321 0.050480
0.216402 0.243829 0.051299
0.235501 0.245928 0.050549
0.256659 0.248591 0.047979
0.280523 0.251321 0.042198
0.307464 0.254094 0.033332
0.337135 0.256715 0.025299
0.369563 0.259196 0.018491
0.402271 0.262491 0.016539
0.435289 0.266556 0.019665
0.469421 0.271091 0.023620
0.504683 0.276104 0.028185
0.541060 0.281445 0.033172
0.578455 0.287148 0.038582
0.617007 0.293399 0.044314
0.656728 0.299933 0.050434
0.697380 0.306849 0.056899
0.739178 0.314048 0.063642
0.781866 0.321541 0.070842
0.825796 0.329513 0.078357
0.870503 0.337579 0.085919
0.916468 0.346251 0.094143
0.962826 0.355067 0.102462
0.998894 0.364302 0.111253
1.000000 0.373626 0.120076
0.130568 0.295931 0.048155
0.140617 0.291896 0.047006
0.150540 0.287774 0.046044
0.159656 0.283432 0.045311
0.169172 0.279473 0.044870
0.181688 0.277204 0.044926
0.195693 0.275974 0.045345
0.211927 0.276032 0.046067
0.229937 0.276947 0.046776
0.249702 0.278494 0.046806
0.271423 0.280745 0.045449
0.295506 0.283257 0.040567
0.322419 0.286029 0.032714
0.351624 0.288802 0.026684
0.383093 0.291607 0.022639
0.415172 0.295094 0.022317
0.447853 0.299216 0.026098
0.481744 0.303690 0.030376
0.516925 0.308612 0.035033
0.553369 0.313923 0.040049
0.590807 0.319627 0.045342
0.629407 0.325707 0.051084
0.669022 0.332160 0.057162
0.709756 0.339023 0.063594
0.751601 0.346118 0.070338
0.794346 0.353586 0.077538
0.838382 0.361499 0.084993
0.883011 0.369554 0.092606
0.928961 0.378061 0.100839
0.975386 0.386794 0.109158
0.999300 0.395917 0.117949
1.000000 0.405168 0.126771
0.137233 0.333759 0.044452
0.147817 0.329560 0.042696
0.158283 0.325259 0.040992
0.168277 0.320714 0.040097
0.178649 0.316316 0.039483
0.191852 0.313580 0.039264
0.206490 0.311735 0.039247
0.223441 0.311170 0.039543
0.242256 0.311406 0.039923
0.262923 0.312390 0.040150
0.285491 0.314213 0.039654
0.309969 0.316408 0.036405
0.336785 0.319100 0.031073
0.365445 0.321857 0.028163
0.395990 0.324822 0.027832
0.427603 0.328363 0.029454
0.460332 0.332355 0.033235
0.494312 0.336843 0.037418
0.529483 0.341753 0.042051
0.565837 0.347024 0.047107
0.603238 0.352677 0.052401
0.641955 0.358665 0.058078
0.681626 0.365031 0.064192
0.722360 0.371744 0.070653
0.764266 0.378928 0.077396
0.807105 0.386372 0.084596
0.851080 0.394123 0.091972
0.895776 0.402151 0.099720
0.941525 0.410587 0.107905
0.987721 0.419076 0.116289
0.999697 0.428198 0.125086
1.000000 0.437197 0.133908
0.147796 0.370200 0.046729
0.158120 0.365843 0.044102
0.168587 0.361548 0.041528
0.178850 0.357093 0.039754
0.189619 0.352759 0.038252
0.202944 0.349838 0.037113
0.217583 0.347669 0.036392
0.234984 0.346540 0.036051
0.254312 0.346388 0.036080
0.275522 0.347015 0.036364
0.298693 0.348315 0.036518
0.323596 0.350192 0.034997
0.350404 0.352623 0.032499
0.378755 0.355296 0.032107
0.408823 0.358392 0.033959
0.440206 0.361976 0.036764
0.472850 0.365883 0.040545
0.506842 0.370200 0.044728
0.541991 0.375081 0.049265
0.578376 0.380385 0.054252
0.615842 0.385931 0.059545
0.654559 0.391973 0.065335
0.694291 0.398275 0.071385
0.735051 0.404939 0.077797
0.777085 0.412056 0.084608
0.819897 0.419417 0.091757
0.863924 0.427153 0.099256
0.908337 0.435105 0.107031
0.952655 0.443146 0.115222
0.995740 0.451277 0.123762
0.999949 0.459638 0.132569
1.000000 0.468100 0.141479
0.162070 0.405081 0.054701
0.171608 0.401040 0.051131
0.181187 0.396767 0.047587
0.191397 0.392691 0.044438
0.202170 0.388869 0.041505
0.215046 0.385923 0.039137
0.229223 0.383591 0.037190
0.246674 0.382278 0.036238
0.266108 0.381841 0.035763
0.287695 0.382138 0.035878
0.311126 0.383128 0.036453
0.336256 0.384637 0.036784
0.363202 0.386808 0.037156
0.391571 0.389326 0.038529
0.421513 0.392308 0.040993
0.452810 0.395754 0.044074
0.485454 0.399661 0.047855
0.519445 0.403978 0.052038
0.554595 0.408768 0.056576
0.590980 0.414006 0.061562
0.628506 0.419552 0.066917
0.667193 0.425530 0.072676
0.707007 0.431801 0.078763
0.747812 0.438465 0.085202
0.789700 0.445461 0.092061
0.832444 0.452836 0.099174
0.876174 0.460506 0.106740
0.919763 0.468223 0.114530
0.961405 0.475634 0.123006
0.997760 0.483141 0.131665
1.000000 0.490426 0.140570
1.000000 0.497846 0.149640
0.176084 0.440120 0.062618
0.185053 0.435976 0.058479
0.194114 0.431722 0.054369
0.204555 0.427951 0.050683
0.215266 0.424357 0.046997
0.227972 0.421394 0.044011
0.241868 0.418957 0.041455
0.259057 0.417527 0.040025
0.278582 0.416897 0.039395
0.300218 0.416929 0.039385
0.323731 0.417764 0.040087
0.348962 0.419082 0.041286
0.375926 0.421033 0.043145
0.404262 0.423416 0.045469
0.434117 0.426317 0.048241
0.465414 0.429688 0.051487
0.498058 0.433542 0.055268
0.532049 0.437859 0.059451
0.567198 0.442648 0.063988
0.603584 0.447824 0.068975
0.641207 0.453330 0.074426
0.679915 0.459276 0.080137
0.719713 0.465532 0.086281
0.760138 0.472045 0.092841
0.801028 0.478828 0.099769
0.842370 0.485872 0.107097
0.884198 0.493004 0.114923
0.925533 0.500233 0.122843
0.964889 0.507129 0.131425
0.997971 0.514072 0.140138
1.000000 0.520788 0.149191
1.000000 0.527488 0.158163
0.190059 0.475159 0.070574
0.198768 0.470873 0.066289
0.207594 0.466619 0.062050
0.218192 0.462851 0.058508
0.229116 0.459286 0.054921
0.241685 0.456300 0.051918
0.255315 0.453716 0.049242
0.272282 0.452147 0.047698
0.291767 0.451432 0.047068
0.313175 0.451431 0.047067
0.336587 0.452188 0.047745
0.361779 0.453456 0.048848
0.388617 0.455315 0.050707
0.416866 0.457639 0.053031
0.446721 0.460472 0.055804
0.478018 0.463845 0.059049
0.510662 0.467683 0.062830
0.544593 0.471939 0.067013
0.579820 0.476679 0.071551
0.616231 0.481768 0.076537
0.653811 0.487219 0.081988
0.692540 0.493186 0.087699
0.732270 0.499453 0.093844
0.771810 0.505673 0.100590
0.810842 0.511964 0.107888
0.849492 0.518399 0.115598
0.887586 0.524751 0.123705
0.925452 0.531098 0.131981
0.962791 0.537527 0.140639
0.997825 0.544092 0.149325
1.000000 0.550648 0.158269
1.000000 0.557092 0.167096
0.203939 0.510197 0.078388
0.212509 0.505908 0.074103
0.221198 0.501540 0.069865
0.231687 0.497770 0.066324
0.242609 0.494175 0.062752
0.255059 0.491087 0.059746
0.268675 0.488480 0.057056
0.285559 0.486786 0.055486
0.304723 0.485966 0.054764
0.326031 0.485927 0.054724
0.349405 0.486551 0.055307
0.374469 0.487739 0.056410
0.401221 0.489598 0.058269
0.429469 0.491922 0.060593
0.459272 0.494695 0.063366
0.490504 0.498001 0.066612
0.523209 0.501847 0.070393
0.557123 0.506095 0.074576
0.592377 0.510759 0.079113
0.628479 0.515726 0.084244
0.665366 0.521055 0.089863
0.702953 0.526649 0.095856
0.741242 0.532591 0.102283
0.779179 0.538467 0.109372
0.816328 0.544365 0.116870
0.852885 0.550197 0.124826
0.888809 0.556102 0.133097
0.924612 0.561921 0.141525
0.960529 0.568053 0.150081
0.996455 0.574233 0.158769
0.999958 0.580649 0.167584
1.000000 0.586955 0.176407
0.217551 0.545236 0.086203
0.226122 0.540821 0.081917
0.234794 0.536453 0.077679
0.245035 0.532683 0.074127
0.255843 0.529072 0.070440
0.268313 0.525873 0.067454
0.282011 0.523242 0.064871
0.298736 0.521446 0.063271
0.317672 0.520595 0.062420
0.338850 0.520462 0.062287
0.362094 0.521045 0.062910
0.387073 0.522147 0.064054
0.413776 0.523958 0.065832
0.441947 0.526204 0.068156
0.471749 0.528977 0.070928
0.502921 0.532223 0.074174
0.535626 0.536004 0.077955
0.569601 0.540251 0.082138
0.604855 0.544915 0.086675
0.640261 0.549728 0.092038
0.675734 0.554715 0.098129
0.711162 0.559749 0.104728
0.746531 0.565039 0.111805
0.781907 0.570359 0.119264
0.817202 0.575834 0.127022
0.852475 0.581276 0.135035
0.887650 0.586897 0.143200
0.922803 0.592674 0.151499
0.958183 0.598579 0.160038
0.993706 0.604498 0.168491
0.999869 0.610654 0.177289
1.000000 0.616952 0.185986
0.231029 0.580275 0.094017
0.239872 0.575745 0.089736
0.248658 0.571483 0.085619
0.258611 0.567564 0.081928
0.268935 0.563742 0.078120
0.281405 0.560639 0.075135
0.295081 0.557921 0.072551
0.311680 0.556203 0.070952
0.330447 0.555217 0.070070
0.351404 0.554957 0.069849
0.374564 0.555445 0.070511
0.399496 0.556548 0.071692
0.426118 0.558313 0.073394
0.454299 0.560487 0.075718
0.484094 0.563260 0.078491
0.515005 0.566440 0.081866
0.547165 0.570083 0.085923
0.580367 0.574055 0.090456
0.614567 0.578457 0.095486
0.648745 0.582970 0.101228
0.682840 0.587570 0.107731
0.716696 0.592312 0.114664
0.750269 0.597084 0.122069
0.784034 0.602048 0.129631
0.818194 0.607175 0.137571
0.852541 0.612438 0.145530
0.887026 0.617825 0.153570
0.921536 0.623445 0.161850
0.956487 0.629225 0.170268
0.991377 0.634898 0.178722
0.999792 0.640923 0.187393
1.000000 0.646949 0.195967
0.244389 0.615172 0.101690
0.253612 0.610784 0.097696
0.262882 0.606515 0.093669
0.272264 0.602468 0.089732
0.281915 0.598414 0.085825
0.294284 0.595289 0.082839
0.308051 0.592591 0.080255
0.324479 0.590791 0.078624
0.343023 0.589610 0.077632
0.363898 0.589359 0.077411
0.386966 0.589870 0.078027
0.411717 0.590922 0.079163
0.438348 0.592595 0.080901
0.466509 0.594710 0.083138
0.496254 0.597400 0.085975
0.526739 0.600459 0.089672
0.557988 0.603915 0.094250
0.589657 0.607556 0.099519
0.621761 0.611439 0.105458
0.654100 0.615518 0.111805
0.686785 0.619723 0.118623
0.719606 0.624229 0.125645
0.752542 0.628800 0.133050
0.785705 0.633594 0.140612
0.819207 0.638599 0.148443
0.852912 0.643724 0.156280
0.886855 0.648871 0.164299
0.920968 0.654354 0.172455
0.955290 0.659992 0.180755
0.989541 0.665548 0.189170
0.999732 0.671292 0.197731
1.000000 0.677089 0.206160
0.257450 0.649959 0.109402
0.267398 0.645828 0.105617
0.277351 0.641684 0.101719
0.285948 0.637332 0.097532
0.294841 0.633038 0.093470
0.306983 0.629816 0.090378
0.320690 0.627059 0.087891
0.337012 0.625153 0.086150
0.355438 0.623892 0.085194
0.376202 0.623628 0.084974
0.399204 0.624105 0.085605
0.423747 0.625121 0.086862
0.450095 0.626670 0.088897
0.477696 0.628650 0.091598
0.506737 0.631214 0.095031
0.536382 0.634068 0.099274
0.566644 0.637240 0.104373
0.597119 0.640624 0.110111
0.627846 0.644208 0.116413
0.659031 0.647984 0.123014
0.690606 0.651960 0.129978
0.722622 0.656222 0.137036
0.755004 0.660605 0.144441
0.787758 0.665280 0.151892
0.820699 0.670027 0.159605
0.853861 0.675001 0.167419
0.887283 0.680043 0.175313
0.920835 0.685379 0.183355
0.954537 0.690770 0.191642
0.988258 0.696162 0.199821
0.999689 0.701698 0.208366
1.000000 0.707487 0.216692
0.270464 0.684588 0.116901
0.281292 0.680722 0.113440
0.292080 0.676952 0.109780
0.299872 0.672237 0.105464
0.307801 0.667552 0.101020
0.319571 0.664177 0.097836
0.333169 0.661342 0.095308
0.349328 0.659435 0.093603
0.367608 0.658175 0.092599
0.388256 0.657883 0.092379
0.411096 0.658242 0.093091
0.435352 0.659096 0.094720
0.461180 0.660507 0.097414
0.487944 0.662363 0.101001
0.515655 0.664650 0.105433
0.544117 0.667234 0.110421
0.573338 0.670177 0.115958
0.603002 0.673308 0.121864
0.633047 0.676674 0.128257
0.663606 0.680287 0.134828
0.694640 0.684124 0.141731
0.726125 0.688160 0.148789
0.757987 0.692394 0.156082
0.790173 0.696925 0.163417
0.822577 0.701485 0.170984
0.855219 0.706289 0.178762
0.888120 0.711300 0.186577
0.921069 0.716417 0.194604
0.954239 0.721548 0.202749
0.987440 0.726827 0.210824
0.999662 0.732357 0.219210
1.000000 0.737831 0.227532
0.283241 0.718957 0.124377
0.295012 0.715515 0.121102
0.306418 0.711896 0.117825
0.313576 0.706928 0.113183
0.320700 0.702054 0.108582
0.332122 0.698433 0.105358
0.345393 0.695459 0.102667
0.361330 0.693552 0.101221
0.379500 0.692249 0.100534
0.399904 0.691835 0.100825
0.422312 0.692166 0.102078
0.446049 0.692930 0.104371
0.471185 0.694221 0.107781
0.497149 0.695870 0.111945
0.523936 0.697932 0.116905
0.551566 0.700261 0.122258
0.579916 0.702989 0.128015
0.608901 0.705939 0.134042
0.638511 0.709142 0.140390
0.668583 0.712617 0.146976
0.699152 0.716227 0.153802
0.730147 0.720115 0.160802
0.761489 0.724322 0.167916
0.793090 0.728665 0.175178
0.824952 0.733160 0.182678
0.857073 0.737761 0.190303
0.889454 0.742584 0.198086
0.921883 0.747455 0.205969
0.954532 0.752475 0.214014
0.987213 0.757591 0.222080
0.999653 0.762950 0.230383
1.000000 0.768246 0.238702
0.295845 0.753413 0.131766
0.308300 0.749960 0.128675
0.320340 0.746504 0.125708
0.327132 0.741446 0.120902
0.333652 0.736383 0.116122
0.344471 0.732530 0.112734
0.357304 0.729489 0.110026
0.373138 0.727583 0.108936
0.391064 0.726259 0.109013
0.411007 0.725736 0.110365
0.432839 0.725888 0.112824
0.455909 0.726474 0.115953
0.480377 0.727622 0.119934
0.505633 0.729117 0.124440
0.531853 0.731033 0.129481
0.558925 0.733286 0.134877
0.586763 0.735754 0.140586
0.615178 0.738493 0.146567
0.644235 0.741559 0.152769
0.673820 0.744913 0.159297
0.703869 0.748442 0.165992
0.734343 0.752185 0.172902
0.765287 0.756212 0.179960
0.796419 0.760447 0.187199
0.827760 0.764788 0.194698
0.859360 0.769286 0.202261
0.891221 0.773883 0.209883
0.923130 0.778493 0.217669
0.955258 0.783481 0.225704
0.987256 0.788523 0.233608
0.999653 0.793633 0.241900
1.000000 0.798747 0.250045
0.308267 0.787585 0.139076
0.321426 0.784251 0.136240
0.334019 0.781039 0.133365
0.340730 0.775956 0.128908
0.347048 0.770657 0.124266
0.357256 0.766742 0.121219
0.369444 0.763666 0.119086
0.384929 0.761613 0.118662
0.402576 0.760243 0.119538
0.422080 0.759565 0.121733
0.443240 0.759644 0.124958
0.465742 0.760092 0.128575
0.489592 0.761007 0.132773
0.514249 0.762362 0.137401
0.540055 0.764155 0.142337
0.566606 0.766221 0.147733
0.593960 0.768522 0.153405
0.621850 0.771093 0.159253
0.650355 0.774036 0.165437
0.679530 0.777249 0.171900
0.709129 0.780591 0.178479
0.739083 0.784222 0.185364
0.769557 0.788176 0.192422
0.800188 0.792256 0.199527
0.831009 0.796354 0.206979
0.862089 0.800650 0.214396
0.893430 0.805152 0.222075
0.924817 0.809689 0.229721
0.956426 0.814504 0.237569
0.987837 0.819359 0.245559
0.999671 0.824389 0.253683
1.000000 0.829249 0.261751
0.320619 0.821427 0.146197
0.334179 0.818347 0.143619
0.347454 0.815208 0.140959
0.354342 0.810314 0.137054
0.360620 0.805128 0.133290
0.370462 0.801183 0.131389
0.382077 0.797900 0.130549
0.397012 0.795644 0.131016
0.414058 0.794257 0.132429
0.433125 0.793478 0.134940
0.453854 0.793361 0.138235
0.475769 0.793659 0.141877
0.499025 0.794436 0.146148
0.523265 0.795557 0.150672
0.548587 0.797211 0.155571
0.574617 0.799121 0.160876
0.601451 0.801292 0.166450
0.628925 0.803828 0.172264
0.656994 0.806633 0.178345
0.685687 0.809613 0.184718
0.714790 0.812817 0.191272
0.744352 0.816296 0.198029
0.774232 0.820056 0.205026
0.804288 0.824034 0.212084
0.834735 0.828067 0.219374
0.865338 0.832145 0.226849
0.896158 0.836599 0.234447
0.927025 0.840971 0.242018
0.958113 0.845534 0.249801
0.989004 0.850305 0.257667
0.999708 0.855148 0.265721
1.000000 0.859939 0.273788
0.332577 0.855205 0.153846
0.346807 0.852383 0.151935
0.360843 0.849439 0.149958
0.368209 0.844621 0.146990
0.374962 0.839663 0.144274
0.384300 0.835677 0.143417
0.395191 0.832171 0.143304
0.409435 0.829827 0.144380
0.425917 0.828237 0.146197
0.444423 0.827295 0.148692
0.464531 0.827058 0.151893
0.485975 0.827115 0.155580
0.508824 0.827744 0.159662
0.532577 0.828808 0.164114
0.557379 0.830253 0.169039
0.582984 0.832015 0.174209
0.609399 0.834157 0.179755
0.636383 0.836491 0.185461
0.664071 0.839174 0.191421
0.692206 0.842097 0.197771
0.720839 0.845152 0.204325
0.749854 0.848525 0.211044
0.779269 0.852088 0.217884
0.808846 0.855847 0.224885
0.838814 0.859677 0.232132
0.868909 0.863665 0.239480
0.899209 0.867943 0.247005
0.929727 0.872236 0.254567
0.960142 0.876742 0.262350
0.990678 0.881139 0.270164
0.999761 0.885903 0.278024
1.000000 0.890496 0.285888
0.344425 0.888779 0.162070
0.359224 0.886217 0.161792
0.373879 0.883556 0.161630
0.382615 0.879357 0.160105
0.390541 0.874785 0.158510
0.399252 0.870580 0.157799
0.409019 0.866784 0.157572
0.422493 0.864052 0.158534
0.438244 0.862255 0.160266
0.456122 0.861160 0.162748
0.475822 0.860617 0.165864
0.496690 0.860625 0.169428
0.518996 0.861144 0.173461
0.542355 0.861996 0.177818
0.566635 0.863279 0.182630
0.591743 0.864913 0.187774
0.617768 0.866950 0.193214
0.644330 0.869122 0.198907
0.671526 0.871574 0.204939
0.699256 0.874410 0.211163
0.727460 0.877435 0.217638
0.755940 0.880652 0.224218
0.784852 0.883970 0.231104
0.814075 0.887621 0.237998
0.843576 0.891402 0.245193
0.873150 0.895215 0.252503
0.902930 0.899241 0.259846
0.932790 0.903494 0.267376
0.962807 0.907815 0.275159
0.992690 0.912104 0.282781
0.999824 0.916663 0.290583
1.000000 0.921202 0.298397
0.356060 0.922305 0.171665
0.371592 0.920011 0.172983
0.386819 0.917821 0.174239
0.396917 0.913980 0.174052
0.406172 0.909859 0.173595
0.414460 0.905544 0.172844
0.423160 0.901343 0.172356
0.435730 0.898491 0.173106
0.450865 0.896389 0.174753
0.468048 0.894955 0.177015
0.487255 0.894287 0.179968
0.507664 0.894076 0.183505
0.529494 0.894442 0.187538
0.552226 0.895254 0.191789
0.576083 0.896418 0.196455
0.600787 0.897814 0.201599
0.626312 0.899611 0.207019
0.652489 0.901775 0.212598
