gsg/02_Everyday/GSG_LUT_Everyday_Cool_Beans.cube
# GSG LUTs 1.0
# Copyright (c) 2016-2020 Greyscalegorilla
# See EULA for licensing and distribution information
# Converted by Briz LUT Converter
LUT_3D_SIZE 8
DOMAIN_MIN 0.000000 0.000000 0.000000
DOMAIN_MAX 0.903226 0.903226 0.903226
0.000000 0.000000 0.000000
0.113143 0.000796 0.001418
0.239836 0.004285 0.007673
0.390287 0.012273 0.022947
0.533861 0.024105 0.036969
0.666990 0.038820 0.052676
0.781890 0.053630 0.060877
0.875923 0.067407 0.075466
0.000000 0.113553 0.016377
0.109554 0.115442 0.019784
0.243992 0.113796 0.027677
0.390640 0.087042 0.035917
0.535307 0.037744 0.043177
0.666234 0.042144 0.051246
0.784617 0.054238 0.060608
0.876388 0.068189 0.075808
0.000000 0.261286 0.036591
0.078719 0.264203 0.036281
0.237800 0.271000 0.053103
0.381724 0.280676 0.063298
0.515342 0.283485 0.074831
0.639970 0.290532 0.092161
0.755009 0.296123 0.108849
0.847191 0.315545 0.125003
0.000000 0.430241 0.050250
0.003258 0.432088 0.050921
0.212995 0.443480 0.075425
0.369567 0.455233 0.097339
0.500072 0.466392 0.116271
0.624243 0.477321 0.133367
0.741989 0.489004 0.147114
0.849859 0.499051 0.150477
0.000000 0.585238 0.087825
0.000000 0.587169 0.088424
0.188673 0.598527 0.111994
0.356350 0.611387 0.133182
0.494863 0.620404 0.147667
0.634430 0.624693 0.150341
0.767721 0.627849 0.148121
0.882441 0.633515 0.143303
0.000000 0.727811 0.123479
0.000000 0.728564 0.123732
0.185968 0.739922 0.143634
0.369955 0.747274 0.150400
0.527235 0.748579 0.148132
0.670457 0.750955 0.142535
0.799873 0.750849 0.135193
0.910042 0.754092 0.126093
0.000000 0.847800 0.148891
0.075749 0.847814 0.149816
0.279187 0.853241 0.148671
0.437107 0.854582 0.143556
0.575879 0.855938 0.136083
0.707894 0.855631 0.126488
0.826810 0.854895 0.120246
0.930626 0.855948 0.120785
0.281382 0.936839 0.233518
0.337857 0.937627 0.231101
0.416255 0.938760 0.231506
0.529554 0.939153 0.228548
0.644275 0.938918 0.228858
0.757027 0.937946 0.227021
0.860680 0.936778 0.230518
0.950780 0.937175 0.233482
0.000000 0.000244 0.148978
0.101897 0.001591 0.149336
0.239546 0.006279 0.154240
0.388103 0.015085 0.160440
0.531721 0.027895 0.172440
0.661150 0.042916 0.184606
0.780016 0.058908 0.197326
0.872441 0.072472 0.207029
0.000000 0.110890 0.157470
0.104709 0.112610 0.159279
0.240160 0.112140 0.162237
0.390245 0.084508 0.171222
0.534095 0.038182 0.174327
0.663384 0.046084 0.186230
0.779533 0.059156 0.194515
0.872392 0.074516 0.204148
0.000000 0.261832 0.170926
0.067412 0.265262 0.173473
0.234231 0.273483 0.184054
0.380199 0.280737 0.197344
0.512666 0.286455 0.210271
0.636827 0.292889 0.221721
0.750996 0.303384 0.233291
0.845631 0.321751 0.244805
0.000000 0.431939 0.182154
0.003392 0.434409 0.186035
0.211720 0.446032 0.204052
0.368426 0.457124 0.222143
0.499274 0.469351 0.236274
0.624607 0.479453 0.249059
0.742305 0.490346 0.255689
0.854034 0.499020 0.255782
0.000000 0.586260 0.200776
0.000000 0.589172 0.198227
0.189685 0.600580 0.222474
0.356852 0.613146 0.238909
0.495735 0.622506 0.249581
0.638750 0.625182 0.249484
0.772256 0.628627 0.244090
0.888264 0.633230 0.240811
0.000000 0.729911 0.225674
0.000000 0.730040 0.226240
0.189727 0.741965 0.241553
0.374882 0.747843 0.245052
0.533040 0.748797 0.245356
0.673489 0.750519 0.242988
0.802904 0.751469 0.237054
0.913780 0.754075 0.236297
0.000000 0.849209 0.273419
0.085144 0.849159 0.274081
0.284388 0.853026 0.268809
0.442149 0.855273 0.269211
0.580814 0.856581 0.264844
0.713954 0.856029 0.264005
0.832775 0.855359 0.261414
0.934426 0.856368 0.259928
0.290511 0.937871 0.322361
0.337333 0.937643 0.320974
0.423371 0.939547 0.321615
0.533981 0.939535 0.316630
0.647468 0.939669 0.312431
0.761330 0.938473 0.308994
0.862258 0.937192 0.307688
0.952668 0.937445 0.307608
0.000000 0.001040 0.294017
0.042026 0.001804 0.295831
0.227626 0.008263 0.296896
0.386908 0.019063 0.305678
0.528170 0.032637 0.313671
0.658184 0.048391 0.325403
0.774604 0.064712 0.339346
0.867019 0.078593 0.352623
0.000000 0.112056 0.299319
0.058205 0.112503 0.300100
0.230387 0.111967 0.305189
0.389301 0.077749 0.309950
0.530442 0.042155 0.316737
0.658904 0.051345 0.327873
0.773994 0.065133 0.339527
0.866849 0.079934 0.352953
0.000000 0.263036 0.310043
0.035727 0.264752 0.313013
0.230825 0.276348 0.324637
0.378261 0.285195 0.337084
0.510007 0.290924 0.349784
0.634170 0.296162 0.361501
0.749578 0.303654 0.374865
0.842932 0.324235 0.388256
0.000000 0.436387 0.334399
0.001789 0.436212 0.334780
0.208364 0.448516 0.351220
0.366417 0.460713 0.367868
0.497908 0.471572 0.381239
0.622085 0.482790 0.395257
0.745852 0.491139 0.401926
0.860212 0.499876 0.401975
0.000000 0.591634 0.359755
0.000000 0.591846 0.359649
0.186157 0.603586 0.379189
0.356075 0.616686 0.393973
0.500824 0.622558 0.401880
0.645416 0.625685 0.401541
0.779259 0.628335 0.400810
0.894357 0.632594 0.398217
0.000000 0.734566 0.388434
0.000000 0.734124 0.388367
0.186300 0.744933 0.404909
0.385066 0.748146 0.403183
0.537775 0.749158 0.402327
0.681015 0.750151 0.400541
0.808864 0.751979 0.396369
0.919073 0.753786 0.392997
0.000000 0.848831 0.414665
0.072461 0.849931 0.415472
0.285666 0.853865 0.415258
0.446948 0.855945 0.411766
0.586477 0.856694 0.407630
0.718244 0.856306 0.404588
0.836487 0.855565 0.400115
0.937360 0.855932 0.397915
0.291200 0.938443 0.439020
0.341414 0.938633 0.437413
0.423317 0.940151 0.432895
0.536291 0.940027 0.431584
0.648882 0.939783 0.426300
0.761141 0.939037 0.422709
0.862717 0.937519 0.419657
0.952223 0.937600 0.418387
0.000000 0.002631 0.452235
0.000435 0.002631 0.452666
0.201500 0.010336 0.452431
0.378405 0.023157 0.455214
0.523053 0.038111 0.463352
0.651875 0.054441 0.473428
0.767400 0.070991 0.484666
0.860853 0.085045 0.495420
0.000000 0.110909 0.454170
0.001784 0.109082 0.455500
0.215434 0.102130 0.454797
0.383400 0.068246 0.459775
0.525670 0.046404 0.465845
0.653247 0.056901 0.475525
0.766969 0.071539 0.485860
0.861006 0.086855 0.496085
0.000000 0.265492 0.460433
0.003790 0.265931 0.461957
0.212991 0.277999 0.470676
0.371992 0.286694 0.482050
0.504686 0.294748 0.493678
0.629842 0.300376 0.505602
0.744398 0.309245 0.517653
0.839319 0.331173 0.531001
0.000000 0.437804 0.480580
0.000000 0.438121 0.480468
0.200862 0.451255 0.494988
0.361392 0.463957 0.510186
0.494195 0.476431 0.523681
0.621639 0.486141 0.535002
0.750667 0.492644 0.538641
0.865808 0.500536 0.538680
0.000000 0.593976 0.505013
0.000000 0.594963 0.505490
0.179680 0.607138 0.520796
0.354238 0.619201 0.535621
0.506618 0.623855 0.538792
0.651755 0.626017 0.538903
0.783520 0.628584 0.538284
0.898133 0.635289 0.536627
0.000000 0.735470 0.531746
0.000000 0.736930 0.532949
0.193248 0.744917 0.540541
0.389837 0.747418 0.542147
0.543254 0.749924 0.540301
0.685184 0.750172 0.539145
0.812516 0.750536 0.535730
0.921027 0.753682 0.533293
0.000000 0.849130 0.548299
0.081217 0.851375 0.548383
0.292019 0.853964 0.547648
0.451582 0.855558 0.546509
0.590238 0.855987 0.543100
0.720476 0.855626 0.539896
0.837146 0.855968 0.535730
0.937057 0.855121 0.533914
0.295681 0.938351 0.560786
0.341687 0.938140 0.559946
0.427049 0.939490 0.558732
0.538250 0.939466 0.556171
0.649283 0.939392 0.553229
0.760590 0.938423 0.550227
0.861129 0.938308 0.546702
0.949546 0.936934 0.545231
0.000000 0.004648 0.594966
0.000000 0.004648 0.596046
0.172131 0.012156 0.593241
0.371928 0.027667 0.594352
0.515804 0.043428 0.601245
0.645403 0.060291 0.607780
0.759917 0.076881 0.617707
0.854959 0.091071 0.627697
0.000000 0.104159 0.593485
0.000000 0.099331 0.594652
0.186112 0.085259 0.595146
0.375459 0.052014 0.597946
0.519638 0.050161 0.601712
0.646832 0.062555 0.609769
0.760436 0.077120 0.619194
0.854745 0.092987 0.628748
0.000000 0.268073 0.598170
0.000000 0.268593 0.598700
0.192281 0.278035 0.604691
0.366049 0.287720 0.615182
0.501018 0.295975 0.624660
0.625649 0.301596 0.636077
0.739005 0.312804 0.647736
0.837173 0.335063 0.659359
0.000000 0.441575 0.614657
0.000000 0.441886 0.614673
0.185708 0.453278 0.625990
0.354912 0.467101 0.640338
0.490173 0.479417 0.652698
0.620165 0.488264 0.662278
0.752736 0.492691 0.664328
0.868114 0.501604 0.664683
0.000000 0.596573 0.636325
0.000000 0.597001 0.637024
0.168266 0.609182 0.650353
0.353773 0.620415 0.662664
0.510024 0.624068 0.665058
0.655678 0.626146 0.665711
0.785810 0.628184 0.665569
0.899337 0.633579 0.664649
0.000000 0.739717 0.660840
0.000000 0.738563 0.660389
0.193095 0.744786 0.666979
0.392431 0.748355 0.667036
0.546370 0.749415 0.667191
0.686648 0.750617 0.665475
0.813851 0.751152 0.663957
0.920515 0.754336 0.662439
0.002202 0.850077 0.672064
0.073994 0.851116 0.672102
0.293890 0.853431 0.672001
0.451728 0.855663 0.670380
0.591412 0.855843 0.669441
0.720277 0.855438 0.667206
0.835312 0.854347 0.665425
0.933107 0.854615 0.663509
0.292331 0.937994 0.681577
0.343287 0.937722 0.680894
0.426979 0.939970 0.680729
0.537239 0.939728 0.678903
0.647573 0.939613 0.676373
0.756486 0.938388 0.674299
0.856268 0.936869 0.671841
0.944504 0.935562 0.671144
0.000000 0.007066 0.730253
0.000000 0.007077 0.730426
0.135407 0.013606 0.728519
0.363340 0.032179 0.726933
0.511779 0.049158 0.730319
0.640044 0.066398 0.737497
0.752617 0.082677 0.744753
0.848422 0.096711 0.754042
0.000000 0.086744 0.728703
0.000000 0.083371 0.729860
0.152857 0.053674 0.729674
0.369372 0.041875 0.728755
0.514234 0.053728 0.731430
0.640873 0.067536 0.738341
0.753240 0.082869 0.745775
0.847297 0.099565 0.754792
0.000000 0.269215 0.728641
0.000000 0.269503 0.729328
0.172348 0.277869 0.733305
0.358631 0.290049 0.741624
0.496165 0.297258 0.750918
0.620539 0.306135 0.761115
0.733865 0.317698 0.772516
0.833338 0.340250 0.782546
0.000000 0.444791 0.741827
0.000000 0.445044 0.741901
0.167873 0.456054 0.751127
0.349886 0.470368 0.765151
0.487571 0.481899 0.776973
0.622366 0.488256 0.783357
0.754111 0.492724 0.785027
0.868697 0.502744 0.786127
0.000000 0.599096 0.761409
0.000000 0.599829 0.761436
0.158926 0.611034 0.773712
0.355942 0.621121 0.784198
0.514267 0.623640 0.784906
0.657465 0.626366 0.786323
0.787324 0.628043 0.787205
0.898035 0.634431 0.787109
0.000000 0.741194 0.783635
0.000000 0.740675 0.783660
0.193877 0.744879 0.785794
0.393911 0.747558 0.786491
0.549766 0.748945 0.787824
0.689194 0.749185 0.787262
0.813681 0.750294 0.787025
0.916666 0.753913 0.786752
0.008575 0.848994 0.789181
0.096165 0.849751 0.789539
0.298655 0.853519 0.790387
0.454308 0.854267 0.790800
0.591546 0.855548 0.789374
0.719367 0.854568 0.789676
0.832023 0.853719 0.788255
0.927512 0.854423 0.787998
0.299887 0.936311 0.797974
0.343407 0.937723 0.797892
0.426921 0.938583 0.796929
0.534897 0.939009 0.795944
0.645853 0.938672 0.795135
0.751767 0.936735 0.794006
0.849562 0.936820 0.793578
0.935748 0.935054 0.792973
0.000000 0.009847 0.850754
0.000000 0.009847 0.850943
0.142219 0.017732 0.845208
0.368463 0.037738 0.841973
0.512439 0.055047 0.843627
0.636292 0.071945 0.849392
0.746957 0.087871 0.856397
0.840227 0.101377 0.863888
0.000000 0.043374 0.850414
0.000000 0.033341 0.851962
0.165298 0.032936 0.846480
0.374277 0.045528 0.842670
0.514574 0.058346 0.845546
0.638812 0.072853 0.850597
0.747721 0.088507 0.857799
0.838761 0.105254 0.864955
0.000000 0.269142 0.842629
0.000000 0.269006 0.844128
0.181529 0.278395 0.846773
0.362062 0.289964 0.853500
0.496057 0.300431 0.862459
0.620573 0.307725 0.872000
0.729943 0.323655 0.882672
0.832326 0.346862 0.889151
0.000000 0.447643 0.853841
0.000000 0.447502 0.853514
0.177885 0.460401 0.862282
0.354021 0.473471 0.875226
0.490203 0.485296 0.885842
0.628178 0.489633 0.889667
0.757419 0.494693 0.890981
0.868585 0.505220 0.892634
0.000000 0.603090 0.871360
0.000000 0.602818 0.871169
0.172292 0.614941 0.883672
0.369521 0.621425 0.888971
0.523517 0.624055 0.890980
0.664441 0.625880 0.892245
0.789089 0.629624 0.893722
0.896336 0.635899 0.894826
0.000000 0.741702 0.887460
0.000000 0.741085 0.887343
0.225304 0.745053 0.889599
0.410511 0.747695 0.892553
0.557576 0.748751 0.893087
0.693280 0.749060 0.893743
0.811864 0.750687 0.894328
0.912734 0.753637 0.894705
0.014907 0.848919 0.890634
0.141211 0.850789 0.891708
0.314916 0.853305 0.893260
0.465400 0.854369 0.893897
0.597950 0.854156 0.894606
0.719828 0.853247 0.894972
0.827951 0.853029 0.895456
0.921608 0.853874 0.895256
0.320500 0.937017 0.897307
0.361960 0.937423 0.897846
0.438124 0.937137 0.897794
0.542211 0.937805 0.897308
0.647910 0.936994 0.898213
0.750139 0.935967 0.897861
0.844001 0.934888 0.897839
0.928566 0.935340 0.898256
0.000000 0.012407 0.944385
0.002021 0.012492 0.944295
0.223141 0.027331 0.934775
0.395016 0.044941 0.931472
0.524728 0.061334 0.934336
0.643804 0.077994 0.939180
0.749351 0.093122 0.945370
0.838538 0.105650 0.951465
0.000000 0.022045 0.945742
0.003222 0.021698 0.945440
0.235097 0.035603 0.934967
0.398732 0.049754 0.933781
0.528301 0.063599 0.934515
0.645025 0.078296 0.938901
0.748804 0.094269 0.944990
0.834697 0.111576 0.951760
0.000000 0.269981 0.933031
0.007994 0.269182 0.933027
0.232121 0.283414 0.936176
0.386263 0.294260 0.942886
0.510571 0.302105 0.950238
0.627028 0.314534 0.959456
0.733185 0.330639 0.969044
0.836300 0.356022 0.973146
0.000000 0.450056 0.940768
0.021740 0.451639 0.941914
0.235237 0.467231 0.952364
0.378653 0.479577 0.964171
0.509302 0.486314 0.971517
0.642532 0.490688 0.973683
0.766026 0.497010 0.975724
0.872110 0.508075 0.977607
0.000000 0.604943 0.956208
0.028721 0.606989 0.959000
0.240669 0.619623 0.970945
0.402519 0.622518 0.972869
0.545175 0.624402 0.974314
0.677280 0.627053 0.977021
0.796335 0.630512 0.978674
0.897798 0.636661 0.980247
0.000000 0.741613 0.969194
0.091272 0.743071 0.970747
0.288605 0.746137 0.973289
0.443641 0.747349 0.975781
0.578144 0.747591 0.977314
0.703899 0.749440 0.978922
0.816563 0.750367 0.980214
0.912422 0.754412 0.981466
0.170643 0.850245 0.973957
0.251499 0.851494 0.975291
0.366538 0.852827 0.975876
0.492354 0.853665 0.977475
0.613421 0.853223 0.978462
0.727546 0.852491 0.980568
0.830842 0.852772 0.981128
0.919977 0.853524 0.982388
0.373453 0.935890 0.977943
0.398213 0.937113 0.978263
0.468727 0.937004 0.979361
0.560581 0.937084 0.980155
0.656322 0.936249 0.982479
0.751687 0.935767 0.982847
0.843755 0.934953 0.982491
0.925044 0.934008 0.984540
