gsg/02_Everyday/GSG_LUT_Everyday_BlushingMidtones.cube
# GSG LUTs 1.0
# Copyright (c) 2016-2020 Greyscalegorilla
# See EULA for licensing and distribution information
# Converted by Briz LUT Converter
LUT_3D_SIZE 32
0.000000 0.000000 0.000000
0.019796 0.000000 0.000000
0.043743 0.000000 0.000000
0.068400 0.000000 0.000000
0.099027 0.000000 0.000000
0.123400 0.000000 0.000000
0.148860 0.000000 0.000000
0.180653 0.000000 0.000000
0.211596 0.000000 0.000000
0.243767 0.000000 0.000000
0.282083 0.000000 0.000000
0.326811 0.000000 0.000000
0.373193 0.000000 0.000000
0.418244 0.000000 0.000000
0.459916 0.000000 0.000000
0.499744 0.000000 0.000000
0.543479 0.000000 0.000000
0.591122 0.000000 0.000000
0.636071 0.000000 0.000851
0.678026 0.000000 0.002962
0.719367 0.000473 0.003592
0.759880 0.001725 0.005238
0.797361 0.002024 0.006625
0.831305 0.001772 0.008831
0.863571 0.004734 0.012360
0.891646 0.008571 0.016338
0.919438 0.009075 0.020166
0.944015 0.009248 0.023947
0.971050 0.012368 0.024420
0.980251 0.012470 0.024192
0.980708 0.012454 0.024176
0.980708 0.012454 0.024176
0.000126 0.012092 0.000000
0.016121 0.011974 0.000000
0.039726 0.011974 0.000000
0.064634 0.011974 0.000000
0.095860 0.011957 0.000000
0.122881 0.011352 0.000000
0.148836 0.008638 0.000000
0.180635 0.008066 0.000000
0.211903 0.008066 0.000000
0.245391 0.008066 0.000000
0.285165 0.009286 0.000000
0.331358 0.010506 0.000000
0.379617 0.008066 0.000000
0.425254 0.008958 0.000000
0.466858 0.010940 0.000000
0.509449 0.011848 0.000000
0.553250 0.011868 0.000020
0.600238 0.012820 0.000065
0.646044 0.014169 0.001596
0.689417 0.015352 0.002566
0.731494 0.018222 0.003297
0.771781 0.021057 0.005263
0.809880 0.022508 0.008503
0.843396 0.025529 0.010321
0.875418 0.031349 0.013248
0.904084 0.035921 0.016970
0.931403 0.039736 0.020756
0.956364 0.043728 0.024559
0.983388 0.044559 0.027895
0.995675 0.047903 0.027980
0.996345 0.048131 0.027965
0.996345 0.048131 0.027965
0.004144 0.032006 0.000000
0.016228 0.028579 0.000000
0.035944 0.028564 0.000000
0.060612 0.028341 0.000000
0.091800 0.027856 0.000000
0.119343 0.024642 0.000000
0.147884 0.024474 0.000000
0.179870 0.024432 0.000000
0.211468 0.024416 0.000000
0.244709 0.024340 0.000000
0.285242 0.024255 0.000000
0.332349 0.024320 0.000000
0.381194 0.024168 0.000000
0.426939 0.024168 0.000000
0.468867 0.024154 0.000085
0.509636 0.024129 0.000189
0.555331 0.024840 0.000779
0.603248 0.026318 0.002074
0.649359 0.027982 0.002814
0.693428 0.029980 0.003617
0.734089 0.033783 0.005534
0.775205 0.037914 0.008716
0.813332 0.040840 0.010003
0.847342 0.044452 0.012727
0.879629 0.049053 0.016500
0.908189 0.053201 0.020138
0.935642 0.056647 0.024063
0.962719 0.060570 0.028489
0.987462 0.064617 0.031727
0.996347 0.064901 0.032250
0.996802 0.064894 0.032266
0.996802 0.064894 0.032266
0.008303 0.055749 0.000331
0.020296 0.055749 0.000331
0.036312 0.055512 0.000331
0.057359 0.052062 0.000303
0.087163 0.051841 0.000041
0.115310 0.051414 0.000000
0.143984 0.048993 0.000000
0.176453 0.048105 0.000000
0.208672 0.047877 0.000085
0.244480 0.046707 0.000331
0.285242 0.045236 0.000293
0.332466 0.046138 0.000246
0.382009 0.043994 0.000316
0.427964 0.043980 0.000331
0.469927 0.043770 0.001516
0.512549 0.043397 0.002954
0.557517 0.045104 0.003113
0.605606 0.047731 0.003140
0.653021 0.049516 0.004916
0.697130 0.052646 0.006536
0.739374 0.054952 0.008925
0.781456 0.057875 0.011117
0.818661 0.060947 0.013855
0.853692 0.064619 0.016685
0.886297 0.069146 0.020353
0.913504 0.072402 0.024698
0.942706 0.076194 0.028656
0.967880 0.080203 0.032660
0.991764 0.084539 0.036572
0.999613 0.086623 0.040283
1.000000 0.086738 0.040514
1.000000 0.086738 0.040514
0.016149 0.079916 0.003923
0.028216 0.079473 0.003923
0.040727 0.079207 0.003923
0.060056 0.076201 0.003639
0.081977 0.076009 0.000930
0.111358 0.075928 0.000504
0.140369 0.074846 0.000504
0.173266 0.072031 0.000504
0.208062 0.071738 0.001281
0.243831 0.070610 0.003513
0.285343 0.068126 0.003160
0.333787 0.067803 0.002810
0.384795 0.067384 0.003665
0.429549 0.067221 0.003878
0.471420 0.067106 0.003778
0.514792 0.066871 0.003785
0.560703 0.066888 0.005424
0.609618 0.068879 0.006853
0.656998 0.070532 0.007850
0.701091 0.072692 0.009840
0.743575 0.075007 0.013006
0.785644 0.078063 0.016536
0.822913 0.080876 0.018688
0.858313 0.084345 0.021852
0.891316 0.088181 0.025706
0.920286 0.090203 0.029337
0.947644 0.093296 0.035218
0.975076 0.097026 0.040008
0.997536 0.102159 0.047022
0.999973 0.102858 0.048112
1.000000 0.102871 0.048139
1.000000 0.102871 0.048139
0.024215 0.103864 0.007917
0.036063 0.100865 0.007917
0.048132 0.100438 0.007917
0.063954 0.099992 0.007679
0.084285 0.099957 0.005350
0.108398 0.099409 0.004603
0.138813 0.096485 0.004537
0.169615 0.095678 0.004537
0.205079 0.093654 0.004590
0.243373 0.092506 0.004754
0.286017 0.092142 0.004716
0.335341 0.090938 0.005270
0.385743 0.088454 0.006988
0.431847 0.087905 0.007659
0.474645 0.087768 0.007678
0.517449 0.087648 0.008580
0.563863 0.087733 0.010178
0.613500 0.089523 0.011059
0.661140 0.091033 0.013027
0.705534 0.091895 0.015310
0.747978 0.093951 0.018055
0.790075 0.097048 0.021257
0.829122 0.099252 0.024822
0.863279 0.102011 0.028603
0.897547 0.105437 0.032890
0.927249 0.108732 0.036914
0.954865 0.110726 0.040685
0.982305 0.113840 0.047205
0.998619 0.118972 0.054886
1.000000 0.119477 0.055725
1.000000 0.119477 0.055733
1.000000 0.119477 0.055733
0.032991 0.127811 0.011745
0.044129 0.127220 0.011745
0.056028 0.127068 0.011745
0.069219 0.124820 0.011745
0.087837 0.124398 0.011399
0.108920 0.123809 0.008980
0.133664 0.122932 0.008571
0.166332 0.121072 0.008571
0.202706 0.119950 0.008571
0.241606 0.118484 0.008628
0.286195 0.116186 0.008783
0.336172 0.115846 0.009374
0.386772 0.114063 0.010915
0.432072 0.111938 0.011950
0.474696 0.111849 0.012255
0.518749 0.111718 0.013009
0.566790 0.111592 0.014420
0.616331 0.112227 0.016215
0.663903 0.113908 0.018224
0.708982 0.114827 0.020854
0.750159 0.117101 0.023421
0.792865 0.118623 0.027826
0.831101 0.121107 0.032130
0.866742 0.124679 0.035897
0.901214 0.126633 0.039831
0.929251 0.128843 0.044248
0.958644 0.132577 0.048481
0.985823 0.134682 0.052706
0.998950 0.138530 0.059895
1.000000 0.138918 0.061162
1.000000 0.138918 0.061200
1.000000 0.138918 0.061200
0.044673 0.153303 0.016661
0.052996 0.153303 0.016661
0.064043 0.153288 0.016618
0.076264 0.153009 0.015994
0.092878 0.151948 0.015647
0.114308 0.149395 0.013583
0.134147 0.149353 0.013266
0.164914 0.148508 0.013266
0.200599 0.145989 0.013266
0.240280 0.144449 0.013266
0.287042 0.142059 0.013344
0.339107 0.141176 0.013529
0.388823 0.139358 0.014486
0.432905 0.137485 0.016403
0.474757 0.137410 0.017124
0.520179 0.137174 0.018261
0.568943 0.137077 0.019830
0.618330 0.137057 0.021798
0.665527 0.137655 0.024352
0.710636 0.139140 0.026571
0.753157 0.140565 0.030355
0.794988 0.142652 0.034381
0.833719 0.144536 0.037946
0.869773 0.146597 0.041697
0.903082 0.149756 0.045492
0.932324 0.150959 0.049731
0.961816 0.154296 0.055524
0.987412 0.157532 0.060364
0.999082 0.160473 0.067977
1.000000 0.160747 0.068731
1.000000 0.160747 0.068731
1.000000 0.160747 0.068731
0.052046 0.184497 0.023656
0.060593 0.184497 0.023656
0.068900 0.184450 0.023516
0.081228 0.183748 0.021464
0.097956 0.183159 0.021207
0.117142 0.180696 0.020576
0.136591 0.180450 0.020429
0.163541 0.179454 0.019834
0.196478 0.177554 0.019866
0.237545 0.175558 0.019820
0.286463 0.173640 0.019878
0.339609 0.171619 0.020333
0.389407 0.169467 0.021127
0.432768 0.168868 0.022414
0.475291 0.168566 0.024095
0.521104 0.167597 0.024685
0.570356 0.167141 0.026417
0.620604 0.167381 0.028842
0.668225 0.167654 0.031408
0.712709 0.168088 0.034717
0.754873 0.168806 0.038379
0.797242 0.170375 0.042539
0.835014 0.172165 0.046193
0.870826 0.174263 0.049983
0.905095 0.176397 0.053957
0.935203 0.178317 0.057781
0.963413 0.181740 0.061615
0.989998 0.183079 0.067252
0.999350 0.186825 0.075490
1.000000 0.187215 0.076293
1.000000 0.187215 0.076293
1.000000 0.187215 0.076293
0.048336 0.217464 0.028642
0.055435 0.217110 0.028642
0.063288 0.217110 0.028642
0.075038 0.217043 0.028642
0.092029 0.216193 0.028642
0.110296 0.214628 0.028642
0.131534 0.214131 0.028048
0.157700 0.213140 0.025561
0.190724 0.212101 0.025504
0.233722 0.209949 0.025408
0.285550 0.207797 0.025357
0.339411 0.204854 0.026271
0.388588 0.202585 0.028342
0.432009 0.201492 0.029019
0.475202 0.201286 0.030145
0.521906 0.199755 0.032175
0.571695 0.198100 0.033960
0.621443 0.197717 0.036372
0.668423 0.198228 0.039191
0.712596 0.199786 0.042397
0.755782 0.200482 0.046044
0.798126 0.200950 0.050529
0.837249 0.203262 0.054204
0.873591 0.204225 0.057805
0.906550 0.206768 0.061988
0.935413 0.207842 0.065944
0.965475 0.210700 0.069944
0.990569 0.212235 0.074190
0.999379 0.215628 0.081243
1.000000 0.216241 0.081941
1.000000 0.216259 0.081941
1.000000 0.216259 0.081941
0.042522 0.257608 0.037890
0.047843 0.256780 0.037878
0.054153 0.256780 0.037441
0.063197 0.256712 0.036630
0.075516 0.256061 0.036640
0.091693 0.255917 0.036709
0.113373 0.255040 0.036261
0.140403 0.252859 0.034263
0.175371 0.252121 0.033860
0.224207 0.250796 0.033935
0.280926 0.247599 0.033792
0.336400 0.245142 0.034150
0.384771 0.242833 0.035568
0.429707 0.240815 0.036997
0.473128 0.240017 0.038312
0.520942 0.239220 0.040554
0.571683 0.237875 0.042778
0.621013 0.237012 0.045018
0.668179 0.236980 0.048175
0.712459 0.237118 0.051857
0.755111 0.237439 0.055283
0.797618 0.238346 0.058868
0.836547 0.239449 0.062711
0.872666 0.240763 0.066517
0.906154 0.242265 0.070298
0.935304 0.243529 0.074213
0.965383 0.245998 0.078165
0.990406 0.247006 0.082329
0.999362 0.250464 0.088447
1.000000 0.251444 0.090078
1.000000 0.251487 0.090149
1.000000 0.251487 0.090149
0.028824 0.304943 0.048265
0.033122 0.304918 0.048240
0.037242 0.304158 0.047365
0.044079 0.303939 0.045677
0.053695 0.302638 0.044993
0.069188 0.302349 0.044616
0.086434 0.301321 0.044689
0.111523 0.300019 0.044653
0.151632 0.298397 0.044531
0.210402 0.296412 0.044531
0.272162 0.294394 0.044480
0.328817 0.291852 0.044343
0.376996 0.289625 0.044314
0.422484 0.287922 0.045461
0.468082 0.285733 0.047715
0.517591 0.284117 0.049694
0.569284 0.282947 0.052044
0.619227 0.281892 0.055387
0.666462 0.281579 0.059132
0.711168 0.281579 0.062805
0.753095 0.281579 0.065349
0.795727 0.281472 0.068373
0.834361 0.282125 0.072014
0.870246 0.284576 0.075749
0.904553 0.285328 0.079531
0.934837 0.285582 0.083312
0.963373 0.287725 0.087093
0.990028 0.288879 0.090936
0.999354 0.291631 0.096476
1.000000 0.292400 0.099082
1.000000 0.292434 0.099224
1.000000 0.292434 0.099224
0.010894 0.347009 0.055449
0.012990 0.346303 0.055449
0.014142 0.344990 0.055394
0.017417 0.344850 0.054473
0.023194 0.344850 0.053171
0.032281 0.344850 0.052283
0.045557 0.344170 0.052409
0.072068 0.341248 0.052451
0.127423 0.340138 0.052598
0.197257 0.337595 0.052570
0.262275 0.336078 0.052534
0.320601 0.333733 0.052544
0.368902 0.331921 0.052317
0.415346 0.329441 0.053345
0.463575 0.327146 0.055625
0.514910 0.325013 0.057444
0.567383 0.323761 0.059810
0.617339 0.322024 0.063155
0.664208 0.321148 0.067391
0.708742 0.320739 0.071214
0.751015 0.320556 0.073758
0.793730 0.320556 0.076806
0.832514 0.321193 0.080539
0.868995 0.323196 0.084320
0.902725 0.323802 0.087955
0.933170 0.323878 0.091693
0.962062 0.324920 0.095474
0.989069 0.326503 0.099125
0.999265 0.327612 0.104125
1.000000 0.329080 0.104612
1.000000 0.329174 0.104612
1.000000 0.329174 0.104612
0.000851 0.387309 0.063232
0.001706 0.386317 0.063232
0.001898 0.386317 0.063097
0.002776 0.386317 0.061054
0.003911 0.386317 0.060265
0.007250 0.386069 0.060176
0.014388 0.384349 0.060176
0.040938 0.382196 0.060263
0.113451 0.380411 0.060588
0.186881 0.378288 0.060593
0.253085 0.376362 0.060598
0.311747 0.374306 0.060826
0.360967 0.372377 0.060610
0.408938 0.369938 0.061523
0.459604 0.367727 0.063268
0.512956 0.365645 0.065398
0.566051 0.363848 0.067972
0.615696 0.362258 0.070863
0.662640 0.360916 0.074858
0.707108 0.360194 0.078074
0.749106 0.359959 0.081216
0.791651 0.359959 0.085057
0.830431 0.360032 0.088977
0.867064 0.361008 0.092788
0.900848 0.361338 0.096112
0.930831 0.361452 0.099760
0.960207 0.362675 0.103627
0.987088 0.362940 0.107424
0.999070 0.364190 0.111384
1.000000 0.365885 0.112523
1.000000 0.365993 0.112576
1.000000 0.365993 0.112576
0.000000 0.430178 0.070385
0.000000 0.429406 0.070385
0.000000 0.429406 0.070316
0.000000 0.429406 0.069223
0.000000 0.429307 0.068359
0.000000 0.428168 0.068242
0.002927 0.425696 0.068221
0.031927 0.424727 0.068187
0.106392 0.421784 0.068439
0.173674 0.420130 0.068581
0.239511 0.417802 0.068659
0.299389 0.416092 0.068793
0.350597 0.414159 0.068626
0.401191 0.412446 0.069369
0.455172 0.410222 0.070578
0.510457 0.407870 0.072615
0.563544 0.405625 0.075205
0.612718 0.404034 0.078465
0.659431 0.402268 0.081790
0.704079 0.401286 0.084750
0.746559 0.400953 0.088242
0.789192 0.401028 0.092221
0.827680 0.401158 0.096419
0.863546 0.401197 0.100498
0.897599 0.401283 0.104111
0.928579 0.401308 0.106848
0.957022 0.402094 0.110507
0.984028 0.402128 0.114213
0.998779 0.402232 0.117276
1.000000 0.404073 0.118557
1.000000 0.404199 0.118626
1.000000 0.404199 0.118626
0.000000 0.474985 0.076190
0.000000 0.474076 0.076190
0.000000 0.473268 0.076190
0.000000 0.473066 0.076190
0.000000 0.472099 0.076190
0.000000 0.471053 0.076190
0.002815 0.469360 0.076166
0.026049 0.467747 0.076093
0.079625 0.465267 0.076253
0.142042 0.463349 0.076469
0.216787 0.461813 0.076553
0.281091 0.459605 0.076508
0.335901 0.458034 0.076430
0.390657 0.456102 0.076431
0.447637 0.454290 0.077213
0.504226 0.452062 0.079224
0.557769 0.449298 0.081866
0.607495 0.447655 0.084981
0.654468 0.446136 0.087780
0.699787 0.444269 0.090899
0.741990 0.443602 0.094506
0.784870 0.442967 0.097839
0.823182 0.442664 0.101866
0.858728 0.442752 0.106012
0.893586 0.442880 0.110139
0.923835 0.442908 0.112884
0.952929 0.442908 0.116595
0.979275 0.443011 0.119790
0.998200 0.442920 0.122831
0.999882 0.443852 0.124001
0.999882 0.443917 0.124062
0.999882 0.443917 0.124062
0.000000 0.519855 0.083123
0.000000 0.519800 0.083123
0.000000 0.518138 0.083123
0.000000 0.517936 0.083123
0.000000 0.516936 0.083123
0.000000 0.515691 0.083123
0.000595 0.513957 0.083123
0.006781 0.511905 0.083293
0.032971 0.510238 0.083942
0.098128 0.508938 0.084231
0.185972 0.507313 0.084493
0.256355 0.505240 0.084538
0.317182 0.503619 0.084525
0.377195 0.501541 0.084372
0.437859 0.499941 0.084641
0.495949 0.497924 0.085725
0.550466 0.495420 0.087912
0.600229 0.493188 0.090491
0.647544 0.491530 0.093387
0.693542 0.489847 0.096437
0.736509 0.488821 0.099718
0.779190 0.487194 0.102836
0.817884 0.486526 0.106602
0.853874 0.486520 0.110395
0.888114 0.486615 0.113937
0.918163 0.486644 0.117861
0.947152 0.486644 0.121994
0.974465 0.486747 0.124771
0.996952 0.486655 0.127519
0.999825 0.486644 0.128546
0.999882 0.486644 0.128599
0.999882 0.486644 0.128599
0.000000 0.562779 0.088101
0.000000 0.562754 0.088131
0.000000 0.561869 0.089039
0.000000 0.559865 0.089039
0.000000 0.559736 0.089039
0.000000 0.558467 0.089039
0.000000 0.556132 0.089039
0.000333 0.554986 0.089188
0.014339 0.553791 0.089729
0.074378 0.551952 0.089913
0.154701 0.550514 0.090467
0.229859 0.548653 0.091284
0.299171 0.547006 0.091572
0.364737 0.545243 0.091346
0.428223 0.543152 0.091347
0.487330 0.541464 0.092175
0.542584 0.539447 0.093260
0.593155 0.537154 0.095264
0.641195 0.535327 0.097915
0.686583 0.533520 0.100884
0.729922 0.531821 0.104021
0.772572 0.530881 0.107303
0.811489 0.529499 0.111143
0.847781 0.528454 0.114814
0.882123 0.528338 0.117568
0.912414 0.528363 0.120706
0.940696 0.528250 0.124493
0.968454 0.528345 0.127928
0.993077 0.528363 0.131599
0.998823 0.528363 0.131969
0.999063 0.528363 0.131971
0.999063 0.528363 0.131971
0.000000 0.604451 0.092276
0.000000 0.603554 0.092299
0.000000 0.602076 0.092993
0.000000 0.600544 0.092993
0.000000 0.600544 0.092993
0.000000 0.600032 0.093130
0.000000 0.597227 0.093844
0.000254 0.596636 0.093844
0.008817 0.595864 0.093807
0.045829 0.593378 0.093732
0.111601 0.592531 0.094081
0.202860 0.590910 0.095326
0.283981 0.588720 0.096530
0.355160 0.587081 0.096444
0.420024 0.584812 0.096290
0.478886 0.583875 0.097211
0.534375 0.581858 0.098134
0.586511 0.579920 0.099253
0.634423 0.578213 0.101166
0.679722 0.576527 0.103808
0.722469 0.574443 0.107226
0.765832 0.573343 0.110733
0.804401 0.572019 0.114005
0.841132 0.569791 0.117429
0.875770 0.569184 0.120232
0.905277 0.569184 0.123448
0.934811 0.568979 0.127157
0.962900 0.569028 0.130163
0.988428 0.569042 0.133374
0.996613 0.569174 0.135500
0.997014 0.569184 0.135626
0.997014 0.569184 0.135626
0.000000 0.643995 0.096412
0.000000 0.642500 0.096412
0.000000 0.641585 0.096412
0.000000 0.641585 0.096412
0.000000 0.641392 0.096412
0.000000 0.639890 0.096503
0.000000 0.638631 0.096979
0.000000 0.637407 0.096979
0.001586 0.636135 0.096955
0.016811 0.634830 0.096841
0.076465 0.633635 0.096958
0.179988 0.632027 0.098009
0.269816 0.630066 0.099646
0.345990 0.628080 0.100626
0.412040 0.626449 0.100492
0.470694 0.625003 0.101071
0.525870 0.623450 0.102128
0.578619 0.622247 0.102882
0.627020 0.620363 0.104060
0.673139 0.618911 0.106345
0.715717 0.616604 0.109263
0.758712 0.615255 0.112155
0.798360 0.613869 0.115329
0.835167 0.611663 0.117681
0.868425 0.611192 0.120952
0.898163 0.611105 0.124550
0.928084 0.610369 0.128543
0.956398 0.610102 0.131926
0.983440 0.610083 0.133322
0.993199 0.610172 0.136678
0.993698 0.610178 0.136902
0.993698 0.610178 0.136902
0.000000 0.680736 0.096191
0.000000 0.680216 0.097924
0.000000 0.680216 0.097924
0.000000 0.680079 0.097924
0.000000 0.678645 0.097924
0.000000 0.677515 0.097924
0.000000 0.676855 0.097924
0.000000 0.675868 0.097924
0.000000 0.674188 0.097924
0.008508 0.673380 0.098311
0.058016 0.671967 0.099367
0.156994 0.670208 0.100117
0.258930 0.668805 0.101387
0.338227 0.667102 0.102087
0.404940 0.665304 0.102242
0.464086 0.663710 0.102093
0.519002 0.662369 0.103183
0.570894 0.661530 0.105005
0.619484 0.660375 0.105730
0.665831 0.658592 0.106543
0.709370 0.656890 0.108730
0.751878 0.654885 0.111972
0.791264 0.653446 0.115329
0.827727 0.652115 0.117330
0.862246 0.650602 0.120553
0.892295 0.650196 0.123562
0.920289 0.649155 0.127567
0.948237 0.648883 0.130405
0.976930 0.648872 0.132939
0.988133 0.648872 0.134392
0.988720 0.648872 0.134476
0.988720 0.648872 0.134476
0.000000 0.715704 0.094411
0.000000 0.715704 0.095277
0.000000 0.715704 0.095277
0.000000 0.715635 0.095277
0.000000 0.714974 0.095277
0.000000 0.714786 0.095277
0.000000 0.713995 0.095630
0.000000 0.711654 0.097284
0.000000 0.711105 0.097924
0.002637 0.710287 0.098130
0.039002 0.708272 0.098527
0.143838 0.707142 0.099261
0.252674 0.705701 0.101325
0.333324 0.703619 0.101967
0.399816 0.702938 0.102304
0.458461 0.701212 0.102093
0.513203 0.699399 0.102971
0.564247 0.699122 0.105034
0.612857 0.697857 0.105973
0.659046 0.695957 0.105994
0.702212 0.695199 0.106720
0.745699 0.692940 0.109819
0.784518 0.691482 0.112807
0.820386 0.690655 0.115887
0.855396 0.688534 0.118206
0.885257 0.687449 0.121278
0.912652 0.686991 0.124977
0.941366 0.687071 0.128640
0.971026 0.685449 0.133450
0.983499 0.685273 0.136238
0.984166 0.685273 0.136398
0.984166 0.685273 0.136398
0.000000 0.748332 0.093324
0.000000 0.748332 0.093324
0.000000 0.748332 0.093324
0.000000 0.748332 0.093324
0.000000 0.748265 0.093324
0.000000 0.747505 0.093324
0.000000 0.745619 0.093475
0.000000 0.744425 0.094301
0.000000 0.744291 0.095023
0.005445 0.743226 0.095655
0.048177 0.741227 0.096839
0.148065 0.740395 0.097131
0.249623 0.738793 0.098176
0.329872 0.736610 0.098887
0.396108 0.736610 0.099428
0.454480 0.734720 0.100611
0.508376 0.732703 0.101546
0.559048 0.732703 0.102312
0.607549 0.732049 0.103320
0.653366 0.729872 0.104497
0.696862 0.728796 0.105025
0.740162 0.728172 0.106135
0.778939 0.725756 0.108720
0.814883 0.724731 0.112844
0.848239 0.724127 0.116542
0.877197 0.721502 0.121219
0.907028 0.720911 0.125176
0.935887 0.720972 0.131546
0.966805 0.720277 0.137882
0.979624 0.720202 0.140275
0.980306 0.720202 0.140399
0.980306 0.720202 0.140399
0.000000 0.780275 0.087424
0.000000 0.780211 0.087424
0.000000 0.778270 0.087424
0.000000 0.778101 0.087424
0.000000 0.777983 0.087517
0.000000 0.777075 0.088411
0.000000 0.776469 0.089884
0.000000 0.776000 0.090365
0.000000 0.774548 0.090528
0.003693 0.773629 0.090863
0.042153 0.772164 0.091918
0.144724 0.770709 0.093191
0.250351 0.769608 0.094380
0.329172 0.768659 0.094999
0.395148 0.767490 0.095800
0.453208 0.765798 0.098040
0.506400 0.764997 0.099609
0.555904 0.764050 0.099416
0.602819 0.762749 0.100322
0.648711 0.761735 0.102725
0.691410 0.761230 0.103932
0.734330 0.760733 0.105575
0.774225 0.758428 0.108590
0.808871 0.757422 0.113223
0.842576 0.756534 0.119692
0.872076 0.754160 0.124658
0.900398 0.753649 0.130687
0.931013 0.752860 0.136229
0.963012 0.750780 0.143291
0.976526 0.750569 0.146813
0.977250 0.750569 0.147009
0.977250 0.750569 0.147009
0.000000 0.809075 0.086793
0.000000 0.809055 0.086793
0.000000 0.808428 0.086793
0.000000 0.807846 0.086867
0.000000 0.807817 0.087578
0.000000 0.807625 0.088216
0.000000 0.807259 0.090567
0.000000 0.805495 0.090871
0.000000 0.804482 0.091896
0.007554 0.803875 0.093300
0.058418 0.803088 0.094302
0.162034 0.801217 0.096238
0.256985 0.800083 0.097590
0.332514 0.799843 0.099221
0.396148 0.798377 0.101271
0.453098 0.796480 0.103801
0.504794 0.796102 0.105858
0.553522 0.795722 0.106695
0.601099 0.793922 0.108127
0.646113 0.792763 0.110167
0.687113 0.792347 0.112115
0.729540 0.791995 0.114784
0.768362 0.791377 0.116165
0.803645 0.789422 0.119562
0.836797 0.788419 0.124502
0.865568 0.787444 0.130746
0.893517 0.785336 0.136174
0.924740 0.784730 0.142950
0.959341 0.783413 0.150793
0.972828 0.783276 0.154257
0.973532 0.783276 0.154445
0.973532 0.783276 0.154445
0.000000 0.836409 0.096632
0.000000 0.836409 0.096651
0.000000 0.836400 0.097223
0.000000 0.835963 0.097242
0.000000 0.833117 0.097412
0.000000 0.833117 0.097917
0.000000 0.833025 0.100616
0.000000 0.832612 0.101021
0.000000 0.831856 0.101887
0.008846 0.829769 0.103773
0.064841 0.829088 0.104537
0.173017 0.828714 0.105904
0.267059 0.827720 0.108244
0.339159 0.825906 0.110174
0.400670 0.824828 0.112479
0.455681 0.824445 0.114932
0.506979 0.823762 0.117074
0.554650 0.822088 0.117724
0.599387 0.820841 0.118870
0.642719 0.820584 0.121092
0.684606 0.820492 0.123813
0.726398 0.819908 0.125799
0.763941 0.818223 0.127399
0.799148 0.816925 0.128293
0.832248 0.816640 0.131511
0.860806 0.816197 0.136209
0.889062 0.813801 0.142791
0.922534 0.812846 0.150132
0.958333 0.812421 0.155981
0.971759 0.810173 0.159574
0.972453 0.810020 0.159786
0.972453 0.810020 0.159786
0.000000 0.860766 0.108527
0.000000 0.860687 0.108531
0.000000 0.858256 0.108645
0.000000 0.857428 0.108705
0.000000 0.856859 0.109551
0.000000 0.856859 0.111662
0.000000 0.856859 0.112529
0.000000 0.856859 0.112978
0.000053 0.856103 0.113734
0.014050 0.853645 0.115649
0.085462 0.853018 0.116936
0.196488 0.853157 0.118962
0.280958 0.852212 0.120515
0.348236 0.849998 0.122155
0.407705 0.849005 0.124465
0.460528 0.849005 0.126086
0.510241 0.848884 0.128334
0.556755 0.846756 0.129085
0.601281 0.845098 0.130257
0.643120 0.845098 0.131990
0.682748 0.845098 0.135016
0.723204 0.844992 0.137094
0.759909 0.844661 0.137791
0.795448 0.842057 0.139432
0.828332 0.841191 0.140597
0.857103 0.841128 0.143803
0.887024 0.840749 0.149984
0.920087 0.837722 0.155775
0.958228 0.837248 0.162923
0.972300 0.836802 0.167004
0.973020 0.836772 0.167238
0.973020 0.836772 0.167238
0.000000 0.884674 0.117185
0.000000 0.884662 0.117185
0.000000 0.884288 0.117390
0.000000 0.883882 0.120405
0.000000 0.881165 0.120727
0.000000 0.880946 0.121039
0.000000 0.880767 0.121721
0.000000 0.880767 0.124352
0.005662 0.879901 0.125054
0.044413 0.877251 0.127283
0.128558 0.876870 0.128686
0.219061 0.876892 0.130868
0.296477 0.875617 0.132305
0.359564 0.873328 0.134108
0.416155 0.872953 0.136259
0.467112 0.872953 0.137580
0.514762 0.872953 0.139959
0.559341 0.870927 0.140768
