gsg/02_Everyday/GSG_LUT_Everyday_AgeofAquarius.cube
# GSG LUTs 1.0
# Copyright (c) 2016-2020 Greyscalegorilla
# See EULA for licensing and distribution information
# Converted by Briz LUT Converter
LUT_3D_SIZE 32
0.000000 0.000000 0.000000
0.037134 0.000008 0.002537
0.076647 0.000276 0.005546
0.114672 0.000803 0.008177
0.147190 0.001560 0.009878
0.178140 0.002355 0.014668
0.210012 0.003364 0.019315
0.240829 0.004427 0.023073
0.269755 0.005688 0.026287
0.298373 0.007090 0.031037
0.328544 0.008854 0.036173
0.357588 0.010532 0.040356
0.385096 0.012234 0.043854
0.412872 0.014353 0.048753
0.440238 0.016511 0.054331
0.467108 0.018646 0.058915
0.493702 0.021041 0.063327
0.519217 0.023561 0.070243
0.543527 0.026082 0.078530
0.568475 0.028753 0.083902
0.593777 0.031683 0.089637
0.618157 0.034543 0.095372
0.641758 0.037315 0.100240
0.665201 0.040269 0.106298
0.687510 0.043105 0.106802
0.709835 0.046075 0.112576
0.731655 0.049305 0.122029
0.751845 0.052156 0.128245
0.773524 0.055150 0.130482
0.794312 0.058175 0.135444
0.815456 0.061436 0.142392
0.838095 0.064957 0.149695
0.006775 0.027421 0.015196
0.041818 0.025742 0.011292
0.076752 0.026246 0.012304
0.111396 0.027116 0.015428
0.145242 0.026763 0.018545
0.176516 0.025298 0.022711
0.207782 0.022639 0.027454
0.237807 0.020577 0.031886
0.266182 0.019260 0.035779
0.295030 0.016920 0.039145
0.326049 0.017619 0.042341
0.356280 0.016043 0.046588
0.384270 0.013215 0.052136
0.411104 0.015051 0.056850
0.437961 0.017013 0.060506
0.464563 0.019046 0.065119
0.490161 0.021148 0.070766
0.515278 0.023449 0.076117
0.540871 0.026072 0.081128
0.565837 0.028633 0.087235
0.590946 0.031439 0.093253
0.616064 0.034469 0.098284
0.640468 0.037329 0.103387
0.664307 0.040443 0.110218
0.687061 0.043340 0.113708
0.708912 0.046311 0.119482
0.730599 0.049336 0.125642
0.751867 0.052155 0.127070
0.773022 0.055143 0.132834
0.793502 0.058204 0.139781
0.814156 0.061483 0.145387
0.836071 0.064469 0.147576
0.012462 0.053212 0.032636
0.047796 0.052006 0.027887
0.079894 0.051532 0.024519
0.111486 0.051784 0.023468
0.143443 0.052232 0.025378
0.173892 0.051830 0.030042
0.203442 0.051311 0.034852
0.232428 0.049857 0.039367
0.261283 0.046824 0.042751
0.290621 0.044039 0.045559
0.322019 0.045405 0.049244
0.352383 0.043853 0.054259
0.380656 0.037505 0.059832
0.407867 0.033779 0.064126
0.434598 0.034004 0.068319
0.461184 0.032905 0.073072
0.487189 0.029787 0.077939
0.512669 0.028787 0.081917
0.537947 0.030161 0.086006
0.563021 0.030794 0.092629
0.588960 0.032535 0.098621
0.613764 0.035562 0.103079
0.637148 0.038593 0.107174
0.661027 0.041264 0.111034
0.683907 0.044022 0.117236
0.705990 0.046839 0.123469
0.727943 0.049798 0.128654
0.749636 0.053093 0.131979
0.770236 0.055724 0.136597
0.790385 0.059992 0.141532
0.811005 0.064059 0.146156
0.833644 0.065713 0.150443
0.016283 0.080397 0.050691
0.054048 0.079526 0.045672
0.083711 0.078928 0.038869
0.111810 0.079016 0.033174
0.142248 0.080447 0.031700
0.170183 0.081536 0.037807
0.199083 0.082742 0.042953
0.228159 0.082441 0.046541
0.256829 0.079509 0.048613
0.286054 0.077624 0.052829
0.316777 0.078980 0.057923
0.346647 0.078058 0.063395
0.375025 0.072653 0.067919
0.402824 0.067697 0.071611
0.429756 0.066306 0.076400
0.456016 0.064372 0.081024
0.482537 0.058314 0.085317
0.508377 0.053649 0.089086
0.533099 0.054140 0.092989
0.558377 0.053509 0.099297
0.584806 0.052665 0.104848
0.609589 0.052669 0.109419
0.632516 0.054333 0.113417
0.655688 0.060578 0.114919
0.678718 0.062003 0.122381
0.701530 0.061009 0.128767
0.723786 0.062715 0.133171
0.744945 0.070979 0.139228
0.766046 0.070413 0.141794
0.785594 0.076815 0.145535
0.805787 0.085510 0.151368
0.828453 0.088747 0.159124
0.019276 0.109890 0.067643
0.060091 0.107855 0.060909
0.085509 0.108344 0.053605
0.110138 0.110047 0.045953
0.141576 0.111413 0.040555
0.166592 0.112269 0.046928
0.196452 0.112404 0.052171
0.226716 0.111927 0.054584
0.254857 0.111304 0.055534
0.282584 0.111269 0.062683
0.311510 0.111006 0.068473
0.340354 0.110792 0.073220
0.368362 0.112119 0.076931
0.395772 0.113548 0.080240
0.422958 0.111709 0.084199
0.448435 0.112994 0.088429
0.474257 0.109619 0.093975
0.500639 0.103542 0.099035
0.525503 0.104100 0.102296
0.550534 0.103370 0.106833
0.576236 0.099327 0.111774
0.602102 0.093823 0.117449
0.626694 0.092808 0.122909
0.648491 0.105321 0.126028
0.672319 0.104754 0.133036
0.696178 0.097425 0.138301
0.718190 0.097039 0.141626
0.737792 0.114000 0.146692
0.759953 0.108287 0.149135
0.779491 0.117416 0.155972
0.798302 0.133940 0.165403
0.819032 0.142597 0.173366
0.031108 0.140675 0.083194
0.064491 0.137980 0.075292
0.089987 0.137800 0.068596
0.112794 0.139422 0.063917
0.136937 0.141619 0.061337
0.165616 0.140655 0.057687
0.194213 0.141091 0.060421
0.223184 0.141717 0.063993
0.251770 0.142892 0.066156
0.278798 0.145538 0.072056
0.308464 0.145397 0.078160
0.336848 0.146084 0.082646
0.363000 0.148321 0.085650
0.389188 0.149079 0.089559
0.415556 0.148710 0.094990
0.441472 0.149085 0.100671
0.467082 0.148801 0.106257
0.492404 0.149140 0.111326
0.517244 0.151780 0.115466
0.542082 0.153560 0.119251
0.567198 0.153699 0.123827
0.592353 0.153349 0.129165
0.617015 0.153698 0.134604
0.640286 0.156253 0.139713
0.663699 0.155716 0.145697
0.686563 0.156355 0.149633
0.708055 0.160792 0.153378
0.728030 0.169330 0.160512
0.748214 0.172532 0.163351
0.768005 0.179008 0.168732
0.787824 0.188321 0.176263
0.808011 0.198480 0.184804
0.043791 0.168671 0.098082
0.073503 0.166160 0.089809
0.097030 0.165828 0.084841
0.118644 0.167511 0.081983
0.141946 0.170169 0.078616
0.168169 0.168585 0.071326
0.194099 0.169783 0.070391
0.220657 0.171366 0.073046
0.247621 0.172679 0.077063
0.274845 0.175148 0.082150
0.304433 0.176191 0.087927
0.332357 0.177357 0.092382
0.357830 0.179789 0.095317
0.383520 0.182521 0.099476
0.409103 0.183842 0.105211
0.435297 0.184023 0.111536
0.460355 0.185779 0.117358
0.485053 0.188425 0.122142
0.510765 0.189803 0.126476
0.535221 0.192409 0.131196
0.559856 0.194954 0.136283
0.584685 0.196914 0.140469
0.609084 0.198768 0.144880
0.632840 0.200064 0.151572
0.656046 0.200028 0.155980
0.677526 0.203285 0.160571
0.697734 0.209744 0.166279
0.717919 0.217933 0.171932
0.738746 0.221112 0.175274
0.759026 0.225592 0.180265
0.779760 0.231610 0.186788
0.801835 0.238907 0.195155
0.053527 0.195809 0.111450
0.081279 0.194537 0.105076
0.102157 0.194480 0.102065
0.122917 0.195724 0.099410
0.147451 0.197381 0.094526
0.169630 0.197191 0.088805
0.194213 0.198265 0.084590
0.218781 0.199594 0.084237
0.243055 0.200588 0.087929
0.271574 0.202418 0.091354
0.300721 0.204240 0.097100
0.328193 0.206308 0.102622
0.353618 0.209155 0.105873
0.378694 0.212787 0.109104
0.403692 0.215178 0.114761
0.429827 0.216507 0.121268
0.455010 0.219507 0.127306
0.479367 0.222335 0.132489
0.504624 0.222989 0.137233
0.528823 0.225857 0.142035
0.553717 0.229213 0.146583
0.578223 0.232191 0.150738
0.601695 0.235439 0.155482
0.625501 0.238305 0.161882
0.648645 0.240417 0.165108
0.669819 0.244007 0.170709
0.689703 0.249353 0.177981
0.709864 0.256430 0.182811
0.731585 0.259027 0.187034
0.752041 0.263709 0.191510
0.773162 0.269249 0.196800
0.797133 0.273079 0.204151
0.058884 0.223979 0.124810
0.083926 0.223912 0.121528
0.102856 0.224042 0.118582
0.122913 0.224321 0.115028
0.148293 0.224921 0.109990
0.168556 0.226320 0.107715
0.193444 0.226569 0.102231
0.217407 0.226810 0.098581
0.239957 0.227658 0.099313
0.268789 0.229842 0.100334
0.297179 0.231965 0.105412
0.324409 0.234892 0.112280
0.350111 0.238008 0.116865
0.374538 0.240194 0.118911
0.399138 0.242943 0.123551
0.424979 0.246239 0.129804
0.450682 0.250053 0.136297
0.474889 0.252713 0.142404
0.498641 0.254302 0.147631
0.522592 0.257387 0.150695
0.548299 0.260272 0.154430
0.572564 0.263796 0.160235
0.594877 0.268240 0.166228
0.618036 0.272154 0.169949
0.641571 0.276511 0.173679
0.663751 0.280074 0.179416
0.684794 0.282948 0.186350
0.705028 0.285681 0.193435
0.726106 0.290717 0.198853
0.746201 0.297787 0.202772
0.767423 0.304323 0.206554
0.791587 0.306920 0.211903
0.062350 0.253401 0.142897
0.084658 0.252634 0.137961
0.103144 0.252588 0.133056
0.124030 0.253494 0.128733
0.150234 0.254592 0.125498
0.170375 0.254365 0.122238
0.193462 0.255632 0.117445
0.217102 0.256773 0.114286
0.240021 0.257340 0.114114
0.264547 0.259714 0.113815
0.291599 0.262816 0.115025
0.318717 0.264951 0.119181
0.344851 0.266280 0.125667
0.370340 0.268947 0.130524
0.395621 0.272298 0.133366
0.420917 0.276173 0.137970
0.445616 0.280227 0.144247
0.469801 0.282869 0.149892
0.493832 0.284450 0.154641
0.517287 0.287388 0.157987
0.542481 0.289972 0.163961
0.567125 0.293349 0.169859
0.589791 0.298144 0.173596
0.612161 0.302540 0.176899
0.635159 0.306195 0.183402
0.657446 0.309577 0.188258
0.679165 0.313192 0.192885
0.700935 0.317231 0.201558
0.720678 0.322810 0.207799
0.740512 0.329882 0.212322
0.761735 0.336446 0.216209
0.785356 0.340242 0.219678
0.064997 0.282563 0.158825
0.087321 0.282571 0.153701
0.106301 0.283067 0.148841
0.126822 0.283510 0.144434
0.150967 0.283540 0.140931
0.171791 0.284922 0.139300
0.194102 0.286495 0.134947
0.216786 0.287497 0.131998
0.238941 0.288247 0.131272
0.262375 0.289720 0.127887
0.288598 0.292257 0.126651
0.315604 0.293860 0.128026
0.341171 0.295563 0.132957
0.365511 0.299158 0.139520
0.390996 0.301918 0.143792
0.416306 0.305963 0.148476
0.440136 0.310497 0.153363
0.463725 0.313556 0.158073
0.488136 0.315888 0.163372
0.511981 0.318559 0.168483
0.537001 0.322172 0.174237
0.560935 0.326581 0.179302
0.583387 0.330864 0.183739
0.607089 0.333545 0.189258
0.629298 0.337343 0.195989
0.650943 0.341117 0.199882
0.673032 0.344939 0.203792
0.695640 0.349228 0.212106
0.716690 0.353175 0.216572
0.736004 0.360319 0.220436
0.756038 0.367556 0.224459
0.779464 0.371121 0.227918
0.070850 0.311206 0.172673
0.092179 0.311387 0.167857
0.109786 0.312660 0.164986
0.128409 0.313764 0.161855
0.150595 0.313923 0.156775
0.172394 0.315269 0.154479
0.194655 0.316092 0.151801
0.216012 0.317349 0.149363
0.236888 0.319020 0.147145
0.261617 0.319005 0.144203
0.287057 0.320512 0.140941
0.312119 0.322227 0.139493
0.336101 0.324729 0.142433
0.360286 0.328279 0.148440
0.386065 0.330537 0.153476
0.411603 0.334172 0.158793
0.434831 0.338961 0.162960
0.457575 0.343000 0.166480
0.481993 0.346251 0.171563
0.506526 0.348744 0.177581
0.531162 0.352915 0.182892
0.554608 0.357433 0.188067
0.577255 0.360898 0.193868
0.601271 0.363986 0.200225
0.623653 0.368328 0.206132
0.645606 0.371837 0.210303
0.667616 0.375078 0.214777
0.689442 0.379718 0.221554
0.711732 0.382771 0.224749
0.732001 0.389008 0.228112
0.751871 0.396007 0.231857
0.774004 0.400181 0.235464
0.072992 0.339942 0.186474
0.094171 0.339305 0.181625
0.110981 0.340629 0.179721
0.128640 0.342618 0.177942
0.150602 0.343989 0.173813
0.172180 0.343958 0.168986
0.194047 0.344083 0.166858
0.214859 0.345661 0.164706
0.235523 0.347966 0.161862
0.260684 0.348143 0.160584
0.285374 0.348919 0.157023
0.308165 0.350673 0.153969
0.330517 0.353211 0.154164
0.355405 0.355635 0.157936
0.381090 0.358097 0.162580
0.406038 0.361691 0.167610
0.429445 0.366383 0.171631
0.452688 0.370907 0.175248
0.476712 0.374650 0.180296
0.500787 0.377548 0.186514
0.525321 0.380906 0.192016
0.549419 0.384376 0.196895
0.572460 0.387810 0.201818
0.595274 0.392206 0.207180
0.618787 0.396678 0.212576
0.641322 0.400203 0.217609
0.662781 0.403786 0.222599
0.683699 0.408377 0.227730
0.705900 0.412437 0.231498
0.727204 0.417429 0.234979
0.748364 0.422779 0.238452
0.770601 0.427374 0.241924
0.070739 0.369428 0.202158
0.090521 0.368569 0.197285
0.109061 0.369107 0.193185
0.129159 0.370166 0.190834
0.152178 0.371218 0.190020
0.172121 0.371644 0.186520
0.192028 0.372666 0.181948
0.213531 0.374069 0.178874
0.236379 0.375595 0.177587
0.258619 0.377410 0.174361
0.282650 0.378277 0.172457
0.305826 0.379642 0.169509
0.328117 0.381487 0.166566
0.351687 0.383057 0.167938
0.375674 0.385547 0.171575
0.399355 0.389989 0.175326
0.423726 0.394474 0.179575
0.448689 0.397951 0.184822
0.472578 0.401745 0.190397
0.495192 0.405458 0.196920
0.520186 0.408397 0.202694
0.544990 0.411849 0.206340
0.567925 0.415950 0.209444
0.590647 0.419060 0.214797
0.614415 0.422740 0.220127
0.636425 0.427752 0.224559
0.657323 0.432927 0.228529
0.679430 0.436798 0.232521
0.701044 0.441756 0.236181
0.721852 0.446004 0.240521
0.743906 0.450083 0.245234
0.768506 0.454268 0.249762
0.079562 0.397503 0.218181
0.091201 0.397231 0.213151
0.107504 0.397857 0.208534
0.128746 0.398637 0.204953
0.153357 0.399445 0.203063
0.171962 0.399216 0.202127
0.189827 0.401072 0.197507
0.211560 0.403135 0.193395
0.236855 0.404247 0.191702
0.257267 0.405657 0.189946
0.280460 0.407102 0.187281
0.303927 0.408933 0.184706
0.326527 0.410412 0.182733
0.348890 0.410836 0.181080
0.370990 0.412462 0.180730
0.394100 0.416628 0.183547
0.418999 0.420755 0.189195
0.444045 0.423819 0.194078
0.467674 0.427809 0.197567
0.490056 0.432003 0.202957
0.514758 0.436033 0.209091
0.539615 0.439726 0.214163
0.562888 0.443375 0.218698
0.585821 0.447423 0.223975
0.609345 0.450671 0.229411
0.631362 0.455093 0.233167
0.652678 0.460117 0.235874
0.675452 0.464483 0.238944
0.696640 0.469146 0.241887
0.718204 0.472353 0.247267
0.741122 0.475981 0.253398
0.766033 0.481823 0.257860
0.080113 0.424255 0.232880
0.095890 0.424995 0.229048
0.112368 0.425751 0.224869
0.131399 0.426531 0.220608
0.152842 0.427409 0.217167
0.170142 0.427697 0.217143
0.188689 0.429764 0.213264
0.210882 0.431663 0.208801
0.235447 0.432702 0.206567
0.255708 0.434854 0.206305
0.279401 0.435922 0.203071
0.302736 0.437549 0.200877
0.324889 0.439116 0.199456
0.347320 0.439362 0.195896
0.368391 0.440596 0.194079
0.389886 0.443295 0.195503
0.413801 0.446589 0.198499
0.438774 0.450126 0.201599
0.462456 0.454249 0.205904
0.485117 0.458537 0.211906
0.509785 0.462833 0.217011
0.534953 0.466542 0.221182
0.558696 0.470025 0.225550
0.581126 0.474557 0.230072
0.604413 0.477954 0.235833
0.626722 0.481838 0.240402
0.648545 0.486411 0.243607
0.671210 0.491284 0.247038
0.693011 0.494787 0.251398
0.716360 0.497830 0.255753
0.741074 0.501099 0.259302
0.767718 0.505172 0.261042
0.079861 0.451227 0.248257
0.092886 0.452854 0.243538
0.109989 0.453740 0.239262
0.128951 0.454638 0.235391
0.147662 0.455646 0.232146
0.166320 0.456710 0.231296
0.188201 0.458054 0.228458
0.210146 0.459282 0.224722
0.231036 0.461004 0.222098
0.254086 0.463717 0.221702
0.277144 0.464582 0.218826
0.300337 0.465513 0.216006
0.323336 0.467081 0.213593
0.345409 0.468469 0.210952
0.366569 0.469987 0.209915
0.387142 0.471374 0.208753
0.409756 0.473821 0.207846
0.433948 0.477602 0.210011
0.457215 0.481432 0.215113
0.480441 0.485278 0.220172
0.505500 0.488695 0.223960
0.530924 0.492258 0.227776
0.554789 0.496220 0.232283
0.576471 0.500712 0.236691
0.599595 0.504141 0.242094
0.622542 0.508054 0.246883
0.645041 0.512415 0.250372
0.668356 0.515821 0.253186
0.691832 0.519226 0.256764
0.717238 0.522282 0.259278
0.743668 0.524818 0.260510
0.771121 0.526976 0.260286
0.078538 0.478822 0.263642
0.086956 0.480677 0.257568
0.103488 0.481815 0.252840
0.123494 0.482875 0.249056
0.142881 0.484367 0.245817
0.162821 0.485271 0.244811
0.186471 0.485665 0.242907
0.208086 0.486644 0.240041
0.227263 0.488976 0.236935
0.252383 0.491174 0.235597
0.274390 0.492441 0.233254
0.297292 0.493569 0.229760
0.321047 0.495134 0.226780
0.342877 0.496968 0.225698
0.364736 0.498481 0.223923
0.385836 0.499956 0.221177
0.407247 0.502168 0.219884
0.429653 0.505224 0.221302
0.452375 0.508389 0.223630
0.476319 0.511585 0.225659
0.501431 0.514639 0.229413
0.526452 0.518295 0.235126
0.550342 0.522502 0.240923
0.572278 0.526752 0.244981
0.595695 0.529891 0.249309
0.618979 0.533629 0.253167
0.643287 0.537077 0.255337
0.668578 0.538755 0.256899
0.693151 0.542797 0.258070
0.719327 0.545349 0.260231
0.746390 0.546998 0.261897
0.773831 0.549112 0.261215
0.067147 0.506582 0.276687
0.089679 0.507891 0.272450
0.106840 0.508733 0.267964
0.123259 0.510010 0.263610
0.141513 0.512248 0.259511
0.160524 0.512921 0.258884
0.183146 0.513427 0.257202
0.205604 0.514418 0.254552
0.226890 0.516274 0.251422
0.250577 0.518335 0.249447
0.273147 0.519641 0.247458
0.295460 0.521372 0.244184
0.318105 0.523338 0.241411
0.341003 0.524518 0.240582
0.363464 0.525724 0.237502
0.384686 0.527816 0.235244
0.404844 0.530304 0.234309
0.425878 0.532510 0.233397
0.448729 0.534780 0.232785
0.472652 0.537350 0.233321
0.497333 0.540697 0.237480
0.521932 0.544622 0.243646
0.545851 0.548526 0.248912
0.568622 0.552010 0.251026
0.593332 0.554925 0.254175
0.618541 0.557571 0.257087
0.644112 0.559990 0.259203
0.670243 0.562042 0.261655
0.695171 0.565493 0.262854
0.721478 0.567398 0.264474
0.748655 0.568824 0.265723
0.775454 0.570680 0.266163
0.061877 0.535011 0.290338
0.093087 0.535241 0.286431
0.108889 0.535329 0.282149
0.120561 0.536297 0.277975
0.136272 0.538651 0.274652
0.157435 0.539315 0.273479
0.178510 0.540920 0.271372
0.201843 0.542775 0.268667
0.227311 0.544133 0.266105
0.249547 0.545138 0.264268
0.270765 0.546892 0.262046
0.293148 0.548457 0.258612
0.316624 0.550085 0.256190
0.339101 0.551971 0.255794
0.361374 0.553077 0.253144
0.383184 0.555552 0.251090
0.403745 0.558045 0.248740
0.424757 0.559401 0.245346
0.447295 0.561085 0.242718
0.469054 0.562972 0.241786
0.493421 0.566206 0.246083
0.518054 0.570138 0.251824
0.541337 0.573776 0.255521
0.566536 0.576499 0.255935
0.593053 0.578716 0.258311
0.619644 0.580446 0.260987
0.645813 0.582591 0.263500
0.672399 0.585985 0.266398
0.697570 0.587324 0.266840
0.723896 0.589210 0.266730
0.751073 0.591621 0.267667
0.777864 0.593407 0.271464
0.071078 0.564221 0.305810
0.089493 0.564147 0.302490
0.106538 0.564572 0.298851
0.123023 0.565499 0.295184
0.139360 0.567219 0.292000
0.159746 0.568122 0.289383
0.176112 0.570304 0.286949
0.197472 0.572192 0.284521
0.225998 0.572964 0.282171
0.249114 0.573960 0.279521
0.270015 0.575652 0.276053
0.292080 0.577041 0.273497
0.314972 0.578873 0.272050
0.336592 0.581378 0.270169
0.359558 0.582283 0.268795
0.381401 0.583974 0.265993
0.403100 0.585393 0.263204
0.425390 0.586371 0.260561
0.447103 0.588495 0.256687
0.468341 0.590470 0.254003
0.491619 0.592908 0.255483
0.516428 0.595744 0.258245
0.541598 0.598376 0.260003
0.567886 0.600310 0.260272
0.594175 0.602544 0.261949
0.620830 0.604508 0.264491
0.647623 0.606432 0.266897
0.674019 0.609390 0.269331
0.699857 0.610559 0.270049
0.725965 0.612698 0.269327
0.752664 0.615219 0.270372
0.780417 0.616850 0.276569
0.079995 0.591894 0.320950
0.085877 0.592089 0.317852
0.104959 0.593031 0.315253
0.127261 0.594210 0.312514
0.144453 0.595414 0.309037
0.159969 0.596956 0.304907
0.175095 0.598943 0.301847
0.195438 0.600061 0.299482
0.222417 0.600267 0.297301
0.246834 0.601939 0.294588
0.268668 0.603740 0.291286
0.291316 0.605219 0.289242
0.313863 0.607160 0.287198
0.334460 0.609494 0.283631
0.357529 0.610260 0.282366
0.379835 0.611724 0.279295
0.402319 0.612777 0.277372
0.424837 0.613549 0.276277
0.445891 0.615745 0.272285
0.468390 0.617749 0.267845
0.493029 0.619017 0.265306
0.518691 0.620091 0.264058
0.544680 0.621343 0.263459
0.570542 0.622928 0.263785
0.596786 0.625172 0.265129
0.623365 0.627146 0.267447
0.650135 0.629065 0.270040
0.676374 0.631494 0.272218
0.702281 0.633730 0.272914
0.728237 0.635682 0.272585
0.754993 0.637450 0.273260
0.783016 0.639135 0.277230
0.082500 0.617921 0.335051
0.086018 0.618029 0.331643
0.105106 0.619232 0.329743
0.127977 0.620631 0.327900
0.144760 0.621734 0.324657
0.156518 0.623510 0.319405
0.174405 0.625206 0.315741
0.195609 0.625940 0.313191
0.218872 0.626003 0.311201
0.243871 0.627939 0.309379
0.266567 0.630179 0.307584
0.290156 0.631617 0.304934
0.313487 0.633006 0.301040
0.333984 0.635119 0.297446
0.355944 0.636054 0.295351
0.379102 0.637984 0.292262
0.401878 0.639566 0.290713
0.424251 0.639849 0.289313
0.447155 0.640654 0.284800
0.471334 0.642207 0.279098
0.497760 0.643223 0.274999
0.523358 0.643258 0.271439
0.547773 0.643393 0.268181
0.572954 0.644744 0.266859
0.599780 0.646484 0.267825
0.626421 0.648241 0.270265
0.652949 0.650211 0.273169
0.680121 0.652653 0.275634
0.705091 0.655174 0.275838
0.730931 0.656685 0.275275
0.758008 0.658023 0.274704
0.785789 0.660294 0.274946
0.083146 0.643271 0.349458
0.086625 0.643491 0.346166
0.104463 0.644779 0.344393
0.126526 0.646431 0.342354
0.144192 0.647604 0.338712
0.157606 0.648825 0.334353
0.176020 0.651009 0.330825
0.196428 0.652084 0.327989
0.218518 0.652007 0.325521
0.244484 0.653826 0.323403
0.267961 0.655628 0.322453
0.289733 0.656735 0.319301
0.312390 0.657979 0.314695
0.336240 0.660076 0.312450
0.357976 0.661212 0.309662
0.382034 0.662396 0.305089
0.405501 0.663225 0.301707
0.427618 0.663256 0.298866
0.452081 0.663645 0.293765
0.477975 0.664790 0.288548
0.504946 0.665534 0.285135
0.529370 0.665680 0.281188
0.551528 0.665826 0.275826
0.574622 0.666475 0.270508
0.601267 0.668097 0.270205
0.628289 0.669889 0.272515
0.655587 0.671858 0.275610
0.684211 0.673984 0.278554
0.708337 0.675149 0.279514
0.733218 0.676726 0.277875
0.759780 0.678712 0.275761
0.788200 0.681397 0.275868
0.082516 0.668478 0.363890
0.086061 0.668762 0.360831
0.106030 0.670042 0.358465
0.129773 0.671564 0.355752
0.146674 0.672737 0.351989
0.156931 0.674665 0.348577
0.176121 0.676459 0.346435
0.198104 0.677215 0.344155
0.219526 0.677040 0.341069
0.242264 0.678829 0.338094
0.265282 0.681082 0.335116
0.288853 0.682326 0.331590
0.313681 0.682806 0.328220
0.338988 0.683978 0.325223
0.362802 0.684416 0.320963
0.386358 0.685369 0.316657
0.409956 0.685874 0.312526
0.433975 0.685691 0.308303
0.458987 0.686006 0.303564
0.484328 0.686751 0.297848
0.510485 0.687235 0.293411
0.534749 0.687615 0.289726
0.557038 0.688196 0.284739
0.579980 0.689020 0.276792
0.604853 0.689439 0.273610
0.631021 0.690722 0.274690
0.658022 0.692654 0.277521
0.685947 0.694012 0.280719
0.711627 0.695462 0.281662
0.736920 0.697200 0.279488
0.762949 0.698888 0.277336
0.791414 0.699736 0.278892
0.076387 0.694080 0.377667
0.088602 0.694751 0.375236
0.108529 0.695811 0.372268
0.129913 0.696851 0.368683
0.147428 0.697382 0.365213
0.160328 0.698885 0.362613
0.178782 0.700546 0.360531
0.200083 0.701505 0.357756
0.221321 0.701977 0.354390
0.241335 0.703690 0.351223
0.265193 0.705129 0.347361
0.291921 0.705650 0.342940
0.319026 0.705928 0.339057
0.345110 0.706463 0.335031
0.369019 0.706684 0.330358
0.392227 0.707851 0.326385
0.415897 0.708457 0.322023
0.440295 0.708018 0.317326
0.465190 0.708098 0.313183
0.489924 0.708669 0.307816
0.515545 0.709237 0.302258
0.540460 0.709725 0.298019
0.563834 0.710123 0.293633
0.586714 0.710507 0.286453
0.610492 0.710113 0.281225
0.635450 0.710833 0.279253
0.661429 0.712679 0.279974
0.688055 0.714531 0.282240
0.714290 0.715591 0.283522
0.739632 0.717095 0.282263
0.765361 0.718610 0.280660
0.793761 0.719493 0.281185
0.078861 0.719178 0.392099
0.097538 0.720140 0.389384
0.113367 0.720937 0.385915
0.128953 0.721683 0.382138
0.146376 0.721981 0.378603
0.165445 0.722719 0.376352
0.182706 0.724125 0.373216
0.202446 0.725542 0.369597
0.225956 0.726119 0.365348
0.247399 0.726670 0.361574
0.273460 0.726427 0.357915
0.299892 0.726989 0.353636
0.325757 0.727959 0.348668
0.352209 0.728204 0.343810
0.375761 0.728755 0.339434
0.399333 0.729684 0.335118
0.422711 0.730208 0.330495
0.446254 0.730017 0.326149
0.471126 0.729930 0.322116
0.495743 0.730646 0.317764
0.521350 0.731139 0.312056
0.546897 0.731359 0.306961
0.570971 0.731479 0.302752
0.593311 0.731063 0.297650
0.617207 0.730506 0.291100
0.641586 0.731010 0.286198
0.666211 0.732454 0.283937
0.691510 0.734940 0.284324
0.716701 0.735378 0.285525
0.741521 0.736568 0.285268
0.766977 0.738464 0.284022
0.794754 0.740525 0.282587
0.109811 0.742644 0.408421
0.115074 0.742787 0.403504
0.123305 0.743351 0.400165
0.133635 0.744465 0.396240
0.146441 0.746697 0.391252
0.167440 0.747368 0.388346
0.188072 0.747721 0.384102
0.210485 0.748009 0.379639
0.234926 0.748082 0.375941
0.258329 0.747178 0.372619
0.285218 0.747385 0.368586
0.311481 0.748719 0.363267
0.335142 0.749603 0.357006
0.358814 0.749204 0.352026
0.383144 0.750161 0.348272
0.406462 0.750020 0.343912
0.428572 0.750524 0.339468
0.452790 0.751522 0.335377
