gsg/02_Everyday/GSG_LUT_Everyday_SimpleMilky.cube
# GSG LUTs 1.0
# Copyright (c) 2016-2020 Greyscalegorilla
# See EULA for licensing and distribution information
# Converted by Briz LUT Converter
LUT_3D_SIZE 5
DOMAIN_MIN 0.000000 0.000000 0.000000
DOMAIN_MAX 0.903226 0.903226 0.903226
0.127961 0.122589 0.088400
0.215274 0.133995 0.085194
0.473205 0.149364 0.058852
0.783670 0.160046 0.050794
0.975580 0.272693 0.050794
0.097751 0.215613 0.102958
0.192565 0.230885 0.097626
0.484573 0.274731 0.050794
0.782609 0.298868 0.050794
0.972012 0.370006 0.050794
0.050794 0.477585 0.179692
0.050794 0.483750 0.179591
0.416375 0.513021 0.167069
0.751502 0.545129 0.068503
0.949920 0.556040 0.050794
0.050794 0.700721 0.388397
0.063281 0.702399 0.388911
0.422047 0.707716 0.415601
0.675971 0.720824 0.413738
0.895845 0.769695 0.406994
0.421584 0.881744 0.609760
0.472434 0.882555 0.614447
0.590263 0.884081 0.631193
0.731318 0.892434 0.644113
0.866290 0.907525 0.650042
0.117657 0.133286 0.201804
0.211934 0.139136 0.213676
0.470462 0.127884 0.218377
0.769928 0.205647 0.243829
0.961792 0.325320 0.247472
0.071567 0.232404 0.233532
0.202884 0.248449 0.242485
0.483474 0.280371 0.251534
0.770655 0.322377 0.252487
0.957597 0.404856 0.257184
0.050794 0.488609 0.336865
0.098764 0.498328 0.344836
0.442383 0.520374 0.339522
0.750509 0.543274 0.305208
0.940967 0.571411 0.303777
0.193131 0.700049 0.501771
0.290881 0.703355 0.495183
0.468924 0.708951 0.501013
0.684052 0.722494 0.502285
0.892757 0.771422 0.494480
0.487057 0.880339 0.657797
0.501021 0.882477 0.649271
0.603316 0.886016 0.660175
0.736007 0.893972 0.675054
0.867164 0.908954 0.679200
0.050794 0.154342 0.510812
0.059950 0.161915 0.519687
0.438465 0.167557 0.542668
0.755599 0.174500 0.520415
0.933433 0.409563 0.546999
0.050794 0.265028 0.523938
0.057775 0.275478 0.533664
0.449915 0.305226 0.554706
0.747747 0.344013 0.540447
0.920861 0.499844 0.576957
0.050794 0.487477 0.559067
0.061888 0.499180 0.562424
0.475695 0.534946 0.577134
0.726128 0.573444 0.591398
0.910728 0.625442 0.602182
0.075859 0.705471 0.617367
0.298118 0.708179 0.622396
0.548362 0.715221 0.639605
0.704983 0.729890 0.645054
0.893279 0.772717 0.633174
0.481583 0.881245 0.724073
0.543239 0.882223 0.730367
0.636442 0.887976 0.732040
0.742569 0.896192 0.740506
0.868234 0.911405 0.742492
0.050794 0.209398 0.732947
0.050794 0.220298 0.735311
0.367581 0.249431 0.742798
0.692613 0.316527 0.755027
0.909426 0.413597 0.754311
0.050794 0.315152 0.734797
0.050794 0.325576 0.736631
0.404999 0.357747 0.743575
0.695624 0.421367 0.755762
0.902681 0.488912 0.758770
0.050794 0.498118 0.732904
0.125630 0.511142 0.734532
0.475726 0.548482 0.744817
0.701684 0.587343 0.759215
0.895477 0.619371 0.768276
0.186594 0.688224 0.754063
0.325917 0.693103 0.755515
0.520789 0.706483 0.759599
0.714786 0.733852 0.771619
0.893006 0.775840 0.788558
0.327246 0.887423 0.817693
0.403199 0.889045 0.817465
0.563304 0.893357 0.816775
0.756243 0.901867 0.828980
0.874065 0.917313 0.834347
0.050794 0.339895 0.913025
0.128840 0.350939 0.913346
0.476393 0.385138 0.914522
0.719116 0.448376 0.916586
0.895767 0.536706 0.921248
0.059602 0.424137 0.910998
0.247193 0.433396 0.911338
0.502784 0.460760 0.912653
0.723278 0.508619 0.915187
0.892435 0.578344 0.920799
0.136732 0.562016 0.908346
0.316056 0.571549 0.908864
0.531881 0.593323 0.910890
0.726544 0.620155 0.914769
0.887127 0.666518 0.923100
0.260909 0.722486 0.910914
0.348362 0.723307 0.910671
0.511714 0.725525 0.911360
0.711893 0.742089 0.918755
0.882022 0.784560 0.930437
0.387181 0.885631 0.929291
0.438854 0.886670 0.929364
0.559393 0.890562 0.930423
0.713126 0.899590 0.932329
0.883849 0.922852 0.938570
