gsg/02_Everyday/GSG_LUT_Everyday_MutedWarmth.cube
# GSG LUTs 1.0
# Copyright (c) 2016-2020 Greyscalegorilla
# See EULA for licensing and distribution information
# Converted by Briz LUT Converter
LUT_3D_SIZE 5
DOMAIN_MIN 0.000000 0.000000 0.000000
DOMAIN_MAX 0.903226 0.903226 0.903226
0.087179 0.087179 0.087179
0.176951 0.096877 0.095317
0.300177 0.110686 0.106243
0.453511 0.111781 0.128426
0.646099 0.124841 0.161976
0.095703 0.153886 0.100831
0.186441 0.159091 0.105583
0.311942 0.172758 0.121624
0.465190 0.173356 0.140309
0.650817 0.125104 0.161361
0.107330 0.245626 0.119942
0.202053 0.250078 0.126274
0.328901 0.258897 0.139457
0.487219 0.270360 0.160495
0.676295 0.263817 0.183444
0.120249 0.354768 0.142707
0.199908 0.355916 0.147822
0.346047 0.367108 0.157891
0.514642 0.379832 0.178798
0.704896 0.393800 0.197773
0.136272 0.490937 0.140053
0.137464 0.484990 0.142185
0.352612 0.499550 0.158688
0.539045 0.515554 0.172068
0.733806 0.528916 0.195812
0.090512 0.090228 0.143897
0.137977 0.095528 0.134814
0.250283 0.108009 0.136383
0.387800 0.113366 0.144135
0.564936 0.119797 0.160784
0.098012 0.137507 0.141246
0.223562 0.226735 0.229177
0.351429 0.240973 0.230859
0.514449 0.245094 0.236823
0.702060 0.217670 0.241335
0.110446 0.224937 0.159258
0.236053 0.327077 0.250358
0.375504 0.341686 0.241293
0.544781 0.355176 0.245996
0.735954 0.362552 0.254287
0.117935 0.327307 0.180793
0.213964 0.452017 0.265968
0.391772 0.468910 0.257790
0.571192 0.482596 0.247488
0.764357 0.501442 0.251769
0.133554 0.457371 0.193257
0.151462 0.591951 0.274535
0.398194 0.612088 0.262977
0.596401 0.625440 0.244323
0.789028 0.639027 0.226084
0.091063 0.093993 0.218394
0.119160 0.096883 0.206513
0.207510 0.109969 0.203458
0.333341 0.119945 0.203509
0.490468 0.116108 0.208683
0.097731 0.144732 0.212374
0.203980 0.233340 0.307754
0.308744 0.248457 0.308050
0.457572 0.258888 0.308259
0.637652 0.247851 0.311965
0.115347 0.208608 0.212714
0.249567 0.313947 0.314804
0.434506 0.439446 0.428705
0.615021 0.460768 0.433345
0.803605 0.476137 0.436091
0.122542 0.304498 0.230111
0.246361 0.432832 0.333773
0.457153 0.584000 0.456656
0.648108 0.604004 0.445682
0.834950 0.623132 0.446015
0.131057 0.425559 0.247986
0.182250 0.569372 0.348228
0.479304 0.726287 0.481177
0.676524 0.745073 0.466805
0.855138 0.755158 0.446137
0.094104 0.102745 0.300658
0.097950 0.103952 0.285949
0.188287 0.113903 0.278439
0.287241 0.126682 0.273813
0.427595 0.118988 0.273393
0.099703 0.152462 0.292924
0.165109 0.238233 0.397977
0.285854 0.253789 0.396507
0.403116 0.264634 0.390185
0.571555 0.265526 0.389935
0.107259 0.213986 0.288109
0.227192 0.318346 0.402394
0.414422 0.448334 0.533202
0.562196 0.472380 0.535910
0.746452 0.487882 0.535941
0.127678 0.285995 0.286214
0.269288 0.410839 0.403940
0.481163 0.568547 0.544299
0.725854 0.721048 0.681348
0.894647 0.741205 0.682684
0.129205 0.398124 0.306264
0.242313 0.544626 0.423419
0.507226 0.709327 0.568859
0.761890 0.848462 0.709243
0.915905 0.861827 0.693724
0.097365 0.111560 0.396723
0.097139 0.114020 0.378726
0.152655 0.120402 0.366135
0.264051 0.134373 0.358597
0.377408 0.136705 0.353447
0.102976 0.161111 0.386863
0.115563 0.244361 0.497202
0.249749 0.259544 0.496465
0.379089 0.270348 0.487422
0.511928 0.276717 0.481991
0.110040 0.222518 0.377833
0.170459 0.324216 0.500000
0.389547 0.455417 0.636935
0.537967 0.478574 0.638817
0.685594 0.494681 0.634268
0.118240 0.292071 0.372925
0.236559 0.415162 0.500294
0.461474 0.573074 0.646650
0.709305 0.728502 0.783822
0.849296 0.752885 0.787491
0.127815 0.374181 0.371887
0.280594 0.520402 0.501437
0.528708 0.685363 0.650112
0.781852 0.836501 0.795495
0.951025 0.938448 0.909694
