gsg/02_Everyday/GSG_LUT_Everyday_BlueGreen.cube
# GSG LUTs 1.0
# Copyright (c) 2016-2020 Greyscalegorilla
# See EULA for licensing and distribution information
# Converted by Briz LUT Converter
LUT_3D_SIZE 32
0.000000 0.005617 0.011477
0.020418 0.002836 0.005435
0.040837 0.000000 0.000551
0.061255 0.000000 0.009398
0.081673 0.000000 0.018599
0.102091 0.000000 0.028682
0.122510 0.000000 0.038718
0.142928 0.000000 0.048549
0.163346 0.000000 0.058254
0.183765 0.000000 0.067651
0.204262 0.000000 0.077073
0.224845 0.000000 0.086234
0.245264 0.000000 0.095467
0.265682 0.000000 0.104541
0.286100 0.000000 0.113616
0.306519 0.000000 0.122573
0.326937 0.000000 0.131522
0.347355 0.000000 0.140462
0.367773 0.000000 0.149427
0.388192 0.000000 0.158502
0.408610 0.000000 0.167419
0.429028 0.000000 0.176242
0.449447 0.000000 0.185064
0.469865 0.000000 0.194068
0.490283 0.000000 0.202954
0.510701 0.000000 0.211974
0.531120 0.000000 0.221048
0.551538 0.000000 0.229911
0.572177 0.000000 0.238954
0.592847 0.000000 0.248029
0.613281 0.000000 0.257340
0.633944 0.000000 0.266422
0.000512 0.023254 0.152145
0.020662 0.026475 0.073733
0.040837 0.029500 0.000551
0.061255 0.029493 0.009343
0.081673 0.029493 0.018101
0.102091 0.029493 0.028176
0.122510 0.029492 0.038157
0.142928 0.029432 0.047728
0.163346 0.029249 0.057237
0.183765 0.029249 0.066493
0.204262 0.029246 0.075644
0.224845 0.029241 0.084879
0.245264 0.029241 0.093954
0.265682 0.029241 0.103026
0.286100 0.029241 0.111989
0.306519 0.029241 0.120930
0.326937 0.029241 0.129875
0.347355 0.029241 0.138832
0.367773 0.029241 0.147765
0.388192 0.029241 0.156587
0.408610 0.029241 0.165568
0.429028 0.029241 0.174477
0.449452 0.029241 0.183305
0.470048 0.029241 0.192306
0.490533 0.029241 0.201379
0.511150 0.029247 0.210263
0.531623 0.029249 0.219292
0.552255 0.029249 0.228367
0.572712 0.029462 0.237441
0.593359 0.029493 0.246516
0.614030 0.029493 0.255827
0.634700 0.029493 0.264918
0.001268 0.041420 0.284170
0.020921 0.050518 0.137509
0.040837 0.059247 0.000535
0.061255 0.059032 0.009091
0.081673 0.059018 0.017817
0.102091 0.059015 0.027631
0.122510 0.058958 0.037355
0.142928 0.058770 0.046678
0.163346 0.058758 0.055989
0.183765 0.058758 0.065233
0.204262 0.058679 0.074308
0.224845 0.058514 0.083383
0.245264 0.058514 0.092451
0.265682 0.058514 0.101414
0.286100 0.058506 0.110340
0.306519 0.058498 0.119296
0.326937 0.058498 0.128126
0.347364 0.058498 0.137074
0.367789 0.058498 0.146000
0.388217 0.058498 0.154823
0.408642 0.058488 0.163803
0.429071 0.058482 0.172713
0.449656 0.058482 0.181709
0.470152 0.058482 0.190602
0.490764 0.058482 0.199614
0.511434 0.058666 0.208689
0.532104 0.058710 0.217764
0.552775 0.058710 0.226838
0.573445 0.058725 0.235927
0.594116 0.058940 0.245018
0.614786 0.058955 0.254315
0.635456 0.058955 0.263642
0.002001 0.071141 0.282910
0.021386 0.080492 0.136999
0.040837 0.089259 0.000520
0.061255 0.089235 0.008860
0.081673 0.089015 0.017532
0.102091 0.088976 0.027087
0.122510 0.088766 0.036594
0.142928 0.088697 0.045847
0.163346 0.088520 0.054921
0.183765 0.088503 0.063989
0.204262 0.088424 0.073047
0.224845 0.088259 0.082114
0.245264 0.088259 0.091079
0.265682 0.088249 0.099902
0.286100 0.088135 0.108724
0.306519 0.088003 0.117654
0.326949 0.087991 0.126590
0.347513 0.087991 0.135413
0.368041 0.087991 0.144236
0.388609 0.087976 0.153058
0.409137 0.087825 0.162039
0.429729 0.087747 0.170948
0.450243 0.087730 0.179944
0.470850 0.087723 0.188855
0.491520 0.087723 0.197873
0.512190 0.087723 0.206929
0.532861 0.087723 0.216019
0.553531 0.087723 0.225097
0.574201 0.087922 0.234393
0.594872 0.087944 0.243720
0.615542 0.087944 0.252833
0.636236 0.087944 0.262153
0.002568 0.100571 0.281650
0.021661 0.110182 0.136297
0.040837 0.119162 0.000520
0.061255 0.119138 0.008835
0.081673 0.118914 0.017247
0.102091 0.118847 0.026547
0.122516 0.118601 0.035820
0.142960 0.118422 0.044863
0.163378 0.118335 0.053913
0.183805 0.118154 0.062917
0.204315 0.118075 0.071808
0.224877 0.117909 0.080764
0.245307 0.117897 0.089566
0.265745 0.117789 0.098389
0.286178 0.117651 0.107212
0.306613 0.117531 0.116019
0.327157 0.117405 0.124826
0.347828 0.117389 0.133648
0.368375 0.117371 0.142471
0.388956 0.117228 0.151313
0.409626 0.117145 0.160285
0.430297 0.117124 0.169205
0.450967 0.116963 0.178189
0.471637 0.116901 0.187254
0.492308 0.116901 0.196329
0.512978 0.116876 0.205232
0.533648 0.116870 0.214444
0.554319 0.116870 0.223581
0.574989 0.116870 0.232880
0.595660 0.116870 0.242207
0.616360 0.116870 0.251534
0.637244 0.116838 0.260861
0.003576 0.129521 0.280389
0.022149 0.139384 0.135771
0.040837 0.148400 0.000517
0.061255 0.148340 0.008779
0.081673 0.148088 0.017002
0.102098 0.147842 0.026069
0.122589 0.147663 0.035236
0.143172 0.147576 0.044058
0.163601 0.147324 0.052924
0.184119 0.147142 0.061869
0.204723 0.147064 0.070679
0.225168 0.146884 0.079403
0.245681 0.146780 0.088078
0.266266 0.146638 0.096877
0.286817 0.146504 0.105682
0.307369 0.146370 0.114384
0.327914 0.146244 0.123101
0.348584 0.146126 0.131902
0.369254 0.145984 0.140729
0.389925 0.145882 0.149694
0.410595 0.145857 0.158596
0.431266 0.145704 0.167584
0.451936 0.145638 0.176486
0.472606 0.145609 0.185490
0.493307 0.145598 0.194565
0.513986 0.145433 0.203639
0.534657 0.145361 0.212747
0.555327 0.145354 0.222007
0.575997 0.145354 0.231329
0.596705 0.145317 0.240692
0.617576 0.145315 0.250022
0.638253 0.145110 0.259388
0.004585 0.158210 0.279129
0.022685 0.168287 0.135085
0.040934 0.177534 0.000504
0.061397 0.177281 0.008594
0.081815 0.177029 0.016970
0.102273 0.176809 0.025744
0.122896 0.176722 0.034518
0.143325 0.176470 0.043292
0.163843 0.176218 0.052015
0.184513 0.176037 0.060656
0.205168 0.175958 0.069400
0.225737 0.175706 0.078041
0.246280 0.175530 0.086738
0.266950 0.175419 0.095392
0.287621 0.175194 0.104077
0.308173 0.175037 0.112765
0.328717 0.174911 0.121564
0.349388 0.174790 0.130256
0.370058 0.174627 0.139104
0.390728 0.174524 0.148009
0.411399 0.174367 0.156832
0.432101 0.174280 0.165820
0.452787 0.174247 0.174755
0.473457 0.174087 0.183737
0.494280 0.173999 0.192837
0.514995 0.173989 0.201922
0.535705 0.173824 0.211202
0.556383 0.173751 0.220316
0.577053 0.173745 0.229611
0.597952 0.173560 0.239167
0.618638 0.173502 0.248555
0.639356 0.173500 0.258128
0.005593 0.186640 0.277868
0.023489 0.196780 0.134544
0.041503 0.206267 0.000504
0.062103 0.205963 0.008594
0.082571 0.205711 0.016937
0.103029 0.205459 0.025451
0.123663 0.205207 0.033975
0.144168 0.204955 0.042534
0.164796 0.204703 0.051061
0.185466 0.204506 0.059671
0.206076 0.204406 0.068337
0.226618 0.204191 0.076907
0.247288 0.203939 0.085457
0.267935 0.203766 0.093993
0.288574 0.203624 0.102564
0.309153 0.203398 0.111253
0.329725 0.203272 0.119950
0.350396 0.203112 0.128654
0.371066 0.202892 0.137445
0.391770 0.202778 0.146244
0.412462 0.202600 0.155103
0.433261 0.202513 0.164073
0.453992 0.202340 0.173130
0.474703 0.202269 0.182024
0.495388 0.202080 0.191225
0.516058 0.201980 0.200354
0.536933 0.201969 0.209634
0.557643 0.201805 0.218796
0.578313 0.201730 0.228149
0.599212 0.201725 0.237658
0.619898 0.201542 0.247233
0.640813 0.201481 0.256812
0.006727 0.214810 0.276671
0.024491 0.225208 0.133873
0.042310 0.234870 0.000508
0.062752 0.234448 0.008657
0.083399 0.234196 0.016968
0.103901 0.233934 0.025221
0.124518 0.233629 0.033522
0.145148 0.233377 0.041972
0.165678 0.233125 0.050289
0.186330 0.232873 0.058742
0.206956 0.232679 0.067119
0.227626 0.232550 0.075647
0.248297 0.232322 0.084123
0.268891 0.232108 0.092544
0.289456 0.231856 0.101115
0.310126 0.231692 0.109773
0.330797 0.231533 0.118437
0.351467 0.231316 0.127107
0.372174 0.231197 0.135796
0.392982 0.231021 0.144543
0.413722 0.230769 0.153483
0.434393 0.230683 0.162412
0.455108 0.230509 0.171384
0.475931 0.230438 0.180306
0.496697 0.230249 0.189523
0.517382 0.229997 0.198653
0.538204 0.229950 0.207933
0.558958 0.229895 0.217259
0.579637 0.229723 0.226807
0.600536 0.229706 0.236157
0.621283 0.229645 0.245782
0.642136 0.229462 0.255363
0.008169 0.242790 0.275592
0.025568 0.253374 0.133317
0.043323 0.263180 0.000520
0.063824 0.262862 0.008845
0.084430 0.262610 0.017187
0.105073 0.262330 0.025181
0.125584 0.261919 0.033221
0.146197 0.261609 0.041427
0.166868 0.261357 0.049539
0.187488 0.261105 0.057784
0.208035 0.260853 0.066052
0.228705 0.260601 0.074432
0.249376 0.260416 0.082863
0.270046 0.260270 0.091254
0.290716 0.260050 0.099783
0.311387 0.259837 0.108354
0.332057 0.259585 0.116925
0.352766 0.259428 0.125495
0.373569 0.259254 0.134208
0.394312 0.259002 0.142987
0.414983 0.258796 0.151828
0.435701 0.258686 0.160793
0.456517 0.258490 0.169722
0.477291 0.258419 0.178747
0.498114 0.258230 0.187956
0.518880 0.257978 0.197127
0.539564 0.257931 0.206420
0.560447 0.257718 0.215747
0.581149 0.257686 0.225294
0.602048 0.257620 0.234711
0.622971 0.257448 0.244447
0.643649 0.257371 0.254102
0.009587 0.270692 0.274331
0.026899 0.281445 0.132824
0.044421 0.291575 0.000830
0.065068 0.291095 0.009091
0.085517 0.290842 0.017486
0.106188 0.290578 0.025219
0.126826 0.290228 0.032984
0.147363 0.289842 0.040905
0.168013 0.289590 0.048911
0.188625 0.289338 0.056977
0.209295 0.289086 0.065097
0.229966 0.288834 0.073335
0.250667 0.288582 0.081602
0.271385 0.288330 0.089921
0.292056 0.288152 0.098350
0.312726 0.287991 0.106882
0.333396 0.287739 0.115412
0.354201 0.287487 0.123983
0.374981 0.287235 0.132695
0.395652 0.286983 0.141368
0.416373 0.286888 0.150254
0.437183 0.286723 0.159163
0.457963 0.286471 0.168159
0.478779 0.286400 0.177234
0.499553 0.286211 0.186309
0.520374 0.285958 0.195581
0.541143 0.285911 0.204908
0.562039 0.285699 0.214235
0.582741 0.285667 0.223782
0.603639 0.285439 0.233361
0.624562 0.285423 0.243016
0.645319 0.285179 0.252842
0.011351 0.298507 0.273071
0.028403 0.309594 0.132769
0.045681 0.319808 0.001741
0.066336 0.319327 0.009823
0.086853 0.319064 0.017946
0.107448 0.318711 0.025343
0.128118 0.318327 0.032833
0.148789 0.318055 0.040431
0.169419 0.317736 0.048241
0.189972 0.317484 0.056283
0.210642 0.317232 0.064288
0.231313 0.316980 0.072323
0.252044 0.316728 0.080429
0.272811 0.316476 0.088747
0.293521 0.316224 0.097137
0.314238 0.315971 0.105542
0.334909 0.315719 0.113986
0.355713 0.315467 0.122509
0.376494 0.315215 0.131183
0.397217 0.314963 0.139856
0.418023 0.314813 0.148686
0.438808 0.314675 0.157623
0.459618 0.314451 0.166647
0.480398 0.314316 0.175722
0.501213 0.314172 0.184797
0.521989 0.313939 0.194068
0.542881 0.313819 0.203395
0.563803 0.313668 0.212798
0.584505 0.313569 0.222356
0.605404 0.313414 0.231935
0.626326 0.313320 0.241750
0.647249 0.313159 0.251581
0.013116 0.326393 0.271811
0.030002 0.337582 0.132647
0.047036 0.348040 0.002680
0.067706 0.347560 0.010649
0.088358 0.347276 0.018492
0.108882 0.346812 0.025477
0.129473 0.346541 0.032676
0.150144 0.346179 0.040217
0.170814 0.345811 0.047807
0.191485 0.345559 0.055705
0.212185 0.345277 0.063501
0.232920 0.344960 0.071450
0.253590 0.344708 0.079478
0.274261 0.344456 0.087699
0.295041 0.344204 0.095963
0.315845 0.343952 0.104281
0.336516 0.343700 0.112677
0.357320 0.343448 0.121120
0.378101 0.343196 0.129710
0.398921 0.342944 0.138401
0.419747 0.342753 0.147166
0.440552 0.342636 0.156090
0.461338 0.342432 0.165135
0.482147 0.342180 0.174209
0.502929 0.342043 0.183357
0.523817 0.341901 0.192574
0.544740 0.341668 0.201962
0.565662 0.341546 0.211434
0.586450 0.341399 0.221001
0.607358 0.341296 0.230669
0.628280 0.341145 0.240490
0.649202 0.341045 0.250321
0.014983 0.354224 0.270653
0.031762 0.365568 0.132688
0.048644 0.376177 0.003924
0.069219 0.375793 0.011633
0.089889 0.375509 0.019216
0.110537 0.375028 0.025916
0.131088 0.374662 0.032738
0.151759 0.374296 0.040080
0.172429 0.374017 0.047464
0.193099 0.373689 0.055055
0.213815 0.373392 0.062696
0.234618 0.373043 0.070561
0.255355 0.372752 0.078562
0.276025 0.372437 0.086628
0.296806 0.372185 0.094759
0.317610 0.371982 0.103021
0.338333 0.371730 0.111340
0.359131 0.371429 0.119792
0.379925 0.371176 0.128363
0.400725 0.370924 0.137020
0.421608 0.370830 0.145803
0.442434 0.370664 0.154626
0.463311 0.370412 0.163622
0.484052 0.370160 0.172697
0.504912 0.369908 0.181961
0.525834 0.369853 0.191173
0.546756 0.369648 0.200592
0.567679 0.369396 0.210031
0.588601 0.369365 0.219591
0.609524 0.369136 0.229303
0.630446 0.369120 0.239226
0.651369 0.368876 0.249061
0.016999 0.382095 0.269644
0.033633 0.393662 0.132836
0.050407 0.404381 0.005175
0.070952 0.404025 0.012727
0.091622 0.403742 0.020050
0.112275 0.403238 0.026472
0.132853 0.402781 0.032914
0.153548 0.402529 0.039914
0.174304 0.402214 0.047139
0.194974 0.401780 0.054488
0.215645 0.401528 0.062050
0.236402 0.401276 0.069826
0.257230 0.400930 0.077621
0.277900 0.400528 0.085620
0.298681 0.400276 0.093686
0.319485 0.400088 0.101818
0.340281 0.399836 0.110079
0.361070 0.399519 0.118532
0.381882 0.399267 0.127102
0.402722 0.399015 0.135673
0.423593 0.398850 0.144401
0.444441 0.398720 0.153224
0.465328 0.398503 0.162220
0.486151 0.398251 0.171295
0.507038 0.397999 0.180559
0.527961 0.397855 0.189796
0.548883 0.397721 0.199194
0.569806 0.397487 0.208752
0.590728 0.397356 0.218331
0.611651 0.397220 0.228013
0.632573 0.397105 0.237965
0.653606 0.396967 0.247911
0.019134 0.409941 0.268518
0.035527 0.421785 0.133006
0.052180 0.432746 0.006428
0.072850 0.432365 0.013856
0.093521 0.431974 0.021010
0.114171 0.431489 0.027048
0.134736 0.431109 0.033140
0.155434 0.430761 0.039948
0.176202 0.430446 0.046886
0.196907 0.430013 0.054197
0.217661 0.429761 0.061588
0.238376 0.429509 0.069156
0.259174 0.429162 0.076813
0.279916 0.428760 0.084680
0.300697 0.428508 0.092678
0.321501 0.428256 0.100744
0.342298 0.428004 0.108937
0.363151 0.427752 0.117325
0.384017 0.427500 0.125842
0.404867 0.427248 0.134413
0.425743 0.426996 0.143141
0.446580 0.426829 0.151963
0.467462 0.426618 0.160959
0.488385 0.426366 0.170034
0.509307 0.426205 0.179207
0.530230 0.425980 0.188405
0.551152 0.425833 0.197912
0.572075 0.425705 0.207389
0.592997 0.425468 0.217059
0.614030 0.425334 0.226878
0.634960 0.425204 0.236823
0.656009 0.425082 0.246784
0.021403 0.438048 0.267510
0.037544 0.450022 0.133299
0.054197 0.461113 0.007924
0.074867 0.460837 0.015105
0.095537 0.460333 0.022096
0.116208 0.459868 0.027763
0.136878 0.459569 0.033596
0.157549 0.459120 0.040143
0.178219 0.458805 0.046854
0.198960 0.458372 0.053997
0.219804 0.458120 0.061169
0.240474 0.457823 0.068607
0.261239 0.457444 0.076134
0.282112 0.457119 0.083871
0.302909 0.456867 0.091796
0.323705 0.456615 0.099801
0.344567 0.456363 0.107929
0.365420 0.456111 0.116247
0.386285 0.455859 0.124708
0.407135 0.455607 0.133201
0.428012 0.455355 0.141880
0.448935 0.455103 0.150703
0.469857 0.454851 0.159699
0.490779 0.454598 0.168774
0.511702 0.454535 0.177849
0.532624 0.454338 0.187120
0.553547 0.454086 0.196652
0.574469 0.453937 0.206128
0.595506 0.453814 0.215912
0.616551 0.453574 0.225743
0.637481 0.453437 0.235689
0.658529 0.453314 0.245650
0.023806 0.466147 0.266619
0.039938 0.478381 0.133709
0.056331 0.489723 0.009539
0.077002 0.489322 0.016472
0.097672 0.488818 0.023324
0.118343 0.488353 0.028709
0.139039 0.488054 0.034172
0.159817 0.487605 0.040469
0.180488 0.487290 0.046907
0.201190 0.486857 0.053795
0.221982 0.486561 0.060794
0.242743 0.486179 0.068179
0.263508 0.485856 0.075584
0.284430 0.485604 0.083192
0.305242 0.485291 0.090979
0.326031 0.484966 0.098854
0.346953 0.484714 0.106920
0.367815 0.484535 0.115165
0.388688 0.484344 0.123565
0.409610 0.484092 0.132068
0.430533 0.483839 0.140667
0.451365 0.483497 0.149443
0.472339 0.483296 0.158439
0.493300 0.483083 0.167513
0.514223 0.482917 0.176692
0.535145 0.482797 0.185994
0.556068 0.482571 0.195413
0.577107 0.482319 0.204971
0.598146 0.482167 0.214770
0.619079 0.482051 0.224601
0.640131 0.481807 0.234562
0.661168 0.481799 0.244641
0.026468 0.494411 0.265611
0.042451 0.506767 0.134144
0.058632 0.518453 0.011186
0.079302 0.517949 0.018002
0.099972 0.517463 0.024675
0.120643 0.517099 0.029682
0.141360 0.516680 0.034905
0.162228 0.516231 0.040923
0.182898 0.515916 0.047126
0.203568 0.515483 0.053785
0.224318 0.515152 0.060603
0.245204 0.514735 0.067766
0.266005 0.514483 0.075080
0.286841 0.514231 0.082583
0.307717 0.513868 0.090173
0.328583 0.513482 0.097987
0.349433 0.513230 0.106054
0.370286 0.513034 0.114238
0.391209 0.512828 0.122506
0.412131 0.512663 0.131017
0.433054 0.512466 0.139588
0.453907 0.512145 0.148324
0.474969 0.511932 0.157320
0.495963 0.511710 0.166290
0.516885 0.511458 0.175517
0.537808 0.511288 0.184844
0.558849 0.511175 0.194290
0.579884 0.510946 0.203852
0.600819 0.510694 0.213652
0.621874 0.510670 0.223483
0.643042 0.510434 0.233687
0.663973 0.510426 0.243775
0.029241 0.522896 0.264603
0.044972 0.535405 0.134544
0.061152 0.547190 0.012941
0.081823 0.546700 0.019592
0.102493 0.546343 0.026011
0.123164 0.545921 0.030792
0.143881 0.545417 0.035724
0.164749 0.544968 0.041509
0.185419 0.544653 0.047415
0.206133 0.544220 0.053858
0.226940 0.543889 0.060521
0.247761 0.543472 0.067478
0.268647 0.543220 0.074667
0.289448 0.542967 0.082036
0.310284 0.542673 0.089566
0.331206 0.542296 0.097308
0.352080 0.541967 0.105220
0.372957 0.541715 0.113333
0.393879 0.541463 0.121628
0.414802 0.541269 0.130067
0.435724 0.541053 0.138580
0.456647 0.540903 0.147316
0.477742 0.540699 0.156206
0.498736 0.540447 0.165167
0.519658 0.540195 0.174406
0.540581 0.539942 0.183733
0.561708 0.539895 0.193265
0.582670 0.539683 0.202844
0.603727 0.539430 0.212643
0.624893 0.539407 0.222614
0.645922 0.539171 0.232783
0.666998 0.539163 0.242869
0.032014 0.551538 0.263752
0.047645 0.564147 0.135002
0.063683 0.576094 0.014847
0.084501 0.575746 0.021253
0.105172 0.575320 0.027566
0.125842 0.574841 0.032154
0.146560 0.574469 0.036734
0.167427 0.573985 0.042187
0.188097 0.573588 0.047800
0.208838 0.573226 0.054082
0.229733 0.572834 0.060491
0.250541 0.572524 0.067328
0.271362 0.572210 0.074379
0.292248 0.571862 0.081623
0.313120 0.571610 0.089062
0.334042 0.571316 0.096758
0.354965 0.571019 0.104573
0.375887 0.570767 0.112553
0.396810 0.570515 0.120740
0.417732 0.570263 0.129095
0.438655 0.570011 0.137673
0.459684 0.569817 0.146358
0.480718 0.569593 0.155242
0.501666 0.569341 0.164292
0.522710 0.569211 0.173434
0.543669 0.568994 0.182725
0.564664 0.568815 0.192256
0.585737 0.568577 0.201835
0.606758 0.568609 0.211777
0.627770 0.568616 0.221852
0.648698 0.568685 0.232240
0.669707 0.568845 0.242648
0.034952 0.580275 0.262996
0.050576 0.593057 0.135710
0.066375 0.605244 0.016692
0.087274 0.604829 0.023018
0.107944 0.604474 0.029277
0.128641 0.603983 0.033487
0.149466 0.603545 0.037929
0.170200 0.603078 0.043052
0.190913 0.602722 0.048384
0.211729 0.602325 0.054370
0.232534 0.601963 0.060603
0.253428 0.601599 0.067297
0.274300 0.601317 0.074228
0.295153 0.601016 0.081334
0.315979 0.600689 0.088649
0.336982 0.600347 0.096174
0.357990 0.600095 0.103903
0.378912 0.599842 0.111927
0.399835 0.599590 0.120003
0.420757 0.599338 0.128252
0.441679 0.599193 0.136779
0.462767 0.599000 0.145490
0.483769 0.598747 0.154343
0.504814 0.598495 0.163370
0.525840 0.598304 0.172573
0.546780 0.598070 0.181882
0.567841 0.597957 0.191414
0.589003 0.597731 0.200993
0.609957 0.597920 0.211013
0.630725 0.598099 0.221251
0.651476 0.598506 0.231977
0.672228 0.599094 0.242900
0.037457 0.610572 0.263453
0.053268 0.623066 0.137013
0.069483 0.634664 0.018792
0.090237 0.634329 0.024939
0.111064 0.633889 0.031021
0.131746 0.633385 0.035094
0.152475 0.632914 0.039454
0.173185 0.632566 0.044138
0.194008 0.632116 0.049100
0.214781 0.631683 0.054918
0.235653 0.631408 0.060947
0.256514 0.631046 0.067409
0.277325 0.630683 0.074130
0.298218 0.630431 0.081082
0.319099 0.630146 0.088283
0.340056 0.629772 0.095716
0.361104 0.629430 0.103404
0.382110 0.629178 0.111292
0.402932 0.629027 0.119481
0.423782 0.628953 0.127843
0.444704 0.629038 0.136542
0.465557 0.629169 0.145402
0.486324 0.629274 0.154470
0.507249 0.629251 0.163703
0.528055 0.629312 0.173280
0.548939 0.629418 0.182825
0.569920 0.629583 0.192536
0.590765 0.629700 0.202445
0.611518 0.630091 0.212822
0.632357 0.630522 0.223168
0.652871 0.631021 0.233975
0.673536 0.631770 0.245059
0.039545 0.641758 0.264461
0.055983 0.653360 0.138550
0.072575 0.664162 0.021056
0.093269 0.663886 0.027112
0.114160 0.663405 0.032967
0.134859 0.663059 0.036981
0.155682 0.662567 0.040975
0.176366 0.662114 0.045284
0.197132 0.661656 0.049809
0.218008 0.661305 0.055420
0.238872 0.660924 0.061247
0.259649 0.660650 0.067571
0.280531 0.660287 0.074103
0.301453 0.659924 0.080935
0.322376 0.659672 0.087999
0.343298 0.659389 0.095427
0.364253 0.659104 0.103022
0.385306 0.658852 0.110749
0.406168 0.658847 0.118989
0.426877 0.658923 0.127521
0.447612 0.659314 0.136499
0.468182 0.659818 0.145718
0.488794 0.660257 0.155133
0.509377 0.660784 0.164781
0.530017 0.661394 0.174580
0.550738 0.661874 0.184506
0.571322 0.662465 0.194664
0.591815 0.662933 0.204924
0.612462 0.663593 0.215635
0.633191 0.664284 0.226181
0.653805 0.664800 0.237176
0.674292 0.665548 0.248084
0.040616 0.674906 0.266982
0.058221 0.684884 0.141002
0.075801 0.694210 0.023325
0.096653 0.693775 0.029357
0.117398 0.693449 0.034984
0.138242 0.692993 0.039008
0.158995 0.692489 0.042969
0.179818 0.691985 0.046809
0.200503 0.691592 0.050928
0.221230 0.691465 0.056418
0.241939 0.691295 0.062066
0.262562 0.691366 0.068435
0.283168 0.691288 0.075048
0.303974 0.691197 0.081934
0.324811 0.691226 0.089241
0.345539 0.691273 0.096877
0.366266 0.691313 0.104634
0.387023 0.691348 0.112617
0.407744 0.691575 0.121052
0.428414 0.691872 0.129702
0.448962 0.692418 0.138745
0.469528 0.693009 0.148072
0.490047 0.693647 0.157706
0.510621 0.694247 0.167381
0.531131 0.694955 0.177310
0.551606 0.695514 0.187380
0.572194 0.696223 0.197668
0.592642 0.696766 0.208003
0.613281 0.697491 0.218780
0.633952 0.698247 0.229391
0.654439 0.698767 0.240451
0.675048 0.699516 0.251298
0.041372 0.708685 0.270007
0.060285 0.716644 0.143765
0.079266 0.724259 0.025778
0.099999 0.723778 0.031601
0.120879 0.723494 0.037000
0.141762 0.722990 0.041034
0.162442 0.722524 0.044943
0.183195 0.722179 0.048307
0.203967 0.721801 0.052137
0.224434 0.721844 0.057466
0.244901 0.722029 0.063075
0.265351 0.722334 0.069463
0.285788 0.722741 0.076264
0.306275 0.723148 0.083414
0.326769 0.723575 0.090892
0.347236 0.724008 0.098792
0.367703 0.724439 0.106911
0.388278 0.724868 0.115276
0.408834 0.725330 0.123971
0.429301 0.725805 0.132847
0.449738 0.726448 0.141967
0.470322 0.727039 0.151294
0.490819 0.727717 0.160828
0.511418 0.728292 0.170566
0.531900 0.728985 0.180574
0.552318 0.729544 0.190657
0.572941 0.730253 0.200945
0.593399 0.730797 0.211280
0.614038 0.731522 0.222057
0.634524 0.732278 0.232668
0.655136 0.732798 0.243728
0.675608 0.733546 0.254575
0.041924 0.742668 0.273236
0.061927 0.749386 0.146523
0.081973 0.755716 0.028078
0.102627 0.755638 0.033680
0.123153 0.755593 0.039248
0.143825 0.755478 0.043460
0.164323 0.755233 0.047351
0.184956 0.755183 0.050674
0.205435 0.755122 0.054614
0.225854 0.755193 0.059908
0.246206 0.755511 0.065583
0.266485 0.755989 0.072110
0.286904 0.756493 0.078948
0.307322 0.756911 0.086155
0.327740 0.757296 0.093655
0.348159 0.757801 0.101603
0.368577 0.758305 0.109796
0.389017 0.758921 0.118345
0.409572 0.759518 0.127062
0.430076 0.760022 0.136027
0.450494 0.760552 0.145244
0.470939 0.761208 0.154571
0.491516 0.761807 0.164216
0.512023 0.762474 0.174036
0.532451 0.763062 0.184056
0.552869 0.763740 0.194139
0.573492 0.764317 0.204427
0.593950 0.765006 0.214762
0.614589 0.765757 0.225539
0.635031 0.766321 0.236150
0.655487 0.767026 0.247011
0.676112 0.767781 0.258057
0.042428 0.776699 0.276513
0.063472 0.782368 0.149279
0.084480 0.787510 0.030344
0.104927 0.787929 0.035893
0.125322 0.788148 0.041337
0.145583 0.788363 0.045802
0.165966 0.788556 0.049913
0.186190 0.788775 0.053369
0.206444 0.789050 0.057229
0.226800 0.789436 0.062742
0.247057 0.789767 0.068581
0.267379 0.790271 0.075135
0.287660 0.790693 0.081973
0.308078 0.791054 0.089270
0.328497 0.791540 0.096796
0.348915 0.792044 0.104731
0.369333 0.792548 0.113033
0.389751 0.793069 0.121604
