gsg/02_Everyday/GSG_LUT_Everyday_Shaken_Not_Stirred.cube
# GSG LUTs 1.0
# Copyright (c) 2016-2020 Greyscalegorilla
# See EULA for licensing and distribution information
# Converted by Briz LUT Converter
LUT_3D_SIZE 5
DOMAIN_MIN 0.000000 0.000000 0.000000
DOMAIN_MAX 0.903226 0.903226 0.903226
0.048352 0.052503 0.038339
0.139612 0.080326 0.063311
0.313175 0.092552 0.071464
0.534468 0.109370 0.084785
0.732364 0.165505 0.139643
0.102501 0.175982 0.087439
0.187716 0.195781 0.104583
0.336017 0.214945 0.086971
0.548135 0.235923 0.095482
0.756910 0.291420 0.162180
0.108078 0.368892 0.087857
0.217103 0.371379 0.090485
0.363866 0.380900 0.097030
0.565548 0.400607 0.117756
0.767790 0.449182 0.203552
0.158707 0.598480 0.137705
0.279590 0.602602 0.142067
0.406968 0.602533 0.157308
0.591347 0.622277 0.215932
0.772870 0.662067 0.320288
0.300989 0.830100 0.283288
0.440482 0.828640 0.323515
0.533549 0.821154 0.352014
0.677089 0.838757 0.416227
0.829819 0.874859 0.502879
0.065123 0.070251 0.170097
0.169602 0.094611 0.196432
0.342597 0.098972 0.239888
0.547245 0.122321 0.263061
0.738068 0.183334 0.298928
0.110454 0.199036 0.215473
0.196561 0.207060 0.227820
0.352966 0.218360 0.236774
0.547526 0.247820 0.258677
0.742010 0.313934 0.314795
0.115217 0.380108 0.251593
0.222678 0.379379 0.244686
0.366699 0.384284 0.247653
0.560579 0.407035 0.280919
0.746378 0.467323 0.362119
0.169270 0.603137 0.293050
0.304335 0.600625 0.309555
0.424898 0.601923 0.331622
0.596985 0.628310 0.385811
0.768675 0.675372 0.473383
0.319038 0.828771 0.421668
0.479623 0.822693 0.477491
0.566528 0.819820 0.503921
0.699348 0.843271 0.561241
0.842508 0.885387 0.639143
0.063539 0.069644 0.364433
0.191431 0.081752 0.387123
0.358357 0.102903 0.408563
0.556903 0.132471 0.431620
0.748376 0.197574 0.453491
0.088127 0.211265 0.396442
0.201710 0.212962 0.397519
0.359420 0.225938 0.406149
0.553618 0.257982 0.422396
0.750497 0.328788 0.457355
0.121415 0.388861 0.421253
0.231456 0.386204 0.414244
0.371464 0.389139 0.411644
0.556477 0.418871 0.433644
0.732631 0.485547 0.491168
0.177935 0.609989 0.455792
0.319539 0.606522 0.458964
0.442046 0.605904 0.474224
0.604258 0.635838 0.517235
0.766323 0.687555 0.585786
0.333866 0.830005 0.547497
0.498750 0.827707 0.588230
0.591094 0.822813 0.612466
0.717887 0.847726 0.663501
0.852037 0.893508 0.732009
0.069936 0.076041 0.532829
0.199543 0.089590 0.550551
0.366080 0.112257 0.574718
0.563425 0.144582 0.600207
0.758927 0.212124 0.612171
0.095947 0.219221 0.564731
0.212002 0.222921 0.560849
0.364768 0.239389 0.570137
0.558435 0.272983 0.591161
0.760934 0.347822 0.613878
0.132100 0.396542 0.596369
0.250928 0.394236 0.583053
0.382869 0.399715 0.574287
0.561697 0.435547 0.593704
0.736750 0.503786 0.627573
0.193458 0.616828 0.632827
0.345033 0.616267 0.627547
0.461584 0.618609 0.625612
0.620098 0.651789 0.653108
0.773351 0.708425 0.704136
0.356398 0.836063 0.693128
0.524358 0.839197 0.717095
0.616061 0.837152 0.728821
0.742708 0.861783 0.769261
0.871358 0.910054 0.829817
0.082059 0.088164 0.674213
0.208103 0.105245 0.689889
0.367805 0.134441 0.711878
0.554973 0.175036 0.739304
0.766655 0.230897 0.772477
0.115932 0.230604 0.706836
0.230010 0.240092 0.694410
0.372841 0.262022 0.709312
0.556432 0.303568 0.737442
0.767683 0.373746 0.773686
0.165305 0.404443 0.744052
0.281885 0.407276 0.729715
0.402558 0.418795 0.716922
0.568930 0.464322 0.731488
0.741786 0.528524 0.762493
0.240166 0.619103 0.792477
0.393138 0.627055 0.774804
0.497328 0.634681 0.761195
0.643511 0.673938 0.773153
0.788010 0.732853 0.812984
0.386210 0.844454 0.839825
0.556104 0.853577 0.846676
0.647296 0.855209 0.846839
0.768841 0.882366 0.871165
0.895448 0.932815 0.918285
