gsg/02_Everyday/GSG_LUT_Everyday_Cool_Beans.cube
# GSG LUTs 1.0
# Copyright (c) 2016-2020 Greyscalegorilla
# See EULA for licensing and distribution information
# Converted by Briz LUT Converter
LUT_3D_SIZE 32
0.000000 0.000000 0.000000
0.022364 0.000008 0.000008
0.050565 0.000260 0.000260
0.082075 0.000512 0.000536
0.113143 0.000796 0.001418
0.141715 0.001339 0.004435
0.173760 0.002143 0.004593
0.206814 0.003151 0.004837
0.239836 0.004285 0.007673
0.276687 0.005869 0.012399
0.317208 0.007791 0.015519
0.354870 0.009973 0.018725
0.390287 0.012273 0.022947
0.428138 0.015046 0.026358
0.464390 0.017819 0.028122
0.499579 0.020828 0.031423
0.533861 0.024105 0.036969
0.567640 0.027516 0.041010
0.600993 0.031045 0.042995
0.633117 0.034724 0.046406
0.666990 0.038820 0.052676
0.697979 0.042609 0.056016
0.725330 0.046138 0.056410
0.754224 0.049848 0.058041
0.781890 0.053630 0.060877
0.809256 0.057608 0.064492
0.835504 0.061436 0.068683
0.859128 0.064792 0.072756
0.875923 0.067407 0.075466
0.882209 0.068329 0.076616
0.882540 0.068376 0.076679
0.882540 0.068376 0.076679
0.000000 0.023278 0.003750
0.023087 0.022744 0.003979
0.050216 0.023020 0.003537
0.080869 0.022516 0.003963
0.113146 0.019851 0.005764
0.143475 0.021080 0.006243
0.175608 0.017683 0.008033
0.207980 0.013227 0.009649
0.241053 0.010536 0.011259
0.278425 0.008024 0.014929
0.316743 0.008345 0.018704
0.354572 0.010307 0.021450
0.391668 0.012453 0.025017
0.428787 0.015058 0.030147
0.464799 0.017937 0.032396
0.499271 0.020958 0.033999
0.534164 0.024231 0.038833
0.568439 0.027626 0.042998
0.600270 0.030908 0.043646
0.632594 0.034632 0.047869
0.665909 0.038510 0.049901
0.697431 0.042454 0.051907
0.726901 0.046311 0.056434
0.756257 0.050274 0.060186
0.783676 0.053935 0.061979
0.809801 0.057656 0.064830
0.835341 0.061436 0.068723
0.860386 0.065011 0.072969
0.876294 0.067432 0.075497
0.882225 0.068329 0.076616
0.882540 0.068376 0.076679
0.882540 0.068376 0.076679
0.000000 0.049494 0.006586
0.023672 0.047281 0.006815
0.048880 0.049256 0.006895
0.078450 0.049798 0.007589
0.112911 0.045738 0.009502
0.143800 0.046881 0.009710
0.176700 0.043747 0.012347
0.209696 0.040470 0.014457
0.242419 0.038450 0.015180
0.278582 0.033326 0.018857
0.316987 0.026989 0.021929
0.355820 0.019396 0.024296
0.393170 0.014598 0.028005
0.429382 0.016277 0.033370
0.465767 0.018707 0.035511
0.500539 0.021329 0.036756
0.534773 0.024292 0.039029
0.568572 0.027633 0.042117
0.601133 0.031054 0.044824
0.634002 0.034730 0.046834
0.666597 0.038662 0.049399
0.697512 0.042530 0.052534
0.727236 0.046311 0.055657
0.756718 0.050262 0.058691
0.784340 0.054114 0.061419
0.810335 0.057702 0.064778
0.835433 0.061436 0.068723
0.860800 0.065217 0.072969
0.876553 0.067454 0.075710
0.882240 0.068329 0.076632
0.882540 0.068376 0.076679
0.882540 0.068376 0.076679
0.000000 0.079869 0.010579
0.022326 0.076561 0.010627
0.048097 0.078612 0.011399
0.078101 0.080606 0.012447
0.111833 0.078528 0.013710
0.143417 0.078294 0.014325
0.176687 0.076294 0.017993
0.210407 0.075261 0.020119
0.243641 0.075174 0.020402
0.278473 0.069609 0.024725
0.317092 0.060509 0.027130
0.356041 0.048322 0.028543
0.393158 0.037174 0.031372
0.429682 0.031743 0.035704
0.466385 0.028480 0.037799
0.501805 0.025871 0.039003
0.535392 0.025428 0.039654
0.568702 0.027803 0.042023
0.602385 0.031210 0.046046
0.635178 0.034842 0.046760
0.667020 0.038671 0.050202
0.697610 0.042530 0.053495
0.727300 0.046311 0.054471
0.756619 0.050110 0.056682
0.784482 0.054068 0.060601
0.810545 0.057702 0.064689
0.835637 0.061436 0.068723
0.860806 0.065197 0.072969
0.876551 0.067452 0.075710
0.882240 0.068329 0.076632
0.882540 0.068376 0.076679
0.882540 0.068376 0.076679
0.000000 0.113553 0.016377
0.017668 0.111216 0.016673
0.048531 0.111134 0.017360
0.081039 0.112792 0.018497
0.109554 0.115442 0.019784
0.143024 0.114452 0.020533
0.175175 0.112507 0.024098
0.208579 0.112346 0.026630
0.243992 0.113796 0.027677
0.278850 0.110826 0.032573
0.315959 0.106580 0.035250
0.353085 0.099829 0.035750
0.390640 0.087042 0.035917
0.429022 0.069726 0.038242
0.465299 0.056492 0.040241
0.501118 0.044595 0.041177
0.535307 0.037744 0.043177
0.568799 0.037266 0.045715
0.602941 0.038476 0.047009
0.634603 0.040181 0.049756
0.666234 0.042144 0.051246
0.697692 0.044534 0.051986
0.727870 0.047337 0.053664
0.757234 0.050711 0.056591
0.784617 0.054238 0.060608
0.810392 0.057994 0.064740
0.835369 0.062100 0.068839
0.860330 0.066031 0.073095
0.876388 0.068189 0.075808
0.881996 0.070380 0.076962
0.882013 0.072653 0.077391
0.881720 0.074962 0.077845
0.000000 0.145677 0.020568
0.012122 0.147391 0.021056
0.042100 0.147492 0.021162
0.076078 0.147256 0.023216
0.106913 0.148175 0.028200
0.139892 0.150270 0.028690
0.173934 0.150812 0.030098
0.207321 0.152220 0.033061
0.240236 0.153700 0.037164
0.277837 0.150546 0.039642
0.315425 0.148325 0.042332
0.351945 0.145453 0.043202
0.388424 0.139749 0.044024
0.425501 0.132034 0.047484
0.460304 0.126425 0.049943
0.494596 0.121411 0.052767
0.528801 0.115658 0.054759
0.563028 0.107477 0.053708
0.597191 0.096886 0.051194
0.629659 0.085867 0.050357
0.662820 0.076539 0.052107
0.695436 0.070023 0.054141
0.726150 0.066447 0.055829
0.755450 0.065199 0.058749
0.782920 0.067053 0.062778
0.808973 0.071792 0.067186
0.833570 0.077954 0.071675
0.856945 0.084985 0.076165
0.873812 0.085510 0.078747
0.878772 0.096546 0.081550
0.876846 0.114043 0.084679
0.874576 0.132215 0.088274
0.000000 0.183001 0.025751
0.004475 0.184313 0.026147
0.028514 0.183711 0.026259
0.061572 0.183346 0.027487
0.098134 0.185300 0.030267
0.136995 0.186860 0.033137
0.172367 0.188429 0.037119
0.205718 0.190355 0.040645
0.239360 0.192018 0.043296
0.276502 0.191836 0.046469
0.314089 0.191962 0.048185
0.350563 0.191571 0.050536
0.385908 0.189785 0.053536
0.421891 0.186649 0.055441
0.457089 0.183359 0.058096
0.490931 0.181294 0.061964
0.523884 0.179005 0.064631
0.556747 0.173810 0.064430
0.589587 0.166305 0.063179
0.621534 0.158005 0.062106
0.655025 0.151724 0.063892
0.686924 0.148687 0.067032
0.716016 0.146773 0.069842
0.745626 0.142188 0.072598
0.772348 0.146632 0.077298
0.798471 0.150201 0.081580
0.823791 0.153647 0.085769
0.846217 0.164337 0.091193
0.863295 0.166220 0.094146
0.868575 0.177381 0.097269
0.866653 0.195003 0.100875
0.864571 0.213620 0.104707
0.000000 0.222466 0.031549
0.000398 0.222091 0.031498
0.014185 0.221480 0.031637
0.045101 0.221933 0.031749
0.088999 0.224368 0.032114
0.132875 0.225522 0.036541
0.169474 0.227040 0.043574
0.203928 0.228781 0.047880
0.239125 0.230617 0.048277
0.274740 0.233061 0.051506
0.311834 0.234777 0.054054
0.348548 0.235920 0.057155
0.383603 0.236688 0.060320
0.418100 0.236291 0.062067
0.453119 0.234869 0.064131
0.487130 0.233921 0.067502
0.519526 0.234088 0.070808
0.551162 0.233922 0.073183
0.582605 0.232533 0.075386
0.613587 0.230438 0.076512
0.646642 0.230263 0.079307
0.677610 0.231246 0.083353
0.705652 0.231438 0.087061
0.734810 0.228851 0.090431
0.761506 0.232704 0.095027
0.787664 0.235032 0.099127
0.813301 0.237704 0.103216
0.836075 0.248507 0.108680
0.853196 0.252570 0.111920
0.858948 0.261029 0.114548
0.858034 0.273334 0.117227
0.856883 0.286321 0.119910
0.000000 0.261286 0.036591
0.000105 0.261141 0.036200
0.004745 0.261798 0.035578
0.030788 0.262824 0.035363
0.078719 0.264203 0.036281
0.123048 0.266643 0.039244
0.163009 0.267844 0.047558
0.200960 0.268953 0.053308
0.237800 0.271000 0.053103
0.272935 0.273845 0.054669
0.309171 0.276004 0.059807
0.346100 0.278216 0.062255
0.381724 0.280676 0.063298
0.414743 0.282797 0.067891
0.448006 0.284030 0.069166
0.482036 0.283383 0.071200
0.515342 0.283485 0.074831
0.546916 0.285342 0.079022
0.577581 0.286884 0.083729
0.607550 0.288170 0.087625
0.639970 0.290532 0.092161
0.671274 0.291802 0.096587
0.699673 0.292616 0.100563
0.727483 0.296483 0.105212
0.755009 0.296123 0.108849
0.781247 0.297822 0.112702
0.806229 0.303059 0.117145
0.829769 0.310457 0.121683
0.847191 0.315545 0.125003
0.853373 0.321463 0.127067
0.853281 0.328152 0.128485
0.852598 0.335791 0.129867
0.000000 0.301406 0.038442
0.000000 0.302756 0.037730
0.000741 0.303614 0.036186
0.014950 0.304416 0.035987
0.053418 0.305689 0.037903
0.102433 0.309033 0.040106
0.150739 0.310697 0.048807
0.195290 0.311978 0.055381
0.234395 0.313913 0.055824
0.271023 0.317071 0.058238
0.307195 0.320437 0.063878
0.343757 0.322688 0.066899
0.379514 0.324518 0.068707
0.412449 0.327236 0.074252
0.445137 0.329003 0.077265
0.478521 0.329706 0.080652
0.511592 0.330755 0.085047
0.543132 0.333200 0.089669
0.573547 0.336293 0.094417
0.603005 0.338817 0.098815
0.634990 0.339700 0.103172
0.666390 0.341181 0.107636
0.694884 0.344210 0.112151
0.721940 0.348563 0.116636
0.749459 0.349022 0.120130
0.776267 0.351036 0.123918
0.801639 0.356538 0.128169
0.824978 0.363991 0.132548
0.843109 0.368518 0.135523
0.849674 0.373498 0.137316
0.849846 0.379045 0.138298
0.849423 0.384836 0.139304
0.000000 0.346938 0.038332
0.000000 0.347529 0.037974
0.000085 0.347783 0.037163
0.002716 0.348001 0.037104
0.023212 0.348961 0.038469
0.082754 0.351975 0.042816
0.138727 0.355229 0.050363
0.187117 0.357850 0.056805
0.227416 0.359761 0.059883
0.266000 0.362315 0.063887
0.303365 0.365855 0.069471
0.340048 0.368207 0.073711
0.375540 0.369753 0.077284
0.409158 0.372407 0.082576
0.442207 0.374718 0.086920
0.474474 0.377093 0.091267
0.506415 0.379142 0.095930
0.538193 0.381189 0.100638
0.569330 0.383824 0.105250
0.599396 0.386697 0.109788
0.630991 0.388154 0.114168
0.661865 0.390057 0.118400
0.690308 0.393358 0.122721
0.717749 0.397461 0.126973
0.744809 0.399901 0.130732
0.771650 0.402663 0.134349
0.797427 0.406864 0.137967
0.821123 0.412756 0.141730
0.840207 0.418001 0.144558
0.847857 0.422298 0.145813
0.848570 0.426906 0.146362
0.848730 0.432589 0.147119
0.000000 0.390823 0.041774
0.000000 0.390322 0.041687
0.000000 0.390449 0.041693
0.000000 0.390885 0.041774
0.006514 0.391397 0.042409
0.060497 0.393508 0.047735
0.123372 0.397217 0.054446
0.177478 0.400767 0.061038
0.219063 0.403124 0.066236
0.260604 0.405653 0.071702
0.299074 0.409394 0.077258
0.336343 0.412090 0.082468
0.372283 0.413721 0.087347
0.405996 0.416328 0.092256
0.439104 0.418741 0.097097
0.471051 0.421726 0.101839
0.502667 0.424596 0.106548
0.534261 0.426618 0.111079
0.565203 0.428705 0.115477
0.595547 0.431732 0.119942
0.627321 0.434444 0.124377
0.658064 0.437317 0.128528
0.686634 0.440700 0.132500
0.714704 0.444068 0.136379
0.742110 0.447213 0.140045
0.769058 0.450110 0.143253
0.795571 0.452870 0.145988
0.821052 0.456736 0.148261
0.841683 0.461614 0.150038
0.850865 0.464956 0.150346
0.852314 0.468364 0.150356
0.853322 0.473410 0.150514
0.000000 0.430241 0.050250
0.000000 0.430145 0.050293
0.000000 0.431098 0.050394
0.000000 0.431974 0.050534
0.003258 0.432088 0.050921
0.035919 0.433314 0.054614
0.104095 0.436391 0.061743
0.167052 0.440124 0.069405
0.212995 0.443480 0.075425
0.256650 0.446135 0.081264
0.295545 0.450061 0.086983
0.333171 0.453009 0.092321
0.369567 0.455233 0.097339
0.402852 0.458230 0.102296
0.435739 0.460247 0.106920
0.467952 0.463018 0.111530
0.500072 0.466392 0.116271
0.531544 0.469083 0.120792
0.561998 0.471315 0.124881
0.592530 0.473954 0.129000
0.624243 0.477321 0.133367
0.655032 0.480952 0.137412
0.684084 0.484221 0.141077
0.712567 0.486623 0.144481
0.741989 0.489004 0.147114
0.770440 0.491055 0.149043
0.798632 0.492931 0.150212
0.827191 0.496055 0.150420
0.849859 0.499051 0.150477
0.859215 0.501434 0.150482
0.860756 0.504087 0.150482
0.861672 0.508039 0.150388
0.000000 0.469684 0.059183
0.000000 0.470835 0.059577
0.000000 0.471830 0.059807
0.000000 0.471950 0.059701
0.000860 0.471635 0.059834
0.017192 0.473080 0.062427
0.085707 0.476155 0.069617
0.155192 0.480216 0.078041
0.208012 0.483997 0.085095
0.252018 0.485958 0.090787
0.292038 0.489242 0.096506
0.330115 0.492501 0.101901
0.366159 0.495370 0.106959
0.399383 0.498423 0.111757
0.432307 0.500711 0.116294
0.464386 0.503370 0.120733
0.496749 0.506793 0.125290
0.528936 0.510057 0.129756
0.559831 0.512510 0.133652
0.590839 0.514120 0.137265
0.622259 0.516966 0.141150
0.653048 0.520257 0.144797
0.683821 0.522370 0.147393
0.713935 0.523784 0.149279
0.745442 0.525554 0.150237
0.776340 0.526764 0.150420
0.805882 0.528591 0.150460
0.835133 0.532165 0.150165
0.858419 0.534413 0.149807
0.868120 0.536621 0.149678
0.869925 0.539222 0.149572
0.870802 0.542826 0.149325
0.000000 0.510221 0.069014
0.000000 0.510887 0.069156
0.000000 0.511473 0.069377
0.000000 0.511095 0.069114
0.000000 0.509942 0.068954
0.009219 0.512096 0.071044
0.071064 0.515241 0.077910
0.142206 0.519099 0.086473
0.199072 0.522937 0.093954
0.244481 0.524833 0.099752
0.286720 0.527476 0.105506
0.326613 0.531252 0.111127
0.363532 0.534774 0.116252
0.397064 0.537106 0.120722
0.429435 0.539932 0.125159
0.461961 0.542242 0.129339
0.495382 0.545291 0.133637
0.527619 0.548847 0.137797
0.557766 0.551396 0.141383
0.588020 0.553472 0.144716
0.621480 0.554938 0.147455
0.655474 0.556954 0.149464
0.688865 0.558901 0.150389
0.720394 0.560191 0.150456
0.752227 0.560697 0.150446
0.783756 0.561461 0.150165
0.814079 0.562990 0.149707
0.842972 0.565440 0.149110
0.866784 0.567828 0.148492
0.877153 0.570334 0.148103
0.879243 0.573304 0.147844
0.880381 0.577171 0.147481
0.000000 0.547804 0.078373
0.000000 0.548083 0.078384
0.000000 0.549173 0.078742
0.000000 0.549731 0.078821
0.000000 0.548967 0.078658
0.006931 0.550370 0.079987
0.056750 0.553192 0.086218
0.129388 0.556969 0.094867
0.193043 0.561089 0.103013
0.238598 0.563628 0.108811
0.282633 0.566496 0.114609
0.322973 0.570295 0.120194
0.359887 0.573710 0.125038
0.394992 0.575783 0.129377
0.427910 0.578685 0.133571
0.461068 0.581047 0.137483
0.494484 0.583637 0.141398
0.526385 0.586524 0.145045
0.557900 0.588373 0.147625
0.589989 0.590232 0.149415
0.626087 0.591028 0.150369
0.662802 0.592258 0.150465
0.696874 0.594072 0.150349
0.728503 0.594426 0.150048
0.759886 0.595010 0.149674
0.791499 0.595786 0.149008
0.821719 0.596654 0.148154
0.848866 0.598386 0.147276
0.874964 0.600834 0.146291
0.886519 0.603356 0.145630
0.888688 0.606242 0.145354
0.889724 0.609532 0.144976
0.000000 0.585238 0.087825
0.000000 0.585492 0.087829
0.000000 0.585842 0.087951
0.000000 0.586453 0.088196
0.000000 0.587169 0.088424
0.005549 0.587743 0.089232
0.048033 0.590272 0.094992
0.121114 0.594179 0.103523
0.188673 0.598527 0.111994
0.235617 0.601659 0.117886
0.281198 0.605105 0.123643
0.320981 0.608541 0.128874
0.356350 0.611387 0.133182
0.392423 0.613741 0.137337
0.426715 0.616383 0.141272
0.460991 0.618790 0.144923
0.494863 0.620404 0.147667
0.528353 0.621779 0.149440
0.563226 0.623066 0.150401
0.598185 0.623685 0.150476
0.634430 0.624693 0.150341
0.670230 0.626073 0.150043
0.704237 0.627098 0.149487
0.737248 0.627103 0.148853
0.767721 0.627849 0.148121
0.798428 0.629088 0.147064
0.828525 0.630266 0.145926
0.855562 0.631489 0.144678
0.882441 0.633515 0.143303
0.895379 0.636118 0.142487
0.898368 0.638769 0.142081
0.899177 0.641167 0.141699
0.000000 0.623995 0.097775
0.000000 0.623529 0.097499
0.000000 0.622284 0.097254
0.000000 0.621818 0.097163
0.000000 0.623015 0.097518
0.004748 0.624166 0.098513
0.042826 0.626805 0.103938
0.115337 0.630608 0.112039
0.184880 0.634783 0.120427
0.233277 0.638425 0.126307
0.279330 0.642058 0.131896
0.319630 0.644860 0.136602
0.355248 0.647072 0.140549
0.391204 0.649731 0.144470
0.427344 0.651967 0.147522
0.464580 0.653357 0.149410
0.500127 0.653894 0.150333
0.535095 0.654648 0.150438
0.571412 0.655878 0.150414
0.606869 0.655957 0.150172
0.642530 0.656813 0.149538
0.677979 0.657907 0.148848
0.712332 0.658585 0.147937
0.745585 0.659391 0.146904
0.775204 0.659694 0.145786
0.805162 0.660773 0.144551
0.835525 0.662348 0.143066
0.864249 0.663377 0.141433
0.889452 0.664894 0.139903
0.903113 0.667432 0.138825
0.907875 0.670196 0.138159
0.908472 0.671677 0.137918
0.000000 0.660388 0.107038
0.000000 0.659094 0.106547
0.000000 0.658059 0.106432
0.000000 0.657679 0.106213
0.000000 0.658206 0.106369
0.003597 0.659664 0.107458
0.035665 0.662373 0.112297
0.109540 0.665949 0.120131
0.183970 0.669799 0.128539
0.231521 0.673979 0.134108
0.276397 0.677843 0.139243
0.317678 0.680307 0.143590
0.356159 0.681769 0.146917
0.394718 0.683632 0.149103
0.433868 0.684846 0.150267
0.472762 0.685413 0.150501
0.508569 0.686031 0.150407
0.543385 0.686916 0.150176
0.579716 0.687582 0.149696
0.615219 0.687732 0.149001
0.651134 0.688378 0.147981
0.686968 0.689435 0.146895
0.721137 0.690283 0.145600
0.753039 0.690408 0.144299
0.782841 0.690707 0.142929
0.812773 0.691362 0.141407
0.842876 0.692368 0.139564
0.872039 0.693847 0.137653
0.896361 0.694887 0.135962
0.910627 0.697130 0.134532
0.916733 0.699466 0.133872
0.917011 0.699846 0.133853
0.000000 0.694033 0.115412
0.000000 0.693471 0.115223
0.000000 0.693654 0.115227
0.000000 0.693986 0.115278
0.000000 0.693931 0.115283
0.003489 0.693906 0.115972
0.035170 0.696451 0.120745
0.109453 0.700545 0.128361
0.183195 0.704573 0.136202
0.232058 0.707661 0.141341
0.277425 0.711515 0.145829
0.319894 0.714374 0.148754
0.360804 0.715629 0.150043
0.401994 0.716342 0.150459
0.441913 0.716612 0.150402
0.480712 0.716652 0.150182
0.517027 0.717380 0.149698
0.552583 0.717983 0.149003
0.589358 0.717814 0.148135
0.624804 0.718336 0.147074
0.660542 0.719676 0.145657
0.695905 0.720420 0.144189
0.729328 0.720407 0.142707
0.760701 0.720038 0.141154
0.790249 0.720725 0.139512
0.819815 0.721593 0.137527
0.849503 0.722486 0.135500
0.878731 0.723726 0.133222
0.903157 0.724550 0.131252
0.918140 0.726117 0.129842
0.925126 0.727676 0.129139
0.925480 0.728323 0.128969
0.000000 0.727811 0.123479
0.000000 0.727820 0.123479
0.000000 0.728098 0.123494
0.000000 0.728489 0.123723
0.000000 0.728564 0.123732
0.003880 0.729361 0.124463
0.038036 0.731488 0.129255
0.113770 0.735212 0.136460
0.185968 0.739922 0.143634
0.235899 0.742803 0.147685
0.286849 0.744744 0.149687
0.330517 0.746328 0.150473
0.369955 0.747274 0.150400
0.413115 0.747574 0.150188
0.453630 0.747332 0.149702
0.491164 0.747461 0.149007
0.527235 0.748579 0.148132
0.563568 0.749182 0.147080
0.599698 0.748749 0.145817
0.634935 0.749250 0.144334
0.670457 0.750955 0.142535
0.704894 0.751483 0.140773
0.737649 0.750884 0.139098
0.769268 0.750373 0.137242
0.799873 0.750849 0.135193
0.828540 0.751806 0.132963
0.856203 0.752682 0.130767
0.884904 0.752979 0.128437
0.910042 0.754092 0.126093
0.925959 0.755203 0.124584
0.933431 0.756454 0.123633
0.934208 0.758100 0.123203
0.000000 0.761022 0.131049
0.000000 0.761022 0.131049
0.000000 0.761028 0.131054
0.000000 0.761101 0.131128
0.000000 0.761322 0.131330
0.006860 0.763166 0.133392
0.055589 0.765632 0.138160
0.126956 0.769095 0.144205
0.197810 0.772708 0.148938
0.249429 0.774492 0.150204
0.301083 0.775251 0.150399
0.344705 0.775836 0.150195
0.383192 0.776614 0.149708
0.425337 0.777200 0.149082
0.465721 0.777073 0.148222
0.502869 0.777502 0.147086
0.538964 0.778462 0.145822
0.575292 0.778664 0.144429
0.610305 0.778195 0.142856
0.645169 0.778589 0.141023
0.680360 0.779587 0.139037
0.714101 0.780099 0.136961
0.745988 0.780130 0.134855
0.777102 0.779993 0.132691
0.808167 0.779818 0.130442
0.836433 0.780433 0.128040
0.862952 0.781343 0.125601
0.890155 0.781419 0.123305
0.915562 0.782135 0.120816
0.932781 0.782972 0.119054
0.941223 0.784366 0.117844
0.942203 0.786364 0.117319
0.000000 0.792154 0.137839
0.000000 0.792148 0.137839
0.000000 0.791981 0.137850
0.000000 0.791998 0.138029
0.003198 0.792397 0.138648
0.033545 0.794515 0.142479
0.091068 0.797493 0.146716
0.155811 0.799932 0.149353
0.219798 0.801373 0.150503
0.270072 0.801977 0.150327
0.316914 0.802711 0.149890
0.359921 0.803332 0.149255
0.399750 0.804120 0.148410
0.438643 0.805086 0.147296
0.477131 0.805545 0.146040
0.514447 0.805956 0.144601
0.550925 0.806175 0.143036
0.586552 0.805702 0.141344
0.621019 0.805042 0.139511
0.655359 0.805435 0.137418
0.690085 0.805681 0.135222
0.723104 0.805940 0.132861
0.754068 0.806762 0.130414
0.784099 0.807163 0.127966
0.814147 0.806696 0.125653
0.842479 0.806997 0.123047
0.869289 0.807779 0.120493
0.895232 0.808513 0.117883
0.919891 0.808261 0.115506
0.938303 0.808909 0.113525
0.948387 0.810207 0.112222
0.949072 0.811682 0.112041
0.000000 0.821206 0.143850
0.000000 0.821198 0.143850
0.000000 0.820950 0.143865
0.000000 0.820839 0.144170
0.008550 0.821756 0.145371
0.077115 0.824437 0.148912
0.144488 0.825608 0.150218
0.200127 0.826742 0.150401
0.246608 0.828216 0.150153
0.293627 0.828721 0.149508
0.335887 0.828974 0.148680
0.377263 0.829591 0.147550
0.418203 0.830309 0.146300
0.455883 0.830622 0.144853
0.492359 0.831245 0.143295
0.527648 0.831818 0.141596
0.562049 0.832098 0.139770
0.596748 0.831620 0.137819
0.631799 0.830685 0.135725
0.665804 0.830594 0.133483
0.699584 0.831031 0.130981
0.731883 0.831387 0.128418
0.762231 0.831453 0.125897
0.791562 0.830948 0.123376
0.820730 0.831472 0.120764
0.848536 0.831923 0.118020
0.875235 0.832293 0.115300
0.901652 0.833046 0.112379
0.924816 0.833141 0.109860
0.943562 0.833656 0.107803
0.954687 0.834347 0.106670
0.955083 0.834684 0.107543
0.000000 0.847800 0.148891
0.000000 0.847798 0.148891
0.000829 0.847742 0.148907
0.018272 0.847669 0.149193
0.075749 0.847814 0.149816
0.131725 0.850285 0.150360
0.189356 0.851460 0.150173
0.239227 0.852320 0.149488
0.279187 0.853241 0.148671
0.319087 0.853077 0.147805
0.358045 0.854070 0.146562
0.397663 0.854645 0.145106
0.437107 0.854582 0.143556
0.474364 0.854984 0.141769
0.510608 0.855514 0.139841
0.544080 0.856048 0.137973
0.575879 0.855938 0.136083
0.608470 0.855271 0.133962
0.641834 0.854982 0.131609
0.675180 0.855234 0.129145
0.707894 0.855631 0.126488
0.739805 0.855794 0.123624
0.770547 0.855465 0.120982
0.799773 0.854598 0.118320
0.826810 0.854895 0.120246
0.854018 0.855252 0.118077
0.881299 0.855504 0.114486
0.907608 0.855852 0.116319
0.930626 0.855948 0.120785
0.949419 0.856057 0.123643
0.960731 0.855804 0.126158
0.961070 0.855229 0.130482
0.043917 0.872189 0.150530
0.050854 0.872189 0.150523
0.065901 0.872176 0.150425
0.098919 0.871983 0.152130
0.154807 0.872136 0.155538
0.191738 0.873890 0.155019
0.234807 0.874765 0.154101
0.276482 0.875587 0.152794
0.312450 0.876229 0.150680
0.347420 0.876094 0.147774
0.384983 0.877151 0.145965
0.422172 0.877725 0.147826
0.458119 0.877771 0.149573
0.493562 0.878231 0.145718
0.527793 0.878240 0.141986
0.560172 0.878324 0.137591
0.591735 0.878174 0.137936
0.623539 0.877732 0.139407
0.655299 0.877742 0.137339
0.687251 0.878023 0.140015
0.718645 0.878167 0.138175
0.749477 0.878050 0.136914
0.779495 0.877640 0.138289
0.807915 0.877066 0.133751
0.834333 0.877141 0.138299
0.860991 0.877245 0.142055
0.887693 0.877294 0.141759
0.913251 0.877685 0.140124
0.935916 0.877742 0.147281
0.955050 0.877558 0.154491
0.966959 0.877073 0.160719
0.967317 0.876324 0.166828
0.134129 0.895317 0.162141
0.148321 0.895720 0.161928
0.167951 0.895506 0.161802
0.193060 0.895337 0.163969
0.222513 0.895927 0.169101
0.251443 0.896187 0.168267
0.282694 0.896348 0.170132
0.314855 0.896829 0.170761
0.346469 0.897724 0.167468
0.378694 0.898286 0.162112
0.415248 0.898805 0.159595
0.449510 0.899109 0.163197
0.481038 0.899579 0.166383
0.514040 0.900068 0.161773
0.545961 0.899654 0.159017
0.577060 0.899215 0.153904
0.608484 0.899300 0.154469
0.640005 0.899326 0.158203
0.670854 0.899120 0.158147
0.701292 0.899075 0.164686
0.731604 0.898958 0.164554
0.761214 0.898720 0.165162
0.789608 0.898295 0.169558
0.816809 0.898094 0.165782
0.843320 0.898263 0.169419
0.869141 0.897988 0.177277
0.894256 0.897909 0.181330
0.918538 0.898512 0.175665
0.940967 0.898602 0.179513
0.960371 0.898565 0.186913
0.972833 0.898288 0.194760
0.973414 0.898161 0.201316
0.213258 0.916767 0.197314
0.229533 0.917261 0.196835
0.247451 0.917462 0.196174
0.265437 0.917860 0.196018
0.282944 0.918001 0.195881
0.305297 0.917074 0.194382
0.327639 0.917163 0.204918
0.353798 0.917608 0.213118
0.383643 0.918388 0.210036
0.412060 0.919959 0.204109
0.446025 0.919959 0.200751
0.477541 0.919333 0.198220
0.505339 0.919484 0.194393
0.536174 0.920241 0.193682
0.568186 0.919768 0.199412
0.597557 0.919557 0.199943
0.625428 0.920013 0.194190
0.654896 0.920232 0.193307
