gsg/02_Everyday/GSG_LUT_Everyday_CoolMids.cube
# GSG LUTs 1.0
# Copyright (c) 2016-2020 Greyscalegorilla
# See EULA for licensing and distribution information
# Converted by Briz LUT Converter
LUT_3D_SIZE 5
DOMAIN_MIN 0.000000 0.000000 0.000000
DOMAIN_MAX 0.903226 0.903226 0.903226
0.000000 0.000000 0.000000
0.204553 0.009847 0.010099
0.378400 0.043160 0.040632
0.543346 0.093198 0.091622
0.698988 0.125543 0.147528
0.044956 0.186254 0.102832
0.175624 0.160766 0.045660
0.346540 0.156170 0.058754
0.511188 0.165658 0.099562
0.667654 0.175595 0.149908
0.105699 0.366915 0.217740
0.187260 0.335928 0.169962
0.312488 0.316541 0.133814
0.470380 0.319091 0.150215
0.626246 0.325850 0.189952
0.137666 0.550120 0.329442
0.205313 0.514885 0.286642
0.309378 0.496337 0.246056
0.440594 0.479864 0.227855
0.592352 0.483690 0.242168
0.177463 0.725157 0.455016
0.238341 0.689244 0.404948
0.327797 0.666197 0.358428
0.451762 0.646390 0.315672
0.587290 0.629403 0.297406
0.012179 0.005199 0.215266
0.143067 0.005738 0.131208
0.315348 0.032070 0.096542
0.482443 0.064888 0.089107
0.639308 0.105516 0.125352
0.054722 0.165487 0.172015
0.225984 0.247624 0.248157
0.382889 0.244748 0.226011
0.544426 0.246662 0.214231
0.697045 0.254298 0.217701
0.104709 0.344769 0.267913
0.233402 0.425497 0.352581
0.356525 0.409767 0.315259
0.512838 0.409359 0.298764
0.663594 0.414884 0.291313
0.116751 0.529788 0.380911
0.241589 0.607894 0.472565
0.360875 0.586334 0.431893
0.488168 0.570150 0.387375
0.649448 0.565885 0.362415
0.147397 0.705345 0.503509
0.302488 0.767760 0.574041
0.423346 0.739143 0.529904
0.541637 0.718547 0.473259
0.670567 0.698122 0.423310
0.000000 0.003348 0.426374
0.114031 0.009307 0.337704
0.259079 0.023427 0.255198
0.422927 0.053004 0.222884
0.579111 0.093218 0.208847
0.033962 0.176198 0.369773
0.187201 0.255999 0.447772
0.332651 0.270664 0.378903
0.488213 0.272403 0.349745
0.640996 0.278366 0.335074
0.105244 0.321098 0.337957
0.235359 0.413026 0.431175
0.399415 0.503762 0.524222
0.555065 0.503517 0.498265
0.714350 0.500878 0.471094
0.101464 0.506361 0.443200
0.235461 0.594929 0.541474
0.434440 0.670276 0.621693
0.573652 0.650816 0.575520
0.737830 0.642442 0.536116
0.125481 0.682813 0.562833
0.290438 0.754588 0.639221
0.497317 0.816493 0.699547
0.632886 0.791222 0.656542
0.757916 0.771818 0.600760
0.000000 0.005624 0.649904
0.000539 0.004201 0.567086
0.215865 0.016109 0.469632
0.366045 0.044660 0.382513
0.525472 0.071170 0.344969
0.000000 0.180990 0.591916
0.050983 0.262287 0.655409
0.282720 0.272215 0.591554
0.431975 0.288927 0.514630
0.586907 0.295989 0.480653
0.001941 0.335315 0.539245
0.172423 0.424267 0.629018
0.357764 0.514372 0.718972
0.509025 0.528650 0.661476
0.675224 0.526378 0.622144
0.086570 0.480300 0.519935
0.236379 0.573695 0.615562
0.439425 0.657740 0.699405
0.654506 0.720612 0.755893
0.818896 0.712823 0.719416
0.104032 0.658978 0.626066
0.284592 0.734759 0.702184
0.502401 0.803715 0.765376
0.707796 0.863898 0.818536
0.839482 0.843771 0.776740
0.000000 0.009721 0.841806
0.000000 0.008006 0.773175
0.047471 0.008188 0.693547
0.321342 0.030263 0.596959
0.464369 0.061074 0.514756
0.000000 0.185445 0.786293
0.000000 0.269368 0.836487
0.204576 0.272990 0.782533
0.390231 0.289010 0.713596
0.527370 0.310652 0.646333
0.000000 0.347311 0.739536
0.062052 0.432594 0.806483
0.317933 0.524162 0.886131
0.475976 0.531705 0.839437
0.627657 0.540905 0.771116
0.000000 0.494009 0.702122
0.176792 0.586976 0.787469
0.408049 0.666196 0.860263
0.633046 0.727660 0.912808
0.780720 0.732614 0.857976
0.079641 0.635583 0.691226
0.286003 0.713831 0.766501
0.508874 0.783367 0.827720
0.717224 0.849870 0.883125
0.904168 0.909705 0.927540
