gsg/02_Everyday/GSG_LUT_Everyday_BlushingMidtones.cube
# GSG LUTs 1.0
# Copyright (c) 2016-2020 Greyscalegorilla
# See EULA for licensing and distribution information
# Converted by Briz LUT Converter
LUT_3D_SIZE 8
DOMAIN_MIN 0.000000 0.000000 0.000000
DOMAIN_MAX 0.903226 0.903226 0.903226
0.000000 0.000000 0.000000
0.099027 0.000000 0.000000
0.211596 0.000000 0.000000
0.373193 0.000000 0.000000
0.543479 0.000000 0.000000
0.719367 0.000473 0.003592
0.863571 0.004734 0.012360
0.971050 0.012368 0.024420
0.016149 0.079916 0.003923
0.081977 0.076009 0.000930
0.208062 0.071738 0.001281
0.384795 0.067384 0.003665
0.560703 0.066888 0.005424
0.743575 0.075007 0.013006
0.891316 0.088181 0.025706
0.997536 0.102159 0.047022
0.052046 0.184497 0.023656
0.097956 0.183159 0.021207
0.196478 0.177554 0.019866
0.389407 0.169467 0.021127
0.570356 0.167141 0.026417
0.754873 0.168806 0.038379
0.905095 0.176397 0.053957
0.999350 0.186825 0.075490
0.010894 0.347009 0.055449
0.023194 0.344850 0.053171
0.127423 0.340138 0.052598
0.368902 0.331921 0.052317
0.567383 0.323761 0.059810
0.751015 0.320556 0.073758
0.902725 0.323802 0.087955
0.999265 0.327612 0.104125
0.000000 0.519855 0.083123
0.000000 0.516936 0.083123
0.032971 0.510238 0.083942
0.317182 0.503619 0.084525
0.550466 0.495420 0.087912
0.736509 0.488821 0.099718
0.888114 0.486615 0.113937
0.996952 0.486655 0.127519
0.000000 0.680736 0.096191
0.000000 0.678645 0.097924
0.000000 0.674188 0.097924
0.258930 0.668805 0.101387
0.519002 0.662369 0.103183
0.709370 0.656890 0.108730
0.862246 0.650602 0.120553
0.976930 0.648872 0.132939
0.000000 0.809075 0.086793
0.000000 0.807817 0.087578
0.000000 0.804482 0.091896
0.256985 0.800083 0.097590
0.504794 0.796102 0.105858
0.687113 0.792347 0.112115
0.836797 0.788419 0.124502
0.959341 0.783413 0.150793
0.000000 0.912151 0.128560
0.000000 0.908729 0.128995
0.002563 0.905070 0.133678
0.304968 0.901121 0.141593
0.517648 0.897121 0.149343
0.680925 0.894388 0.155701
0.819116 0.893144 0.163492
0.958593 0.888960 0.178952
0.000000 0.000000 0.063752
0.103375 0.000000 0.059876
0.215946 0.000032 0.059435
0.381327 0.000000 0.060741
0.552258 0.000000 0.069200
0.729167 0.001451 0.082557
0.874394 0.008474 0.100499
0.983021 0.019536 0.116460
0.016149 0.079412 0.076427
0.081651 0.075952 0.075598
0.208331 0.071738 0.072482
0.390634 0.066528 0.070912
0.577986 0.063142 0.071557
0.772727 0.066485 0.077662
0.933338 0.073706 0.088287
1.000000 0.086706 0.102495
0.053779 0.180803 0.092496
0.097959 0.182904 0.091047
0.196578 0.177075 0.087803
0.392551 0.170468 0.086918
0.580041 0.165398 0.087345
0.772927 0.165758 0.093949
0.933265 0.170089 0.104266
1.000000 0.178806 0.117148
0.013003 0.343687 0.110903
0.023057 0.344850 0.108445
0.127123 0.340511 0.106790
0.369539 0.332550 0.105017
0.572267 0.324878 0.108599
0.761761 0.321313 0.117237
0.919352 0.323291 0.127035
1.000000 0.325414 0.139364
0.000000 0.517838 0.122702
0.000000 0.519459 0.121509
0.031332 0.512648 0.121393
0.316347 0.505049 0.122571
0.552329 0.497245 0.124573
0.741871 0.490248 0.133660
0.897274 0.487710 0.144930
0.998805 0.487589 0.155734
0.000000 0.684292 0.122177
0.000000 0.681813 0.123088
0.000000 0.677564 0.124856
0.255264 0.671754 0.127209
0.520208 0.665405 0.130305
0.713054 0.659449 0.135395
0.867443 0.653744 0.151313
0.984266 0.650348 0.168553
0.000000 0.815205 0.141296
0.000000 0.812144 0.141425
0.000000 0.808723 0.145241
0.252169 0.804113 0.149452
0.504822 0.799799 0.154304
0.689155 0.795925 0.159489
0.840219 0.791518 0.168616
0.964062 0.787026 0.187230
0.000000 0.920414 0.164689
0.000000 0.917037 0.166039
0.000526 0.913103 0.171781
0.297243 0.907978 0.178738
0.515984 0.902697 0.186390
0.681775 0.898542 0.192638
0.820190 0.896829 0.199529
0.962964 0.892899 0.210819
0.000000 0.000000 0.151987
0.103817 0.000000 0.148080
0.219902 0.000000 0.147387
0.386575 0.000380 0.146054
0.558602 0.000030 0.151649
0.736783 0.002999 0.162748
0.882699 0.012870 0.177573
0.990654 0.024602 0.190284
0.016149 0.079557 0.166988
0.081552 0.076000 0.167518
0.208284 0.071982 0.164102
0.390521 0.067832 0.160725
0.578234 0.067416 0.160411
0.773144 0.070960 0.164715
0.934931 0.079057 0.173064
1.000000 0.091225 0.182795
0.055953 0.182764 0.179046
0.098295 0.180590 0.177532
0.196076 0.176683 0.175973
0.393348 0.170687 0.172228
0.586472 0.165066 0.171271
0.785991 0.164300 0.172395
0.952655 0.166161 0.177531
1.000000 0.173297 0.186668
0.015421 0.339998 0.195101
0.028376 0.340882 0.193590
0.125943 0.340658 0.189920
0.371691 0.332775 0.187233
0.577056 0.325559 0.186542
0.771995 0.321618 0.189575
0.937046 0.320660 0.195453
1.000000 0.322861 0.203914
0.000000 0.509142 0.211227
0.000000 0.512096 0.209000
0.028021 0.514883 0.202385
0.316121 0.507756 0.201295
0.555236 0.499489 0.201630
0.749188 0.492932 0.207154
0.910984 0.489360 0.214969
0.999937 0.488597 0.223280
0.000000 0.680862 0.224945
0.000000 0.685399 0.220120
0.000000 0.683262 0.218567
0.250323 0.676556 0.219636
0.521300 0.669548 0.220705
0.717338 0.663011 0.224563
0.876257 0.657645 0.233924
0.994652 0.654423 0.242554
0.000000 0.829822 0.234175
0.000000 0.826811 0.235121
0.000000 0.821114 0.237795
0.240078 0.812145 0.243291
0.504364 0.806057 0.246030
0.692657 0.801531 0.249838
0.846486 0.796946 0.254955
0.976109 0.792798 0.263848
0.000000 0.935838 0.255100
0.000000 0.932460 0.255115
0.000000 0.931377 0.254905
0.267334 0.923868 0.259898
0.509919 0.915846 0.267104
0.684793 0.909011 0.274599
0.826600 0.904410 0.280996
0.974811 0.901426 0.284285
0.000000 0.000095 0.284288
0.107945 0.000000 0.280531
0.223415 0.000135 0.280601
0.393098 0.000000 0.278540
0.567684 0.000503 0.279140
0.747072 0.008902 0.285137
0.895177 0.022104 0.296321
0.998247 0.039364 0.306826
0.019942 0.083249 0.303600
0.082970 0.078437 0.307048
0.208257 0.075362 0.303469
0.390676 0.071581 0.299134
0.579213 0.072479 0.296065
0.775615 0.079595 0.297904
0.937335 0.089955 0.303760
1.000000 0.101736 0.310516
0.057719 0.184497 0.315626
0.099636 0.183086 0.317442
0.194532 0.177559 0.317686
0.393346 0.172327 0.312952
0.586961 0.168283 0.309779
0.786054 0.168219 0.309504
0.953255 0.172171 0.312485
1.000000 0.181022 0.318087
0.016280 0.340943 0.334925
0.029351 0.340943 0.334925
0.130126 0.339746 0.334226
0.371395 0.333129 0.330767
0.580604 0.325820 0.326821
0.784716 0.320510 0.324041
0.957943 0.317097 0.324199
1.000000 0.317220 0.326874
0.000000 0.510331 0.354047
0.000000 0.511851 0.353909
0.033294 0.512041 0.352108
0.314537 0.509572 0.347899
0.557518 0.501443 0.344879
0.757092 0.494778 0.344250
0.929065 0.489675 0.343384
1.000000 0.487894 0.345963
0.000000 0.679542 0.373914
0.000000 0.680227 0.372550
0.000000 0.684115 0.369080
0.238748 0.682297 0.365274
0.521425 0.674104 0.362977
0.722058 0.667668 0.363019
0.887764 0.662070 0.365181
0.999088 0.658506 0.363300
0.000000 0.826498 0.388203
0.000000 0.827256 0.386408
0.000000 0.826905 0.384052
0.211774 0.823490 0.381453
0.500152 0.816559 0.380324
0.694960 0.808244 0.384130
0.854379 0.803398 0.385530
0.991271 0.801198 0.379400
0.000000 0.935838 0.403140
0.000000 0.932679 0.402341
0.000000 0.932187 0.402093
0.254965 0.929216 0.398526
0.502668 0.927624 0.395504
0.685203 0.923282 0.393567
0.832975 0.915690 0.397973
0.988478 0.912574 0.392398
0.000000 0.000244 0.419607
0.115219 0.000000 0.419005
0.227798 0.000183 0.418751
0.397993 0.000077 0.419135
0.577169 0.002603 0.417826
0.759975 0.011707 0.419804
0.908328 0.034419 0.426524
0.999525 0.053715 0.434518
0.024700 0.088022 0.445414
0.086726 0.081756 0.453096
0.208584 0.079824 0.449289
0.392879 0.077322 0.445598
0.582585 0.077299 0.441999
0.779735 0.087078 0.440361
0.942162 0.101891 0.443197
0.999874 0.113253 0.447472
0.062335 0.187985 0.460490
0.103012 0.184980 0.464209
0.196851 0.180093 0.467116
0.393271 0.175362 0.461936
0.586721 0.172471 0.457669
0.787382 0.174926 0.454635
0.954897 0.180940 0.456501
0.999874 0.189467 0.459066
0.016169 0.343905 0.480381
0.030047 0.343750 0.481608
0.133610 0.340772 0.484489
0.370385 0.333129 0.484206
0.580138 0.327841 0.479046
0.782331 0.323969 0.475547
0.955676 0.321309 0.474210
1.000000 0.322388 0.474286
0.000366 0.512561 0.502012
0.000362 0.512870 0.502777
0.036333 0.512089 0.503815
0.316023 0.508898 0.502376
0.557773 0.501880 0.498346
0.761009 0.495193 0.494845
0.931499 0.491013 0.493302
1.000000 0.490330 0.495430
0.000000 0.680584 0.523689
0.000000 0.681021 0.523689
0.000000 0.681523 0.523633
0.242178 0.681841 0.520793
0.520170 0.676607 0.516679
0.724694 0.669472 0.514746
0.894921 0.664498 0.512022
0.999365 0.660806 0.515269
0.000000 0.820810 0.543356
0.000000 0.823160 0.543319
0.000000 0.826967 0.541418
0.212052 0.823657 0.538396
0.498047 0.819315 0.535320
0.696603 0.814418 0.531572
0.859599 0.807926 0.529651
0.993889 0.803491 0.531308
0.000000 0.936059 0.558742
0.000000 0.935659 0.558553
0.000000 0.932235 0.557814
0.256722 0.930910 0.555535
0.503021 0.928221 0.553492
0.684593 0.924337 0.550631
0.835325 0.920435 0.546973
0.988934 0.913829 0.545981
0.003419 0.003907 0.552255
0.126540 0.003520 0.552830
0.237042 0.004270 0.553784
0.402970 0.004811 0.555315
0.583907 0.006896 0.558745
0.771548 0.018296 0.558049
0.922250 0.041933 0.559250
1.000000 0.066466 0.565000
0.033845 0.097221 0.584396
0.092611 0.089626 0.595999
0.213548 0.088416 0.594231
0.394821 0.087587 0.590268
0.583011 0.087146 0.587695
0.784503 0.094957 0.584231
0.948650 0.110639 0.583749
1.000000 0.125428 0.586266
0.069445 0.193650 0.603222
0.108562 0.190634 0.608924
0.198609 0.184140 0.616653
0.395304 0.180866 0.610862
0.587450 0.178820 0.606783
0.789095 0.180813 0.603079
0.956937 0.189531 0.600428
1.000000 0.198165 0.602165
0.017134 0.347611 0.623390
0.030821 0.346861 0.626599
0.139983 0.343240 0.632495
0.368745 0.333029 0.639603
0.579754 0.330800 0.630657
0.782398 0.327620 0.626069
0.954171 0.328205 0.623269
1.000000 0.330352 0.622606
0.000000 0.514512 0.646146
0.000000 0.514522 0.647557
0.040549 0.513211 0.651199
0.316132 0.509660 0.654758
0.556929 0.501712 0.652719
0.760975 0.496695 0.647020
0.932551 0.493260 0.644081
1.000000 0.494175 0.643257
0.000280 0.681523 0.669226
0.000280 0.682022 0.669538
0.000379 0.682865 0.669877
0.251703 0.681046 0.671479
0.520316 0.676536 0.669115
0.725061 0.670417 0.665481
0.894836 0.664747 0.662667
0.999455 0.663811 0.663079
0.000036 0.820056 0.687971
0.000036 0.820419 0.688284
0.000036 0.823160 0.688534
0.215654 0.823302 0.687707
0.497844 0.819528 0.684575
0.696089 0.814980 0.681320
0.860009 0.809855 0.677510
0.993901 0.804598 0.679820
0.000000 0.935845 0.704510
0.000000 0.936030 0.704510
0.000000 0.932469 0.701507
0.259941 0.931881 0.701243
0.504289 0.928228 0.698889
0.685016 0.924330 0.696880
0.835149 0.920435 0.693318
0.988911 0.916152 0.692309
0.010327 0.010784 0.656576
0.138223 0.010972 0.659522
0.247083 0.014014 0.660675
0.409681 0.016713 0.662998
0.587268 0.019861 0.667549
0.780000 0.026192 0.672307
0.934012 0.052551 0.671469
1.000000 0.077315 0.675073
0.045484 0.106248 0.695476
0.100351 0.098296 0.711072
0.219781 0.098184 0.710044
0.398419 0.099656 0.706194
0.586464 0.102217 0.703405
0.788072 0.103604 0.703204
0.953459 0.119678 0.702215
1.000000 0.136399 0.702887
0.076973 0.199993 0.717169
0.115002 0.196146 0.726821
0.199670 0.185478 0.743546
0.397263 0.187070 0.732565
0.588808 0.187314 0.726735
0.790988 0.188035 0.723780
0.960254 0.195896 0.721429
1.000000 0.206459 0.719883
0.019503 0.352079 0.738176
0.032804 0.351709 0.743039
0.141886 0.344606 0.758144
0.367868 0.332567 0.770216
0.580732 0.328580 0.760410
0.782958 0.330728 0.750773
0.954250 0.333522 0.745937
1.000000 0.337729 0.744398
0.000000 0.517841 0.762910
0.000000 0.517770 0.765596
0.041625 0.515774 0.774789
0.310854 0.509551 0.785985
0.556539 0.501453 0.781428
0.762408 0.494158 0.776289
0.933980 0.494517 0.769144
1.000000 0.497415 0.766795
0.000335 0.683257 0.787420
0.000335 0.683573 0.788701
0.000466 0.684100 0.792143
0.248304 0.682740 0.797314
0.518063 0.676634 0.797747
0.724552 0.669941 0.792923
0.895648 0.665555 0.788453
0.999455 0.665769 0.786912
0.000213 0.822592 0.807049
0.000171 0.822592 0.807624
0.000171 0.822630 0.808394
0.234694 0.822687 0.810731
0.498233 0.819728 0.809183
0.695034 0.815208 0.806837
0.859488 0.810517 0.803582
0.993870 0.807010 0.803010
0.000877 0.933125 0.823979
0.000706 0.935728 0.824015
0.000871 0.933243 0.823795
0.263788 0.932152 0.823188
0.506634 0.928265 0.820398
0.685563 0.924362 0.819196
0.835166 0.920455 0.816209
0.988911 0.916525 0.815416
0.015117 0.022734 0.732420
0.150296 0.022333 0.737062
0.258237 0.022662 0.737595
0.416240 0.031277 0.742919
0.590705 0.035357 0.748179
0.783870 0.042030 0.755324
0.941811 0.061058 0.756094
1.000000 0.086313 0.756370
0.057633 0.117533 0.776130
0.107940 0.106140 0.799430
0.226265 0.106725 0.796199
0.403429 0.110637 0.791436
0.588048 0.113680 0.791188
0.788214 0.117797 0.791376
0.958626 0.125948 0.791275
1.000000 0.145160 0.787659
0.083448 0.207524 0.800597
0.119824 0.202161 0.813759
0.200618 0.187043 0.840938
0.399802 0.188727 0.826789
0.590552 0.193069 0.818863
0.791418 0.196664 0.814321
0.963625 0.202076 0.812085
1.000000 0.214166 0.808781
0.020536 0.358752 0.822964
0.031601 0.355576 0.831399
0.140029 0.345469 0.857267
0.367870 0.332610 0.869226
0.581047 0.324836 0.863197
0.787126 0.326120 0.850568
0.958791 0.332174 0.842354
1.000000 0.342873 0.836221
0.000000 0.521733 0.849291
0.000098 0.519954 0.856092
0.035164 0.516770 0.872960
0.308834 0.509678 0.884578
0.556025 0.501311 0.880505
0.762238 0.493169 0.875415
0.940684 0.486681 0.870694
1.000000 0.497426 0.861924
0.000000 0.685431 0.877197
0.000000 0.685449 0.881003
0.000006 0.686996 0.889599
0.226316 0.683861 0.899909
0.516897 0.676565 0.896124
0.724034 0.669657 0.891840
0.897794 0.664142 0.887914
0.999648 0.667190 0.881541
0.002480 0.823708 0.899313
0.002430 0.824191 0.901056
0.002393 0.826311 0.905603
0.192042 0.826814 0.911777
0.492514 0.821125 0.908529
0.694099 0.815290 0.904984
0.859780 0.809067 0.901505
0.993816 0.808071 0.897410
0.000043 0.932194 0.916743
0.000043 0.932835 0.916768
0.000059 0.935302 0.919487
0.264276 0.932695 0.917246
0.505382 0.928821 0.916845
0.685262 0.925304 0.915868
0.834913 0.921150 0.912902
0.988911 0.916797 0.911852
