gsg/02_Everyday/GSG_LUT_Everyday_WarmFuzzies.cube
# GSG LUTs 1.0
# Copyright (c) 2016-2020 Greyscalegorilla
# See EULA for licensing and distribution information
# Converted by Briz LUT Converter
LUT_3D_SIZE 32
0.087179 0.087179 0.087179
0.097609 0.087944 0.087944
0.111174 0.088952 0.088952
0.128118 0.089984 0.089984
0.148001 0.091244 0.091528
0.167506 0.092505 0.094821
0.186207 0.093765 0.096837
0.205443 0.095081 0.099240
0.225294 0.096530 0.102328
0.245216 0.097861 0.103974
0.270298 0.099453 0.107487
0.296073 0.101217 0.111434
0.320903 0.102982 0.115499
0.346567 0.104746 0.120343
0.373083 0.106511 0.125527
0.401607 0.108393 0.130332
0.430596 0.110536 0.138020
0.458443 0.112537 0.145914
0.486029 0.114301 0.150073
0.513656 0.116216 0.154098
0.542960 0.118232 0.160684
0.572051 0.120249 0.167175
0.599496 0.122266 0.172626
0.625743 0.124101 0.178644
0.650951 0.125866 0.184001
0.676695 0.127630 0.188255
0.701635 0.129190 0.192288
0.723786 0.130702 0.197385
0.747009 0.132435 0.200473
0.769081 0.133971 0.204845
0.791248 0.135484 0.210800
0.815140 0.137241 0.218315
0.089015 0.094033 0.088243
0.102674 0.093803 0.089976
0.117609 0.094819 0.091244
0.133894 0.096508 0.092773
0.151802 0.097785 0.094546
0.169826 0.098982 0.096434
0.188805 0.099657 0.099038
0.208260 0.099739 0.101985
0.227906 0.099781 0.104500
0.248132 0.101037 0.106568
0.270395 0.100934 0.109659
0.294623 0.101345 0.113264
0.320402 0.103060 0.117108
0.346374 0.104772 0.121792
0.372894 0.106519 0.126456
0.401067 0.108401 0.131837
0.429930 0.110418 0.138842
0.458536 0.112435 0.146072
0.486836 0.114447 0.152093
0.514060 0.116315 0.156935
0.544086 0.118393 0.163415
0.573453 0.120493 0.169076
0.600221 0.122336 0.173283
0.626793 0.124101 0.178402
0.652200 0.125866 0.183196
0.677140 0.127630 0.188529
0.701470 0.129196 0.194070
0.723796 0.130710 0.198530
0.747490 0.132436 0.201738
0.770744 0.133986 0.205901
0.793706 0.140615 0.211352
0.817653 0.157415 0.218606
0.093111 0.102351 0.091016
0.106895 0.101641 0.092252
0.121299 0.101402 0.093261
0.137220 0.102191 0.094591
0.155455 0.103929 0.096597
0.172492 0.105636 0.098673
0.190785 0.106753 0.100893
0.209921 0.106696 0.103120
0.229075 0.106121 0.105456
0.249197 0.107021 0.108174
0.272501 0.106214 0.111374
0.296891 0.105670 0.114898
0.321810 0.105779 0.118709
0.348017 0.105849 0.123288
0.374667 0.106934 0.128456
0.402954 0.108702 0.133846
0.431817 0.110662 0.139201
0.460033 0.112671 0.145376
0.487966 0.114555 0.152412
0.514930 0.116466 0.158631
0.544807 0.118477 0.164792
0.574178 0.120493 0.170358
0.600995 0.122348 0.175124
0.627371 0.124117 0.180216
0.653070 0.125881 0.185140
0.677545 0.127633 0.190682
0.701527 0.129395 0.196035
0.725115 0.130946 0.199821
0.748746 0.132630 0.203818
0.771737 0.134883 0.207883
0.794972 0.146454 0.212894
0.819969 0.177628 0.220119
0.098176 0.110575 0.093623
0.110290 0.110518 0.094745
0.124253 0.109717 0.095626
0.140781 0.109581 0.096949
0.159129 0.110701 0.098728
0.175340 0.112710 0.100985
0.193003 0.114451 0.102487
0.211895 0.114711 0.104169
0.231051 0.114073 0.106649
0.250709 0.115547 0.110213
0.274735 0.115278 0.113671
0.299457 0.113855 0.117112
0.323930 0.112284 0.120866
0.349919 0.111154 0.125221
0.376439 0.110267 0.130476
0.404631 0.109871 0.135518
0.433457 0.110761 0.140076
0.461522 0.112671 0.145419
0.489292 0.114687 0.151927
0.516065 0.116554 0.158982
0.544958 0.118477 0.164871
0.574328 0.120493 0.170476
0.601984 0.122510 0.176364
0.628151 0.124345 0.181523
0.653601 0.126110 0.186503
0.678088 0.127677 0.191502
0.701926 0.129395 0.196309
0.726336 0.130946 0.199901
0.749453 0.135810 0.204251
0.772294 0.143444 0.208938
0.796545 0.160464 0.214546
0.823041 0.194131 0.221395
0.103060 0.118642 0.094852
0.113083 0.120775 0.097011
0.128683 0.121399 0.098759
0.146203 0.120911 0.100221
0.162670 0.119843 0.101245
0.177917 0.121824 0.102603
0.195822 0.123292 0.104097
0.215322 0.123699 0.106406
0.235063 0.123695 0.109740
0.254300 0.126703 0.113585
0.276275 0.127563 0.117114
0.300499 0.125646 0.120458
0.325766 0.123568 0.123972
0.351184 0.122864 0.128008
0.377418 0.118733 0.131825
0.404829 0.113619 0.136608
0.433200 0.111696 0.142483
0.461844 0.113059 0.147558
0.490157 0.114767 0.152003
0.517399 0.116574 0.158979
0.545016 0.118508 0.164307
0.573838 0.120525 0.169747
0.602545 0.122519 0.176410
0.629447 0.124345 0.180778
0.654385 0.126110 0.185035
0.679017 0.127957 0.189647
0.703199 0.130243 0.194361
0.726424 0.132715 0.198798
0.749444 0.145129 0.203018
0.773561 0.164878 0.209093
0.799059 0.186917 0.215865
0.826224 0.206357 0.221458
0.105747 0.132081 0.097940
0.119021 0.135068 0.099340
0.133504 0.135268 0.101012
0.149200 0.134066 0.102450
0.165900 0.133097 0.103349
0.182446 0.135359 0.105483
0.199733 0.137461 0.107480
0.218568 0.138913 0.110249
0.238470 0.139783 0.114079
0.258166 0.140124 0.117590
0.280292 0.140655 0.121147
0.304035 0.140229 0.124416
0.329239 0.138400 0.128085
0.355636 0.135981 0.132568
0.381742 0.132471 0.136075
0.408922 0.127113 0.140965
0.436463 0.121567 0.146348
0.463606 0.118508 0.150453
0.490891 0.117853 0.154923
0.518412 0.118793 0.161389
0.547355 0.119798 0.167150
0.576193 0.121368 0.172629
0.603572 0.123574 0.178634
0.629230 0.125721 0.183482
0.655279 0.128116 0.186869
0.680145 0.132391 0.191737
0.703705 0.139239 0.197660
0.727799 0.149378 0.202928
0.752850 0.167972 0.208272
0.777331 0.189099 0.214221
0.801940 0.210760 0.220901
0.827217 0.231344 0.228036
0.112049 0.146040 0.102777
0.124671 0.147773 0.103407
0.139427 0.148204 0.104680
0.154639 0.147526 0.106054
0.169249 0.147050 0.106873
0.187239 0.149223 0.109630
0.203746 0.151094 0.111063
0.221697 0.152717 0.113616
0.241900 0.153876 0.117929
0.262046 0.154108 0.121383
0.284641 0.154217 0.125101
0.308726 0.153874 0.128436
0.333714 0.152362 0.132404
0.359616 0.150787 0.137197
0.386047 0.150048 0.140591
0.413288 0.145701 0.145066
0.440537 0.140521 0.149506
0.467309 0.137882 0.153556
0.494187 0.135811 0.158801
0.520965 0.133997 0.164425
0.549591 0.129103 0.170117
0.577998 0.127999 0.175335
0.605018 0.132251 0.179971
0.631551 0.136749 0.183737
0.657267 0.143104 0.188267
0.681941 0.150822 0.193863
0.706386 0.161994 0.199787
0.732105 0.180386 0.205478
0.756887 0.195713 0.211214
0.781081 0.213836 0.217007
0.805232 0.233813 0.223141
0.829485 0.253307 0.229107
0.117523 0.160629 0.107432
0.131059 0.161478 0.107361
0.145992 0.161661 0.108629
0.160356 0.161343 0.109932
0.173079 0.161695 0.110830
0.190884 0.163387 0.113537
0.207485 0.164533 0.115463
0.225318 0.165640 0.117740
0.245331 0.167014 0.121078
0.265549 0.167954 0.124653
0.288881 0.167714 0.128526
0.313616 0.167713 0.132364
0.338428 0.167431 0.136693
0.363585 0.167175 0.141446
0.389812 0.168721 0.144979
0.417303 0.165810 0.148865
0.444824 0.162638 0.152955
0.471926 0.162538 0.157742
0.498981 0.161170 0.163550
0.524898 0.158527 0.167980
0.553449 0.152978 0.173509
0.581969 0.151180 0.178892
0.608769 0.155034 0.182716
0.635805 0.160619 0.186328
0.661126 0.169507 0.191802
0.685539 0.180200 0.197527
0.710603 0.193826 0.202995
0.737304 0.212918 0.208949
0.760718 0.222887 0.214657
0.784517 0.237696 0.220287
0.808407 0.255830 0.225731
0.831699 0.272780 0.230407
0.121557 0.176194 0.111024
0.137949 0.176957 0.110449
0.151479 0.176404 0.111741
0.164202 0.176131 0.113435
0.177795 0.177336 0.114609
0.193557 0.178118 0.117080
0.211219 0.178425 0.120185
0.229857 0.179155 0.122472
0.248814 0.180594 0.124103
0.269298 0.181403 0.127714
0.293268 0.181400 0.131799
0.318016 0.182931 0.136139
0.342681 0.184658 0.140427
0.367974 0.184924 0.144752
0.393709 0.186291 0.149187
0.421141 0.185012 0.153104
0.449118 0.184020 0.157421
0.476671 0.185471 0.162978
0.504116 0.186319 0.168441
0.530114 0.186186 0.172233
0.559186 0.187891 0.177705
0.588018 0.189431 0.183391
0.614461 0.190764 0.187898
0.640883 0.195623 0.192869
0.666530 0.202950 0.198051
0.690830 0.213972 0.203069
0.715041 0.226842 0.208098
0.741040 0.238286 0.213990
0.763804 0.247093 0.219528
0.787365 0.260835 0.224609
0.811182 0.276700 0.229651
0.834283 0.290425 0.234440
0.129489 0.192540 0.116129
0.142845 0.192127 0.114403
0.154094 0.192296 0.115429
0.166491 0.192773 0.117297
0.182564 0.193030 0.118860
0.199264 0.193709 0.121290
0.216235 0.194943 0.123949
0.234229 0.195997 0.126293
0.253952 0.196226 0.128991
0.275644 0.196507 0.132701
0.298892 0.197993 0.136382
0.322636 0.200515 0.139953
0.347179 0.202406 0.143219
0.373138 0.202934 0.147518
0.399340 0.203776 0.153175
0.426303 0.204952 0.158108
0.453869 0.205603 0.162483
0.481524 0.206268 0.167236
0.508896 0.207926 0.172094
0.535598 0.209162 0.176837
0.563660 0.212302 0.181757
0.591585 0.216516 0.186800
0.618396 0.221122 0.191982
0.645256 0.227686 0.197471
0.670606 0.233573 0.202568
0.694939 0.241935 0.207103
0.718788 0.252345 0.211850
0.742824 0.262310 0.218079
0.766255 0.272924 0.221750
0.789851 0.284821 0.226559
0.813945 0.296840 0.231665
0.838284 0.308023 0.235378
0.135634 0.209666 0.122289
0.147707 0.209516 0.118469
0.158767 0.210015 0.118623
0.170997 0.210343 0.121035
0.186419 0.209946 0.123859
0.203695 0.211010 0.125413
0.220551 0.212730 0.127275
0.239039 0.213451 0.130260
0.259957 0.213009 0.134136
0.281546 0.214077 0.136800
0.305131 0.215472 0.140255
0.329373 0.217250 0.144277
0.353508 0.219090 0.148236
0.378304 0.221196 0.152446
0.404809 0.223838 0.157162
0.432271 0.225454 0.161756
0.459788 0.226422 0.165960
0.487184 0.228464 0.170668
0.514295 0.231378 0.176089
0.540785 0.233776 0.181198
0.569045 0.238322 0.185494
0.596774 0.243954 0.190439
0.622952 0.249044 0.196020
0.649561 0.254139 0.201112
0.674440 0.260079 0.206363
0.698641 0.268265 0.210232
0.722702 0.278103 0.214228
0.746161 0.288112 0.221116
0.769671 0.297181 0.223663
0.792902 0.307245 0.228178
0.816574 0.317654 0.233440
0.841167 0.327669 0.236213
0.141778 0.227311 0.126110
0.153354 0.226715 0.123603
0.164399 0.227047 0.123685
0.176584 0.227425 0.126023
0.191591 0.227513 0.129548
0.208427 0.229124 0.129636
0.225387 0.230555 0.130741
0.243918 0.231181 0.134089
0.264355 0.231523 0.138541
0.285406 0.233220 0.139923
0.309372 0.234939 0.143773
0.334926 0.236140 0.148959
0.359960 0.237560 0.153511
0.384228 0.240937 0.157195
0.410376 0.244713 0.161714
0.437678 0.246557 0.165941
0.465325 0.247619 0.169885
0.492527 0.250423 0.174444
0.519211 0.254296 0.179696
0.546196 0.257995 0.185218
0.574787 0.263132 0.189896
0.602253 0.269072 0.194147
0.627978 0.274551 0.198642
0.653937 0.279216 0.203512
0.678187 0.285411 0.208984
0.702117 0.292893 0.213406
0.726356 0.301388 0.217316
0.750823 0.311088 0.222141
0.773317 0.318344 0.224715
0.795716 0.327360 0.229103
0.818775 0.337390 0.234018
0.842924 0.347229 0.237134
0.142345 0.246280 0.127780
0.155069 0.244857 0.127920
0.166557 0.245002 0.128918
0.179581 0.245870 0.130762
0.195828 0.246939 0.133494
0.211062 0.248297 0.133402
0.229337 0.248963 0.134378
0.248456 0.249908 0.137510
0.267624 0.251624 0.141726
0.288782 0.253354 0.142762
0.312889 0.255883 0.147326
0.338516 0.257482 0.153046
0.364196 0.258784 0.156809
0.389650 0.262239 0.159550
0.415591 0.265439 0.165179
0.442210 0.267632 0.169705
0.469939 0.269263 0.173876
0.497192 0.272080 0.178661
0.523463 0.276348 0.182986
0.551399 0.280775 0.188027
0.579692 0.286005 0.193320
0.606761 0.291758 0.197523
0.632703 0.297542 0.201131
0.657674 0.303513 0.205250
0.681876 0.309895 0.210682
0.705720 0.316195 0.216130
0.729811 0.322863 0.220252
0.754916 0.330589 0.221915
0.776455 0.337909 0.225844
0.798298 0.347254 0.230131
0.821175 0.357213 0.234325
0.844941 0.366009 0.238552
0.131490 0.267147 0.130245
0.147239 0.266594 0.130104
0.161985 0.267092 0.131405
0.177741 0.268061 0.133272
0.195056 0.268605 0.134691
0.209259 0.268962 0.135901
0.229986 0.269964 0.137284
0.251720 0.271238 0.140311
0.271533 0.272559 0.144430
0.293728 0.274617 0.145892
0.318196 0.276747 0.150498
0.342532 0.278639 0.155661
0.366923 0.280973 0.158550
0.393347 0.284207 0.160776
0.419985 0.286740 0.166235
0.446903 0.288787 0.170735
0.474421 0.291279 0.175578
0.501478 0.294826 0.181677
0.528001 0.298872 0.186397
0.555777 0.302895 0.189848
0.583621 0.308830 0.194572
0.610683 0.314366 0.200413
0.636510 0.319150 0.205309
0.660777 0.325629 0.207935
0.685534 0.332118 0.212286
0.709890 0.338446 0.217189
0.733586 0.344841 0.221220
0.757334 0.350947 0.223597
0.779588 0.359167 0.227973
0.801528 0.368950 0.232010
0.824305 0.378291 0.236138
0.848525 0.385112 0.240868
0.120682 0.288117 0.131711
0.137619 0.288365 0.132435
0.154566 0.289229 0.133713
0.172586 0.289915 0.135200
0.191944 0.289819 0.136243
0.208364 0.290784 0.137520
0.229994 0.292507 0.139040
0.252791 0.293907 0.142530
0.274275 0.294761 0.147112
0.297146 0.296631 0.148182
0.322313 0.298413 0.152653
0.347047 0.300303 0.157651
0.371637 0.303190 0.160755
0.398182 0.306481 0.163098
0.424775 0.308462 0.167270
0.452127 0.311093 0.171179
0.479181 0.314585 0.176095
0.505447 0.317993 0.182967
0.532327 0.321500 0.189112
0.559870 0.325588 0.192518
0.587830 0.331370 0.196604
0.614940 0.336776 0.202352
0.640585 0.341541 0.207602
0.664787 0.348071 0.210502
0.689560 0.353438 0.213986
0.714152 0.359203 0.218394
0.737877 0.365847 0.223004
0.761029 0.372588 0.227260
0.783224 0.380751 0.230174
0.804961 0.389266 0.233422
0.827480 0.397300 0.237433
0.852227 0.404096 0.242444
0.116231 0.311922 0.131522
0.128382 0.311242 0.132892
0.141875 0.311654 0.133917
0.159981 0.312243 0.135077
0.184398 0.312708 0.136390
0.207452 0.314680 0.137527
0.229969 0.315771 0.140253
0.252605 0.316678 0.144382
0.276052 0.318046 0.148409
0.300390 0.319477 0.149356
0.325890 0.321144 0.153783
0.351083 0.323326 0.158392
0.376330 0.326412 0.161166
0.402872 0.329578 0.163820
0.429499 0.331411 0.167912
0.456711 0.334072 0.172079
0.483496 0.337491 0.176872
0.509782 0.340645 0.183097
0.536527 0.344282 0.189523
0.563244 0.349264 0.195241
0.591104 0.353937 0.199542
0.618387 0.358811 0.203570
0.644111 0.364432 0.207422
0.668622 0.369984 0.210097
0.693204 0.374094 0.213953
0.717522 0.379812 0.218647
0.741214 0.387123 0.223739
0.764561 0.394786 0.229115
0.786557 0.402050 0.232510
0.807909 0.408916 0.235322
0.830044 0.416082 0.238354
0.854795 0.424688 0.242979
0.117744 0.335870 0.130135
0.122377 0.334665 0.130986
0.129519 0.334459 0.131506
0.146360 0.334991 0.132479
0.176974 0.336025 0.134264
0.202967 0.337957 0.135917
0.227338 0.338812 0.141026
0.251320 0.339760 0.145475
0.275938 0.341616 0.147128
0.301691 0.343083 0.149141
0.328192 0.344880 0.153738
0.354206 0.347237 0.158876
0.379957 0.350290 0.161617
0.406759 0.353253 0.163401
0.433419 0.355290 0.168299
0.460004 0.357470 0.173453
0.487505 0.359979 0.178376
0.514949 0.362897 0.183389
0.541036 0.366810 0.188507
0.567355 0.372183 0.195013
0.594613 0.376189 0.200860
0.621367 0.380445 0.204993
0.647099 0.385985 0.208146
0.672115 0.390695 0.210601
0.696469 0.395683 0.213872
0.720571 0.401438 0.218294
0.744133 0.408041 0.223361
0.767240 0.415911 0.228737
0.789317 0.422655 0.232246
0.810917 0.428399 0.236013
0.832703 0.434638 0.239964
0.856056 0.443216 0.243988
0.120533 0.359156 0.130364
0.121245 0.358387 0.128987
0.124246 0.358028 0.128614
0.138421 0.358163 0.129350
0.169058 0.358651 0.131428
0.195580 0.360185 0.135295
0.222668 0.361815 0.141025
0.249313 0.363432 0.144260
0.275139 0.365265 0.144380
0.302254 0.366931 0.149026
0.330336 0.368817 0.153292
0.357494 0.371137 0.158684
0.383700 0.373753 0.162468
0.410668 0.376210 0.163747
0.437505 0.378429 0.168545
0.464124 0.380519 0.173837
0.492149 0.382731 0.179005
0.519866 0.385306 0.183841
0.545582 0.388675 0.188123
0.572111 0.393458 0.192789
0.598991 0.398053 0.199212
0.625358 0.402351 0.205338
0.651157 0.406907 0.210071
0.676077 0.411470 0.213414
0.700201 0.417397 0.215557
0.724237 0.423039 0.218559
0.747684 0.428564 0.222716
0.770022 0.435516 0.228096
0.792080 0.442273 0.231161
0.814022 0.447823 0.235734
0.835846 0.453232 0.241230
0.858017 0.460081 0.246540
0.123557 0.384143 0.131561
0.123185 0.382578 0.127988
0.124051 0.381959 0.126928
0.132854 0.381786 0.127362
0.155527 0.381627 0.129221
0.187792 0.383426 0.135482
0.218625 0.385218 0.139424
0.247669 0.387248 0.140829
0.275325 0.389322 0.142136
0.304576 0.390525 0.149009
0.333403 0.392548 0.152595
0.361290 0.394803 0.156703
0.388043 0.396787 0.161231
0.414913 0.398705 0.164114
0.442448 0.401120 0.168296
0.469613 0.403279 0.172827
0.496882 0.405621 0.177775
0.523793 0.407990 0.182950
0.549702 0.410510 0.187643
0.575807 0.414762 0.191681
0.602936 0.419777 0.196738
0.629985 0.424382 0.203171
0.656024 0.428713 0.209622
0.680333 0.432969 0.214490
0.704344 0.437909 0.217548
0.728095 0.443602 0.219524
0.751135 0.449559 0.222099
0.773340 0.455071 0.227174
0.794905 0.461320 0.231754
0.816662 0.466942 0.236151
0.838721 0.472526 0.241350
0.861184 0.478908 0.248998
0.126283 0.408452 0.129024
0.125944 0.406176 0.127252
0.126072 0.405442 0.126801
0.128491 0.404959 0.126903
0.138699 0.404201 0.127602
0.177923 0.406594 0.131961
0.213842 0.408560 0.134805
0.245947 0.410931 0.137678
0.275412 0.413407 0.141892
0.306558 0.414317 0.146497
0.335466 0.416045 0.150434
0.363614 0.418073 0.154034
0.391294 0.419941 0.158393
0.418646 0.422143 0.163464
0.446436 0.424616 0.167413
0.473662 0.426401 0.171101
0.500508 0.428873 0.175118
0.527325 0.431764 0.180069
0.553602 0.433983 0.185736
0.578682 0.437049 0.190612
0.606375 0.441376 0.194639
0.633853 0.445778 0.199889
0.659235 0.449833 0.206715
0.683654 0.453739 0.213589
0.708089 0.458575 0.218311
0.731524 0.464309 0.220665
0.754044 0.470409 0.222404
0.776779 0.475802 0.225443
0.797886 0.480670 0.230486
0.819489 0.486008 0.236406
0.841495 0.491780 0.242665
0.863563 0.497018 0.249218
0.129276 0.433251 0.129276
0.129027 0.431095 0.129027
0.128875 0.430192 0.128875
0.128866 0.429522 0.128866
0.133472 0.429135 0.129074
0.171280 0.430941 0.131395
0.210262 0.432903 0.134044
0.244340 0.435590 0.137447
0.272756 0.438359 0.141344
0.305966 0.438907 0.144516
0.337365 0.440353 0.147805
0.367343 0.442008 0.152668
0.395491 0.443901 0.157934
0.422592 0.446694 0.161531
0.450495 0.448903 0.166209
0.477332 0.450426 0.171164
0.503609 0.453110 0.173636
0.530505 0.456339 0.175646
0.557185 0.458760 0.180803
0.582869 0.461357 0.188041
0.610961 0.464217 0.192943
0.638154 0.467864 0.197914
0.662915 0.472171 0.205133
0.687736 0.476018 0.212943
0.711179 0.481082 0.216714
0.734494 0.486444 0.219397
0.757571 0.491694 0.222200
0.779634 0.496643 0.224478
0.800315 0.501495 0.231802
0.822178 0.506157 0.238512
0.844114 0.511426 0.243405
0.865012 0.517563 0.245847
0.132223 0.457387 0.132223
0.132136 0.456234 0.132136
0.131900 0.455423 0.131900
0.131900 0.455040 0.131900
0.134668 0.455020 0.132066
0.159700 0.455612 0.133585
0.200814 0.457379 0.136201
0.241298 0.460064 0.139096
0.272317 0.462473 0.141737
0.305969 0.462848 0.144628
0.339283 0.464725 0.146974
0.370660 0.466337 0.151566
0.399129 0.467854 0.156903
0.426147 0.470482 0.159776
0.453957 0.472445 0.163852
0.481027 0.474128 0.169179
0.507589 0.476730 0.172778
0.534341 0.479629 0.174832
0.560830 0.481883 0.179149
0.587166 0.484617 0.186644
0.614823 0.486939 0.191657
0.641595 0.489772 0.196939
0.666555 0.493759 0.204444
0.691084 0.497867 0.211054
0.714176 0.502781 0.214806
0.737368 0.507591 0.218219
0.760378 0.512086 0.221750
0.782403 0.516465 0.224359
0.803001 0.521494 0.231850
0.824554 0.526167 0.238486
0.846149 0.531343 0.243000
0.866934 0.537847 0.244697
0.134995 0.480830 0.134995
0.134993 0.480247 0.134993
0.134925 0.479523 0.134925
0.134908 0.479277 0.134908
0.135426 0.479076 0.134788
0.146391 0.479011 0.135457
0.189486 0.480712 0.138251
0.238599 0.483148 0.141328
0.275555 0.484861 0.143831
0.308326 0.485812 0.145959
0.341336 0.488030 0.148140
0.372722 0.489569 0.150715
0.401556 0.490701 0.154580
0.429145 0.493166 0.158692
0.456694 0.495073 0.161271
0.484442 0.496837 0.165188
0.511915 0.499179 0.170851
0.538524 0.501563 0.175899
0.564672 0.503432 0.180304
0.590858 0.506018 0.186373
0.617310 0.508730 0.190626
0.643828 0.511098 0.195372
0.669585 0.513855 0.202100
0.693356 0.518025 0.208030
0.717147 0.522430 0.213039
0.740098 0.526781 0.217474
0.762343 0.531226 0.221442
0.785276 0.535539 0.224629
0.806496 0.540173 0.229436
0.827068 0.545115 0.235364
0.848103 0.550556 0.241404
0.869723 0.555965 0.245973
0.137950 0.505542 0.137950
0.137762 0.503545 0.137762
0.137575 0.501722 0.137575
0.137400 0.500757 0.137400
0.137773 0.500216 0.137366
0.147095 0.500646 0.137957
0.190478 0.503108 0.140825
0.240787 0.505177 0.143910
0.278779 0.506128 0.146290
0.312012 0.508467 0.148547
0.344494 0.510256 0.150609
0.375567 0.510816 0.152474
0.404937 0.511996 0.154677
0.433046 0.515467 0.157905
0.460359 0.517607 0.160998
0.487934 0.519097 0.163790
0.515195 0.520991 0.167348
0.541800 0.523351 0.172103
0.568541 0.525467 0.177532
0.594625 0.527278 0.184106
0.620240 0.530356 0.188700
0.646694 0.532773 0.191680
0.673037 0.534505 0.196760
0.696814 0.538043 0.206886
0.720170 0.541704 0.210139
0.742841 0.545811 0.214362
0.765171 0.550301 0.220606
0.788594 0.554310 0.225485
0.810239 0.558606 0.228606
0.830348 0.562905 0.232438
0.850685 0.567671 0.237600
0.872567 0.573429 0.244043
0.140596 0.526968 0.140596
0.140533 0.525791 0.140533
0.140281 0.523939 0.140281
0.140053 0.522586 0.140053
0.140686 0.522199 0.140084
0.151502 0.522065 0.140700
0.195410 0.524193 0.143445
0.244991 0.526656 0.146697
0.281812 0.528388 0.149077
0.314709 0.530623 0.151231
0.348452 0.532502 0.153381
0.380137 0.533062 0.155292
0.408929 0.533754 0.157063
0.436496 0.536294 0.159216
0.463727 0.538357 0.161659
0.491093 0.540416 0.163800
0.518386 0.542278 0.166349
0.545163 0.544003 0.169359
0.571525 0.545984 0.172962
0.597630 0.548016 0.178875
0.624651 0.551093 0.184689
0.651201 0.553614 0.188767
0.676141 0.555383 0.194274
0.700209 0.558341 0.204912
0.723727 0.560782 0.209823
0.746218 0.564591 0.214234
0.768299 0.569081 0.219677
0.791078 0.572322 0.224963
0.811837 0.576105 0.228165
0.832509 0.580479 0.231407
0.853074 0.585375 0.237017
0.873827 0.591012 0.247194
0.143117 0.547135 0.143117
0.143109 0.546944 0.143109
0.142857 0.545373 0.142857
0.142629 0.543795 0.142629
0.143163 0.543505 0.142660
0.153255 0.543251 0.143267
0.196917 0.544798 0.145938
0.246854 0.547221 0.149088
0.283965 0.549898 0.151534
0.316980 0.552513 0.153767
0.351248 0.554136 0.155957
0.383822 0.554390 0.157887
0.413011 0.555078 0.159728
0.440061 0.557568 0.161653
0.467260 0.559610 0.163494
0.494901 0.561183 0.165307
0.522251 0.562566 0.167421
0.548775 0.564405 0.169435
0.574871 0.566604 0.171574
0.600743 0.568611 0.175457
0.628321 0.570753 0.180478
0.654906 0.573270 0.185425
0.679341 0.575863 0.191305
0.703324 0.578505 0.200584
0.726905 0.580191 0.207209
0.749205 0.583518 0.212441
0.770980 0.587436 0.217677
0.793688 0.589703 0.223477
0.813839 0.593791 0.226862
0.834284 0.598498 0.229747
0.855326 0.603521 0.235217
0.875765 0.609051 0.246579
0.145433 0.567096 0.145433
0.145432 0.567062 0.145432
0.145378 0.565957 0.145378
0.145149 0.564658 0.145149
0.145812 0.563898 0.145181
0.156448 0.564205 0.145788
0.198147 0.565615 0.148410
0.247564 0.567736 0.151403
0.287082 0.570572 0.154072
0.319803 0.574106 0.156434
0.354089 0.575161 0.158478
0.387395 0.574975 0.160408
0.417022 0.576070 0.162267
0.443703 0.578929 0.164181
0.471108 0.580580 0.165946
0.499032 0.581356 0.167710
0.526276 0.582511 0.169516
0.552531 0.584736 0.171297
0.578605 0.587216 0.173089
0.604043 0.588894 0.175003
0.631143 0.590050 0.178096
0.657723 0.592272 0.182146
0.682354 0.595336 0.187354
0.706057 0.597742 0.194828
0.729362 0.599529 0.201855
0.751743 0.602191 0.208270
0.773680 0.605126 0.214621
0.796455 0.607074 0.221431
0.816342 0.611820 0.224755
0.836669 0.616453 0.228106
0.857400 0.621070 0.233915
0.878648 0.626382 0.244311
0.147914 0.587223 0.147914
0.147914 0.587205 0.147914
0.147899 0.586606 0.147899
0.147650 0.585507 0.147650
0.149221 0.584162 0.147571
0.166544 0.585230 0.148699
0.203370 0.587168 0.151136
0.250115 0.588999 0.154154
0.293911 0.590957 0.156919
0.324004 0.594486 0.159044
0.358931 0.595515 0.161212
0.392691 0.595634 0.163142
0.421028 0.597129 0.164918
0.446700 0.599378 0.166702
0.474460 0.599925 0.168371
0.502247 0.600846 0.170121
0.529691 0.602529 0.171996
0.556408 0.604361 0.173760
