gsg/02_Everyday/GSG_LUT_Everyday_WarmFuzzies.cube
# GSG LUTs 1.0
# Copyright (c) 2016-2020 Greyscalegorilla
# See EULA for licensing and distribution information
# Converted by Briz LUT Converter
LUT_3D_SIZE 5
DOMAIN_MIN 0.000000 0.000000 0.000000
DOMAIN_MAX 0.903226 0.903226 0.903226
0.087179 0.087179 0.087179
0.205443 0.095081 0.099240
0.373083 0.106511 0.125527
0.572051 0.120249 0.167175
0.747009 0.132435 0.200473
0.117523 0.160629 0.107432
0.225318 0.165640 0.117740
0.389812 0.168721 0.144979
0.581969 0.151180 0.178892
0.760718 0.222887 0.214657
0.120682 0.288117 0.131711
0.252791 0.293907 0.142530
0.424775 0.308462 0.167270
0.614940 0.336776 0.202352
0.783224 0.380751 0.230174
0.132223 0.457387 0.132223
0.241298 0.460064 0.139096
0.453957 0.472445 0.163852
0.641595 0.489772 0.196939
0.803001 0.521494 0.231850
0.150435 0.607389 0.150435
0.262460 0.608686 0.157105
0.480524 0.619370 0.170977
0.662697 0.630123 0.183472
0.821774 0.645226 0.222195
0.091370 0.089432 0.163780
0.161396 0.093981 0.153120
0.302871 0.102896 0.159300
0.495449 0.115706 0.179517
0.680768 0.128174 0.203437
0.119403 0.142836 0.162547
0.283185 0.254114 0.264573
0.454913 0.276829 0.272450
0.639830 0.304037 0.285134
0.804902 0.352853 0.297529
0.148486 0.256904 0.184277
0.300000 0.418078 0.287634
0.489998 0.436978 0.282678
0.670829 0.462932 0.290487
0.828905 0.496902 0.298957
0.129182 0.419827 0.195673
0.316153 0.575334 0.306556
0.517153 0.590113 0.296779
0.692859 0.601509 0.283797
0.845044 0.624661 0.296487
0.147279 0.575682 0.181603
0.377625 0.709004 0.333746
0.553631 0.717983 0.320906
0.717273 0.724946 0.304986
0.860951 0.734609 0.302135
0.101516 0.092174 0.250423
0.144699 0.095703 0.236099
0.252131 0.102136 0.230554
0.423944 0.112537 0.237075
0.614431 0.125133 0.250858
0.118929 0.147040 0.243920
0.266735 0.261503 0.366929
0.407360 0.287985 0.366218
0.584151 0.312158 0.370200
0.752869 0.351899 0.378961
0.165220 0.229504 0.243302
0.327750 0.396739 0.376741
0.563521 0.561392 0.517772
0.728117 0.586376 0.523860
0.872936 0.612362 0.524945
0.127706 0.384777 0.260687
0.347787 0.554437 0.401427
0.595397 0.698686 0.546163
0.754443 0.712823 0.534597
0.891195 0.729716 0.534436
0.145906 0.544986 0.278149
0.391677 0.691108 0.427935
0.634781 0.810214 0.573847
0.779500 0.818561 0.560311
0.903247 0.825172 0.540483
0.094427 0.094348 0.355414
0.114443 0.095805 0.337894
0.229780 0.102674 0.326122
0.365926 0.110883 0.319968
0.548733 0.122746 0.324440
0.110138 0.151438 0.346095
0.246144 0.268117 0.479256
0.387358 0.292357 0.475748
0.530265 0.314906 0.469497
0.699570 0.348063 0.472681
0.151085 0.234984 0.342294
0.312540 0.401414 0.486809
0.547826 0.570483 0.625610
0.684755 0.598253 0.627532
0.828211 0.622348 0.628684
0.145141 0.352901 0.340334
0.371073 0.529003 0.488368
0.615224 0.686008 0.635106
0.809335 0.804029 0.753231
0.924902 0.821139 0.756107
0.144125 0.513552 0.360479
0.409017 0.668330 0.512831
0.649751 0.798787 0.657926
0.836606 0.894594 0.775670
0.938710 0.901904 0.764473
0.097389 0.097389 0.470361
0.096924 0.098644 0.450455
0.197662 0.104208 0.437184
0.344669 0.111938 0.424956
0.489684 0.121268 0.420669
0.104014 0.156937 0.459217
0.243413 0.276196 0.584436
0.374900 0.297867 0.581850
0.512413 0.320708 0.573557
0.648275 0.346758 0.570421
0.129191 0.242841 0.452371
0.307374 0.409974 0.592804
0.537515 0.576720 0.718887
0.668752 0.603352 0.719474
0.784559 0.625321 0.715375
0.136683 0.358794 0.449368
0.362393 0.535181 0.593175
0.602732 0.691233 0.726350
0.797437 0.811907 0.835928
0.892952 0.830294 0.838514
0.143609 0.483897 0.446863
0.428187 0.646295 0.594702
0.664220 0.781594 0.729167
0.849459 0.886935 0.844255
0.959462 0.954984 0.930135
