gsg/02_Everyday/GSG_LUT_Everyday_AgeofAquarius.cube
# GSG LUTs 1.0
# Copyright (c) 2016-2020 Greyscalegorilla
# See EULA for licensing and distribution information
# Converted by Briz LUT Converter
LUT_3D_SIZE 5
DOMAIN_MIN 0.000000 0.000000 0.000000
DOMAIN_MAX 0.903226 0.903226 0.903226
0.000000 0.000000 0.000000
0.240829 0.004427 0.023073
0.440238 0.016511 0.054331
0.618157 0.034543 0.095372
0.773524 0.055150 0.130482
0.053527 0.195809 0.111450
0.218781 0.199594 0.084237
0.403692 0.215178 0.114761
0.578223 0.232191 0.150738
0.731585 0.259027 0.187034
0.079562 0.397503 0.218181
0.211560 0.403135 0.193395
0.370990 0.412462 0.180730
0.539615 0.439726 0.214163
0.696640 0.469146 0.241887
0.079995 0.591894 0.320950
0.195438 0.600061 0.299482
0.357529 0.610260 0.282366
0.518691 0.620091 0.264058
0.702281 0.633730 0.272914
0.119800 0.766056 0.419985
0.220762 0.768427 0.389261
0.391622 0.771151 0.356715
0.561172 0.772215 0.325244
0.721159 0.775449 0.291500
0.000000 0.000788 0.250983
0.168517 0.003181 0.125333
0.373729 0.013715 0.140086
0.559589 0.030653 0.165678
0.720183 0.050833 0.197136
0.039737 0.189614 0.233122
0.249285 0.266977 0.306349
0.430687 0.288707 0.330747
0.598190 0.313723 0.361264
0.750703 0.343679 0.390447
0.068181 0.391957 0.325382
0.242158 0.472414 0.403427
0.402082 0.487263 0.391994
0.569391 0.513685 0.419562
0.745706 0.532562 0.434061
0.055983 0.586899 0.422756
0.234219 0.662948 0.497628
0.406881 0.671240 0.475563
0.580333 0.674233 0.446159
0.763417 0.685406 0.449652
0.111867 0.761509 0.513929
0.296315 0.814754 0.561829
0.460117 0.819319 0.533192
0.623579 0.820574 0.498423
0.779677 0.822135 0.462682
0.000000 0.002796 0.466407
0.159154 0.006003 0.346059
0.307591 0.011283 0.228401
0.496171 0.026752 0.241395
0.663626 0.046616 0.268037
0.022951 0.188190 0.439732
0.247689 0.270764 0.498510
0.376286 0.287831 0.411310
0.544325 0.309143 0.432118
0.701162 0.337648 0.461223
0.067262 0.386440 0.437622
0.245391 0.471651 0.514255
0.431980 0.554803 0.585353
0.618117 0.573272 0.597158
0.798565 0.588119 0.605187
0.068962 0.582508 0.522900
0.239036 0.662114 0.598269
0.473426 0.721406 0.645486
0.644247 0.726431 0.621074
0.822180 0.735896 0.623649
0.115009 0.757506 0.608193
0.306393 0.813242 0.655945
0.524566 0.863933 0.696523
0.681183 0.867474 0.668267
0.831707 0.868243 0.636361
0.002647 0.005869 0.658317
0.157864 0.010075 0.548050
0.301059 0.016212 0.433329
0.433852 0.023652 0.325753
0.605106 0.042436 0.339124
0.046128 0.185671 0.629125
0.254780 0.273951 0.678186
0.371270 0.290831 0.591190
0.488868 0.304109 0.502526
0.645994 0.330501 0.522870
0.080229 0.391035 0.618078
0.252149 0.476906 0.685425
0.437729 0.560814 0.748248
0.566827 0.572687 0.670651
0.746249 0.585889 0.672442
0.078933 0.579661 0.624377
0.244460 0.657949 0.693816
0.482558 0.719539 0.740663
0.698464 0.772074 0.777648
0.869113 0.782180 0.780158
0.134643 0.752608 0.697515
0.318442 0.807880 0.742790
0.533052 0.861157 0.785521
0.732698 0.910391 0.822117
0.878436 0.914424 0.798583
0.147324 0.016999 0.816448
0.181822 0.016548 0.724940
0.301710 0.022338 0.621497
0.427667 0.030037 0.514774
0.548543 0.038900 0.414206
0.140512 0.184972 0.792330
0.282092 0.279697 0.834565
0.377700 0.295766 0.758262
0.484444 0.308861 0.671169
0.594059 0.323127 0.587737
0.140685 0.398789 0.782278
0.275324 0.484428 0.841323
0.462578 0.563057 0.892254
0.576648 0.573850 0.817872
0.692193 0.582014 0.735384
0.127336 0.588089 0.784230
0.279323 0.659673 0.839187
0.503404 0.720131 0.882461
0.711385 0.773669 0.917197
0.821739 0.781355 0.845120
0.163558 0.748293 0.782047
0.325713 0.803349 0.825502
0.539585 0.857082 0.867641
0.738107 0.909138 0.909057
0.914459 0.956051 0.944601
