gsg/02_Everyday/GSG_LUT_Everyday_Gallery_Photo.cube
# GSG LUTs 1.0
# Copyright (c) 2016-2020 Greyscalegorilla
# See EULA for licensing and distribution information
# Converted by Briz LUT Converter
LUT_3D_SIZE 8
DOMAIN_MIN 0.000000 0.000000 0.000000
DOMAIN_MAX 0.903226 0.903226 0.903226
0.000000 0.000000 0.000000
0.020466 0.000000 0.000000
0.064808 0.000000 0.000000
0.127047 0.000000 0.000000
0.202206 0.000000 0.000000
0.305124 0.000000 0.000000
0.423254 0.000000 0.000000
0.525094 0.000000 0.000000
0.040766 0.072102 0.012242
0.079069 0.064713 0.008277
0.136304 0.055457 0.004455
0.212236 0.040840 0.000441
0.311710 0.024845 0.000000
0.443169 0.008754 0.000000
0.563040 0.000597 0.000000
0.651629 0.000040 0.000000
0.112222 0.173319 0.055953
0.133205 0.169544 0.049265
0.179980 0.160373 0.039955
0.261007 0.145227 0.025562
0.366986 0.124353 0.010607
0.500427 0.095462 0.000313
0.623402 0.066401 0.000000
0.707970 0.042785 0.000000
0.134050 0.314443 0.100996
0.165529 0.311512 0.098091
0.231805 0.304203 0.089170
0.323093 0.289344 0.075104
0.438615 0.267836 0.054719
0.567205 0.241331 0.029253
0.682768 0.212346 0.010945
0.765595 0.183619 0.005357
0.195337 0.498428 0.135594
0.230198 0.498298 0.133513
0.298719 0.490957 0.125555
0.401213 0.478113 0.115168
0.522728 0.458745 0.100640
0.641667 0.435979 0.085047
0.746272 0.411747 0.071602
0.824425 0.386337 0.070251
0.338792 0.654086 0.137485
0.364487 0.652996 0.135090
0.421459 0.646269 0.132505
0.513508 0.636577 0.126763
0.616070 0.623763 0.119388
0.713179 0.608658 0.114401
0.800591 0.593556 0.111710
0.870705 0.578338 0.119909
0.535799 0.746536 0.128953
0.551063 0.746023 0.125651
0.588608 0.742010 0.122243
0.647639 0.735235 0.115378
0.715477 0.728916 0.110429
0.784530 0.720526 0.111661
0.850758 0.712109 0.116124
0.908401 0.705950 0.135886
0.711773 0.807389 0.094978
0.720091 0.807099 0.094528
0.740308 0.806838 0.093861
0.772666 0.803151 0.093844
0.810761 0.800082 0.095260
0.853535 0.796597 0.107723
0.899361 0.794964 0.131656
0.944604 0.791099 0.159273
0.000000 0.000000 0.052046
0.032339 0.000000 0.036959
0.087403 0.000000 0.027744
0.155153 0.000000 0.019434
0.237386 0.000000 0.011422
0.347371 0.000000 0.004146
0.466650 0.000000 0.000480
0.567537 0.000000 0.000410
0.044204 0.084208 0.084633
0.076882 0.076635 0.076587
0.141040 0.066672 0.064654
0.221957 0.051823 0.048394
0.322175 0.036042 0.027344
0.451691 0.017354 0.009191
0.575183 0.007036 0.000562
0.673687 0.000763 0.000058
0.113640 0.184405 0.115845
0.135244 0.179364 0.111359
0.181602 0.168874 0.099431
0.266839 0.153690 0.082906
0.378612 0.131871 0.055887
0.515080 0.101816 0.022877
0.634094 0.073989 0.007573
0.722050 0.052446 0.003991
0.129338 0.325226 0.147642
0.163918 0.321048 0.144055
0.232138 0.312951 0.135623
0.326503 0.298250 0.121755
0.444969 0.276255 0.100393
0.575979 0.249056 0.072312
0.691046 0.218032 0.048259
0.774398 0.188859 0.038412
0.191553 0.508401 0.174147
0.226701 0.506335 0.171322
0.298709 0.500188 0.163498
0.403348 0.487022 0.152145
0.526832 0.467577 0.138069
0.646917 0.444964 0.122402
0.751671 0.420523 0.110390
0.829832 0.394865 0.108170
0.337563 0.662682 0.186683
0.363679 0.660850 0.184541
0.422061 0.654381 0.178443
0.514140 0.644581 0.167813
0.618342 0.631813 0.154157
0.716087 0.617667 0.145913
0.803597 0.601631 0.142822
0.873243 0.586548 0.152616
0.535719 0.754942 0.179236
0.551345 0.752319 0.177980
0.589569 0.749595 0.174701
0.649865 0.743291 0.169383
0.717258 0.736906 0.162950
0.785131 0.728728 0.161683
0.851357 0.721800 0.166020
0.909425 0.713935 0.188069
0.711773 0.815538 0.150554
0.720091 0.814882 0.150472
0.740246 0.812384 0.150355
0.772810 0.811335 0.150398
0.811602 0.807561 0.152274
0.853726 0.804615 0.160803
0.899947 0.802543 0.178657
0.947473 0.799342 0.207300
0.000000 0.001008 0.129119
0.033484 0.000000 0.116720
0.092742 0.000000 0.107000
0.166237 0.000000 0.091134
0.254703 0.000063 0.073158
0.368509 0.000000 0.052834
0.486847 0.000000 0.037519
0.584377 0.000000 0.033030
0.044232 0.095797 0.164927
0.079105 0.087702 0.158663
0.141054 0.076458 0.146939
0.226030 0.063017 0.130222
0.329820 0.046970 0.107584
0.460630 0.026597 0.078489
0.586160 0.011963 0.053845
0.681896 0.004164 0.044830
0.113161 0.193933 0.195501
0.134648 0.189610 0.189445
0.181278 0.179987 0.179919
0.270548 0.164314 0.163104
0.385187 0.143721 0.139387
0.520206 0.116526 0.107699
0.646128 0.087190 0.080603
0.741892 0.057443 0.066432
0.118483 0.337358 0.231642
0.155272 0.334557 0.228184
0.229282 0.326103 0.219531
0.329315 0.311358 0.203411
0.452975 0.289148 0.179905
0.587219 0.260385 0.150910
0.703201 0.229147 0.128315
0.793316 0.190866 0.112391
0.178982 0.522815 0.268552
0.218042 0.521702 0.264786
0.295785 0.514912 0.256778
0.404284 0.502625 0.241427
0.531245 0.483498 0.222340
0.653769 0.460921 0.202563
0.758621 0.435540 0.188580
0.842313 0.403809 0.179853
0.330605 0.677565 0.282013
0.358210 0.675721 0.280359
0.419679 0.669540 0.274869
0.514339 0.659540 0.265232
0.619266 0.647018 0.253050
0.718340 0.633251 0.243498
0.806033 0.617963 0.239580
0.879166 0.601863 0.244758
0.531868 0.770194 0.279176
0.548315 0.768166 0.278223
0.587807 0.764658 0.275334
0.646778 0.759379 0.270652
0.715537 0.752963 0.267163
0.784538 0.745790 0.266968
0.851191 0.738248 0.271620
0.912235 0.730231 0.289358
0.710821 0.832664 0.251572
0.718967 0.832474 0.251566
0.739024 0.831558 0.252364
0.771282 0.828814 0.255584
0.810378 0.826645 0.258922
0.853374 0.823209 0.266776
0.899892 0.819678 0.281920
0.947693 0.816492 0.305300
0.000000 0.007814 0.216306
0.035709 0.003791 0.208630
0.096635 0.000000 0.199607
0.175580 0.000000 0.182843
0.271242 0.000000 0.162671
0.389840 0.000339 0.138560
0.508629 0.000000 0.122749
0.603712 0.000000 0.117894
0.048139 0.110228 0.263844
0.079497 0.101824 0.260932
0.140526 0.091125 0.251657
0.228548 0.076867 0.235305
0.337377 0.061017 0.212045
0.470215 0.042575 0.184141
0.594278 0.025468 0.162278
0.687804 0.014724 0.154078
0.108650 0.208201 0.302914
0.132304 0.203973 0.300221
0.179231 0.194220 0.293308
0.270437 0.179229 0.278096
0.389059 0.159043 0.253420
0.525023 0.134341 0.225445
0.646351 0.109707 0.203574
0.739716 0.082760 0.191660
0.105225 0.353730 0.351767
0.145228 0.349857 0.349269
0.221900 0.342666 0.342404
0.328089 0.327668 0.327664
0.457599 0.305105 0.303669
0.595193 0.275559 0.275306
0.716157 0.243094 0.252091
0.807212 0.208329 0.241255
0.160717 0.541356 0.400781
0.202544 0.539547 0.398430
0.284870 0.534261 0.391734
0.400381 0.522755 0.378152
0.531365 0.503774 0.359511
0.655805 0.481398 0.340590
0.766276 0.454125 0.322432
0.856006 0.417887 0.309368
0.311427 0.697589 0.429222
0.340359 0.696910 0.426873
0.406927 0.692464 0.421707
0.507783 0.681969 0.413703
0.614369 0.669453 0.403300
0.714010 0.656084 0.394794
0.802945 0.641067 0.389585
0.882180 0.623242 0.386453
0.515773 0.796267 0.430977
0.533696 0.795115 0.430943
0.574891 0.791489 0.429291
0.637645 0.785716 0.426903
0.707174 0.778738 0.424679
0.777029 0.770973 0.425676
0.843408 0.762675 0.430451
0.908272 0.754402 0.437431
0.698308 0.862691 0.408959
0.707388 0.862477 0.408990
0.727788 0.861469 0.409351
0.761252 0.858686 0.410509
0.801587 0.855577 0.414664
0.846383 0.851741 0.421601
0.894603 0.847438 0.434632
0.942490 0.842758 0.453725
0.000000 0.017645 0.319847
0.035929 0.008357 0.320114
0.100545 0.004858 0.312761
0.181781 0.003691 0.297562
0.284415 0.000687 0.276138
0.410737 0.000000 0.248511
0.529901 0.000796 0.229381
0.623697 0.000740 0.224050
0.049911 0.127639 0.385268
0.082027 0.119768 0.384857
0.136550 0.108283 0.380435
0.228713 0.095510 0.365109
0.343005 0.078665 0.341821
0.478839 0.060511 0.312166
0.601247 0.045637 0.289947
0.693413 0.033941 0.281493
0.100167 0.226515 0.436165
0.125113 0.222554 0.435937
0.175165 0.212607 0.433612
0.269238 0.197359 0.420122
0.391951 0.177886 0.395935
0.528705 0.155261 0.367269
0.648250 0.133198 0.344848
0.738014 0.111699 0.333917
0.093950 0.372352 0.499831
0.135268 0.369383 0.499301
0.214628 0.362154 0.495114
0.323437 0.347203 0.483606
0.456473 0.325617 0.460464
0.590185 0.300304 0.433908
0.706776 0.269313 0.411345
0.796508 0.233698 0.396634
0.144434 0.561430 0.565862
0.188501 0.559942 0.563192
0.275659 0.554676 0.557780
0.393562 0.543928 0.545537
0.526623 0.525753 0.525962
0.652199 0.502884 0.504624
0.759774 0.475692 0.486730
0.844952 0.442860 0.474866
0.300082 0.716476 0.605179
0.329382 0.714827 0.603824
0.395130 0.712052 0.597681
0.495220 0.705060 0.586607
0.603433 0.693470 0.573567
0.704653 0.679312 0.561521
0.795632 0.663715 0.550249
0.873790 0.642972 0.543362
0.493576 0.819980 0.611467
0.512012 0.818325 0.610070
0.554868 0.815180 0.606607
0.620340 0.809368 0.602083
0.691990 0.802397 0.597738
0.763836 0.794906 0.593020
0.831906 0.785998 0.591569
0.896647 0.775739 0.591930
0.676400 0.886603 0.593663
0.685615 0.885605 0.594673
0.707112 0.884369 0.596636
0.740809 0.881555 0.597834
0.780995 0.878524 0.597948
0.826977 0.875223 0.600745
0.877106 0.870948 0.603582
0.928277 0.864765 0.613675
0.002883 0.039939 0.438781
0.035548 0.022499 0.453130
0.103356 0.019281 0.446058
0.188948 0.015396 0.430381
0.296913 0.009220 0.409269
0.428515 0.004695 0.381066
0.549643 0.003352 0.357072
0.640779 0.004679 0.345835
0.057986 0.149230 0.524830
0.089695 0.142254 0.528170
0.136787 0.129303 0.527403
0.232274 0.117996 0.510229
0.350939 0.102103 0.484463
0.488498 0.082150 0.453438
0.609302 0.066947 0.426963
0.699943 0.055081 0.410773
0.095525 0.247518 0.580324
0.118621 0.243065 0.581522
0.172689 0.232918 0.581428
0.271304 0.216413 0.568911
0.398420 0.199238 0.540127
0.534565 0.176619 0.508354
0.650939 0.155433 0.481605
0.738324 0.136333 0.464054
0.100337 0.392341 0.644821
0.137523 0.389016 0.642039
0.214539 0.380796 0.641060
0.325900 0.364464 0.629647
0.460550 0.342762 0.604080
0.591628 0.320179 0.572114
0.701680 0.295003 0.547715
0.789168 0.259745 0.527933
0.154474 0.579660 0.706279
0.196973 0.578290 0.704287
0.280945 0.572656 0.699025
0.396516 0.561886 0.687671
0.526516 0.543420 0.666859
0.648632 0.521388 0.642968
0.752520 0.495357 0.621621
0.836342 0.462118 0.603721
0.307841 0.732246 0.746222
0.336485 0.731514 0.744174
0.401074 0.727975 0.738279
0.497202 0.720684 0.727078
0.599672 0.710302 0.712666
0.697768 0.697078 0.697176
0.786123 0.680607 0.682485
0.863544 0.659980 0.669726
0.493919 0.833633 0.759777
0.511724 0.832981 0.758915
0.551007 0.831322 0.754691
0.611859 0.827116 0.746533
0.681026 0.820940 0.737429
0.752632 0.813002 0.729419
0.821434 0.803331 0.721016
0.886560 0.792065 0.713539
0.656828 0.907747 0.750790
0.665969 0.907572 0.749337
0.687348 0.905109 0.747531
0.723468 0.902113 0.744858
0.765776 0.898194 0.744399
0.812390 0.893877 0.742142
0.862725 0.888964 0.739470
0.915804 0.881703 0.738007
0.008082 0.069353 0.559187
0.043791 0.049792 0.577187
0.115439 0.045057 0.569258
0.204303 0.038904 0.552738
0.313789 0.030622 0.529246
0.446178 0.019268 0.500443
0.566296 0.012685 0.473086
0.657093 0.011769 0.456416
0.070072 0.168396 0.642373
0.103219 0.163344 0.651443
0.148613 0.148940 0.647944
0.246755 0.139062 0.626500
0.367130 0.124037 0.598758
0.501354 0.105655 0.564520
0.620047 0.086062 0.536168
0.706318 0.073946 0.515086
0.102520 0.263090 0.693214
0.121065 0.257200 0.698796
0.184332 0.248616 0.694389
0.287406 0.231514 0.680534
0.414754 0.214171 0.649507
0.546155 0.195214 0.614844
0.658280 0.174700 0.585156
0.742720 0.155745 0.563196
0.121227 0.407041 0.752421
0.153858 0.402192 0.753177
0.229366 0.392076 0.748795
0.343256 0.376414 0.736087
0.475723 0.355620 0.708093
0.602114 0.330723 0.676092
0.707242 0.309589 0.646386
0.788360 0.285288 0.624204
0.184534 0.594080 0.808518
0.222703 0.592284 0.807271
0.299639 0.586325 0.802731
0.412558 0.573231 0.788997
0.538619 0.555256 0.765966
0.654188 0.534505 0.741522
0.752592 0.509256 0.718499
0.832577 0.480181 0.698020
0.337674 0.745466 0.844375
0.363486 0.743954 0.842356
0.421304 0.740602 0.836938
0.510264 0.733585 0.825812
0.606917 0.722058 0.810604
0.699232 0.708816 0.793744
0.783918 0.693569 0.777190
0.857823 0.673089 0.761765
0.513150 0.843895 0.857438
0.529408 0.843672 0.856039
0.565469 0.841348 0.852094
0.619881 0.837533 0.845382
0.683574 0.832346 0.836475
0.750152 0.824958 0.826297
0.816891 0.815613 0.815861
0.881162 0.803871 0.804882
0.659837 0.920172 0.863017
0.668034 0.919772 0.860813
0.687937 0.917693 0.859534
0.718860 0.915861 0.855224
0.759062 0.912273 0.849587
0.804955 0.908412 0.844138
0.855628 0.902065 0.837906
0.908893 0.895834 0.832213
0.018914 0.097192 0.650833
0.069703 0.077120 0.665633
0.138874 0.070063 0.657442
0.228733 0.065301 0.638682
0.341018 0.056960 0.613266
0.469171 0.043240 0.584512
0.584725 0.029862 0.557831
0.670400 0.026486 0.536858
0.090086 0.184088 0.725992
0.125986 0.176998 0.733788
0.174749 0.162857 0.732753
0.275043 0.153397 0.707671
0.394532 0.140036 0.676007
0.522001 0.123205 0.641991
0.632924 0.105915 0.612771
0.716758 0.091001 0.589167
0.115529 0.270165 0.777357
0.138725 0.265141 0.777684
0.213054 0.257164 0.774510
0.317199 0.241544 0.757357
0.441687 0.224785 0.724375
0.566492 0.204916 0.688963
0.670445 0.184652 0.657975
0.750528 0.167837 0.633974
0.152249 0.411313 0.829531
0.185684 0.406109 0.828513
0.259603 0.394451 0.825748
0.377934 0.385353 0.806159
0.500968 0.366172 0.778548
0.619446 0.341652 0.748906
0.718662 0.315349 0.720625
0.796139 0.288636 0.693766
0.229887 0.600390 0.882654
0.264639 0.598882 0.880549
0.338288 0.591533 0.872639
0.442969 0.578375 0.857976
0.562251 0.564365 0.834266
0.667123 0.545075 0.811442
0.758263 0.522201 0.788641
0.835276 0.492820 0.768015
0.380570 0.754868 0.913194
0.403346 0.752011 0.910610
0.456382 0.747958 0.903755
0.536608 0.739864 0.892536
0.622637 0.729179 0.878733
0.708072 0.717202 0.863540
0.786650 0.703006 0.845682
0.857650 0.683920 0.829675
0.541882 0.853131 0.928639
0.556435 0.852926 0.927404
0.588580 0.850767 0.922950
0.637812 0.846610 0.915405
0.694494 0.840571 0.906477
0.754543 0.833415 0.897252
0.816984 0.824470 0.885523
0.879839 0.812737 0.873605
0.675819 0.928631 0.936855
0.681490 0.928076 0.936456
0.700299 0.927231 0.935298
0.729432 0.924322 0.931325
0.764146 0.921058 0.926249
0.805665 0.917036 0.920406
0.853444 0.912498 0.913278
0.905046 0.905196 0.905002
