gsg/02_Everyday/GSG_LUT_Everyday_AmberWaves.cube
# GSG LUTs 1.0
# Copyright (c) 2016-2020 Greyscalegorilla
# See EULA for licensing and distribution information
# Converted by Briz LUT Converter
LUT_3D_SIZE 32
0.050794 0.050794 0.050794
0.050920 0.050794 0.050794
0.054937 0.050794 0.050794
0.059049 0.050794 0.050794
0.066769 0.050794 0.051203
0.077593 0.050794 0.054086
0.090118 0.050841 0.055268
0.103824 0.051038 0.057797
0.115168 0.051038 0.059057
0.128284 0.051747 0.062114
0.146717 0.053874 0.067076
0.164370 0.054701 0.073339
0.177510 0.055552 0.077025
0.193273 0.057513 0.082295
0.212179 0.060018 0.090000
0.232975 0.062972 0.099334
0.254780 0.065871 0.108787
0.276521 0.069518 0.118358
0.302328 0.073189 0.129844
0.328615 0.079215 0.141290
0.352940 0.086778 0.152633
0.380196 0.093513 0.164142
0.408319 0.098948 0.175564
0.435141 0.105802 0.187632
0.460286 0.112797 0.198472
0.481051 0.117831 0.207231
0.506857 0.124826 0.218008
0.526425 0.131963 0.228926
0.545236 0.136595 0.236898
0.567340 0.143621 0.244460
0.582922 0.147623 0.252023
0.605372 0.155067 0.259585
0.050794 0.050920 0.050794
0.054701 0.054468 0.050794
0.062476 0.054575 0.051014
0.073945 0.054598 0.054260
0.089466 0.054833 0.055110
0.107343 0.055501 0.058427
0.122887 0.058476 0.061436
0.138127 0.058509 0.063516
0.153997 0.059515 0.069566
0.171383 0.062179 0.074410
0.189232 0.063051 0.081973
0.209794 0.065138 0.089560
0.230120 0.067344 0.098562
0.251316 0.070531 0.108357
0.272827 0.073382 0.117610
0.298358 0.077064 0.128153
0.324736 0.082740 0.139647
0.351146 0.089334 0.151936
0.379694 0.094995 0.164271
0.407721 0.100832 0.176328
0.434998 0.106441 0.187519
0.463379 0.113225 0.200593
0.489133 0.119882 0.210956
0.513002 0.125296 0.220762
0.533188 0.131446 0.231827
0.554980 0.136579 0.240221
0.574651 0.143006 0.247784
0.593579 0.147274 0.255656
0.611959 0.151484 0.263264
0.627706 0.155311 0.270819
0.646055 0.162401 0.278274
0.661412 0.166529 0.285832
0.050794 0.055158 0.050794
0.055128 0.055261 0.050794
0.062476 0.058357 0.051014
0.073945 0.058415 0.054260
0.089070 0.059233 0.055110
0.104195 0.062049 0.058427
0.120028 0.062261 0.061473
0.138717 0.063311 0.063662
0.156182 0.066151 0.069582
0.173129 0.067226 0.074455
0.192914 0.070639 0.082049
0.213568 0.072808 0.090501
0.234052 0.075058 0.100069
0.256599 0.078829 0.109567
0.280268 0.082653 0.119973
0.305920 0.087424 0.131317
0.333453 0.093157 0.143542
0.361793 0.098828 0.155899
0.388989 0.104634 0.168191
0.417641 0.110259 0.180196
0.445545 0.116729 0.191605
0.473594 0.123513 0.204502
0.498323 0.129104 0.216582
0.521060 0.135016 0.225436
0.543686 0.140291 0.235675
0.563465 0.144298 0.244205
0.584672 0.150589 0.251989
0.604216 0.155252 0.262569
0.620235 0.159093 0.270574
0.638599 0.163080 0.277937
0.653945 0.169970 0.282177
0.672756 0.173855 0.289850
0.051172 0.062444 0.050794
0.058058 0.062492 0.050794
0.062787 0.062524 0.051017
0.073967 0.063301 0.054302
0.089070 0.066155 0.055110
0.104195 0.066639 0.058427
0.120033 0.069334 0.062003
0.138787 0.070846 0.065784
0.156424 0.073629 0.069879
0.174000 0.075085 0.075333
0.194996 0.078782 0.083298
0.215930 0.082172 0.093198
0.237884 0.085156 0.101760
0.260674 0.088792 0.112340
0.285837 0.093243 0.123552
0.313311 0.098669 0.135000
0.341841 0.103459 0.147238
0.371969 0.109153 0.160370
0.400312 0.114628 0.172571
0.428224 0.120464 0.185261
0.456387 0.125811 0.197659
0.483383 0.132182 0.209146
0.509165 0.138748 0.220438
0.532632 0.144215 0.230082
0.554374 0.148421 0.239753
0.574797 0.154358 0.248218
0.593749 0.159021 0.258498
0.612620 0.163121 0.266564
0.631063 0.166981 0.274127
0.649426 0.173678 0.281917
0.664752 0.177660 0.286507
0.680673 0.181748 0.296727
0.055174 0.069629 0.051203
0.059056 0.070066 0.051298
0.066129 0.070603 0.051517
0.074536 0.073174 0.054701
0.089070 0.074080 0.055119
0.104246 0.074760 0.058480
0.120324 0.078210 0.062003
0.138962 0.080515 0.065806
0.157233 0.082420 0.070526
0.176160 0.085776 0.077552
0.196318 0.088802 0.084771
0.218863 0.092583 0.093354
0.241309 0.096365 0.102628
0.265068 0.100057 0.113897
0.290884 0.104582 0.125227
0.319020 0.110035 0.137635
0.349045 0.114808 0.150117
0.379639 0.119857 0.163589
0.409973 0.125398 0.176719
0.439242 0.129922 0.189438
0.467499 0.136029 0.202173
0.494570 0.142416 0.214129
0.520428 0.147903 0.225006
0.543843 0.153857 0.235646
0.565438 0.158925 0.244447
0.585800 0.163159 0.252738
0.605063 0.167054 0.262406
0.623885 0.173123 0.270373
0.642198 0.177626 0.277996
0.658072 0.181648 0.285675
0.673229 0.185412 0.293245
0.691544 0.192430 0.297452
0.058955 0.078089 0.054086
0.062830 0.078759 0.054715
0.069684 0.081185 0.055144
0.077575 0.082130 0.055292
0.089139 0.084682 0.055688
0.104608 0.085979 0.058856
0.122093 0.088519 0.062099
0.138989 0.090212 0.065959
0.158084 0.093520 0.071084
0.177651 0.096448 0.078073
0.199486 0.100133 0.085813
0.222233 0.103888 0.094781
0.244603 0.107669 0.105145
0.268436 0.111450 0.115629
0.295628 0.116021 0.127057
0.324028 0.120875 0.139508
0.353679 0.125539 0.153010
0.386604 0.131104 0.167128
0.418633 0.136618 0.181097
0.448332 0.141313 0.194341
0.477727 0.147174 0.206584
0.504905 0.152352 0.218060
0.530744 0.158562 0.229391
0.553863 0.163443 0.239735
0.574806 0.167413 0.248749
0.595728 0.172883 0.258529
0.615889 0.177404 0.266663
0.634246 0.181986 0.274423
0.652975 0.185982 0.282382
0.668830 0.189812 0.289409
0.683981 0.193359 0.296360
0.699106 0.200205 0.301446
0.062736 0.089527 0.055410
0.067160 0.092481 0.055480
0.073465 0.092562 0.057627
0.081098 0.093948 0.058419
0.090125 0.096073 0.058949
0.104778 0.097428 0.059549
0.122550 0.100275 0.062621
0.138947 0.101885 0.066232
0.157895 0.105022 0.071621
0.177636 0.108228 0.078073
0.199764 0.111410 0.086754
0.222451 0.115026 0.096734
0.245138 0.118807 0.105783
0.269499 0.122589 0.116582
0.296893 0.127231 0.127876
0.326298 0.132652 0.140959
0.357771 0.137340 0.155202
0.390638 0.142448 0.168827
0.423624 0.147934 0.182604
0.455106 0.152609 0.197266
0.485287 0.158379 0.210377
0.513011 0.163742 0.221892
0.538826 0.168957 0.233038
0.562291 0.174366 0.243818
0.584905 0.178397 0.252563
0.604692 0.182363 0.262292
0.623617 0.186159 0.270881
0.642522 0.191861 0.278628
0.660987 0.196418 0.286203
0.676375 0.200923 0.293588
0.690856 0.204560 0.297776
0.705959 0.208523 0.305227
0.067179 0.103824 0.058970
0.073236 0.104652 0.058978
0.077452 0.104822 0.059191
0.084879 0.107338 0.059411
0.093576 0.107884 0.061604
0.105771 0.109472 0.062623
0.122370 0.112127 0.063499
0.138683 0.114853 0.067563
0.157107 0.116817 0.073271
0.176901 0.119737 0.078367
0.199353 0.122937 0.087228
0.222451 0.126590 0.097057
0.245330 0.130393 0.106274
0.270412 0.134254 0.117270
0.298108 0.138846 0.128764
0.327976 0.143679 0.141289
0.360616 0.148526 0.155303
0.393423 0.154172 0.170428
0.426863 0.159398 0.184784
0.459490 0.164124 0.198509
0.490627 0.169463 0.212658
0.519291 0.174769 0.225282
0.545790 0.179438 0.236117
0.569739 0.184581 0.246888
0.592162 0.188852 0.255894
0.612179 0.193706 0.265997
0.631179 0.197581 0.274285
0.649989 0.201496 0.282207
0.667792 0.205081 0.289769
0.682977 0.211351 0.296051
0.695528 0.215306 0.301513
0.710568 0.219843 0.308842
0.073229 0.116113 0.061302
0.077041 0.118861 0.061326
0.081941 0.119776 0.062072
0.088721 0.119846 0.062744
0.097906 0.120880 0.063206
0.108993 0.123556 0.065042
0.122576 0.124780 0.066760
0.138317 0.127994 0.069264
0.156546 0.130559 0.073753
0.176205 0.132459 0.079983
0.197710 0.135793 0.088808
0.222410 0.139401 0.097839
0.245818 0.143171 0.107845
0.271302 0.147189 0.117917
0.299681 0.151692 0.129862
0.329843 0.156710 0.142466
0.361865 0.161849 0.156058
0.395872 0.166997 0.170741
0.429971 0.172012 0.185553
0.462897 0.177177 0.200566
0.495538 0.182109 0.214610
0.525902 0.186801 0.227732
0.551819 0.192198 0.239311
0.576423 0.196801 0.250041
0.599123 0.200909 0.259518
0.619619 0.205654 0.269168
0.638583 0.209650 0.277152
0.657142 0.213486 0.284769
0.672693 0.217112 0.292176
0.687818 0.222740 0.297856
0.702942 0.226649 0.304985
0.718067 0.230431 0.311363
0.077293 0.131947 0.063090
0.081120 0.132385 0.063090
0.086449 0.134901 0.063264
0.093588 0.135004 0.065871
0.103398 0.136300 0.066762
0.112541 0.138667 0.067246
0.124275 0.139835 0.069676
0.138272 0.143078 0.071336
0.154677 0.145409 0.075191
0.175238 0.147198 0.081736
0.196695 0.150811 0.089527
0.221456 0.153991 0.098618
0.245011 0.157320 0.109004
0.270484 0.160999 0.119338
0.299681 0.164955 0.130696
0.330205 0.170485 0.143857
0.363048 0.175795 0.158441
0.397697 0.179835 0.172353
0.432107 0.185451 0.186616
0.465631 0.190705 0.201393
0.499093 0.194987 0.216273
0.530894 0.200372 0.230252
0.557846 0.205572 0.242188
0.582144 0.209991 0.252378
0.604662 0.213754 0.262705
0.626618 0.218754 0.271141
0.645120 0.222837 0.278759
0.663530 0.226707 0.286534
0.679402 0.230501 0.294127
0.695158 0.234283 0.301358
0.709637 0.238064 0.307373
0.725448 0.242128 0.313151
0.082555 0.150459 0.066950
0.086504 0.151286 0.066950
0.093114 0.151332 0.067118
0.099587 0.152273 0.069652
0.107435 0.154880 0.070566
0.116480 0.155316 0.071147
0.127717 0.157526 0.073330
0.139874 0.159437 0.074918
0.155047 0.161891 0.077586
0.173341 0.163504 0.082407
0.195056 0.167260 0.090213
0.219158 0.170694 0.099990
0.243592 0.173819 0.109120
0.269500 0.177338 0.119888
0.298898 0.181361 0.131935
0.330672 0.186498 0.145069
0.364142 0.191743 0.159157
0.399216 0.195951 0.174134
0.434962 0.200871 0.189295
0.469169 0.206421 0.203560
0.502036 0.210902 0.217822
0.535373 0.216233 0.232108
0.564262 0.221536 0.244369
0.588491 0.225526 0.255312
0.611448 0.229265 0.265265
0.632819 0.233109 0.274397
0.650860 0.236906 0.282489
0.668669 0.240543 0.290246
0.684886 0.244303 0.297830
0.701852 0.248084 0.304250
0.715116 0.251941 0.309370
0.732223 0.256387 0.316854
0.089291 0.170357 0.070897
0.093301 0.170357 0.070897
0.099216 0.170493 0.070998
0.103352 0.172553 0.072609
0.111072 0.173430 0.073959
0.120204 0.174400 0.074802
0.131179 0.176629 0.076828
0.143460 0.178377 0.078785
0.157983 0.180908 0.081741
0.173652 0.182385 0.085116
0.193249 0.186053 0.091361
0.217423 0.189513 0.100924
0.241325 0.192658 0.110195
0.267381 0.196053 0.120950
0.297042 0.199881 0.133318
0.330069 0.204496 0.146742
0.364746 0.209854 0.160647
0.400645 0.214479 0.175525
0.436743 0.219329 0.190760
0.471606 0.224527 0.205469
0.505509 0.229363 0.219996
0.539742 0.234336 0.234333
0.569653 0.238976 0.247276
0.594997 0.242940 0.258042
0.617700 0.246587 0.267420
0.638154 0.250456 0.276607
0.657261 0.254268 0.285587
0.675968 0.258049 0.293363
0.691536 0.261752 0.300926
0.707397 0.265606 0.307021
0.721810 0.269545 0.312958
0.737697 0.273331 0.320469
0.095435 0.189263 0.074111
0.099216 0.190114 0.074678
0.103034 0.190191 0.074727
0.107691 0.191371 0.075574
0.115277 0.192171 0.077033
0.123897 0.193994 0.078436
0.133969 0.195554 0.080502
0.146283 0.197705 0.082502
0.160155 0.199520 0.085709
0.175454 0.202080 0.088787
0.193496 0.205237 0.093971
0.214907 0.208128 0.102327
0.238370 0.210989 0.111895
0.265502 0.214810 0.121761
0.295677 0.218977 0.133903
0.328935 0.223678 0.147700
0.364393 0.228321 0.162629
0.400689 0.232742 0.177836
0.437614 0.237946 0.193083
0.473514 0.242869 0.207697
0.508661 0.247775 0.221895
0.543290 0.252777 0.236077
0.573867 0.256764 0.249143
0.599736 0.260070 0.259801
0.622155 0.263473 0.270073
0.643798 0.267187 0.278877
0.663613 0.270888 0.287593
0.682149 0.274243 0.295431
0.698961 0.277828 0.302920
0.714223 0.281734 0.309213
0.729347 0.284702 0.316688
0.744472 0.289306 0.323683
0.099933 0.209910 0.076994
0.103711 0.211903 0.078562
0.107448 0.211903 0.078681
0.112306 0.211971 0.080436
0.119270 0.212980 0.080841
0.127694 0.215480 0.082398
0.137485 0.216188 0.084347
0.149168 0.218904 0.086204
0.162337 0.220313 0.088944
0.176890 0.223726 0.092173
0.194121 0.225877 0.096461
0.213749 0.228465 0.103832
0.235107 0.231880 0.112663
0.262120 0.235635 0.123045
0.292776 0.239710 0.134645
0.326569 0.244236 0.147798
0.362913 0.248806 0.162629
0.400089 0.253083 0.177754
0.437832 0.258140 0.192961
0.475165 0.263507 0.208208
0.511072 0.268046 0.223372
0.545978 0.272760 0.238017
0.576871 0.276706 0.250615
0.603599 0.279622 0.262327
0.627504 0.283051 0.272573
0.648809 0.286809 0.281850
0.669343 0.289870 0.290138
0.687541 0.292895 0.297906
0.705566 0.296030 0.305359
0.721732 0.299752 0.312907
0.736910 0.302298 0.319776
0.752034 0.307314 0.326464
0.098751 0.233652 0.080775
0.102500 0.235472 0.082485
0.105298 0.235472 0.082545
0.109345 0.235547 0.083510
0.116168 0.236586 0.084463
0.124593 0.239037 0.085673
0.134275 0.240279 0.087502
0.145592 0.242581 0.089180
0.157981 0.244340 0.091701
0.171997 0.247006 0.094926
0.188716 0.249132 0.098699
0.207996 0.252219 0.104645
0.229201 0.255830 0.112792
0.256355 0.259043 0.123109
0.288145 0.262594 0.134389
0.323196 0.267023 0.147505
0.360524 0.272040 0.162629
0.398677 0.276721 0.177754
0.437292 0.281789 0.192879
0.475576 0.286892 0.208086
0.511883 0.291111 0.223262
0.547213 0.295112 0.238461
0.579318 0.298573 0.251883
0.607437 0.301995 0.264339
0.632472 0.304920 0.274946
0.654440 0.308383 0.284086
0.675157 0.310802 0.293200
0.694208 0.313653 0.301493
0.711531 0.316409 0.309126
0.729186 0.320195 0.316688
0.744472 0.323983 0.322596
0.759597 0.326110 0.330104
0.091047 0.259994 0.084438
0.094651 0.261003 0.085465
0.096656 0.261064 0.086266
0.100677 0.262114 0.086351
0.107058 0.263771 0.087286
0.114022 0.264949 0.088514
0.122696 0.267294 0.090330
0.132833 0.268776 0.092008
0.143679 0.271060 0.094529
0.157233 0.272828 0.097673
0.174454 0.275915 0.101015
0.194480 0.279239 0.105777
0.217493 0.282551 0.113046
0.247409 0.285739 0.123599
0.281053 0.289228 0.134762
0.317766 0.293497 0.147932
0.356005 0.298546 0.162629
0.395415 0.303500 0.177754
0.435116 0.308387 0.192879
0.474131 0.313049 0.208003
0.511424 0.317303 0.223128
0.547976 0.321789 0.238338
0.581176 0.324472 0.253230
0.610893 0.327342 0.265624
0.636466 0.330221 0.276807
0.659919 0.332339 0.286581
0.681046 0.335042 0.296029
0.700225 0.337296 0.304539
0.718234 0.340538 0.312945
0.736808 0.343627 0.319703
0.752153 0.346563 0.326351
0.767277 0.348426 0.333885
0.093064 0.288479 0.089984
0.094749 0.288479 0.088360
0.095835 0.288597 0.089104
0.098753 0.290387 0.090047
0.103622 0.291264 0.090266
0.110245 0.292531 0.092063
0.117967 0.294771 0.094010
0.126527 0.296252 0.095818
0.135746 0.298602 0.098209
0.146711 0.300666 0.100515
0.161963 0.303777 0.103328
0.179664 0.306590 0.107383
0.202499 0.310145 0.113579
0.234582 0.313931 0.123871
0.270633 0.317712 0.135059
0.308984 0.321920 0.148192
0.348914 0.326905 0.162629
0.390068 0.331858 0.177754
0.430891 0.336746 0.192879
0.471073 0.341639 0.208003
0.510448 0.345795 0.223535
0.548703 0.349977 0.238456
0.582489 0.352758 0.253461
0.613495 0.355514 0.267031
0.640857 0.357937 0.278669
0.665420 0.359738 0.289183
0.687563 0.362392 0.298802
0.707124 0.364427 0.307422
0.725621 0.367181 0.315844
0.744480 0.369160 0.322602
0.759841 0.371169 0.330104
0.774966 0.374895 0.337666
0.088731 0.316830 0.095404
0.088731 0.316830 0.093856
0.088781 0.316880 0.093685
0.089778 0.317602 0.092744
0.092980 0.317837 0.092846
0.098332 0.319550 0.094520
0.104927 0.320751 0.095858
0.111822 0.323361 0.098194
0.119988 0.325210 0.099910
0.129666 0.327458 0.102384
0.142762 0.330063 0.104978
0.158628 0.333066 0.108685
0.181889 0.336889 0.114131
0.217726 0.340794 0.123426
0.256589 0.344653 0.134709
0.296850 0.349261 0.147802
0.338975 0.354706 0.162629
0.382249 0.359975 0.177754
0.424429 0.365060 0.192879
0.466516 0.369946 0.208003
0.507841 0.374115 0.223484
0.547431 0.377987 0.238975
0.582484 0.381576 0.253611
0.615174 0.384203 0.268338
0.644090 0.386385 0.280485
0.670014 0.388784 0.291270
0.693029 0.390866 0.301613
0.714198 0.392687 0.310875
0.733279 0.394654 0.318626
0.752176 0.395688 0.326314
0.767537 0.397637 0.333885
0.784671 0.401363 0.341447
0.076600 0.344070 0.101201
0.076600 0.344070 0.101201
0.076600 0.344153 0.100981
0.076679 0.345346 0.097759
0.077604 0.345439 0.097644
0.079233 0.346080 0.098191
0.082405 0.346608 0.097638
0.088520 0.349060 0.099403
0.094462 0.351630 0.101578
0.103290 0.353600 0.103934
0.114182 0.356083 0.106640
0.127520 0.359534 0.110430
0.152782 0.363315 0.115461
0.195899 0.367139 0.123256
0.239465 0.371044 0.133946
0.282101 0.375730 0.146236
0.325812 0.381035 0.160503
0.370763 0.386512 0.175627
0.415577 0.392277 0.190752
0.459845 0.397155 0.205877
0.502861 0.401775 0.222007
0.544812 0.405977 0.238486
0.582041 0.409590 0.253556
0.615752 0.412185 0.268502
0.645928 0.414435 0.282108
0.672795 0.416503 0.293836
0.696739 0.418196 0.304175
0.719485 0.420150 0.313658
0.739972 0.421818 0.322215
0.757937 0.422066 0.329955
0.775146 0.424100 0.337524
0.793997 0.425704 0.345086
0.067328 0.373532 0.108764
0.067328 0.373532 0.108764
0.067328 0.373587 0.108524
0.067328 0.374383 0.105036
0.067328 0.374383 0.104719
0.067328 0.374576 0.102961
0.067822 0.375748 0.101552
0.070437 0.376745 0.100475
0.073426 0.378544 0.102809
0.078240 0.381469 0.104565
0.084673 0.384246 0.107592
0.093390 0.387479 0.111379
0.119469 0.390681 0.115914
0.170059 0.394462 0.122354
0.218717 0.398624 0.132373
0.263501 0.403188 0.144702
0.309209 0.408075 0.157590
0.356263 0.413613 0.172174
0.403672 0.420159 0.188004
0.450280 0.425318 0.203442
0.495741 0.430492 0.220300
0.541061 0.435039 0.237648
0.580432 0.438686 0.253377
0.615367 0.440910 0.268502
0.647082 0.443162 0.283407
0.675523 0.444185 0.295514
0.701440 0.446159 0.306051
0.724518 0.447696 0.316663
0.745518 0.448383 0.325125
0.763751 0.448438 0.333583
0.782652 0.450565 0.341203
0.801560 0.450636 0.348765
0.055386 0.407405 0.116326
0.055386 0.407405 0.116326
0.055386 0.407405 0.116094
0.055386 0.407405 0.112719
0.055386 0.407405 0.112340
0.055386 0.407517 0.110453
0.055386 0.408132 0.108265
0.055523 0.408556 0.105528
0.056194 0.409948 0.105430
0.057175 0.412155 0.106298
0.058774 0.415774 0.109335
0.061661 0.419089 0.112451
0.084293 0.422128 0.115444
0.138730 0.425777 0.120793
0.191889 0.429713 0.130214
0.239186 0.433904 0.142723
0.287609 0.438694 0.154912
0.337513 0.444099 0.168540
0.387187 0.450565 0.184611
0.436731 0.456945 0.200512
0.486352 0.462362 0.217370
0.534880 0.466995 0.236276
0.576989 0.470593 0.253194
0.614333 0.473179 0.268502
0.648732 0.475049 0.283627
0.677791 0.475611 0.297322
0.705691 0.477511 0.308886
0.729808 0.478170 0.319104
0.751817 0.478215 0.328257
0.771062 0.478215 0.337180
0.790056 0.478817 0.344826
0.809122 0.476474 0.352389
0.050794 0.442696 0.123888
0.050794 0.442696 0.123888
0.050794 0.442696 0.123668
0.050794 0.442696 0.120446
0.050794 0.442696 0.119982
0.050794 0.442696 0.118055
0.050794 0.442696 0.115980
0.050794 0.442838 0.112886
0.050794 0.443367 0.109918
0.050794 0.444522 0.108548
0.050794 0.448241 0.110821
0.050961 0.451911 0.113420
0.067663 0.455232 0.116404
0.114811 0.458542 0.120633
0.162965 0.462303 0.128041
0.206826 0.466571 0.139176
0.257173 0.471702 0.151361
0.311412 0.476702 0.164709
0.364552 0.482710 0.179751
0.418459 0.489332 0.195141
0.471635 0.495082 0.212361
0.524032 0.501286 0.232932
0.570455 0.505776 0.252421
0.611167 0.508822 0.268502
0.647584 0.510292 0.283627
0.679661 0.512107 0.298561
0.708018 0.513018 0.310429
0.733850 0.513120 0.321053
0.756666 0.513120 0.331867
0.777524 0.511572 0.340106
0.796702 0.510589 0.348494
0.816519 0.506731 0.356083
0.050794 0.474520 0.129544
0.050794 0.474520 0.128851
0.050794 0.474520 0.128787
0.050794 0.474520 0.127617
0.050794 0.474520 0.125234
0.050794 0.474520 0.123973
0.050794 0.474520 0.121606
0.050794 0.474520 0.119674
0.050794 0.474520 0.115893
0.050794 0.474809 0.112564
0.050794 0.476639 0.111054
0.050794 0.480302 0.112241
0.059396 0.483974 0.115818
0.088886 0.487654 0.119595
0.125655 0.491536 0.125460
0.163392 0.495488 0.134977
0.216959 0.500335 0.147024
0.279201 0.505211 0.160305
0.337361 0.510855 0.174630
0.394426 0.517806 0.189775
0.451202 0.524884 0.206520
0.508544 0.532270 0.227263
0.560079 0.537725 0.248999
0.604361 0.541497 0.267831
0.644473 0.544064 0.283627
0.679568 0.545188 0.298751
0.710227 0.545339 0.312489
0.736869 0.545942 0.324094
0.760537 0.545406 0.334020
0.782790 0.544675 0.343407
0.801967 0.544287 0.351424
0.824003 0.537942 0.361598
0.050794 0.502052 0.137595
0.050794 0.502052 0.135350
0.050794 0.502052 0.135303
0.050794 0.502052 0.134365
0.050794 0.502052 0.131798
0.050794 0.502052 0.130427
0.050794 0.502052 0.127511
0.050794 0.502543 0.124778
0.050794 0.504226 0.120997
0.050794 0.504226 0.117216
0.050794 0.504511 0.113483
0.050794 0.506151 0.111181
0.052355 0.509745 0.112717
0.058956 0.513997 0.116942
0.070085 0.517897 0.121982
0.093697 0.521777 0.129788
0.154757 0.525973 0.141762
0.234494 0.530709 0.154309
0.302785 0.536411 0.167947
0.365198 0.542377 0.182897
0.427009 0.549355 0.199119
0.488391 0.556859 0.219547
0.543775 0.563871 0.242008
0.592875 0.570127 0.263688
0.637942 0.574695 0.282470
0.676002 0.575588 0.298646
0.709831 0.575892 0.313414
0.737880 0.575854 0.325417
0.763636 0.575612 0.336108
0.787042 0.575588 0.345220
0.807969 0.575588 0.354798
0.831384 0.568262 0.364095
0.050794 0.528520 0.143519
0.050794 0.528520 0.142156
0.050794 0.528520 0.141995
0.050794 0.528520 0.139559
0.050794 0.528520 0.138269
0.050794 0.528520 0.136123
0.050794 0.528959 0.134098
0.050794 0.530938 0.130450
0.050794 0.531451 0.126669
0.050794 0.531451 0.122888
0.050794 0.531451 0.118992
0.050794 0.531867 0.114717
0.050794 0.533908 0.112504
0.050932 0.537635 0.114198
0.051697 0.541661 0.117416
0.056048 0.546021 0.123999
0.096974 0.550445 0.134606
0.177823 0.554638 0.146819
0.256087 0.560462 0.160368
0.325370 0.566717 0.174972
0.393474 0.573174 0.190154
0.461468 0.581731 0.211139
0.521987 0.588141 0.234291
0.577053 0.594587 0.256951
0.626836 0.601496 0.278676
0.669096 0.604831 0.297603
0.706414 0.605838 0.312899
0.737616 0.605851 0.325626
0.766892 0.605837 0.336878
0.790339 0.605837 0.347454
0.813319 0.603093 0.358532
0.838883 0.595675 0.366994
0.050794 0.554988 0.147324
0.050794 0.554988 0.147135
0.050794 0.554988 0.146920
0.050794 0.554988 0.143778
0.050794 0.554988 0.143080
0.050794 0.554988 0.140337
0.050794 0.555098 0.139100
0.050794 0.555556 0.135452
0.050794 0.556165 0.132128
0.050794 0.557919 0.128347
0.050794 0.557919 0.124169
0.050794 0.557969 0.119438
0.050794 0.558509 0.115181
0.050794 0.561125 0.112498
0.050794 0.565596 0.114070
0.050794 0.569635 0.118134
0.063654 0.573461 0.126209
0.118904 0.578050 0.138471
0.195967 0.583768 0.150985
0.273098 0.588728 0.164958
0.351356 0.594915 0.180498
0.426607 0.602731 0.199669
0.493692 0.610009 0.223803
0.554341 0.617323 0.248911
0.609099 0.624861 0.272084
0.659112 0.631261 0.293860
0.699789 0.633345 0.310606
0.736119 0.635242 0.325399
0.767030 0.633361 0.337111
0.793737 0.633132 0.348774
0.817362 0.631684 0.359568
0.843688 0.621947 0.370129
0.050794 0.580842 0.151467
0.050794 0.580842 0.151058
0.050794 0.580842 0.151022
0.050794 0.580842 0.150205
0.050794 0.580842 0.147328
0.050794 0.580842 0.146374
0.050794 0.580842 0.143141
0.050794 0.580935 0.139883
0.050794 0.581427 0.136246
0.050794 0.581929 0.132616
0.050794 0.582722 0.128759
0.050794 0.584387 0.124454
0.050794 0.584433 0.119732
0.050794 0.585077 0.115137
0.050794 0.587373 0.111804
0.050794 0.591647 0.112635
0.052034 0.596148 0.118294
0.070558 0.600080 0.128104
0.121763 0.605001 0.140547
0.200200 0.610520 0.154110
0.292178 0.617299 0.169511
0.381151 0.624861 0.187239
0.456370 0.632423 0.211908
0.524172 0.639986 0.238697
0.585801 0.647548 0.263769
0.641659 0.655015 0.287139
0.690194 0.661213 0.306593
0.730068 0.663015 0.324585
0.763758 0.662719 0.336929
0.794206 0.662098 0.351049
0.820647 0.658735 0.362666
0.847517 0.647753 0.373973
0.050794 0.604427 0.158092
0.050794 0.604427 0.158015
0.050794 0.604427 0.157425
0.050794 0.604674 0.154793
0.050794 0.607007 0.154009
0.050794 0.607192 0.151456
0.050794 0.607192 0.150012
0.050794 0.607206 0.146259
0.050794 0.607263 0.142322
0.050794 0.607287 0.138564
0.050794 0.607546 0.134165
0.050794 0.608090 0.128956
0.050794 0.609243 0.124994
0.050794 0.611107 0.120498
0.050794 0.611539 0.115000
0.050794 0.613671 0.110828
0.050794 0.618005 0.111182
0.052418 0.622520 0.118740
