gsg/02_Everyday/GSG_LUT_Everyday_Heroic_Warmth.cube
# GSG LUTs 1.0
# Copyright (c) 2016-2020 Greyscalegorilla
# See EULA for licensing and distribution information
# Converted by Briz LUT Converter
LUT_3D_SIZE 32
0.077656 0.085958 0.068620
0.088991 0.092757 0.075426
0.100130 0.099263 0.082201
0.111978 0.105038 0.088456
0.123920 0.110489 0.094190
0.136602 0.115239 0.099445
0.149852 0.119634 0.104344
0.163882 0.123416 0.108630
0.178692 0.127071 0.112726
0.194352 0.130206 0.116255
0.210894 0.132900 0.119627
0.228217 0.135334 0.122478
0.246556 0.137508 0.124999
0.265824 0.139218 0.127213
0.286211 0.140588 0.128977
0.307708 0.141628 0.130387
0.330269 0.142258 0.131395
0.354161 0.142613 0.132002
0.379117 0.142471 0.132254
0.401828 0.144165 0.134003
0.422214 0.147662 0.137248
0.442625 0.151444 0.140778
0.463295 0.155398 0.144307
0.484509 0.159250 0.147836
0.506125 0.163220 0.151365
0.528197 0.167450 0.154894
0.550790 0.171736 0.158628
0.573264 0.176021 0.162409
0.595919 0.181189 0.166631
0.618150 0.186482 0.170917
0.638678 0.193430 0.176856
0.658852 0.200488 0.182662
0.084974 0.097554 0.076939
0.095797 0.103595 0.083209
0.106636 0.109811 0.089211
0.117734 0.115073 0.094740
0.129148 0.120042 0.100137
0.141309 0.124525 0.104664
0.154034 0.128709 0.109084
0.167548 0.132434 0.112992
0.181833 0.135830 0.116511
0.196978 0.138785 0.119884
0.213001 0.141476 0.122820
0.229889 0.143902 0.125406
0.247865 0.145980 0.127572
0.266719 0.147647 0.129376
0.286625 0.149049 0.130880
0.307708 0.150073 0.132030
0.330009 0.150825 0.132778
0.353518 0.151180 0.133258
0.378206 0.151188 0.133365
0.400662 0.152988 0.135006
0.421112 0.156328 0.138096
0.441614 0.160022 0.141536
0.462466 0.163971 0.145063
0.483753 0.167821 0.148586
0.505558 0.171791 0.152113
0.527692 0.175818 0.155642
0.550292 0.180048 0.159171
0.573193 0.184339 0.162700
0.595698 0.189280 0.166891
0.618134 0.194556 0.171405
0.638922 0.201497 0.177360
0.659356 0.208547 0.183166
0.092520 0.109244 0.085257
0.102824 0.114757 0.090770
0.113158 0.120239 0.096238
0.123729 0.125226 0.101238
0.134426 0.129907 0.105932
0.146042 0.133940 0.110111
0.158094 0.137920 0.113838
0.171228 0.141565 0.117280
0.184879 0.144779 0.120465
0.199668 0.147729 0.123399
0.215175 0.150333 0.125986
0.231554 0.152515 0.128147
0.249015 0.154525 0.130042
0.267450 0.156321 0.131586
0.287078 0.157714 0.132823
0.307787 0.158738 0.133704
0.329811 0.159368 0.134184
0.352900 0.159738 0.134405
0.377097 0.159991 0.134396
0.399433 0.161879 0.135886
0.419883 0.165203 0.139026
0.440534 0.168881 0.142374
0.461625 0.172646 0.145808
0.482993 0.176411 0.149151
0.504801 0.180365 0.152617
0.527126 0.184185 0.156134
0.549984 0.188168 0.159646
0.572925 0.192599 0.163187
0.595644 0.197353 0.167380
0.618117 0.202799 0.171879
0.639135 0.209524 0.177833
0.659845 0.216330 0.183639
0.099831 0.122352 0.093576
0.109644 0.127369 0.098537
0.119696 0.132331 0.103278
0.130009 0.136844 0.107976
0.140464 0.141294 0.112195
0.151763 0.145303 0.115948
0.163314 0.149175 0.119543
0.175979 0.152452 0.122483
0.189227 0.155660 0.125207
0.203333 0.158518 0.127790
0.218402 0.160944 0.129938
0.234408 0.163126 0.131749
0.251453 0.165048 0.133222
0.269422 0.166598 0.134495
0.288502 0.167844 0.135355
0.308926 0.168857 0.135839
0.330454 0.169475 0.135929
0.353035 0.169845 0.135904
0.376657 0.170111 0.135752
0.398677 0.171841 0.137146
0.419111 0.174895 0.140124
0.439616 0.178297 0.143227
0.460624 0.181794 0.146409
0.482154 0.185299 0.149661
0.504040 0.188974 0.153103
0.526370 0.192548 0.156430
0.549419 0.196447 0.159707
0.572418 0.200473 0.163389
0.595161 0.205146 0.167587
0.617828 0.210162 0.171892
0.638905 0.216835 0.177810
0.660073 0.223593 0.183639
0.106983 0.135618 0.101800
0.116561 0.140334 0.106020
0.126141 0.144793 0.110241
0.136245 0.149043 0.114461
0.146615 0.153204 0.118591
0.157488 0.156958 0.122053
0.168736 0.160638 0.125229
0.180907 0.163883 0.127859
0.193643 0.167009 0.130095
0.207306 0.169640 0.132181
0.221939 0.171909 0.133880
0.237384 0.174080 0.135342
0.254043 0.175982 0.136421
0.271603 0.177439 0.137322
0.290206 0.178558 0.137779
0.310112 0.179464 0.137879
0.331363 0.179951 0.137595
0.353408 0.180324 0.137327
0.376268 0.180732 0.137075
0.397964 0.182284 0.138450
0.418264 0.185005 0.141253
0.438830 0.187997 0.144267
0.459765 0.191163 0.147270
0.481240 0.194407 0.150286
0.503297 0.197676 0.153500
0.525676 0.201099 0.156751
0.548752 0.204616 0.159996
0.571921 0.208543 0.163480
0.594888 0.213014 0.167479
0.617399 0.217949 0.171943
0.638891 0.224374 0.177660
0.660105 0.230683 0.183702
0.113033 0.149986 0.109323
0.122565 0.154223 0.113023
0.131936 0.158213 0.116723
0.141983 0.162141 0.120422
0.152155 0.165820 0.124069
0.162960 0.169376 0.127340
0.173981 0.172949 0.130442
0.185843 0.175974 0.132853
0.198144 0.178926 0.134849
0.211395 0.181527 0.136583
0.225508 0.183796 0.137790
0.240634 0.185892 0.138883
0.256742 0.187641 0.139730
0.273929 0.189091 0.140225
0.292148 0.190214 0.140303
0.311672 0.191099 0.140026
0.332513 0.191477 0.139461
0.354045 0.191884 0.139074
0.376283 0.192406 0.138840
0.397597 0.193958 0.140060
0.417937 0.196516 0.142629
0.438434 0.199249 0.145540
0.459451 0.202154 0.148407
0.480988 0.205138 0.151343
0.503045 0.208312 0.154517
0.525456 0.211383 0.157556
0.548718 0.214784 0.160607
0.571770 0.218486 0.164029
0.594714 0.222888 0.168215
0.617425 0.227458 0.172500
0.638968 0.233576 0.178203
0.660396 0.239836 0.184206
0.118894 0.164544 0.116491
0.128221 0.168473 0.119671
0.137576 0.172187 0.122850
0.147387 0.175599 0.126034
0.157533 0.178853 0.129256
0.168159 0.182252 0.132412
0.179131 0.185443 0.135333
0.190733 0.188457 0.137705
0.202721 0.191319 0.139596
0.215546 0.193769 0.140967
0.229249 0.196022 0.141881
0.243852 0.198086 0.142502
0.259572 0.199756 0.142939
0.276344 0.201146 0.143058
0.294282 0.202269 0.142736
0.313420 0.203041 0.142150
0.333789 0.203443 0.141194
0.354911 0.203986 0.140699
0.376581 0.204628 0.140584
0.397471 0.206171 0.141699
0.417702 0.208548 0.144188
0.438214 0.211052 0.146929
0.459246 0.213713 0.149827
0.480783 0.216472 0.152657
0.502876 0.219397 0.155582
0.525464 0.222373 0.158437
0.548765 0.225554 0.161550
0.571996 0.229036 0.164812
0.594966 0.233227 0.168971
0.617677 0.237925 0.173300
0.639464 0.243657 0.179007
0.660948 0.249651 0.184804
0.123880 0.180031 0.122935
0.133206 0.183503 0.125594
0.142498 0.186940 0.128257
0.152165 0.189851 0.130991
0.162212 0.192762 0.133878
0.172839 0.195682 0.136624
0.183762 0.198650 0.139425
0.195128 0.201563 0.141696
0.206942 0.204230 0.143629
0.219449 0.206664 0.144984
0.232798 0.208815 0.145778
0.247166 0.210745 0.146119
0.262423 0.212415 0.146184
0.278791 0.213722 0.145922
0.296348 0.214756 0.145251
0.315091 0.215531 0.144201
0.335172 0.216007 0.142855
0.355787 0.216675 0.142241
0.376815 0.217488 0.142298
0.397471 0.218982 0.143519
0.417575 0.221135 0.145973
0.438150 0.223532 0.148560
0.459246 0.225996 0.151215
0.480783 0.228641 0.153972
0.503029 0.231399 0.156702
0.525705 0.234172 0.159615
0.549017 0.237104 0.162425
0.572296 0.240497 0.165623
0.595224 0.244631 0.169832
0.617981 0.249139 0.174351
0.639962 0.254805 0.180070
0.661704 0.260601 0.185868
0.128544 0.196038 0.128796
0.137802 0.199250 0.130998
0.146981 0.202410 0.133152
0.156729 0.204801 0.135549
0.166426 0.207200 0.138004
0.176988 0.209695 0.140450
0.187834 0.212390 0.142853
0.199141 0.214992 0.145268
0.211052 0.217448 0.147347
0.223346 0.219799 0.148665
0.236373 0.221860 0.149329
0.250331 0.223767 0.149428
0.265287 0.225397 0.149111
0.281316 0.226731 0.148563
0.298474 0.227858 0.147595
0.316831 0.228611 0.146254
0.336554 0.228989 0.144551
0.356736 0.229761 0.143858
0.377143 0.230806 0.144146
0.397496 0.232290 0.145472
0.417615 0.234329 0.147764
0.438171 0.236575 0.150262
0.459246 0.238799 0.152783
0.480830 0.241230 0.155438
0.503092 0.243891 0.158005
0.525921 0.246599 0.160723
0.549322 0.249360 0.163443
0.572776 0.252503 0.166631
0.595557 0.256434 0.171011
0.618414 0.260924 0.175548
0.640525 0.266346 0.181267
0.662523 0.272071 0.187065
0.132616 0.212635 0.133948
0.141770 0.215587 0.135812
0.151108 0.218476 0.137515
0.160614 0.220412 0.139409
0.170223 0.222323 0.141540
0.180598 0.224535 0.143696
0.191327 0.226817 0.145687
0.202765 0.229028 0.147883
0.214621 0.231279 0.149907
0.226883 0.233454 0.151319
0.239750 0.235543 0.152294
0.253384 0.237386 0.152499
0.267963 0.238899 0.151968
0.283701 0.240309 0.151083
0.300476 0.241459 0.149749
0.318474 0.242147 0.148061
0.337900 0.242562 0.146024
0.357588 0.243334 0.145306
0.377530 0.244484 0.145805
0.397637 0.246044 0.147237
0.417757 0.247920 0.149411
0.438277 0.250029 0.151845
0.459317 0.252152 0.154316
0.481035 0.254499 0.156816
0.503344 0.256946 0.159282
0.526230 0.259394 0.161984
0.549797 0.262106 0.164552
0.573280 0.265091 0.167649
0.596125 0.268998 0.172083
0.618819 0.273422 0.176694
0.641270 0.278664 0.182418
0.663531 0.284131 0.188215
0.135988 0.230013 0.138501
0.145394 0.232626 0.139853
0.154721 0.235249 0.141284
0.164040 0.236835 0.142739
0.173411 0.238319 0.144444
0.183717 0.240146 0.146284
0.194446 0.241877 0.148065
0.205845 0.243850 0.149919
0.217587 0.245913 0.151708
0.229935 0.247800 0.153279
0.242814 0.249618 0.154581
0.256268 0.251408 0.154985
0.270607 0.252921 0.154467
0.285965 0.254298 0.153419
0.302379 0.255438 0.151825
0.320116 0.256253 0.149877
0.339193 0.256757 0.147401
0.358494 0.257529 0.146626
0.377994 0.258725 0.147510
0.397889 0.260269 0.149080
0.417898 0.262003 0.151204
0.438473 0.263933 0.153556
0.459569 0.266011 0.155879
0.481287 0.268234 0.158270
0.503657 0.270442 0.160642
0.526637 0.272756 0.163196
0.550289 0.275384 0.165733
0.573853 0.278357 0.168748
0.596794 0.282335 0.173469
0.619497 0.286752 0.178421
0.641947 0.292145 0.184395
0.664382 0.297601 0.190358
0.138753 0.248257 0.142188
0.148327 0.250441 0.143114
0.157732 0.252710 0.144285
0.166946 0.253881 0.145471
0.176080 0.255072 0.146816
0.186317 0.256420 0.148265
0.197029 0.257873 0.149837
0.208378 0.259479 0.151329
0.220207 0.261131 0.152793
0.232590 0.262742 0.154358
0.245413 0.264417 0.155713
0.258868 0.266036 0.156380
0.273079 0.267515 0.156269
0.288128 0.268806 0.155359
0.304282 0.269936 0.153594
0.321717 0.270794 0.151433
0.340444 0.271343 0.148742
0.359400 0.272205 0.148025
0.378507 0.273485 0.149315
0.398174 0.274962 0.151044
0.418150 0.276576 0.153027
0.438725 0.278416 0.155209
0.459883 0.280293 0.157416
0.481626 0.282381 0.159660
0.504124 0.284438 0.162050
0.527078 0.286779 0.164355
0.550853 0.289210 0.166828
0.574512 0.292218 0.170062
0.597314 0.296826 0.175585
0.619920 0.302024 0.181496
0.642197 0.308374 0.188598
0.664540 0.314884 0.195707
0.140833 0.267257 0.145118
0.150509 0.269177 0.145781
0.160148 0.271033 0.146601
0.169190 0.271934 0.147511
0.178104 0.272747 0.148454
0.188397 0.273615 0.149616
0.199078 0.274778 0.150808
0.210335 0.275974 0.152092
0.222246 0.277253 0.153279
0.234586 0.278487 0.154555
0.247588 0.279902 0.155776
0.261042 0.281317 0.156678
0.275253 0.282674 0.157188
0.290196 0.283894 0.156627
0.306090 0.285032 0.154960
0.323189 0.285856 0.152821
0.341493 0.286486 0.150096
0.360147 0.287510 0.149518
0.379078 0.288771 0.151105
0.398524 0.290181 0.152927
0.418463 0.291693 0.154825
0.439072 0.293307 0.156909
0.460341 0.295147 0.158974
0.482130 0.297137 0.161172
0.504628 0.299226 0.163514
0.527785 0.301537 0.165880
0.551609 0.303904 0.168451
0.575131 0.307285 0.172085
0.597827 0.313146 0.179031
0.620276 0.319651 0.186562
0.642147 0.327698 0.195473
0.664130 0.335996 0.204624
0.142290 0.287030 0.147276
0.152124 0.288689 0.147675
0.162001 0.290278 0.148089
0.170932 0.290809 0.148740
0.179692 0.291207 0.149422
0.189837 0.291668 0.150324
0.200433 0.292465 0.151227
0.211690 0.293285 0.152129
0.223627 0.294214 0.153069
0.236057 0.295234 0.154106
0.249125 0.296316 0.155081
0.262686 0.297470 0.155984
0.277002 0.298625 0.156737
0.291945 0.299720 0.156594
0.307684 0.300746 0.155504
0.324530 0.301590 0.153892
0.342468 0.302273 0.151668
0.360842 0.303297 0.151420
0.379625 0.304498 0.153015
0.398999 0.305865 0.154823
0.418950 0.307311 0.156709
0.439576 0.308787 0.158606
0.460845 0.310473 0.160589
0.482710 0.312571 0.162939
0.505393 0.315146 0.165767
0.528717 0.318200 0.168958
0.552570 0.321613 0.172681
0.576092 0.326093 0.177609
0.598653 0.332910 0.185807
0.620992 0.340394 0.194442
0.642711 0.349372 0.204435
0.664390 0.358447 0.214621
0.143078 0.307810 0.148537
0.153141 0.309209 0.148671
0.163252 0.310522 0.148726
0.172040 0.310546 0.149219
0.180686 0.310585 0.149641
0.190713 0.310745 0.150284
0.201189 0.311043 0.150926
0.212446 0.311488 0.151568
0.224420 0.312165 0.152211
0.236946 0.312907 0.152924
0.250037 0.313628 0.153740
0.263744 0.314522 0.154382
0.278250 0.315417 0.154973
0.293348 0.316311 0.155252
0.309087 0.317145 0.155154
0.325741 0.317955 0.154507
0.343273 0.318768 0.153381
0.361474 0.319732 0.153628
0.380188 0.320800 0.155091
0.399590 0.322040 0.156753
0.419576 0.323424 0.158604
0.440191 0.324889 0.160491
0.461460 0.326575 0.162464
0.483593 0.329046 0.165188
0.506675 0.332618 0.168926
0.530177 0.337055 0.173768
0.554051 0.342549 0.179855
0.577477 0.348792 0.186832
0.599924 0.356401 0.195958
0.622120 0.364419 0.205375
0.643830 0.373323 0.215523
0.665398 0.382394 0.225854
0.143109 0.329678 0.148852
0.153810 0.330576 0.148974
0.164394 0.331506 0.149104
0.173169 0.331121 0.149463
0.181662 0.330671 0.149640
0.191450 0.330549 0.150125
0.201828 0.330475 0.150530
0.213084 0.330633 0.151034
0.225058 0.330924 0.151538
0.237623 0.331306 0.152113
0.250848 0.331729 0.152791
0.264676 0.332283 0.153337
0.279264 0.332917 0.153963
0.294421 0.333601 0.154589
0.310282 0.334304 0.155105
0.326880 0.335056 0.155239
0.344212 0.335878 0.155100
0.362275 0.336768 0.155770
0.380929 0.337708 0.157157
0.400403 0.339106 0.159059
0.420749 0.340935 0.161312
0.441778 0.343134 0.163890
0.463497 0.345673 0.166806
0.486142 0.349022 0.170441
0.509548 0.353517 0.175182
0.533120 0.358985 0.181198
0.556700 0.365675 0.188919
0.579849 0.372925 0.197395
0.602143 0.380897 0.207066
0.624215 0.389192 0.216897
0.645803 0.397983 0.227315
0.667352 0.407050 0.237536
0.142479 0.352491 0.148096
0.154091 0.352743 0.148612
0.165520 0.353160 0.149222
0.174178 0.352397 0.149438
0.182638 0.351671 0.149371
0.192165 0.351179 0.149726
0.202332 0.350820 0.150001
0.213589 0.350588 0.150404
0.225562 0.350488 0.150940
0.238163 0.350517 0.151609
0.251559 0.350639 0.152286
0.265558 0.350847 0.152922
0.280146 0.351221 0.153760
0.295409 0.351698 0.154569
0.311417 0.352214 0.155402
0.327953 0.352767 0.156170
0.345220 0.353523 0.156877
0.363214 0.354344 0.157913
0.381811 0.355227 0.159300
0.401595 0.357089 0.161665
0.422542 0.359780 0.164942
0.444392 0.363402 0.168947
0.467022 0.367722 0.173693
0.490297 0.372612 0.178906
0.514029 0.377952 0.184590
0.537454 0.384070 0.191387
0.560457 0.390988 0.200100
0.583175 0.398369 0.209397
0.605306 0.406357 0.219280
0.627366 0.414652 0.229241
0.648832 0.423443 0.239667
0.670377 0.432384 0.249888
0.145339 0.374375 0.150152
0.157438 0.374244 0.150908
0.169309 0.374288 0.151615
0.177692 0.373290 0.151570
0.185739 0.372413 0.151363
0.194868 0.371675 0.151477
0.204659 0.371032 0.151617
0.215669 0.370475 0.151924
0.227505 0.370189 0.152422
0.239963 0.369908 0.152941
0.253204 0.369865 0.153566
0.267108 0.369861 0.154287
0.281700 0.370061 0.155114
0.296890 0.370334 0.155917
0.312757 0.370727 0.156847
0.329488 0.371410 0.158233
0.347170 0.372581 0.159920
0.365596 0.373972 0.161836
0.384831 0.375700 0.164206
0.405277 0.378421 0.167569
0.426704 0.382062 0.171751
0.449096 0.386612 0.176813
0.472173 0.391887 0.182504
0.495528 0.397582 0.188781
0.519136 0.403483 0.195350
0.542432 0.409902 0.203026
0.565101 0.416978 0.212305
0.587437 0.424366 0.222000
0.609534 0.432353 0.232037
0.631581 0.440648 0.242121
0.653047 0.449439 0.252440
0.674473 0.458261 0.262775
0.151814 0.395407 0.154831
0.163767 0.395159 0.155445
0.175484 0.394958 0.156138
0.183572 0.393936 0.155873
0.190999 0.392813 0.155506
0.199608 0.391911 0.155382
0.208878 0.391035 0.155402
0.219361 0.390358 0.155563
0.230717 0.389969 0.155894
0.242883 0.389630 0.156176
0.255750 0.389395 0.156613
0.269347 0.389362 0.157223
0.283729 0.389428 0.157887
0.298673 0.389514 0.158644
0.314412 0.389808 0.159510
0.331493 0.390934 0.161315
0.349883 0.392886 0.163970
0.369390 0.395628 0.167419
0.389990 0.399045 0.171674
0.411273 0.403018 0.176463
0.433150 0.407608 0.181586
0.455756 0.412637 0.187248
0.478768 0.418071 0.193192
0.501918 0.423798 0.199861
0.525079 0.429894 0.207442
0.548032 0.436484 0.215873
0.570554 0.443561 0.225390
0.592776 0.450972 0.235204
0.614831 0.458963 0.245256
0.636772 0.467125 0.255339
0.658230 0.475907 0.265658
0.679657 0.484730 0.275994
0.158770 0.416779 0.159620
0.170612 0.416527 0.160128
0.182060 0.416228 0.160676
0.189751 0.415196 0.160400
0.196909 0.413947 0.159908
0.204843 0.412785 0.159517
0.213468 0.411698 0.159266
0.223407 0.410963 0.159287
0.234190 0.410367 0.159385
0.245984 0.409933 0.159526
0.258640 0.409587 0.159905
0.272200 0.409693 0.160670
0.286778 0.410060 0.161732
0.302248 0.410649 0.163140
0.318692 0.411642 0.164934
0.336418 0.413601 0.167669
0.355535 0.416333 0.171312
0.375745 0.419973 0.175780
0.397007 0.424358 0.181063
0.418693 0.429057 0.186621
0.440781 0.434062 0.192322
0.463359 0.439269 0.198353
0.486250 0.444736 0.204769
0.509148 0.450574 0.212007
0.532073 0.456788 0.220359
0.554694 0.463484 0.229259
0.577148 0.470495 0.238930
0.599370 0.477979 0.248761
0.621332 0.485847 0.258948
0.643123 0.494039 0.269046
0.664571 0.502824 0.279365
0.685848 0.511647 0.290149
0.165985 0.438773 0.164410
0.177667 0.438363 0.164909
0.189001 0.438054 0.165203
0.196338 0.436874 0.164780
0.203134 0.435594 0.164256
0.210424 0.434196 0.163614
0.218287 0.433000 0.163174
0.227614 0.432116 0.163011
0.238039 0.431382 0.162889
0.249458 0.430761 0.162915
0.261822 0.430415 0.163212
0.275618 0.430756 0.164366
0.290915 0.431842 0.166371
0.307443 0.433556 0.169105
0.325379 0.436104 0.172786
0.344207 0.439206 0.176935
0.363942 0.442719 0.181538
0.384442 0.446776 0.186632
0.405667 0.451314 0.192138
0.427327 0.456150 0.197834
0.449415 0.461192 0.203631
0.471822 0.466506 0.209974
0.494520 0.472023 0.216947
0.517232 0.477931 0.224920
0.539986 0.484170 0.233857
0.562496 0.490739 0.243202
0.584798 0.497852 0.252952
0.606995 0.505223 0.262783
0.628957 0.513128 0.272913
0.650660 0.521267 0.283004
0.671645 0.530048 0.294544
0.692497 0.538714 0.306597
0.173461 0.461286 0.169199
0.184891 0.460950 0.169530
0.196208 0.460475 0.169735
0.203293 0.459199 0.169215
0.209846 0.457757 0.168530
0.216431 0.456258 0.167786
0.223577 0.454938 0.167191
0.232579 0.454155 0.167013
0.243085 0.453612 0.167208
0.254704 0.453365 0.167865
0.267628 0.453648 0.169072
0.282082 0.454593 0.171085
0.298053 0.456461 0.174024
0.315401 0.459030 0.177876
0.334255 0.462432 0.182709
0.353761 0.466117 0.187786
0.373846 0.470068 0.193128
0.394509 0.474331 0.198779
0.415684 0.478869 0.204666
0.437307 0.483706 0.210703
0.459289 0.488747 0.216843
0.481467 0.494120 0.223532
0.504021 0.499665 0.230973
0.526586 0.505573 0.239162
0.549102 0.511812 0.248257
0.571555 0.518444 0.257648
0.593785 0.525506 0.267399
0.615823 0.532790 0.277230
0.637466 0.540762 0.288029
0.658826 0.548673 0.299430
0.679378 0.557438 0.312046
0.699878 0.566017 0.324818
0.181197 0.484493 0.173989
0.192542 0.484060 0.174235
0.203687 0.483509 0.174272
0.210681 0.482225 0.173728
0.217002 0.480690 0.172793
0.222930 0.479026 0.171858
0.229280 0.477656 0.171118
0.238276 0.477033 0.171412
0.249176 0.477039 0.172550
0.261812 0.477765 0.174514
0.276202 0.479243 0.177381
0.291697 0.481142 0.180694
0.308398 0.483611 0.184624
0.326202 0.486604 0.189119
0.345040 0.490212 0.194060
0.364659 0.493988 0.199590
0.384915 0.497932 0.205672
0.405617 0.502138 0.211927
0.426892 0.506597 0.218335
0.448482 0.511434 0.224999
0.470234 0.516476 0.231837
0.492268 0.521848 0.238937
0.514552 0.527517 0.246448
0.536957 0.533475 0.254575
0.559392 0.539714 0.263247
0.581687 0.546270 0.272317
0.603738 0.553247 0.282456
0.625379 0.560518 0.293578
0.646510 0.568490 0.305538
0.667513 0.576328 0.317958
0.687967 0.584920 0.330957
0.708212 0.593667 0.343991
0.189555 0.508118 0.178959
0.200711 0.507795 0.179022
0.211635 0.507243 0.179003
0.218979 0.505977 0.178656
0.225404 0.504643 0.178068
0.231379 0.503263 0.177779
0.237866 0.502114 0.177603
0.247252 0.501898 0.178824
0.258701 0.502461 0.181068
0.272252 0.503875 0.184322
0.287611 0.506033 0.188426
0.303860 0.508475 0.192876
0.321201 0.511394 0.197636
0.339218 0.514585 0.202539
0.357982 0.518061 0.207731
0.377509 0.521731 0.213550
0.397801 0.525638 0.220039
0.418491 0.529817 0.226761
0.439621 0.534326 0.233584
0.461010 0.539163 0.240625
0.482618 0.544204 0.247870
0.504505 0.549577 0.255280
0.526501 0.555296 0.262951
0.548678 0.561275 0.270841
0.570926 0.567654 0.279395
0.592685 0.574194 0.289277
0.614254 0.581157 0.300399
0.635543 0.588428 0.312167
0.656341 0.596236 0.324783
0.677246 0.604057 0.337568
0.697521 0.612580 0.350831
0.717508 0.621395 0.364307
0.198314 0.532380 0.184001
0.209412 0.531931 0.184001
0.220478 0.531404 0.184010
0.228196 0.530534 0.184161
0.235467 0.529688 0.184549
0.242328 0.529013 0.185772
0.249884 0.528528 0.187450
0.260181 0.528984 0.190059
0.272508 0.530018 0.193507
0.286675 0.531648 0.197739
0.302210 0.533782 0.202432
0.318610 0.536244 0.207405
0.336098 0.539074 0.212742
0.354233 0.542108 0.218206
0.373106 0.545503 0.224000
0.392512 0.549146 0.230092
0.412609 0.553054 0.236646
0.433100 0.557328 0.243468
0.453969 0.561865 0.250494
0.475214 0.566702 0.257679
0.496676 0.571866 0.264989
0.518325 0.577305 0.272464
0.539926 0.583024 0.280334
0.561508 0.589143 0.289326
0.582959 0.595474 0.298872
0.604380 0.602138 0.309244
0.625648 0.609138 0.320492
0.646667 0.616409 0.332105
0.667376 0.624160 0.344982
0.687921 0.631974 0.358209
0.707927 0.640498 0.371928
0.727843 0.649124 0.385923
0.209303 0.556832 0.190618
0.220803 0.556531 0.191228
0.232167 0.556214 0.191879
0.240771 0.555680 0.193152
0.249083 0.555362 0.194621
0.256931 0.555296 0.197228
0.265206 0.555553 0.200365
0.276295 0.556485 0.204072
0.289141 0.557619 0.208298
0.303431 0.559274 0.212929
0.318965 0.561369 0.217985
0.335366 0.563741 0.223371
0.352854 0.566387 0.229102
0.370928 0.569447 0.234944
0.389720 0.572860 0.241062
0.409003 0.576495 0.247430
0.428840 0.580503 0.254086
0.449179 0.584804 0.261003
0.469762 0.589342 0.267947
0.490698 0.594299 0.275072
0.511794 0.599575 0.282890
0.532846 0.605034 0.291446
0.553882 0.610753 0.300575
0.574902 0.616913 0.310252
0.595885 0.623367 0.320388
0.616895 0.629949 0.331058
0.637875 0.637087 0.342133
0.658633 0.644389 0.353657
0.679132 0.651963 0.366754
0.699371 0.659942 0.380109
0.719304 0.668288 0.394133
0.739021 0.676852 0.408642
0.223561 0.581078 0.200134
0.236425 0.581461 0.202786
0.249103 0.581827 0.205255
0.258959 0.581941 0.208016
0.268445 0.581932 0.210664
0.276862 0.582183 0.213872
0.285336 0.582709 0.217283
0.296184 0.583552 0.221294
0.308839 0.584686 0.225536
0.322765 0.586341 0.230367
0.338154 0.588436 0.235488
0.354410 0.590864 0.240955
0.371554 0.593611 0.246753
0.389484 0.596606 0.252653
0.408063 0.599998 0.258813
0.427098 0.603742 0.265332
0.446781 0.607775 0.272012
0.466885 0.612076 0.278853
0.487083 0.616732 0.286483
0.507402 0.621679 0.294857
0.527785 0.626894 0.303802
0.548351 0.632491 0.313185
0.568916 0.638276 0.322884
0.589568 0.644437 0.333007
0.610279 0.650928 0.343480
0.630825 0.657647 0.354421
0.651496 0.664855 0.365848
0.671816 0.672165 0.377610
0.692028 0.679881 0.390406
0.712198 0.687920 0.403534
0.731732 0.696223 0.417987
0.751184 0.704786 0.432605
0.239923 0.605703 0.211919
0.254129 0.606647 0.216260
0.268145 0.607574 0.220530
0.279303 0.608242 0.224231
0.289964 0.608685 0.228055
0.298607 0.609127 0.231552
0.306920 0.609500 0.235108
0.317601 0.610360 0.239018
0.329875 0.611659 0.243350
0.343608 0.613313 0.248114
0.358599 0.615340 0.253385
0.374682 0.617638 0.258852
0.391678 0.620493 0.264650
0.409275 0.623601 0.270550
0.427571 0.626988 0.276710
0.446358 0.630753 0.283454
0.465581 0.634896 0.291013
0.484972 0.639300 0.299152
