gsg/02_Everyday/GSG_LUT_Everyday_SkinToneHelper.cube
# GSG LUTs 1.0
# Copyright (c) 2016-2020 Greyscalegorilla
# See EULA for licensing and distribution information
# Converted by Briz LUT Converter
LUT_3D_SIZE 5
DOMAIN_MIN 0.000000 0.000000 0.000000
DOMAIN_MAX 0.903226 0.903226 0.903226
0.000000 0.000000 0.000000
0.226334 0.000000 0.000000
0.514892 0.000000 0.000000
0.718870 0.000000 0.000000
0.908638 0.000000 0.000000
0.000000 0.226334 0.000000
0.226718 0.227231 0.000000
0.567589 0.290561 0.000000
0.808767 0.318415 0.000000
1.000000 0.312096 0.000000
0.000000 0.514892 0.000000
0.226334 0.514892 0.000000
0.515134 0.515618 0.000000
0.747773 0.566978 0.000000
0.996897 0.610558 0.000000
0.000000 0.718870 0.000000
0.226334 0.718870 0.000000
0.514892 0.718870 0.000000
0.718977 0.719191 0.000000
0.932846 0.754539 0.000000
0.000000 0.908638 0.000000
0.226334 0.908638 0.000000
0.514892 0.908638 0.000000
0.718870 0.908638 0.000000
0.908659 0.908744 0.000000
0.013084 0.013084 0.051203
0.225267 0.000384 0.225011
0.514892 0.000000 0.226334
0.718870 0.000000 0.226334
0.908638 0.000000 0.226334
0.034369 0.198449 0.197296
0.227196 0.226676 0.222280
0.518526 0.227410 0.223349
0.720619 0.226818 0.224799
0.910051 0.226633 0.225306
0.015319 0.500235 0.233088
0.226486 0.514826 0.226462
0.515390 0.516115 0.223800
0.759328 0.565310 0.106027
0.997971 0.584949 0.056426
0.009610 0.711922 0.235456
0.226377 0.718870 0.226391
0.514892 0.718870 0.226334
0.719030 0.719309 0.225041
0.941476 0.758562 0.106725
0.006649 0.902653 0.234613
0.226334 0.908638 0.226377
0.514892 0.908638 0.226334
0.718870 0.908638 0.226334
0.908680 0.908770 0.225967
0.027012 0.027012 0.120469
0.168870 0.034065 0.343569
0.514106 0.000302 0.514106
0.718870 0.000000 0.514892
0.908638 0.000000 0.514892
0.089067 0.192630 0.310318
0.252954 0.252970 0.323321
0.513534 0.227511 0.513339
0.718870 0.226334 0.514892
0.908638 0.226334 0.514892
0.076542 0.465133 0.464468
0.293069 0.490714 0.489417
0.516285 0.515002 0.511320
0.722577 0.516059 0.511228
0.911371 0.515437 0.513006
0.045437 0.692867 0.514486
0.257739 0.708617 0.520690
0.515093 0.718810 0.515033
0.719215 0.719612 0.512971
0.954922 0.757256 0.395998
0.031762 0.885825 0.526517
0.246250 0.900697 0.522576
0.514959 0.908638 0.514953
0.718870 0.908638 0.514892
0.908702 0.908830 0.514454
0.042270 0.042270 0.208523
0.162490 0.065790 0.396887
0.453287 0.031719 0.635329
0.718550 0.000213 0.718497
0.908638 0.000000 0.718870
0.123419 0.211692 0.397962
0.280017 0.280089 0.413953
0.463325 0.292520 0.603044
0.718390 0.226933 0.718337
0.908638 0.226334 0.718870
0.162739 0.447769 0.570019
0.375638 0.485579 0.579808
0.536948 0.536948 0.589551
0.718046 0.515799 0.717838
0.908638 0.514892 0.718870
0.128615 0.667461 0.667194
0.358986 0.684816 0.684377
0.567419 0.702039 0.701166
0.719874 0.718717 0.717340
0.912282 0.719628 0.716758
0.085337 0.861956 0.708795
0.312016 0.879749 0.718587
0.540682 0.897112 0.722993
0.718982 0.908584 0.718977
0.908780 0.908972 0.718315
0.058860 0.058860 0.303974
0.176717 0.093445 0.456347
0.407884 0.075996 0.678007
0.679349 0.027382 0.839220
0.908531 0.000064 0.908510
0.153394 0.235701 0.480599
0.306858 0.306900 0.500171
0.457207 0.343703 0.639402
0.676909 0.288608 0.820240
0.908488 0.226505 0.908467
0.224737 0.454533 0.635963
0.416727 0.502549 0.640069
0.557753 0.557753 0.650848
0.683582 0.566944 0.789769
0.908424 0.515106 0.908393
0.237606 0.651401 0.748914
0.457398 0.673123 0.760925
0.625055 0.698536 0.769194
0.734835 0.734835 0.777412
0.908267 0.719141 0.908146
0.190090 0.834601 0.834473
0.422354 0.852690 0.852562
0.613720 0.871053 0.870830
0.758895 0.889826 0.889413
0.909140 0.908446 0.908262
