gsg/02_Everyday/GSG_LUT_Everyday_OverCaster.cube
# GSG LUTs 1.0
# Copyright (c) 2016-2020 Greyscalegorilla
# See EULA for licensing and distribution information
# Converted by Briz LUT Converter
LUT_3D_SIZE 5
DOMAIN_MIN 0.000000 0.000000 0.000000
DOMAIN_MAX 0.903226 0.903226 0.903226
0.016117 0.041514 0.049084
0.162110 0.115885 0.132601
0.304415 0.156343 0.171996
0.457710 0.174052 0.187483
0.622837 0.191193 0.200835
0.063311 0.159415 0.115042
0.163373 0.194169 0.151176
0.263315 0.216849 0.171166
0.388251 0.235409 0.177425
0.557039 0.254803 0.177389
0.129915 0.373618 0.203750
0.204140 0.361342 0.196917
0.290966 0.358497 0.201297
0.393812 0.369589 0.201540
0.555314 0.400635 0.199532
0.184474 0.608287 0.224916
0.244545 0.556780 0.206418
0.323447 0.546228 0.210264
0.448336 0.574003 0.234141
0.602537 0.611651 0.265144
0.292576 0.783119 0.273890
0.356083 0.776980 0.292108
0.441134 0.780034 0.322546
0.554839 0.795644 0.369144
0.687285 0.827264 0.436514
0.030533 0.073685 0.218929
0.186435 0.136845 0.276755
0.313291 0.171240 0.296860
0.455877 0.181041 0.304402
0.617086 0.193470 0.305085
0.071444 0.175063 0.211048
0.165670 0.200164 0.235287
0.265971 0.218234 0.246958
0.393554 0.233633 0.256301
0.559591 0.255832 0.268296
0.136539 0.368322 0.284643
0.199962 0.358809 0.270885
0.284555 0.358781 0.268365
0.395436 0.371517 0.274268
0.561132 0.409130 0.297406
0.190831 0.592991 0.318358
0.244136 0.554242 0.297405
0.327692 0.558589 0.308315
0.455557 0.585055 0.337812
0.608141 0.623042 0.387249
0.308811 0.782473 0.384358
0.385765 0.776657 0.410841
0.472302 0.782225 0.444532
0.579695 0.801511 0.489438
0.706461 0.837720 0.554087
0.040514 0.109189 0.567254
0.217031 0.156010 0.566185
0.347179 0.179797 0.527024
0.470834 0.196022 0.494163
0.624643 0.205357 0.478740
0.066396 0.205585 0.424164
0.171747 0.215135 0.422789
0.280037 0.227661 0.404563
0.400866 0.244928 0.397856
0.562895 0.264095 0.403404
0.142702 0.382124 0.430909
0.205757 0.367096 0.402991
0.284908 0.364771 0.388274
0.402838 0.381396 0.392758
0.563584 0.423786 0.423758
0.203017 0.587487 0.451582
0.255464 0.559292 0.425443
0.340024 0.571095 0.435058
0.471441 0.595472 0.462655
0.616550 0.636528 0.504135
0.324476 0.787688 0.505374
0.407491 0.785316 0.523913
0.497539 0.791138 0.551278
0.604842 0.809263 0.591865
0.724951 0.848344 0.648417
0.078806 0.159234 0.931986
0.249112 0.197605 0.856881
0.371917 0.204289 0.800878
0.495232 0.208411 0.737676
0.637757 0.219867 0.683423
0.067191 0.233542 0.742546
0.182801 0.233804 0.677179
0.294396 0.239809 0.619602
0.415115 0.253437 0.575988
0.567553 0.274462 0.555423
0.131667 0.403013 0.648719
0.203703 0.380383 0.582986
0.286653 0.372676 0.538680
0.412872 0.395861 0.540692
0.570041 0.442680 0.563841
0.216452 0.588020 0.603512
0.271392 0.573682 0.576894
0.359768 0.586000 0.579923
0.490461 0.611930 0.593580
0.632313 0.656063 0.626668
0.344992 0.796526 0.640664
0.434317 0.798054 0.650762
0.525112 0.806916 0.668343
0.629799 0.826531 0.697812
0.751306 0.865808 0.749027
0.139123 0.222837 1.000000
0.291129 0.252122 1.000000
0.394441 0.256644 0.993880
0.498090 0.256276 0.911648
0.630166 0.258096 0.853545
0.113214 0.268943 0.991603
0.214315 0.266167 0.874339
0.310405 0.265281 0.803742
0.422301 0.269141 0.746417
0.570129 0.288720 0.706083
0.158011 0.417955 0.854617
0.217117 0.391815 0.761892
0.296905 0.385062 0.691236
0.428710 0.419016 0.679632
0.578356 0.469167 0.694456
0.238812 0.589743 0.751569
0.302611 0.587914 0.726516
0.395434 0.601973 0.715919
0.517998 0.631731 0.718265
0.652831 0.680029 0.739451
0.369728 0.807572 0.778469
0.464784 0.813523 0.779231
0.556350 0.825956 0.786832
0.657618 0.847674 0.804106
0.776693 0.889109 0.842604
