gsg/02_Everyday/GSG_LUT_Everyday_AmberWaves.cube
# GSG LUTs 1.0
# Copyright (c) 2016-2020 Greyscalegorilla
# See EULA for licensing and distribution information
# Converted by Briz LUT Converter
LUT_3D_SIZE 5
DOMAIN_MIN 0.000000 0.000000 0.000000
DOMAIN_MAX 0.903226 0.903226 0.903226
0.050794 0.050794 0.050794
0.103824 0.051038 0.057797
0.212179 0.060018 0.090000
0.380196 0.093513 0.164142
0.545236 0.136595 0.236898
0.067179 0.103824 0.058970
0.138683 0.114853 0.067563
0.298108 0.138846 0.128764
0.519291 0.174769 0.225282
0.667792 0.205081 0.289769
0.098751 0.233652 0.080775
0.145592 0.242581 0.089180
0.288145 0.262594 0.134389
0.547213 0.295112 0.238461
0.711531 0.316409 0.309126
0.050794 0.442696 0.123888
0.050794 0.442838 0.112886
0.162965 0.462303 0.128041
0.524032 0.501286 0.232932
0.756666 0.513120 0.331867
0.050794 0.630045 0.162283
0.050794 0.630402 0.151123
0.050794 0.636863 0.120496
0.227540 0.666115 0.159461
0.748524 0.718465 0.332746
0.062689 0.054701 0.100327
0.219884 0.069631 0.116660
0.312666 0.103401 0.134589
0.423434 0.140472 0.183568
0.563531 0.178847 0.243951
0.104652 0.132581 0.119630
0.177818 0.145391 0.126323
0.348499 0.173008 0.155687
0.557299 0.209182 0.241601
0.711002 0.234485 0.308122
0.125322 0.259291 0.148761
0.158952 0.274167 0.148864
0.329815 0.297923 0.169395
0.583289 0.329781 0.253840
0.746993 0.348299 0.324538
0.050794 0.465983 0.174281
0.050794 0.467620 0.162880
0.187109 0.492397 0.170683
0.561484 0.532224 0.249738
0.783671 0.545291 0.343953
0.050794 0.646445 0.218954
0.050794 0.648737 0.197719
0.050794 0.653376 0.155934
0.283617 0.690574 0.167563
0.775427 0.741022 0.344918
0.097326 0.073205 0.208515
0.259627 0.099884 0.211858
0.422514 0.131551 0.223617
0.527415 0.188313 0.232810
0.621378 0.235782 0.269308
0.149186 0.177069 0.243593
0.226841 0.189015 0.252930
0.409283 0.218023 0.261158
0.586053 0.265688 0.266741
0.719814 0.301791 0.312719
0.163940 0.319471 0.288364
0.206694 0.328985 0.293663
0.395196 0.355937 0.302604
0.640630 0.391187 0.300016
0.797091 0.413352 0.347211
0.055205 0.503945 0.332427
0.065559 0.514652 0.332349
0.275685 0.545401 0.336660
0.627904 0.587782 0.335917
0.835474 0.606602 0.366778
0.050915 0.683272 0.371988
0.050950 0.684357 0.360811
0.050917 0.693467 0.331869
0.387611 0.746941 0.326227
0.828858 0.787873 0.369943
0.162945 0.122951 0.334995
0.315174 0.149902 0.356152
0.471111 0.182263 0.368999
0.627103 0.217674 0.341792
0.710403 0.302381 0.324361
0.220529 0.243112 0.405959
0.312326 0.263109 0.442198
0.481099 0.289879 0.456880
0.663685 0.320471 0.426867
0.779838 0.399553 0.371071
0.232154 0.398021 0.467341
0.295477 0.407221 0.487380
0.484152 0.433933 0.521961
0.692278 0.464538 0.510464
0.840031 0.511137 0.409279
0.191281 0.580586 0.520481
0.256639 0.588440 0.530507
0.443033 0.613373 0.562591
0.686486 0.648021 0.580382
0.882864 0.673648 0.461778
0.050794 0.727819 0.522250
0.050794 0.733562 0.529149
0.056711 0.755326 0.549606
0.536057 0.802978 0.605161
0.879593 0.845790 0.526662
0.247729 0.195274 0.467116
0.394398 0.229032 0.501737
0.529171 0.260499 0.533994
0.669891 0.292215 0.534649
0.780190 0.322143 0.455967
0.352404 0.354016 0.587097
0.446167 0.376028 0.624034
0.584202 0.399079 0.657041
0.725069 0.419248 0.659746
0.836077 0.440249 0.573043
0.408474 0.523052 0.661160
0.457844 0.524655 0.675224
0.599343 0.545099 0.711265
0.753231 0.567889 0.732190
0.881813 0.586962 0.679942
0.482946 0.696820 0.724684
0.515636 0.699679 0.733624
0.611777 0.708075 0.760320
0.758348 0.720394 0.791257
0.908163 0.741662 0.767952
0.466242 0.834873 0.770619
0.490441 0.839259 0.777841
0.572607 0.851363 0.799011
0.721810 0.874330 0.832578
0.912739 0.901355 0.844254
