gsg/02_Everyday/GSG_LUT_Everyday_AllCrunchedOut.cube
# GSG LUTs 1.0
# Copyright (c) 2016-2020 Greyscalegorilla
# See EULA for licensing and distribution information
# Converted by Briz LUT Converter
LUT_3D_SIZE 5
DOMAIN_MIN 0.000000 0.000000 0.000000
DOMAIN_MAX 0.903226 0.903226 0.903226
0.012943 0.008059 0.015873
0.064043 0.010445 0.019701
0.349569 0.000000 0.020182
0.754854 0.000000 0.002332
1.000000 0.000000 0.012588
0.000000 0.092465 0.042908
0.060386 0.106234 0.015679
0.427835 0.050672 0.000000
0.781067 0.000000 0.000000
1.000000 0.000000 0.000000
0.000000 0.405995 0.165946
0.000000 0.409809 0.108916
0.400722 0.434666 0.000121
0.805959 0.407027 0.000000
1.000000 0.381472 0.000000
0.000000 0.705550 0.378747
0.000000 0.708767 0.323441
0.331018 0.701769 0.244876
0.749604 0.728840 0.026889
0.995867 0.715869 0.000000
0.550301 0.902304 0.692032
0.537443 0.904087 0.663993
0.600489 0.902609 0.619724
0.757602 0.903959 0.551173
0.959629 0.912865 0.399989
0.002080 0.015038 0.088432
0.063683 0.014958 0.081792
0.362362 0.000000 0.077877
0.752546 0.000000 0.016713
0.999756 0.000000 0.000000
0.000000 0.107631 0.132393
0.074665 0.125415 0.134183
0.414707 0.096693 0.094035
0.774995 0.005077 0.009893
1.000000 0.017912 0.000000
0.000000 0.413872 0.272048
0.007438 0.427662 0.255622
0.417504 0.438602 0.144779
0.804594 0.402246 0.000301
1.000000 0.392904 0.000000
0.025043 0.710835 0.459361
0.171199 0.715877 0.446431
0.381590 0.707438 0.354567
0.753177 0.730797 0.212444
0.995657 0.716644 0.000000
0.576820 0.903257 0.725081
0.606373 0.904479 0.721387
0.627947 0.904657 0.666897
0.762382 0.904185 0.603181
0.956523 0.913893 0.482657
0.000000 0.049722 0.332837
0.014863 0.060665 0.352371
0.396516 0.004388 0.334887
0.750790 0.000000 0.297014
0.994857 0.164895 0.305846
0.000000 0.161476 0.346041
0.029288 0.178716 0.371799
0.423398 0.183526 0.367319
0.755162 0.185615 0.337478
0.994047 0.274303 0.308547
0.000000 0.408295 0.419012
0.049292 0.424750 0.426857
0.441262 0.450379 0.428431
0.776056 0.455437 0.385666
0.998138 0.455426 0.284083
0.254937 0.718508 0.605022
0.360450 0.723461 0.606505
0.516753 0.721783 0.576238
0.755680 0.735396 0.495231
0.993594 0.712709 0.318707
0.578299 0.905471 0.780560
0.622899 0.906554 0.783802
0.699548 0.905629 0.773436
0.769977 0.904054 0.710950
0.946795 0.915693 0.639872
0.000000 0.152586 0.630391
0.000000 0.163510 0.640854
0.476845 0.192118 0.673201
0.784485 0.128344 0.643523
0.992759 0.248672 0.584878
0.000000 0.250756 0.623280
0.001446 0.258791 0.638527
0.483294 0.308404 0.675431
0.782923 0.304054 0.656703
0.985788 0.363366 0.599842
0.000000 0.420466 0.607126
0.000000 0.428253 0.613356
0.443358 0.486220 0.666377
0.769655 0.547003 0.689158
0.963531 0.573317 0.656439
0.084470 0.689197 0.704193
0.265936 0.696295 0.709262
0.505353 0.707368 0.713790
0.749685 0.738281 0.729585
0.961713 0.740457 0.689232
0.625802 0.906195 0.859474
0.661911 0.908680 0.862406
0.727155 0.910406 0.860110
0.814666 0.911041 0.845997
0.934323 0.918772 0.802522
0.121974 0.366765 0.886053
0.314392 0.378812 0.888540
0.594455 0.422325 0.896024
0.849283 0.522485 0.906786
0.997141 0.483094 0.880724
0.119327 0.428503 0.881702
0.315715 0.442317 0.885253
0.588764 0.482367 0.891640
0.839422 0.573625 0.902993
0.991778 0.546959 0.881132
0.011007 0.547433 0.864163
0.212341 0.563776 0.871043
0.544183 0.591455 0.883218
0.816502 0.674637 0.899368
0.968898 0.678190 0.887477
0.014045 0.726875 0.873143
0.111470 0.726004 0.873671
0.376531 0.708393 0.866923
0.741876 0.755113 0.888307
0.942204 0.813935 0.901585
0.553804 0.898876 0.915330
0.590574 0.900569 0.916593
0.673519 0.901309 0.916465
0.793245 0.904532 0.916843
0.928941 0.922792 0.925347
