gsg/02_Everyday/GSG_LUT_Everyday_Shady_Porch.cube
# GSG LUTs 1.0
# Copyright (c) 2016-2020 Greyscalegorilla
# See EULA for licensing and distribution information
# Converted by Briz LUT Converter
LUT_3D_SIZE 8
DOMAIN_MIN 0.000000 0.000000 0.000000
DOMAIN_MAX 0.903226 0.903226 0.903226
0.050794 0.050794 0.050794
0.207042 0.047296 0.041711
0.331884 0.061247 0.043940
0.443901 0.105754 0.065328
0.540179 0.143905 0.088566
0.631289 0.177415 0.128953
0.713270 0.227043 0.164126
0.801087 0.254260 0.207570
0.028697 0.207617 0.043389
0.192749 0.203651 0.048303
0.313143 0.209068 0.060197
0.426919 0.217370 0.079064
0.520196 0.238676 0.110385
0.611972 0.262208 0.146090
0.700956 0.288519 0.179111
0.791469 0.308859 0.211594
0.052322 0.339935 0.063161
0.172368 0.339286 0.075347
0.291933 0.341714 0.089613
0.401324 0.347259 0.119843
0.498841 0.355650 0.147236
0.591771 0.367376 0.178497
0.682891 0.382791 0.209083
0.776066 0.400045 0.235332
0.083832 0.467801 0.120115
0.169891 0.466129 0.126522
0.275966 0.468077 0.150268
0.378545 0.471356 0.170100
0.476257 0.478372 0.191835
0.571570 0.485535 0.217884
0.665749 0.496321 0.240113
0.764424 0.504709 0.263199
0.094970 0.581047 0.178668
0.159673 0.583029 0.186293
0.258995 0.585109 0.201554
0.361177 0.586897 0.220217
0.458649 0.592318 0.238822
0.556157 0.598643 0.255049
0.665469 0.599474 0.268607
0.785942 0.598235 0.274767
0.095829 0.698673 0.233904
0.151207 0.701288 0.237059
0.243798 0.701566 0.248560
0.343812 0.704047 0.262203
0.452961 0.703023 0.270703
0.570357 0.701677 0.271620
0.690837 0.700129 0.274603
0.811257 0.698581 0.276050
0.050762 0.818843 0.266210
0.119418 0.819465 0.274305
0.232851 0.816448 0.271315
0.353475 0.812642 0.272899
0.473472 0.809441 0.275217
0.593788 0.807030 0.275839
0.716393 0.804938 0.272987
0.839826 0.803534 0.263135
0.000000 0.929922 0.284478
0.111242 0.927367 0.276426
0.236649 0.923946 0.272835
0.364327 0.921305 0.270716
0.488883 0.917965 0.267901
0.613604 0.914902 0.264812
0.738475 0.911744 0.257912
0.864275 0.908472 0.251799
0.045264 0.053173 0.219197
0.208220 0.045363 0.212013
0.330188 0.066679 0.214314
0.442113 0.109448 0.220203
0.534382 0.152055 0.230380
0.625726 0.189337 0.247040
0.709427 0.227472 0.267811
0.797786 0.263830 0.287909
0.023815 0.210252 0.211368
0.187981 0.207538 0.209564
0.308811 0.213657 0.217630
0.419277 0.225910 0.226839
0.516028 0.243547 0.237548
0.606278 0.269366 0.257202
0.696908 0.290903 0.275367
0.787106 0.315857 0.297955
0.038512 0.343251 0.217323
0.166409 0.342709 0.219507
0.285883 0.345285 0.228098
0.396117 0.351098 0.241535
0.493956 0.359708 0.255918
0.586908 0.372937 0.273063
0.678602 0.388940 0.292207
0.773621 0.402096 0.313575
0.071213 0.466995 0.239094
0.162723 0.469736 0.241383
0.270382 0.470819 0.252609
0.374049 0.474765 0.267040
0.473190 0.479023 0.281117
0.569013 0.488327 0.297545
0.664227 0.497177 0.314101
0.764774 0.503690 0.330668
0.085053 0.583905 0.265709
0.156250 0.584870 0.271860
0.255214 0.586663 0.280187
0.359287 0.588719 0.296042
0.456061 0.593786 0.309158
0.555397 0.598661 0.320563
0.667813 0.598556 0.326734
0.785632 0.600695 0.330431
0.072890 0.700473 0.302212
0.154018 0.701972 0.306405
0.237974 0.703648 0.311467
0.344078 0.705599 0.322711
0.455683 0.704255 0.325569
0.573333 0.701459 0.326464
0.694130 0.700140 0.325625
0.814183 0.697367 0.324279
0.050147 0.819914 0.327359
0.126536 0.817859 0.328482
0.233929 0.817510 0.323912
0.354390 0.813128 0.323865
0.474327 0.809625 0.323732
0.596273 0.806562 0.321571
0.719516 0.803755 0.319417
0.842632 0.802097 0.310926
0.010003 0.928916 0.330353
0.108093 0.927205 0.325467
0.232996 0.925673 0.320686
0.361922 0.921900 0.312312
0.490611 0.917776 0.310177
0.617267 0.914966 0.304486
0.742115 0.912031 0.298086
0.864322 0.910058 0.291165
0.067588 0.054465 0.360534
0.212803 0.053008 0.352224
0.334540 0.071203 0.349955
0.439763 0.113062 0.348893
0.533037 0.160156 0.356604
0.619776 0.199522 0.368786
0.706196 0.239988 0.383398
0.794723 0.270827 0.396641
0.034615 0.210201 0.347836
0.184785 0.211236 0.350809
0.309627 0.218277 0.347342
0.417098 0.231314 0.354332
0.513421 0.249713 0.362703
0.603301 0.273561 0.374567
0.693451 0.299813 0.389263
0.784519 0.321860 0.403638
0.044834 0.346473 0.348673
0.166253 0.346745 0.353715
0.286712 0.347994 0.354943
0.393048 0.356809 0.365344
0.488925 0.365776 0.373997
0.582723 0.379016 0.388719
0.674930 0.394515 0.401711
0.770113 0.408626 0.415456
0.064617 0.470698 0.360702
0.156902 0.472196 0.365288
0.266698 0.473871 0.371129
0.372576 0.478233 0.381833
0.469555 0.484052 0.390903
0.563966 0.493172 0.404617
0.660985 0.501449 0.416319
0.766461 0.506655 0.424831
0.088305 0.586602 0.382556
0.160557 0.587472 0.385054
0.252048 0.590309 0.388953
0.355558 0.593432 0.399177
0.453198 0.596618 0.408737
0.555557 0.600199 0.417870
0.671604 0.600273 0.420117
0.790309 0.599202 0.418700
0.078705 0.702757 0.401450
0.147873 0.705287 0.406086
0.236677 0.706218 0.408495
0.344352 0.706942 0.413928
0.459790 0.704744 0.413937
0.575815 0.702362 0.414094
0.697462 0.700387 0.411870
0.818397 0.697808 0.406707
0.064662 0.818720 0.418842
0.125783 0.818659 0.417552
0.236360 0.816999 0.413302
0.358878 0.813819 0.407418
0.479744 0.810148 0.405311
0.600216 0.807415 0.402274
0.723262 0.804998 0.397563
0.845875 0.801958 0.390958
0.019867 0.928063 0.414845
0.119944 0.927397 0.409501
0.240215 0.924826 0.404743
0.368736 0.922440 0.394428
0.492741 0.919362 0.389961
0.619394 0.914852 0.383596
0.743651 0.912383 0.376321
0.868300 0.908956 0.368224
0.101784 0.068313 0.490858
0.216464 0.071284 0.482571
0.330349 0.097965 0.477726
0.434339 0.134908 0.475859
0.529552 0.168286 0.479734
0.617078 0.209496 0.487191
0.703139 0.247896 0.496795
0.792354 0.279476 0.509939
0.076916 0.217623 0.477845
0.198306 0.216618 0.476555
0.309164 0.226091 0.474974
0.416251 0.237723 0.477767
0.511799 0.257219 0.482595
0.601344 0.282819 0.492011
0.692017 0.306367 0.501368
0.782535 0.330662 0.515216
0.074815 0.349658 0.477278
0.168859 0.350790 0.477604
0.282747 0.353244 0.480628
0.390812 0.362418 0.484074
0.486979 0.373946 0.491691
0.579968 0.387294 0.501231
0.673678 0.402306 0.511478
0.770317 0.414066 0.523665
0.066686 0.474962 0.482707
0.159935 0.475916 0.485772
0.263556 0.478423 0.490756
0.369114 0.483386 0.496943
0.464895 0.490634 0.504999
0.560789 0.499320 0.514743
0.659460 0.507944 0.524262
0.773422 0.510144 0.525909
0.083000 0.589274 0.497718
0.154792 0.591282 0.499364
0.248858 0.593558 0.504439
0.354167 0.597030 0.510476
0.451576 0.600598 0.518565
0.559434 0.603005 0.522081
0.676834 0.602491 0.521359
0.796279 0.601467 0.518286
0.085862 0.704795 0.513348
0.142519 0.706623 0.514527
0.233969 0.707970 0.519156
0.347008 0.708625 0.518432
0.463710 0.705887 0.516164
0.584190 0.702965 0.514728
0.704074 0.700890 0.510639
0.823644 0.698818 0.507460
0.056886 0.820840 0.522492
0.134650 0.819786 0.520411
0.242005 0.817283 0.514904
0.361253 0.815119 0.509372
0.482062 0.812048 0.504290
0.605526 0.807611 0.500191
0.728672 0.804886 0.495484
0.851145 0.801396 0.488973
0.034443 0.928659 0.514548
0.123338 0.927419 0.511210
0.244608 0.925169 0.505191
0.370099 0.923048 0.496058
0.495653 0.920545 0.487833
0.622726 0.916275 0.481174
0.747864 0.912390 0.475552
0.872293 0.909193 0.466226
0.153823 0.081886 0.604979
0.229347 0.091585 0.598248
0.332349 0.119901 0.593020
0.433725 0.148537 0.588880
0.524354 0.185549 0.591696
0.613351 0.223006 0.598055
0.700877 0.258819 0.605921
0.790392 0.288910 0.615953
0.123718 0.222365 0.594332
0.202119 0.227618 0.592826
0.309749 0.233615 0.590786
0.413762 0.247867 0.590503
0.508288 0.269474 0.593715
0.600232 0.291466 0.601283
0.690934 0.314815 0.609723
0.782731 0.335824 0.619487
0.100658 0.354715 0.591789
0.181284 0.355940 0.591855
0.285565 0.359392 0.594547
0.390097 0.367674 0.596735
0.485051 0.380307 0.601243
0.579423 0.393372 0.608697
0.674571 0.407093 0.616894
0.770925 0.421108 0.627530
0.092286 0.478302 0.596838
0.167088 0.480600 0.598447
0.264927 0.483232 0.602834
0.367844 0.487882 0.608119
0.464665 0.495833 0.611903
0.561951 0.503903 0.619379
0.665049 0.511215 0.625665
0.781944 0.512770 0.624840
0.098130 0.594039 0.606952
0.156562 0.594920 0.608781
0.248854 0.597142 0.613944
0.350052 0.601628 0.619467
0.452083 0.604722 0.622420
0.565408 0.605604 0.622862
0.684553 0.604292 0.620698
0.803501 0.603699 0.617696
0.088647 0.709503 0.620621
0.141648 0.710167 0.622141
0.237177 0.712201 0.624799
0.352905 0.709567 0.621394
0.469985 0.707504 0.616997
0.589668 0.704276 0.614015
0.710160 0.702186 0.610525
0.830722 0.699178 0.606868
0.079394 0.820870 0.624173
0.143917 0.820087 0.622125
0.249263 0.818132 0.618252
0.366082 0.815867 0.612354
0.488329 0.813297 0.606837
0.611859 0.809295 0.601213
0.735628 0.805236 0.596799
0.858122 0.802278 0.590340
0.020005 0.929558 0.620092
0.131232 0.928197 0.614206
0.251574 0.926146 0.607213
0.377091 0.923420 0.599820
0.499654 0.921327 0.591476
0.626253 0.917989 0.583562
0.753378 0.913266 0.577649
0.877041 0.909892 0.570714
0.180488 0.111127 0.718406
0.236658 0.124124 0.713797
0.333048 0.145482 0.708970
0.429737 0.174284 0.705519
0.520055 0.204884 0.705113
0.609263 0.238923 0.709799
0.699198 0.269692 0.717357
0.792164 0.295598 0.725837
0.147278 0.235752 0.711571
0.217549 0.237973 0.709462
0.312812 0.244255 0.706027
0.412780 0.257981 0.704661
0.503262 0.281549 0.708049
0.596134 0.301954 0.712817
0.689768 0.323122 0.718872
0.784626 0.343432 0.727635
0.125670 0.359865 0.708161
0.188672 0.363769 0.707621
0.285007 0.367397 0.707419
0.387958 0.373728 0.710437
0.483484 0.385860 0.713827
0.578951 0.399604 0.718802
0.675524 0.415076 0.726400
0.776787 0.424708 0.732343
0.108613 0.483176 0.710438
0.173030 0.486146 0.712066
0.264705 0.487589 0.715741
0.365030 0.494434 0.719452
0.465428 0.500551 0.723062
0.563801 0.508476 0.728514
0.675275 0.512866 0.729097
0.793056 0.513667 0.726683
0.091242 0.598857 0.720372
0.160005 0.598966 0.722041
0.246187 0.602377 0.725210
0.347497 0.606143 0.729338
0.456287 0.607414 0.730550
0.576578 0.606896 0.726188
0.695431 0.605969 0.722907
0.814775 0.605239 0.720065
0.081952 0.714351 0.731458
0.141687 0.714145 0.733081
0.240811 0.713802 0.732668
0.358051 0.710992 0.727661
0.474912 0.708944 0.723498
0.597092 0.706414 0.719678
0.718050 0.703724 0.715362
0.839101 0.701451 0.711767
0.087554 0.822602 0.731814
0.148975 0.821786 0.729627
0.254427 0.819267 0.725258
0.374374 0.816691 0.720020
0.492936 0.814297 0.714667
0.618347 0.810883 0.707962
0.743334 0.806503 0.704573
0.863633 0.803427 0.699402
0.046012 0.930593 0.726438
0.133494 0.929942 0.721872
0.253384 0.927083 0.715906
0.381541 0.924631 0.710606
0.505660 0.922235 0.703004
0.631167 0.919256 0.694899
0.757862 0.915776 0.687694
0.881173 0.910967 0.682563
0.177896 0.144070 0.837205
0.239460 0.152218 0.832729
0.326767 0.167421 0.826541
0.423024 0.192395 0.821552
0.513697 0.222839 0.822002
0.603560 0.256237 0.824224
0.696183 0.283945 0.830861
0.790744 0.307043 0.837137
0.163631 0.246201 0.828536
0.222436 0.247415 0.825008
0.308225 0.257267 0.824166
0.406507 0.273198 0.822418
0.497288 0.293903 0.823479
0.592567 0.313957 0.827204
0.688177 0.331955 0.832801
0.784631 0.349566 0.840340
0.133531 0.369683 0.824778
0.196004 0.370585 0.824382
0.281109 0.375448 0.824449
0.382822 0.383335 0.826865
0.479756 0.393819 0.828770
0.576421 0.408157 0.833157
0.676016 0.419880 0.838623
0.786782 0.426353 0.840571
0.112075 0.488798 0.827147
0.169258 0.492098 0.828314
0.258682 0.494948 0.830048
0.361040 0.500188 0.834614
0.460894 0.506130 0.838393
0.565080 0.513632 0.840468
0.683715 0.514595 0.836970
0.804514 0.514727 0.834424
0.098827 0.603578 0.835096
0.157445 0.604419 0.836380
0.241328 0.607721 0.839632
0.346322 0.610266 0.843179
0.460656 0.609516 0.841266
0.582645 0.607999 0.836458
0.705988 0.606228 0.831752
0.827008 0.605340 0.827889
0.084504 0.718160 0.843960
0.147020 0.717094 0.844652
0.245394 0.715436 0.842495
0.361681 0.712972 0.838102
0.481218 0.710201 0.834328
0.604030 0.707009 0.830028
0.729121 0.704851 0.824143
0.850728 0.703110 0.820169
0.090926 0.824162 0.842000
0.147292 0.823648 0.840062
0.260857 0.820914 0.835894
0.378151 0.818336 0.832651
0.499995 0.815552 0.826129
0.624596 0.811722 0.821835
0.749120 0.808769 0.815960
0.869761 0.806395 0.811578
0.054684 0.932974 0.835966
0.146326 0.930821 0.833041
0.260649 0.928521 0.829071
0.387262 0.926001 0.823723
0.508999 0.923140 0.817848
0.636480 0.920105 0.811206
0.762075 0.917156 0.804290
0.886948 0.912194 0.800238
0.177140 0.173863 0.951759
0.228825 0.177791 0.948600
0.314089 0.192985 0.943325
0.413421 0.213278 0.939156
0.504394 0.244457 0.936869
0.598355 0.273120 0.939843
0.691113 0.300004 0.943687
0.787692 0.322672 0.950667
0.146123 0.264114 0.944502
0.208931 0.266440 0.942197
0.299346 0.272013 0.940452
0.397328 0.285477 0.938089
0.492841 0.303655 0.939497
0.587940 0.325127 0.941621
0.686753 0.345310 0.946262
0.783396 0.363178 0.953862
0.131553 0.376743 0.940420
0.181988 0.380849 0.940412
0.276749 0.383321 0.939549
0.376523 0.390480 0.941778
0.474246 0.402841 0.943724
0.572370 0.416063 0.947277
0.675835 0.428280 0.951576
0.795322 0.430392 0.949313
0.096291 0.497905 0.942129
0.156529 0.498268 0.942307
0.252778 0.501379 0.945978
0.353993 0.506445 0.948768
0.453826 0.512146 0.953076
0.568974 0.516102 0.951101
0.692538 0.516949 0.946908
0.814379 0.515775 0.944514
0.082271 0.609020 0.949609
0.143613 0.610633 0.951061
0.232309 0.613147 0.953599
0.344201 0.614191 0.954364
0.464516 0.610836 0.951552
0.589554 0.609184 0.947029
0.714335 0.608083 0.942405
0.836787 0.605287 0.938810
0.071342 0.720323 0.957536
0.132755 0.720556 0.956259
0.243477 0.718493 0.952684
0.363574 0.714997 0.949947
0.487002 0.711285 0.945437
0.610308 0.708241 0.942717
0.736814 0.704051 0.937176
0.860263 0.703122 0.932722
0.079086 0.827024 0.952827
0.140643 0.825957 0.951408
0.260612 0.822396 0.947390
0.379484 0.819887 0.944153
0.503894 0.816197 0.940165
0.629873 0.812884 0.935446
0.755964 0.808316 0.931995
0.879755 0.805258 0.926456
0.063729 0.933873 0.949295
0.137985 0.932730 0.947308
0.257246 0.930653 0.943337
0.386392 0.927943 0.937591
0.511726 0.924751 0.933181
0.639926 0.920986 0.929260
0.765353 0.918199 0.923508
0.890254 0.913650 0.918147
