gsg/02_Everyday/GSG_LUT_Everyday_LetThereBeLight.cube
# GSG LUTs 1.0
# Copyright (c) 2016-2020 Greyscalegorilla
# See EULA for licensing and distribution information
# Converted by Briz LUT Converter
LUT_3D_SIZE 8
DOMAIN_MIN 0.000000 0.000000 0.000000
DOMAIN_MAX 0.903226 0.903226 0.903226
0.000000 0.000000 0.000000
0.127551 0.008319 0.007830
0.227256 0.025208 0.023475
0.344236 0.060317 0.053251
0.463012 0.094206 0.086266
0.609642 0.135767 0.126488
0.737934 0.171838 0.159872
0.830367 0.199819 0.187325
0.055528 0.115830 0.024893
0.150238 0.127539 0.033529
0.267809 0.139674 0.050066
0.402334 0.152228 0.065527
0.555433 0.174559 0.102690
0.709643 0.196526 0.148198
0.817854 0.204916 0.182576
0.897535 0.219185 0.203923
0.104975 0.225775 0.084029
0.154720 0.231460 0.091118
0.268557 0.243517 0.101350
0.415821 0.253615 0.117067
0.580034 0.266084 0.132561
0.741431 0.272880 0.144380
0.850479 0.280681 0.175158
0.925665 0.276754 0.201946
0.056883 0.348190 0.126984
0.120403 0.352740 0.127631
0.263286 0.360706 0.143159
0.420421 0.374568 0.154603
0.602953 0.388926 0.168991
0.767116 0.393917 0.174176
0.878369 0.382589 0.166490
0.951551 0.373440 0.186327
0.050928 0.470889 0.160629
0.080304 0.474793 0.154689
0.232714 0.487286 0.163235
0.414773 0.506438 0.180092
0.615367 0.529192 0.205027
0.782316 0.540536 0.214017
0.892210 0.530789 0.208471
0.960748 0.507279 0.190919
0.014951 0.572232 0.232030
0.062968 0.576013 0.226901
0.204037 0.584331 0.218150
0.416858 0.607418 0.234574
0.630688 0.637773 0.254935
0.800060 0.657465 0.263955
0.911269 0.658080 0.261865
0.980205 0.644176 0.227288
0.064658 0.645311 0.342093
0.129703 0.646277 0.341340
0.255432 0.651009 0.329812
0.445823 0.675023 0.339621
0.654438 0.710790 0.361243
0.818539 0.736327 0.363783
0.938690 0.747646 0.338669
0.985176 0.739139 0.298992
0.272165 0.728623 0.530994
0.307838 0.732155 0.530564
0.385733 0.736754 0.525234
0.514622 0.746613 0.511173
0.695638 0.777475 0.530141
0.845928 0.802540 0.538839
0.957969 0.814936 0.523951
0.991887 0.803134 0.473226
0.000000 0.007830 0.063342
0.130158 0.032668 0.088513
0.231353 0.060195 0.110496
0.350576 0.090518 0.130876
0.474020 0.120288 0.151428
0.625499 0.155989 0.173672
0.750160 0.184761 0.185215
0.842146 0.203822 0.189293
0.056458 0.133736 0.134052
0.147019 0.145401 0.145712
0.275131 0.154365 0.155492
0.419038 0.163969 0.167738
0.573913 0.175974 0.180199
0.722441 0.182842 0.185296
0.833765 0.200294 0.188120
0.914170 0.223780 0.207960
0.098605 0.237514 0.159463
0.146186 0.243916 0.163085
0.267096 0.253905 0.173867
0.422226 0.264088 0.187879
0.596041 0.275121 0.199911
0.755396 0.277323 0.200866
0.862102 0.262975 0.187624
0.936729 0.250406 0.210524
0.049866 0.356367 0.181954
0.114320 0.362380 0.182120
0.254763 0.371601 0.188373
0.422153 0.384723 0.205799
0.609456 0.399054 0.223251
0.776460 0.402069 0.226018
0.887576 0.386992 0.211624
0.956822 0.359087 0.192695
0.034831 0.484757 0.218430
0.056826 0.488897 0.214423
0.214108 0.499197 0.208379
0.410338 0.517313 0.225083
0.618394 0.540376 0.248113
0.787168 0.551283 0.258082
0.905994 0.539742 0.243451
0.977526 0.509440 0.214287
0.015063 0.586717 0.280870
0.052374 0.590295 0.278676
0.185541 0.598903 0.269470
0.406590 0.621076 0.279727
0.629940 0.650180 0.297187
0.803574 0.669085 0.300113
0.924995 0.670339 0.286076
0.984357 0.653588 0.258012
0.056857 0.657159 0.379196
0.120082 0.660470 0.378575
0.248752 0.666526 0.371742
0.432491 0.683999 0.369403
0.649597 0.721419 0.392304
0.818673 0.748477 0.398179
0.941695 0.759136 0.372590
0.988278 0.749706 0.328127
0.251247 0.736910 0.556020
0.288678 0.740358 0.555895
0.374577 0.747208 0.553349
0.505017 0.756768 0.541415
0.687549 0.785605 0.553376
0.842610 0.811138 0.562896
0.958462 0.823421 0.548750
0.992186 0.811020 0.496772
0.000000 0.025208 0.131443
0.133963 0.060665 0.155886
0.236026 0.087526 0.178542
0.357828 0.117292 0.199571
0.487469 0.148661 0.221908
0.641586 0.187103 0.245060
0.766775 0.212856 0.254734
0.857686 0.228849 0.254354
0.057006 0.141891 0.215298
0.143451 0.151377 0.231857
0.269112 0.159990 0.242001
0.415686 0.174531 0.255459
0.573312 0.189026 0.270061
0.728384 0.213758 0.275837
0.840378 0.230089 0.263900
0.918037 0.236279 0.241261
0.095191 0.247259 0.246059
0.141273 0.253734 0.252403
0.262187 0.261456 0.261511
0.426400 0.272746 0.273005
0.605437 0.285507 0.287824
0.766915 0.285990 0.290185
0.877995 0.258957 0.266517
0.950002 0.236373 0.223152
0.040461 0.370322 0.277609
0.110392 0.375195 0.279824
0.243027 0.386936 0.284697
0.419925 0.398782 0.294884
0.618257 0.412325 0.307903
0.789294 0.413260 0.310844
0.901545 0.391168 0.291678
0.963992 0.333307 0.231741
0.012700 0.504110 0.306874
0.020763 0.510184 0.308027
0.198704 0.522517 0.311485
0.398953 0.541172 0.318382
0.620991 0.562025 0.334454
0.798739 0.568873 0.334820
0.920075 0.553531 0.318897
0.980368 0.505424 0.270149
0.002576 0.609353 0.357784
0.014950 0.613581 0.357761
0.171619 0.625283 0.360872
0.385008 0.643672 0.357251
0.624257 0.676159 0.379140
0.807194 0.694304 0.381880
0.933373 0.691730 0.357308
0.988278 0.666524 0.316245
0.014467 0.681742 0.454545
0.055602 0.686177 0.454674
0.224667 0.695328 0.453846
0.406452 0.707308 0.441033
0.636316 0.743058 0.457670
0.817920 0.771969 0.465461
0.945307 0.784349 0.445411
0.988483 0.771021 0.393114
0.186737 0.752168 0.604942
0.239766 0.756200 0.607286
0.341960 0.765032 0.608247
0.488184 0.780466 0.608205
0.665576 0.802654 0.607902
0.836650 0.831171 0.619445
0.961084 0.845508 0.605232
0.992704 0.828821 0.545843
0.003009 0.053448 0.203970
0.138441 0.091698 0.226790
0.238937 0.115487 0.244906
0.366527 0.146741 0.269518
0.499605 0.179537 0.293004
0.657493 0.217697 0.317887
0.783498 0.246473 0.333585
0.873309 0.264091 0.336759
0.056363 0.150065 0.313108
0.139323 0.158699 0.337578
0.263471 0.168945 0.347039
0.413819 0.190627 0.357587
0.574598 0.221003 0.365390
0.734714 0.251647 0.369829
0.849581 0.269875 0.364514
0.929479 0.278026 0.347034
0.091365 0.255419 0.346407
0.131371 0.262584 0.357939
0.251361 0.272149 0.375402
0.421951 0.286506 0.390972
0.603492 0.299933 0.404435
0.768075 0.300051 0.404367
0.880823 0.287985 0.388761
0.957690 0.283658 0.347605
0.023231 0.381518 0.378872
0.096903 0.387356 0.384316
0.230478 0.398869 0.397164
0.414225 0.414350 0.414399
0.624249 0.429433 0.431072
0.802216 0.424593 0.429655
0.918519 0.391865 0.398518
0.968725 0.328389 0.342783
0.000507 0.526690 0.415827
0.005321 0.531547 0.418376
0.176132 0.545102 0.426897
0.385005 0.565352 0.436851
0.619526 0.587251 0.453575
0.808993 0.592715 0.458650
0.934059 0.567886 0.434411
0.985234 0.507168 0.371964
0.000000 0.642197 0.475309
0.000021 0.647547 0.478315
0.121095 0.661044 0.482484
0.366173 0.681157 0.486776
0.610509 0.710003 0.495063
0.809532 0.729958 0.500485
0.941820 0.726818 0.481999
0.992215 0.689330 0.422336
0.000000 0.719129 0.561690
0.000268 0.723841 0.563466
0.160176 0.735929 0.567930
0.383696 0.754785 0.571407
0.609581 0.781484 0.571772
0.813046 0.812528 0.578462
0.949405 0.824223 0.554782
0.992186 0.805947 0.496244
0.087814 0.775824 0.673955
0.153506 0.778516 0.675517
0.275802 0.786793 0.677768
0.450908 0.806956 0.687827
0.640521 0.832515 0.694276
0.823988 0.862025 0.702393
0.961071 0.878670 0.694905
0.996093 0.861014 0.634149
0.007814 0.090299 0.290417
0.141033 0.126929 0.314337
0.243981 0.152049 0.334749
0.373524 0.182376 0.356587
0.510789 0.216108 0.380400
0.672764 0.253969 0.405000
0.799633 0.281432 0.418062
0.887598 0.298144 0.418130
0.058778 0.152384 0.404980
0.138281 0.176229 0.437539
0.254225 0.198703 0.446026
0.409972 0.229621 0.458879
0.575845 0.263250 0.472518
0.741247 0.296386 0.482141
0.859532 0.315316 0.476297
0.940572 0.322711 0.457911
0.087748 0.263280 0.456354
0.123531 0.269321 0.472450
0.239604 0.276166 0.499200
0.414215 0.291326 0.513204
0.598984 0.305942 0.528539
0.771321 0.324229 0.535139
0.889442 0.338551 0.522930
0.967814 0.340246 0.489712
0.007513 0.395732 0.503252
0.079409 0.401232 0.513135
0.211314 0.411859 0.532495
0.403003 0.426151 0.560048
0.617785 0.440253 0.576386
0.800105 0.441849 0.580868
0.922474 0.414394 0.561931
0.979268 0.356787 0.511282
0.000183 0.550044 0.546868
0.001114 0.555800 0.552741
0.134867 0.568648 0.566453
0.368909 0.589331 0.588715
0.611218 0.610427 0.611536
0.816018 0.612316 0.615756
0.946288 0.582551 0.589591
0.992143 0.512482 0.528425
0.000509 0.674214 0.595555
0.000509 0.679390 0.599483
0.049894 0.694510 0.611221
0.336472 0.719369 0.628189
0.591311 0.751652 0.647912
0.808541 0.772994 0.655745
0.950631 0.766298 0.633135
0.996610 0.716614 0.566692
0.000195 0.754064 0.656919
0.000207 0.758310 0.660929
0.060025 0.773248 0.671019
0.343575 0.794824 0.684600
0.588774 0.829037 0.703185
0.802520 0.860785 0.712040
0.952640 0.876595 0.699748
0.996093 0.851867 0.636455
0.023428 0.799257 0.740532
0.093878 0.803381 0.744098
0.225833 0.813084 0.750815
0.405556 0.831559 0.762259
0.613128 0.862175 0.780810
0.804351 0.891051 0.790477
0.958987 0.915224 0.793737
0.997831 0.904345 0.747547
0.011722 0.128906 0.381078
0.146504 0.164628 0.406241
0.246838 0.190438 0.428718
0.378699 0.222634 0.454041
0.519142 0.256484 0.479654
0.685045 0.296297 0.506729
0.813494 0.325665 0.524636
0.903818 0.343539 0.529179
0.065805 0.193619 0.515748
0.120344 0.224513 0.559370
0.238448 0.246923 0.569283
0.402222 0.278890 0.583294
0.572676 0.313101 0.597924
0.746176 0.346637 0.608530
0.868821 0.366881 0.604928
0.952603 0.376256 0.591726
0.084167 0.263683 0.580470
0.118003 0.267081 0.601664
0.222516 0.278677 0.639263
0.401947 0.310463 0.658248
0.592312 0.346854 0.672515
0.774099 0.381165 0.681244
0.898243 0.397792 0.669329
0.978797 0.401390 0.640890
0.006309 0.395407 0.621773
0.073092 0.400316 0.634206
0.191652 0.405215 0.666714
0.388844 0.419479 0.703280
0.608090 0.439088 0.731567
0.799059 0.449439 0.746411
0.924506 0.437436 0.736932
0.992009 0.422327 0.688845
0.000089 0.553011 0.656683
0.000655 0.557585 0.664870
0.107046 0.569522 0.685216
0.347141 0.588934 0.719675
0.596942 0.610795 0.758670
0.812786 0.621984 0.782465
0.950877 0.600722 0.777176
0.999552 0.533629 0.728796
0.000000 0.691753 0.691392
0.000000 0.696925 0.697501
0.009716 0.712419 0.713005
0.309650 0.739398 0.739795
0.571606 0.774273 0.774554
0.802478 0.801460 0.802705
0.957658 0.797418 0.802170
1.000000 0.740669 0.754067
0.001221 0.780907 0.737123
0.001319 0.785975 0.741290
0.008749 0.800616 0.754414
0.289062 0.826042 0.775140
0.558842 0.863553 0.806318
0.787450 0.902355 0.831509
0.953082 0.922950 0.836014
0.999250 0.901376 0.796551
0.001146 0.818536 0.800249
0.022432 0.823192 0.804367
0.136845 0.834408 0.813033
0.360823 0.854855 0.830473
0.581535 0.888083 0.856523
0.786414 0.923389 0.880421
0.952174 0.951153 0.889514
0.999228 0.947474 0.861420
0.023073 0.175619 0.491047
0.150137 0.213541 0.521645
0.244137 0.238393 0.543574
0.382457 0.271214 0.571677
0.525899 0.306283 0.600539
0.695784 0.347063 0.630328
0.827363 0.375438 0.646425
0.920341 0.394630 0.651642
0.050942 0.237621 0.619102
0.093046 0.267019 0.671958
0.213310 0.293106 0.684765
0.390585 0.325924 0.701697
0.564872 0.362771 0.724786
0.747572 0.402203 0.745802
0.878362 0.426320 0.749939
0.965084 0.437419 0.738129
0.082024 0.270129 0.684399
0.102253 0.285696 0.709504
0.186821 0.314582 0.743070
0.380373 0.351864 0.769455
0.580109 0.394228 0.795747
0.774362 0.434015 0.814884
0.904962 0.457773 0.817425
0.990397 0.465945 0.801679
0.024804 0.370673 0.708874
0.044377 0.367808 0.731664
0.178327 0.369338 0.771385
0.369984 0.382060 0.812956
0.589369 0.419649 0.848203
0.795524 0.463002 0.876955
0.930545 0.487178 0.880229
0.999701 0.492400 0.860923
0.000000 0.529348 0.744872
0.000707 0.531921 0.760052
0.054291 0.538436 0.783739
0.328414 0.555078 0.820606
0.577404 0.574300 0.867938
0.805693 0.590290 0.907510
0.951311 0.576904 0.923123
1.000000 0.531159 0.907591
0.001126 0.692196 0.771827
0.001146 0.697231 0.778324
0.001272 0.708909 0.794482
0.253409 0.733859 0.826783
0.541792 0.765391 0.869866
0.791513 0.792146 0.914647
0.957170 0.788184 0.936630
1.000000 0.735325 0.924217
0.000000 0.797113 0.800684
0.000000 0.801848 0.805912
0.000628 0.817515 0.820917
0.234781 0.843161 0.846378
0.521982 0.881308 0.883286
0.768648 0.923722 0.924446
0.948601 0.948003 0.948615
1.000000 0.929063 0.933549
0.000000 0.826620 0.835349
0.000000 0.831860 0.841763
0.009024 0.844492 0.853468
0.291017 0.867362 0.874061
0.538383 0.903558 0.908389
0.764566 0.947418 0.948080
0.941171 0.982481 0.974184
0.997242 0.987561 0.964875
0.027217 0.223065 0.583347
0.130025 0.258047 0.630133
0.239495 0.282563 0.651134
0.382607 0.315215 0.682587
0.529675 0.352508 0.714392
0.703580 0.395254 0.749939
0.840338 0.429056 0.773118
0.935676 0.446640 0.779253
0.061494 0.274705 0.687455
0.059620 0.298660 0.748681
0.169707 0.326286 0.775796
0.368184 0.361975 0.798480
0.553445 0.401763 0.824540
0.746587 0.444813 0.852261
0.883780 0.474265 0.866940
0.975656 0.489662 0.866661
0.043204 0.303258 0.746684
0.046450 0.313979 0.780699
0.130584 0.341010 0.817139
0.347690 0.379777 0.848885
0.556782 0.426113 0.882498
0.767494 0.474510 0.917202
0.911754 0.504873 0.932490
0.998005 0.518104 0.926280
0.044213 0.327322 0.788874
0.053874 0.332199 0.817820
0.144641 0.353754 0.844736
0.330477 0.391681 0.882553
0.559824 0.443580 0.923190
0.781925 0.495464 0.962957
0.931655 0.528930 0.983033
1.000000 0.541180 0.979789
0.000000 0.465065 0.813341
0.000876 0.467716 0.832300
0.075807 0.469837 0.855779
0.314441 0.480106 0.894039
0.552115 0.491935 0.945594
0.788537 0.520812 0.995242
0.942576 0.554820 0.999982
1.000000 0.566514 0.999754
0.000000 0.651679 0.824672
0.000000 0.654863 0.831164
0.000162 0.662702 0.846052
0.226877 0.678740 0.877997
0.514279 0.697585 0.923793
0.778472 0.721457 0.982157
0.948450 0.727073 0.999938
1.000000 0.691569 1.000000
0.000651 0.778101 0.815629
0.000678 0.782421 0.820742
0.000829 0.795155 0.835240
0.128783 0.821774 0.861962
0.470813 0.856336 0.901061
0.743829 0.899677 0.952554
0.940335 0.924357 0.995127
1.000000 0.917194 1.000000
0.000000 0.815107 0.823760
0.000000 0.819097 0.828063
0.000000 0.831499 0.840335
0.154409 0.856121 0.864082
0.466719 0.892403 0.898282
0.728352 0.940316 0.943987
0.925160 0.983637 0.984011
1.000000 1.000000 1.000000
