gsg/02_Everyday/GSG_LUT_Everyday_Heroic_Warmth.cube
# GSG LUTs 1.0
# Copyright (c) 2016-2020 Greyscalegorilla
# See EULA for licensing and distribution information
# Converted by Briz LUT Converter
LUT_3D_SIZE 8
DOMAIN_MIN 0.000000 0.000000 0.000000
DOMAIN_MAX 0.903226 0.903226 0.903226
0.077656 0.085958 0.068620
0.123920 0.110489 0.094190
0.178692 0.127071 0.112726
0.246556 0.137508 0.124999
0.330269 0.142258 0.131395
0.422214 0.147662 0.137248
0.506125 0.163220 0.151365
0.595919 0.181189 0.166631
0.106983 0.135618 0.101800
0.146615 0.153204 0.118591
0.193643 0.167009 0.130095
0.254043 0.175982 0.136421
0.331363 0.179951 0.137595
0.418264 0.185005 0.141253
0.503297 0.197676 0.153500
0.594888 0.213014 0.167479
0.128544 0.196038 0.128796
0.166426 0.207200 0.138004
0.211052 0.217448 0.147347
0.265287 0.225397 0.149111
0.336554 0.228989 0.144551
0.417615 0.234329 0.147764
0.503092 0.243891 0.158005
0.595557 0.256434 0.171011
0.140833 0.267257 0.145118
0.178104 0.272747 0.148454
0.222246 0.277253 0.153279
0.275253 0.282674 0.157188
0.341493 0.286486 0.150096
0.418463 0.291693 0.154825
0.504628 0.299226 0.163514
0.597827 0.313146 0.179031
0.142479 0.352491 0.148096
0.182638 0.351671 0.149371
0.225562 0.350488 0.150940
0.280146 0.351221 0.153760
0.345220 0.353523 0.156877
0.422542 0.359780 0.164942
0.514029 0.377952 0.184590
0.605306 0.406357 0.219280
0.165985 0.438773 0.164410
0.203134 0.435594 0.164256
0.238039 0.431382 0.162889
0.290915 0.431842 0.166371
0.363942 0.442719 0.181538
0.449415 0.461192 0.203631
0.539986 0.484170 0.233857
0.628957 0.513128 0.272913
0.198314 0.532380 0.184001
0.235467 0.529688 0.184549
0.272508 0.530018 0.193507
0.336098 0.539074 0.212742
0.412609 0.553054 0.236646
0.496676 0.571866 0.264989
0.582959 0.595474 0.298872
0.667376 0.624160 0.344982
0.261412 0.631510 0.229091
0.313219 0.635409 0.246363
0.352921 0.638410 0.261958
0.413543 0.647225 0.283159
0.485361 0.661771 0.313375
0.562692 0.681358 0.350381
0.642163 0.705849 0.393331
0.720812 0.735153 0.442574
0.078940 0.087518 0.076632
0.124227 0.111036 0.103734
0.178637 0.126795 0.124999
0.246185 0.136807 0.141065
0.329962 0.141187 0.151585
0.420355 0.147662 0.161637
0.504865 0.163654 0.177170
0.594714 0.182362 0.194171
0.107566 0.135889 0.111371
0.145574 0.152443 0.128717
0.193153 0.165226 0.142962
0.254348 0.173351 0.152941
0.333092 0.176295 0.158223
0.416278 0.184208 0.168104
0.501761 0.197289 0.181827
0.592305 0.214056 0.198188
0.129064 0.195297 0.142779
0.164015 0.206490 0.151956
0.208972 0.215914 0.162376
0.264279 0.222826 0.167489
0.336654 0.225539 0.167711
0.415373 0.232773 0.176942
0.501440 0.242544 0.189053
0.592526 0.256802 0.204845
0.141447 0.265973 0.165312
0.174366 0.272208 0.167575
0.218357 0.276025 0.172897
0.272635 0.280531 0.178091
0.339169 0.284116 0.178743
0.416105 0.289742 0.187343
0.502863 0.297593 0.197706
0.593841 0.317272 0.219781
0.142967 0.350687 0.175573
0.181019 0.350109 0.177240
0.222920 0.348556 0.180044
0.277467 0.349157 0.184575
0.342721 0.351222 0.190453
0.422643 0.361326 0.203667
0.513897 0.382492 0.227262
0.603329 0.412689 0.262331
0.166718 0.437000 0.195526
0.203490 0.433714 0.196878
0.236897 0.429380 0.196898
0.292333 0.432686 0.205024
0.367043 0.445849 0.222797
0.452479 0.465107 0.246305
0.541807 0.489121 0.277451
0.629718 0.519215 0.314126
0.199906 0.531065 0.218197
0.241932 0.529129 0.225060
0.280244 0.531229 0.236719
0.343661 0.540998 0.256344
0.419675 0.555764 0.280366
0.502478 0.575534 0.307514
0.587283 0.600323 0.341466
0.670373 0.630114 0.386066
0.268649 0.632463 0.268557
0.324906 0.635660 0.288533
0.364791 0.639229 0.303869
0.423982 0.648953 0.324856
0.494467 0.664392 0.354833
0.570745 0.685018 0.391075
0.648971 0.710756 0.433453
0.726512 0.741145 0.481920
0.081508 0.091339 0.095104
0.127315 0.113758 0.122266
0.180267 0.129150 0.146938
0.246587 0.138517 0.167113
0.329386 0.142226 0.181931
0.419197 0.148521 0.194085
0.504165 0.164512 0.208698
0.594508 0.183284 0.224625
0.109764 0.138462 0.128591
0.146129 0.153424 0.148195
0.193729 0.164947 0.164819
0.254901 0.172069 0.178046
0.333608 0.174265 0.187003
0.414456 0.183767 0.198475
0.500492 0.196856 0.211662
0.590776 0.214402 0.227270
0.130868 0.196345 0.163362
0.163629 0.206531 0.174093
0.207247 0.214585 0.183830
0.263492 0.220121 0.190917
0.334858 0.223193 0.195788
0.412872 0.231028 0.205741
0.499248 0.240871 0.216881
0.588720 0.256820 0.232501
0.142629 0.265422 0.189887
0.173615 0.271050 0.193218
0.214510 0.274494 0.196471
0.269578 0.278014 0.201467
0.336358 0.281439 0.205732
0.413169 0.287212 0.214006
0.500374 0.296021 0.224475
0.590052 0.321391 0.250359
0.143549 0.348702 0.204571
0.180531 0.348028 0.205925
0.220590 0.346187 0.207254
0.274661 0.346259 0.211114
0.339913 0.348723 0.216787
0.422526 0.363134 0.233357
0.513337 0.386675 0.258994
0.601639 0.417984 0.293156
0.167088 0.434930 0.223615
0.203472 0.431513 0.223953
0.235445 0.426962 0.223417
0.293798 0.433487 0.234463
0.369770 0.448587 0.253897
0.454900 0.468443 0.278362
0.543273 0.493459 0.309066
0.630348 0.524532 0.344452
0.200332 0.528961 0.244328
0.246059 0.528988 0.254469
0.287078 0.532414 0.268511
0.350254 0.542582 0.288398
0.425467 0.558135 0.312007
0.507469 0.578858 0.338381
0.590902 0.604438 0.372878
0.672864 0.635091 0.416383
0.274261 0.633014 0.297354
0.332156 0.637014 0.317196
0.373868 0.640492 0.333628
0.432633 0.650503 0.355791
0.502195 0.666761 0.385518
0.577439 0.688274 0.421348
0.654579 0.714700 0.462925
0.730889 0.745984 0.510673
0.084438 0.095860 0.125503
0.131718 0.115680 0.153618
0.184529 0.132483 0.178944
0.249431 0.141568 0.204472
0.331403 0.144316 0.225784
0.419780 0.151067 0.241553
0.505227 0.167112 0.256158
0.595691 0.186380 0.271678
0.109362 0.142720 0.158171
0.147143 0.155109 0.181630
0.196017 0.166441 0.200114
0.256367 0.173756 0.217934
0.334027 0.175378 0.233097
0.414406 0.185205 0.245632
0.500805 0.198392 0.258720
0.591334 0.216473 0.273608
0.132688 0.199890 0.194958
0.164662 0.208535 0.209402
0.207121 0.214772 0.221974
0.264093 0.219083 0.232736
0.334437 0.223084 0.242183
0.412224 0.231114 0.252328
0.498955 0.241160 0.263484
0.587080 0.258648 0.278415
0.144834 0.267257 0.227691
0.174997 0.271951 0.234296
0.213050 0.274484 0.239216
0.268171 0.276905 0.245013
0.335227 0.280829 0.251997
0.412176 0.286689 0.260323
0.498904 0.299388 0.273533
0.587018 0.329191 0.299579
0.145449 0.348984 0.250263
0.181955 0.347715 0.252314
0.220460 0.345402 0.253656
0.273687 0.345307 0.257283
0.341132 0.350711 0.265324
0.425086 0.367739 0.282802
0.514313 0.393572 0.308623
0.601306 0.426226 0.339299
0.169443 0.434655 0.270338
0.205666 0.431080 0.270448
0.238537 0.428590 0.271949
0.299000 0.437177 0.284384
0.375670 0.453162 0.303762
0.459861 0.473919 0.326741
0.547080 0.500199 0.354577
0.632817 0.532397 0.387196
0.205464 0.530130 0.292990
0.254054 0.532160 0.303644
0.295656 0.536066 0.316517
0.360240 0.546021 0.335579
0.434737 0.562451 0.357286
0.515314 0.584220 0.381993
0.597028 0.610871 0.415433
0.677713 0.642575 0.456738
0.283035 0.635518 0.342583
0.342246 0.640469 0.360260
0.384645 0.644482 0.374919
0.444081 0.654142 0.397984
0.513262 0.670936 0.427023
0.587145 0.693537 0.461336
0.662976 0.721047 0.501691
0.738167 0.753262 0.548062
0.086943 0.100382 0.169916
0.136469 0.117097 0.200449
0.191721 0.132103 0.226823
0.254487 0.144325 0.251698
0.334917 0.147016 0.279818
0.421316 0.154760 0.299227
0.507217 0.170806 0.314065
0.597743 0.190748 0.329190
0.107983 0.147016 0.203246
0.147843 0.156574 0.231177
0.199287 0.165813 0.251550
0.259970 0.174569 0.269692
0.335417 0.177670 0.289765
0.415448 0.187661 0.303541
0.502282 0.200992 0.316828
0.592700 0.220049 0.330878
0.128125 0.204719 0.241704
0.161880 0.210899 0.260404
0.206106 0.214453 0.277254
0.265292 0.218707 0.289467
0.334844 0.224342 0.299964
0.412712 0.232426 0.310439
0.499709 0.242698 0.321719
0.588274 0.261268 0.335036
0.144264 0.271029 0.276885
0.173915 0.274240 0.287559
0.212273 0.275351 0.296091
0.268475 0.277427 0.302827
0.335341 0.281332 0.310191
0.412366 0.287447 0.318754
0.499824 0.305583 0.333997
0.587239 0.338297 0.356968
0.148673 0.350339 0.307242
0.184491 0.348670 0.310237
0.221604 0.345772 0.311953
0.274097 0.345600 0.315664
0.344573 0.354912 0.326165
0.429191 0.374805 0.343803
0.516827 0.402568 0.366637
0.602702 0.436571 0.392879
0.173164 0.435567 0.328544
0.209123 0.431864 0.329087
0.243777 0.432045 0.332644
0.306255 0.442538 0.345072
0.383772 0.459244 0.362895
0.466967 0.481289 0.383529
0.552955 0.508838 0.407499
0.636982 0.542420 0.437579
0.212571 0.532504 0.352857
0.263929 0.536651 0.363166
0.306060 0.541226 0.373706
0.370460 0.551841 0.389645
0.446181 0.568478 0.409614
0.525367 0.591366 0.433425
0.605478 0.619300 0.465274
0.684715 0.652234 0.504014
0.294159 0.639293 0.396752
0.354724 0.645360 0.411713
0.397046 0.650195 0.425655
0.455821 0.660400 0.446628
0.526313 0.677260 0.474883
0.599731 0.700542 0.508089
0.674030 0.729256 0.546708
0.747618 0.762681 0.591611
0.088802 0.104258 0.230824
0.140368 0.117605 0.266107
0.199010 0.129827 0.294081
0.265024 0.140268 0.320294
0.341376 0.147977 0.345993
0.423821 0.159195 0.364969
0.510095 0.175430 0.380094
0.600677 0.196361 0.394793
0.105156 0.150679 0.266955
0.147481 0.157334 0.300397
0.201974 0.163783 0.323036
0.266065 0.170942 0.341635
0.338390 0.179675 0.356756
0.417423 0.191175 0.370053
0.504537 0.204624 0.383630
0.594895 0.224852 0.396566
0.121129 0.208996 0.308332
0.157210 0.212296 0.331767
0.205875 0.214864 0.347178
0.267037 0.219888 0.356744
0.336173 0.226410 0.366719
0.414028 0.234711 0.377495
0.501178 0.245209 0.389025
0.589931 0.266455 0.400696
0.133737 0.276364 0.346244
0.168836 0.276991 0.357761
0.213121 0.276891 0.363409
0.269704 0.278963 0.369940
0.336364 0.282824 0.377578
0.414324 0.290631 0.387196
0.502834 0.313226 0.401399
0.590096 0.347935 0.419484
0.150183 0.352843 0.374603
0.187742 0.350411 0.377572
0.223790 0.347130 0.379321
0.276593 0.347959 0.384057
0.349999 0.361152 0.395091
0.434860 0.383307 0.410221
0.521807 0.412374 0.428232
0.607057 0.447559 0.449167
0.177762 0.437221 0.395966
0.214570 0.434390 0.397465
0.251063 0.437309 0.401752
0.314879 0.449307 0.412275
0.392685 0.466853 0.426233
0.475973 0.490117 0.443438
0.560734 0.519182 0.463202
0.642836 0.554066 0.491112
0.221540 0.536358 0.420533
0.275802 0.542314 0.428949
0.318220 0.547593 0.436536
0.382047 0.558966 0.448582
0.457685 0.576584 0.464371
0.536960 0.600180 0.487786
0.615660 0.629210 0.517674
0.693414 0.663400 0.553735
0.307126 0.644216 0.456172
0.368487 0.651342 0.469047
0.411142 0.657154 0.481479
0.469159 0.668121 0.499610
0.539039 0.685697 0.524959
0.613205 0.709591 0.556841
0.686846 0.739133 0.594076
0.758948 0.773635 0.637248
0.088755 0.106660 0.312143
0.142725 0.116420 0.353350
0.205090 0.125832 0.383454
0.273835 0.136357 0.405534
0.347505 0.149474 0.422175
0.426984 0.164461 0.437477
0.513553 0.180905 0.453144
0.603687 0.203056 0.466525
0.100539 0.153027 0.352729
0.146327 0.157149 0.388407
0.204359 0.164221 0.404481
0.269597 0.173090 0.417239
0.341022 0.183425 0.430225
0.420000 0.195372 0.443685
0.507644 0.209035 0.457862
0.597587 0.230536 0.468737
0.112272 0.212122 0.397166
0.156894 0.214451 0.412017
0.208579 0.217812 0.420724
0.269250 0.222812 0.430354
0.338175 0.229328 0.440863
0.416159 0.237683 0.452188
0.503377 0.248879 0.463683
0.592142 0.274230 0.472625
0.130510 0.280050 0.426371
0.172344 0.279723 0.432270
0.215841 0.279292 0.437553
0.271803 0.281164 0.444513
0.338178 0.285157 0.452571
0.417738 0.296999 0.462131
0.506857 0.322727 0.473397
0.594203 0.358892 0.485735
0.154894 0.355480 0.449103
0.192397 0.352837 0.452290
0.226736 0.349111 0.454491
0.282239 0.353283 0.459702
0.358187 0.369858 0.466791
0.441964 0.393785 0.478201
0.528441 0.422821 0.492352
0.613631 0.459018 0.507689
0.183394 0.439671 0.470857
0.222845 0.439449 0.473489
0.261294 0.444049 0.476181
0.326704 0.456948 0.482427
0.404023 0.475712 0.491560
0.486396 0.500371 0.503935
0.570007 0.530517 0.520032
0.650607 0.566371 0.545287
0.232700 0.542077 0.493436
0.289365 0.549017 0.498396
0.331890 0.554988 0.502615
0.395260 0.567269 0.510359
0.470195 0.585806 0.522495
0.548719 0.610323 0.543297
0.627217 0.640592 0.570501
0.703555 0.676135 0.603786
0.321620 0.650156 0.518925
0.383565 0.658520 0.530342
0.426629 0.665150 0.540335
0.483817 0.676779 0.555353
0.553071 0.695488 0.577374
0.626798 0.720150 0.606077
0.700628 0.750522 0.641329
0.771742 0.786086 0.683252
0.086053 0.106983 0.419434
0.144724 0.116228 0.452627
0.209437 0.128558 0.468920
0.277829 0.141502 0.484518
0.351125 0.155469 0.500248
0.430651 0.170389 0.516215
0.517775 0.186955 0.532467
0.607176 0.210800 0.543535
0.096442 0.154599 0.454932
0.150131 0.161043 0.470441
0.208229 0.168774 0.482964
0.272833 0.177918 0.496064
0.344143 0.188310 0.509704
0.423238 0.200213 0.523841
0.510539 0.214824 0.537517
0.600832 0.237237 0.546305
0.114428 0.215723 0.482138
0.161660 0.218441 0.491065
0.212099 0.221560 0.500190
0.272126 0.226318 0.510344
0.340776 0.233055 0.521065
0.418223 0.242276 0.531410
0.504404 0.255646 0.541412
0.594821 0.284817 0.548161
0.136233 0.283690 0.506219
0.177330 0.282989 0.512501
0.219512 0.282267 0.518094
0.275287 0.284717 0.522761
0.341207 0.290063 0.528708
0.422035 0.307928 0.535905
0.510468 0.335909 0.544633
0.598986 0.371026 0.553863
0.160889 0.358710 0.529875
0.197990 0.355844 0.533769
0.231602 0.351983 0.534763
0.292287 0.360956 0.534958
0.368691 0.380667 0.536847
0.450645 0.406058 0.544536
0.535676 0.436063 0.555575
0.621367 0.471802 0.567258
0.190690 0.442451 0.551371
0.236471 0.445157 0.550807
0.277679 0.451701 0.549379
0.342355 0.465769 0.550753
0.418210 0.486037 0.555270
0.499080 0.512303 0.562891
0.580532 0.543564 0.576849
0.659979 0.579556 0.600103
0.249460 0.547662 0.566739
0.307710 0.555810 0.567577
0.350035 0.562832 0.568410
0.412251 0.576151 0.571869
0.485558 0.595973 0.581844
0.562580 0.621805 0.599106
0.640127 0.653328 0.622635
0.715273 0.689940 0.653017
0.336965 0.657135 0.585303
0.399871 0.666616 0.593673
0.443584 0.674208 0.601006
0.499762 0.686635 0.612574
0.568444 0.706188 0.631046
0.641342 0.731941 0.656375
0.714637 0.763257 0.688650
0.785495 0.799837 0.728290
