gsg/02_Everyday/GSG_LUT_Everyday_LetThereBeLight.cube
# GSG LUTs 1.0
# Copyright (c) 2016-2020 Greyscalegorilla
# See EULA for licensing and distribution information
# Converted by Briz LUT Converter
LUT_3D_SIZE 32
0.000000 0.000000 0.000000
0.031896 0.000118 0.000000
0.067691 0.003679 0.000252
0.099350 0.004285 0.004238
0.127551 0.008319 0.007830
0.154902 0.012234 0.011312
0.178849 0.015794 0.013092
0.202741 0.020418 0.019631
0.227256 0.025208 0.023475
0.255575 0.033258 0.028571
0.288676 0.043452 0.037725
0.320131 0.052346 0.047485
0.344236 0.060317 0.053251
0.371318 0.068234 0.060317
0.400181 0.076190 0.068242
0.431124 0.084123 0.076309
0.463012 0.094206 0.086266
0.497050 0.104029 0.096105
0.533948 0.114254 0.106440
0.571956 0.124708 0.115995
0.609642 0.135767 0.126488
0.645130 0.146875 0.135775
0.677931 0.155556 0.143763
0.709764 0.164276 0.152373
0.737934 0.171838 0.159872
0.762543 0.179487 0.167718
0.786900 0.187506 0.175580
0.810075 0.194935 0.180204
0.830367 0.199819 0.187325
0.850282 0.203671 0.191918
0.866415 0.211470 0.195730
0.886447 0.215629 0.199756
0.004396 0.027870 0.000126
0.047646 0.035791 0.003682
0.083556 0.039482 0.004033
0.118683 0.043194 0.004510
0.147198 0.044230 0.008374
0.174551 0.048233 0.011468
0.199833 0.052729 0.013383
0.230117 0.059044 0.019862
0.258862 0.064065 0.025855
0.290698 0.070923 0.035421
0.323126 0.076023 0.044194
0.355514 0.082566 0.053097
0.386608 0.086474 0.063107
0.418520 0.091245 0.072007
0.452078 0.097252 0.081703
0.489002 0.104346 0.093655
0.527977 0.113198 0.104649
0.567805 0.124000 0.114789
0.605369 0.134872 0.124627
0.641138 0.145940 0.134694
0.676864 0.155351 0.144391
0.709403 0.165979 0.154473
0.739937 0.175097 0.163299
0.765781 0.182388 0.168560
0.789741 0.188013 0.175456
0.813607 0.195140 0.182608
0.834345 0.199964 0.187865
0.856862 0.207105 0.192049
0.873943 0.211695 0.198853
0.889858 0.215746 0.203404
0.905739 0.222974 0.207444
0.921856 0.227114 0.211596
0.020040 0.059868 0.004396
0.052046 0.067431 0.004514
0.083807 0.067935 0.008281
0.119217 0.071946 0.011548
0.150510 0.075706 0.012427
0.177962 0.078777 0.015536
0.203575 0.080161 0.016875
0.233793 0.084021 0.020874
0.262945 0.088347 0.025139
0.294899 0.094928 0.032871
0.327922 0.099409 0.041716
0.362330 0.104366 0.052078
0.394180 0.109199 0.060915
0.426148 0.114529 0.070925
0.460695 0.120231 0.080897
0.499576 0.126326 0.091985
0.539600 0.132323 0.103840
0.579611 0.140023 0.115696
0.617443 0.147117 0.126684
0.652418 0.153188 0.137920
0.686022 0.160198 0.147461
0.720059 0.167994 0.155508
0.749124 0.175761 0.163551
0.776506 0.183443 0.171594
0.800856 0.191211 0.179116
0.822222 0.196076 0.184224
0.844814 0.203334 0.190667
0.862609 0.208029 0.195744
0.881697 0.214957 0.199845
0.897923 0.219513 0.203890
0.913805 0.223539 0.207704
0.929686 0.227571 0.215156
0.036276 0.087849 0.012541
0.063909 0.094871 0.012706
0.088289 0.095911 0.016265
0.119537 0.099848 0.017151
0.150526 0.103490 0.020904
0.178067 0.106309 0.024774
0.203658 0.107973 0.028025
0.234913 0.111547 0.031880
0.266563 0.114727 0.035917
0.298939 0.118824 0.040033
0.331978 0.122943 0.044374
0.366370 0.126779 0.050563
0.398129 0.130641 0.059822
0.430998 0.135196 0.069159
0.466093 0.141032 0.079853
0.504947 0.147911 0.091567
0.547801 0.154957 0.103626
0.590575 0.161004 0.115685
0.630367 0.167851 0.126633
0.665119 0.173351 0.137886
0.698082 0.177475 0.148198
0.731039 0.181329 0.158352
0.758721 0.184583 0.167206
0.785027 0.189090 0.174945
0.809658 0.193090 0.180263
0.830276 0.199497 0.186780
0.850333 0.206360 0.191970
0.870090 0.211647 0.196199
0.889535 0.215845 0.202813
0.905953 0.219905 0.207328
0.921528 0.226692 0.211352
0.937374 0.230816 0.215385
0.055528 0.115830 0.024893
0.076426 0.119755 0.025521
0.099621 0.123349 0.028982
0.123448 0.126442 0.032183
0.150238 0.127539 0.033529
0.175544 0.131252 0.037048
0.203970 0.133597 0.041081
0.234939 0.135722 0.045199
0.267809 0.139674 0.050066
0.302701 0.143684 0.055716
0.336232 0.147707 0.059882
0.370490 0.150464 0.062944
0.402334 0.152228 0.065527
0.436094 0.156277 0.070933
0.472712 0.161170 0.079320
0.512580 0.167724 0.090257
0.555433 0.174559 0.102690
0.599267 0.180801 0.115582
0.639940 0.186837 0.127297
0.676099 0.191689 0.138338
0.709643 0.196526 0.148198
0.741175 0.200173 0.158352
0.769243 0.201733 0.167206
0.794021 0.204167 0.175249
0.817854 0.204916 0.182576
0.838666 0.205773 0.187869
0.858619 0.209012 0.194402
0.878099 0.214836 0.199630
0.897535 0.219185 0.203923
0.913396 0.223422 0.208031
0.926310 0.227232 0.211862
0.941880 0.231667 0.215889
0.072464 0.143771 0.043869
0.091966 0.147007 0.044582
0.111065 0.147912 0.047588
0.130959 0.151333 0.048686
0.151995 0.152034 0.051566
0.176353 0.154911 0.053028
0.206342 0.156211 0.056939
0.235613 0.159857 0.061450
0.268205 0.163047 0.067424
0.303812 0.166899 0.071496
0.339839 0.170866 0.076111
0.374688 0.173752 0.079550
0.407311 0.176029 0.081164
0.441862 0.179571 0.085027
0.479259 0.182659 0.089731
0.519563 0.186764 0.095159
0.562558 0.192574 0.103741
0.607023 0.199074 0.115281
0.648897 0.205004 0.126193
0.686579 0.209847 0.137587
0.720106 0.213713 0.147920
0.751493 0.216792 0.157929
0.780118 0.218311 0.166666
0.805233 0.220342 0.174540
0.828318 0.221259 0.182007
0.849210 0.221348 0.187738
0.869383 0.221348 0.194647
0.885961 0.221636 0.199669
0.904622 0.221992 0.206064
0.918501 0.225054 0.211205
0.933332 0.227893 0.215260
0.949104 0.234550 0.219292
0.091670 0.171547 0.059608
0.107156 0.174341 0.060460
0.122343 0.175632 0.063341
0.139067 0.178346 0.064003
0.158077 0.179997 0.067346
0.178599 0.182740 0.068675
0.206214 0.183697 0.071983
0.235656 0.185909 0.075476
0.270122 0.188330 0.079991
0.304179 0.192135 0.085047
0.341167 0.195830 0.090399
0.378202 0.198375 0.093798
0.411110 0.200100 0.095934
0.445875 0.203809 0.098913
0.483538 0.207121 0.102603
0.525031 0.210390 0.106637
0.568912 0.214321 0.110113
0.612864 0.219171 0.115279
0.654692 0.224563 0.124329
0.693675 0.229270 0.135492
0.728927 0.233162 0.146112
0.759785 0.236159 0.155511
0.788223 0.237512 0.163717
0.813305 0.238163 0.171566
0.836533 0.240280 0.179240
0.857278 0.240357 0.186553
0.877270 0.240238 0.192031
0.893960 0.239895 0.199204
0.909866 0.237496 0.204077
0.925747 0.236574 0.210681
0.938465 0.234629 0.215247
0.952523 0.236346 0.219292
0.104659 0.199307 0.071677
0.116603 0.199625 0.074725
0.128696 0.202606 0.075469
0.143718 0.203696 0.076497
0.160101 0.207006 0.079317
0.179693 0.209663 0.080528
0.205598 0.211029 0.083760
0.235354 0.212320 0.086726
0.270240 0.216108 0.090956
0.306362 0.219600 0.095679
0.342534 0.222019 0.099939
0.379294 0.223821 0.103773
0.413331 0.225732 0.106027
0.449044 0.228422 0.109181
0.487710 0.231588 0.113214
0.529504 0.234952 0.117248
0.574167 0.238843 0.121086
0.618142 0.242060 0.124150
0.660320 0.245083 0.127462
0.699498 0.248551 0.134818
0.735680 0.252397 0.144392
0.767505 0.255989 0.154496
0.796093 0.257607 0.163008
0.821175 0.258327 0.170588
0.844128 0.260254 0.178166
0.865035 0.258784 0.184146
0.884787 0.258216 0.190660
0.901729 0.257670 0.197998
0.917731 0.256539 0.203376
0.933565 0.253862 0.208038
0.945898 0.252099 0.214303
0.953720 0.245461 0.218410
0.104975 0.225775 0.084029
0.113623 0.226524 0.084442
0.125029 0.227447 0.087459
0.138028 0.230304 0.088681
0.154720 0.231460 0.091118
0.177377 0.234769 0.092337
0.202969 0.237489 0.094821
0.234695 0.239811 0.096844
0.268557 0.243517 0.101350
0.306600 0.246708 0.107002
0.343659 0.249490 0.110599
0.381126 0.251721 0.114017
0.415821 0.253615 0.117067
0.452622 0.256072 0.120708
0.492044 0.259213 0.124472
0.534753 0.262681 0.128463
0.580034 0.266084 0.132561
0.624883 0.268982 0.136154
0.666752 0.270545 0.137702
0.705566 0.270946 0.139522
0.741431 0.272880 0.144380
0.774695 0.275836 0.153469
0.803604 0.277646 0.161795
0.828859 0.279989 0.168376
0.850479 0.280681 0.175158
0.872076 0.280681 0.182469
0.890670 0.280377 0.188173
0.909314 0.278528 0.194519
0.925665 0.276754 0.201946
0.940504 0.274499 0.206546
0.952706 0.270574 0.210595
0.956052 0.264808 0.214313
0.103990 0.252361 0.095506
0.111524 0.252428 0.096459
0.119857 0.254508 0.099137
0.134689 0.255656 0.100550
0.150827 0.257493 0.103199
0.173445 0.259886 0.104467
0.200532 0.263205 0.106739
0.233513 0.265745 0.108755
0.268399 0.269760 0.113008
0.306831 0.273338 0.117723
0.344652 0.276184 0.120666
0.382561 0.279259 0.124330
0.417802 0.281693 0.127839
0.455593 0.284444 0.131402
0.496218 0.287905 0.134474
0.540257 0.291709 0.138083
0.585814 0.295295 0.142222
0.630997 0.297881 0.145283
0.673560 0.298899 0.147337
0.711793 0.299015 0.148890
0.748009 0.298423 0.148752
0.781940 0.298290 0.151968
0.809659 0.298970 0.158836
0.835051 0.300237 0.166305
0.857557 0.300650 0.173760
0.878388 0.300894 0.180124
0.897445 0.300652 0.186254
0.916181 0.300444 0.192086
0.932263 0.298009 0.198123
0.945695 0.296594 0.203261
0.956873 0.292664 0.207289
0.957911 0.285076 0.210099
0.103155 0.283509 0.107038
0.109934 0.284769 0.107034
0.116194 0.284822 0.109356
0.127666 0.285596 0.111149
0.143687 0.285916 0.113992
0.168709 0.288522 0.115805
0.198251 0.291150 0.118252
0.230963 0.293490 0.120587
0.267955 0.297948 0.123625
0.306881 0.301640 0.127055
0.344882 0.304967 0.130915
0.383137 0.308103 0.134305
0.419301 0.311204 0.137048
0.458184 0.313999 0.140789
0.499645 0.317354 0.144162
0.545134 0.321297 0.147556
0.591666 0.325289 0.151175
0.636945 0.329017 0.154188
0.679329 0.330698 0.156966
0.718259 0.330946 0.158178
0.754883 0.329181 0.157281
0.788442 0.327608 0.155878
0.816561 0.325625 0.158239
0.841144 0.324394 0.163093
0.864780 0.324034 0.170247
0.885549 0.324389 0.177667
0.905135 0.323265 0.182989
0.921580 0.321932 0.189787
0.937532 0.321549 0.194786
0.952610 0.318098 0.199500
0.961216 0.313845 0.203340
0.960605 0.307196 0.206066
0.083257 0.315956 0.116491
0.088724 0.319343 0.115816
0.094627 0.319343 0.116078
0.106520 0.319343 0.119054
0.130215 0.319455 0.121967
0.161170 0.320649 0.124163
0.193927 0.323118 0.127679
0.228169 0.325047 0.131209
0.266664 0.330127 0.134015
0.306017 0.333919 0.136726
0.344476 0.336659 0.140043
0.383265 0.340081 0.143730
0.420229 0.343199 0.147115
0.460174 0.345721 0.150245
0.503484 0.348970 0.153965
0.549345 0.353051 0.158103
0.597301 0.356958 0.161290
0.643601 0.360272 0.164331
0.685984 0.362270 0.166106
0.725141 0.362945 0.166143
0.761000 0.362566 0.166143
0.795109 0.361117 0.164996
0.824242 0.358308 0.162744
0.848981 0.355825 0.162391
0.871802 0.353731 0.166896
0.892962 0.352466 0.173327
0.912328 0.351141 0.179288
0.929381 0.347521 0.185287
0.945348 0.346405 0.191520
0.958390 0.342831 0.195762
0.963418 0.337817 0.199559
0.961826 0.330789 0.201253
0.056883 0.348190 0.126984
0.062452 0.351199 0.124525
0.069091 0.351199 0.123222
0.089340 0.351327 0.125522
0.120403 0.352740 0.127631
0.152084 0.354460 0.129884
0.186254 0.355896 0.134115
0.223027 0.357163 0.138646
0.263286 0.360706 0.143159
0.303123 0.364586 0.146220
0.342782 0.368272 0.148729
0.382636 0.372169 0.151674
0.420421 0.374568 0.154603
0.461766 0.377391 0.157564
0.506884 0.381114 0.161701
0.554232 0.384970 0.165722
0.602953 0.388926 0.168991
0.649657 0.391681 0.172363
0.692078 0.393455 0.174092
0.730720 0.394270 0.174115
0.767116 0.393917 0.174176
0.801609 0.391476 0.172934
0.831372 0.388649 0.170264
0.856759 0.385984 0.167287
0.878369 0.382589 0.166490
0.899341 0.379534 0.169542
0.918306 0.378310 0.174685
0.935767 0.375353 0.180212
0.951551 0.373440 0.186327
0.963800 0.369625 0.191270
0.965817 0.362771 0.194293
0.965292 0.354736 0.195896
0.039174 0.379204 0.134799
0.050496 0.383111 0.132503
0.064069 0.383111 0.131658
0.087671 0.383362 0.131143
0.114321 0.385879 0.133660
0.145761 0.387393 0.135297
0.178781 0.389593 0.138713
0.215510 0.391300 0.143326
0.258550 0.394256 0.148364
0.299611 0.397400 0.152487
0.339974 0.401609 0.156406
0.381118 0.405672 0.159005
0.420537 0.408926 0.160781
0.463138 0.412348 0.163903
0.509223 0.415761 0.167875
0.558519 0.419581 0.171845
0.607654 0.423614 0.175817
0.654714 0.426492 0.179775
0.697473 0.428128 0.181807
0.736490 0.428502 0.182071
0.772983 0.427301 0.182123
0.807509 0.425175 0.179911
0.837576 0.422295 0.177838
0.863611 0.418701 0.175076
0.885625 0.414286 0.171500
0.905408 0.409926 0.170175
0.924139 0.406486 0.171352
0.940439 0.404154 0.175746
0.956320 0.401472 0.180444
0.966784 0.397462 0.185502
0.968227 0.390472 0.186644
0.967403 0.382433 0.190476
0.051778 0.410965 0.142723
0.062907 0.413136 0.142664
0.074820 0.414054 0.140747
0.089591 0.415050 0.138883
0.111446 0.416062 0.139782
0.138731 0.418968 0.141971
0.168353 0.420961 0.144478
0.206266 0.423680 0.148181
0.250884 0.427644 0.152198
0.294568 0.431478 0.156542
0.336343 0.435382 0.160979
0.377881 0.438978 0.164672
0.418640 0.442669 0.167720
0.462305 0.446826 0.171464
0.510205 0.451566 0.174634
0.561394 0.456230 0.178714
0.611415 0.460434 0.183239
0.659175 0.463690 0.186871
0.702166 0.465652 0.189421
0.741340 0.466036 0.190260
0.778660 0.464392 0.190208
0.813057 0.462933 0.188159
0.842499 0.459836 0.185942
0.868708 0.455895 0.183570
0.890998 0.450744 0.180275
0.910599 0.445555 0.177508
0.927676 0.440671 0.174856
0.943669 0.436100 0.174959
0.958553 0.432127 0.177797
0.966789 0.427156 0.181520
0.967261 0.420183 0.181756
0.968254 0.412257 0.183654
0.062775 0.441900 0.150672
0.069894 0.442878 0.150643
0.078018 0.443927 0.149602
0.088429 0.445067 0.146859
0.103735 0.446158 0.146752
0.123214 0.448717 0.147838
0.150952 0.450449 0.150107
0.194482 0.454394 0.153534
0.242184 0.458610 0.157470
0.286981 0.463238 0.161217
0.330984 0.467401 0.164590
0.374184 0.471345 0.168801
0.416436 0.475315 0.173616
0.461542 0.480242 0.178631
0.510977 0.485794 0.183395
0.563077 0.491137 0.188804
0.614179 0.496280 0.193163
0.662289 0.500049 0.196622
0.705270 0.502479 0.199035
0.744053 0.503741 0.200288
0.781381 0.503749 0.201035
0.814895 0.502218 0.199681
0.843937 0.499583 0.197533
0.870625 0.495685 0.195340
0.892113 0.491103 0.192862
0.911720 0.486210 0.191713
0.928079 0.480412 0.188499
0.943818 0.473712 0.184004
0.957584 0.467622 0.181832
0.962275 0.459920 0.180998
0.962511 0.451979 0.180952
0.965418 0.443216 0.180826
0.050928 0.470889 0.160629
0.056819 0.471834 0.159466
0.062007 0.471891 0.158498
0.070056 0.472906 0.156633
0.080304 0.474793 0.154689
0.096587 0.476079 0.154693
0.131229 0.479113 0.155930
0.182866 0.482809 0.159429
0.232714 0.487286 0.163235
0.279207 0.492284 0.167035
0.324698 0.497138 0.170888
0.370326 0.501818 0.175310
0.414773 0.506438 0.180092
0.461778 0.511699 0.185767
0.512807 0.517405 0.192246
0.565110 0.523269 0.199432
0.615367 0.529192 0.205027
0.662964 0.533587 0.209043
0.706725 0.536571 0.211805
0.745655 0.539308 0.213270
0.782316 0.540536 0.214017
0.815395 0.539700 0.213346
0.844405 0.537626 0.212508
0.870755 0.534623 0.209875
0.892210 0.530789 0.208471
0.911948 0.526851 0.206195
0.930234 0.520508 0.201770
0.946997 0.515094 0.196783
0.960748 0.507279 0.190919
0.959884 0.496776 0.184153
0.957787 0.486705 0.181896
0.958612 0.476868 0.180952
0.021056 0.498870 0.173666
0.024751 0.498870 0.170506
0.027530 0.498919 0.169689
0.030350 0.499727 0.168413
0.036254 0.500642 0.165543
0.056164 0.501903 0.163313
0.110679 0.505034 0.163231
0.170818 0.508939 0.167211
0.223984 0.513615 0.171839
0.272931 0.519126 0.175919
0.319447 0.523884 0.180231
0.367688 0.529088 0.185418
0.413185 0.534091 0.189993
0.462313 0.540099 0.194819
0.514968 0.546875 0.200855
0.568154 0.553351 0.208205
0.618748 0.559344 0.215678
0.665105 0.564003 0.221814
0.708460 0.567460 0.226493
0.747277 0.570457 0.228217
0.782805 0.572317 0.228217
0.816441 0.573190 0.228217
0.845664 0.572165 0.228312
0.871301 0.569810 0.225452
0.893183 0.567387 0.223303
0.914859 0.563717 0.218670
0.935350 0.559056 0.213039
0.954110 0.553756 0.206790
0.966077 0.545924 0.199036
0.963228 0.535526 0.191231
0.959179 0.524555 0.186940
0.954933 0.512545 0.181890
0.000922 0.524582 0.189657
0.001764 0.524582 0.187127
0.002613 0.524582 0.185775
0.006096 0.524650 0.183877
0.021335 0.525571 0.181449
0.054945 0.527630 0.177351
0.107751 0.529245 0.175344
0.163370 0.533278 0.178492
0.216085 0.538031 0.183279
0.266984 0.544104 0.187540
0.315704 0.548458 0.192039
0.365975 0.553967 0.197441
0.413531 0.559746 0.201906
0.464074 0.565857 0.206851
0.517468 0.573056 0.212709
0.571919 0.580575 0.219011
0.624254 0.587723 0.225654
0.670744 0.593285 0.231223
0.712115 0.597122 0.237778
0.749646 0.599329 0.242488
0.785159 0.601126 0.243897
0.818585 0.602551 0.244098
0.847647 0.602608 0.244271
0.873306 0.601472 0.241233
0.897554 0.600033 0.236645
0.921517 0.597137 0.229898
0.942273 0.593446 0.222829
0.961902 0.588649 0.214928
0.971355 0.580968 0.206989
0.968222 0.572098 0.201250
0.963487 0.561125 0.194830
0.957092 0.548482 0.187057
0.002694 0.548379 0.208649
0.005465 0.548379 0.208055
0.013062 0.548379 0.207044
0.026541 0.548657 0.204228
0.049170 0.551400 0.202789
0.078776 0.552436 0.198350
0.112624 0.553076 0.193983
0.156720 0.556694 0.194497
0.209144 0.561305 0.198512
0.262192 0.566810 0.202615
0.312853 0.572309 0.206832
0.365182 0.577939 0.211702
0.414565 0.584134 0.216558
0.466784 0.589900 0.221467
0.520806 0.597235 0.227381
0.575324 0.605183 0.233328
0.627361 0.613124 0.238662
0.675520 0.619860 0.242896
0.718338 0.624603 0.246759
0.756945 0.627787 0.250611
0.791566 0.629715 0.255065
0.823187 0.630303 0.258410
0.851055 0.629903 0.259722
0.877804 0.629770 0.255996
0.904728 0.629272 0.249166
0.929332 0.627077 0.241391
0.950002 0.625020 0.233102
0.969443 0.621316 0.223293
0.976010 0.613889 0.217088
0.972851 0.605749 0.210803
0.968364 0.593986 0.205161
0.960975 0.581984 0.197267
0.014951 0.572232 0.232030
0.020835 0.573177 0.231237
0.031191 0.573177 0.230909
0.046141 0.573449 0.228267
0.062968 0.576013 0.226901
0.083701 0.576378 0.223229
0.108467 0.577616 0.218749
0.146563 0.580322 0.216379
0.204037 0.584331 0.218150
0.259025 0.589206 0.222000
0.311777 0.595240 0.225789
0.365751 0.601170 0.230266
0.416858 0.607418 0.234574
0.470058 0.614196 0.239644
0.524684 0.621970 0.245318
0.579220 0.629995 0.250544
0.630688 0.637773 0.254935
0.679262 0.644539 0.259144
0.723719 0.650246 0.261019
0.763683 0.654358 0.261859
0.800060 0.657465 0.263955
0.833658 0.658396 0.266347
0.860013 0.658094 0.268888
0.884313 0.658058 0.268086
0.911269 0.658080 0.261865
0.937060 0.657127 0.252196
0.959692 0.654831 0.243574
0.977240 0.651579 0.234224
0.980205 0.644176 0.227288
0.976724 0.636118 0.221360
0.972697 0.626710 0.215688
0.967277 0.614849 0.207696
0.025389 0.596179 0.258317
0.031910 0.596652 0.255273
0.037501 0.596759 0.255151
0.044841 0.598391 0.254282
0.054713 0.599298 0.252090
0.070179 0.600163 0.249708
0.099405 0.601162 0.246091
0.145834 0.604256 0.242195
0.203039 0.607291 0.240562
0.258820 0.611879 0.244306
0.312838 0.617834 0.248388
0.368284 0.624374 0.252663
0.420480 0.630879 0.256858
0.474210 0.637503 0.262003
0.529560 0.645449 0.267101
0.584120 0.653425 0.271953
0.636142 0.661369 0.275816
0.684078 0.668704 0.278537
0.727953 0.674505 0.280294
0.768010 0.678614 0.280994
0.805589 0.682461 0.280362
0.841023 0.684968 0.279375
0.871530 0.685502 0.276976
0.897677 0.685502 0.275482
0.921177 0.685502 0.272091
0.945280 0.685508 0.263039
0.968009 0.684168 0.256755
0.982024 0.680926 0.248258
0.983512 0.673425 0.240285
0.982326 0.665359 0.233510
0.979103 0.657453 0.228229
0.972445 0.645563 0.218764
0.011997 0.615794 0.283130
0.013964 0.615794 0.281996
0.018090 0.615885 0.281873
0.025444 0.617203 0.280004
0.042696 0.617581 0.279054
0.080007 0.619813 0.277534
0.123013 0.620600 0.274328
0.165963 0.621954 0.270408
0.212255 0.624664 0.266938
0.265178 0.629143 0.268494
0.318449 0.635367 0.273171
0.373724 0.642801 0.278253
0.426406 0.649932 0.282547
0.481096 0.657807 0.287068
0.535968 0.666837 0.291840
0.589804 0.675675 0.296841
0.641484 0.684099 0.300801
0.688408 0.690529 0.302671
0.731914 0.696067 0.303321
0.771724 0.701161 0.303494
0.809051 0.705033 0.302473
0.844853 0.708594 0.299570
0.877302 0.710086 0.295357
0.905827 0.710237 0.289839
0.929941 0.710237 0.283464
0.952505 0.710154 0.275613
0.973224 0.707776 0.272103
0.983343 0.705490 0.266420
0.984371 0.698943 0.258484
0.984371 0.691123 0.248757
0.983548 0.685819 0.241537
0.978999 0.673938 0.230265
0.005798 0.629997 0.310520
0.009501 0.629997 0.310520
0.019038 0.630025 0.310476
0.047025 0.630606 0.309821
0.080043 0.632480 0.309381
0.120070 0.634126 0.306672
0.157985 0.634653 0.305306
0.193024 0.636342 0.301291
0.231383 0.638304 0.297136
0.276839 0.641663 0.295810
0.329229 0.647553 0.299981
0.383956 0.655150 0.305079
0.435458 0.662842 0.310370
0.489133 0.671929 0.314918
0.543708 0.681397 0.320346
0.596741 0.690343 0.325824
0.647042 0.698820 0.329857
0.693723 0.706310 0.332433
0.736572 0.712697 0.333144
0.776334 0.718495 0.332550
0.813672 0.722971 0.330061
0.848822 0.726937 0.326209
0.881318 0.729489 0.320914
0.909904 0.732033 0.315134
0.934720 0.732314 0.306803
0.957384 0.730825 0.297424
0.977086 0.729705 0.290271
0.983816 0.726540 0.284508
0.984371 0.721939 0.276693
0.984371 0.714920 0.268141
0.984371 0.709984 0.259866
0.983552 0.699019 0.244870
0.064658 0.645311 0.342093
0.074929 0.645311 0.342282
0.086280 0.645315 0.342282
0.106133 0.645419 0.342227
0.129703 0.646277 0.341340
0.156731 0.648798 0.338686
0.188502 0.649369 0.337515
0.221025 0.649844 0.334342
0.255432 0.651009 0.329812
0.293124 0.654530 0.326216
0.342042 0.659191 0.328618
0.394997 0.667014 0.334274
0.445823 0.675023 0.339621
0.498736 0.683919 0.345377
0.552543 0.693412 0.351171
0.605502 0.702345 0.357210
0.654438 0.710790 0.361243
0.700222 0.718849 0.364190
0.742924 0.726171 0.365597
0.781754 0.731925 0.365630
0.818539 0.736327 0.363783
0.854142 0.740232 0.360347
0.885862 0.743259 0.354239
0.913923 0.746585 0.347065
0.938690 0.747646 0.338669
0.961303 0.747141 0.329019
0.980676 0.746374 0.318504
0.986906 0.743131 0.305360
0.985176 0.739139 0.298992
0.984938 0.735017 0.291233
0.984389 0.730765 0.283117
0.984371 0.722778 0.267179
0.118437 0.661247 0.380322
0.127250 0.661247 0.380369
0.136751 0.661285 0.380230
0.150450 0.661838 0.378113
0.170532 0.662247 0.377207
0.194828 0.665035 0.376342
0.222518 0.665230 0.373996
0.251257 0.666037 0.372245
0.281199 0.668062 0.367594
0.314353 0.669212 0.362495
0.356999 0.671769 0.362251
0.408135 0.679067 0.365905
0.458542 0.687006 0.371295
0.510320 0.696368 0.377541
0.562542 0.706401 0.383510
0.613831 0.714748 0.389562
0.662381 0.722786 0.394307
0.707236 0.730757 0.397844
0.748425 0.738714 0.400115
0.787283 0.745238 0.401074
0.824507 0.750750 0.400654
0.859917 0.755240 0.397685
0.890366 0.758531 0.392608
0.917810 0.759859 0.385743
0.944051 0.762390 0.378225
0.965953 0.760976 0.368098
0.984671 0.759487 0.354865
0.988181 0.755977 0.338798
0.987723 0.749465 0.324228
0.987664 0.747693 0.315946
0.987527 0.743834 0.306952
0.984962 0.739186 0.292024
0.162251 0.680405 0.423837
0.170401 0.681019 0.423844
0.181257 0.681027 0.423829
0.194675 0.681138 0.420686
0.213974 0.681494 0.420174
0.234390 0.683969 0.419602
0.258604 0.684446 0.416170
0.283624 0.685103 0.413885
0.311302 0.685945 0.411018
0.340718 0.687757 0.405286
0.376831 0.689633 0.402149
0.423043 0.694427 0.403492
0.472386 0.702415 0.408754
0.524038 0.711525 0.414564
0.575749 0.721344 0.420791
0.625811 0.729993 0.425952
0.672116 0.738039 0.430868
0.715101 0.745975 0.434730
0.755856 0.753235 0.438414
0.794746 0.759188 0.440096
0.830320 0.765356 0.440149
0.864551 0.770286 0.437739
0.895849 0.774208 0.435022
0.922740 0.775904 0.431098
0.948542 0.778476 0.424792
0.970145 0.778751 0.414621
0.985971 0.776082 0.401382
0.988278 0.771471 0.382701
0.988278 0.763874 0.363104
0.988278 0.757076 0.347324
0.988278 0.755454 0.335042
0.987766 0.751711 0.323124
0.216204 0.704360 0.475222
0.223857 0.704455 0.475133
0.232520 0.704455 0.472418
0.244355 0.704455 0.471382
0.257718 0.704527 0.471133
0.276823 0.705436 0.470577
0.297047 0.707771 0.467533
0.318317 0.708362 0.466155
0.343645 0.708545 0.462646
0.372449 0.709990 0.458858
0.404765 0.712408 0.454127
0.443759 0.714999 0.450516
0.489648 0.722014 0.453195
0.539746 0.730075 0.458989
0.589720 0.738359 0.465218
0.637428 0.746409 0.471016
0.682099 0.754366 0.475931
0.724069 0.762415 0.479028
