gsg/02_Everyday/GSG_LUT_Everyday_WarmFuzzies.cube
# GSG LUTs 1.0
# Copyright (c) 2016-2020 Greyscalegorilla
# See EULA for licensing and distribution information
# Converted by Briz LUT Converter
LUT_3D_SIZE 8
DOMAIN_MIN 0.000000 0.000000 0.000000
DOMAIN_MAX 0.903226 0.903226 0.903226
0.087179 0.087179 0.087179
0.148001 0.091244 0.091528
0.225294 0.096530 0.102328
0.320903 0.102982 0.115499
0.430596 0.110536 0.138020
0.542960 0.118232 0.160684
0.650951 0.125866 0.184001
0.747009 0.132435 0.200473
0.103060 0.118642 0.094852
0.162670 0.119843 0.101245
0.235063 0.123695 0.109740
0.325766 0.123568 0.123972
0.433200 0.111696 0.142483
0.545016 0.118508 0.164307
0.654385 0.126110 0.185035
0.749444 0.145129 0.203018
0.121557 0.176194 0.111024
0.177795 0.177336 0.114609
0.248814 0.180594 0.124103
0.342681 0.184658 0.140427
0.449118 0.184020 0.157421
0.559186 0.187891 0.177705
0.666530 0.202950 0.198051
0.763804 0.247093 0.219528
0.142345 0.246280 0.127780
0.195828 0.246939 0.133494
0.267624 0.251624 0.141726
0.364196 0.258784 0.156809
0.469939 0.269263 0.173876
0.579692 0.286005 0.193320
0.681876 0.309895 0.210682
0.776455 0.337909 0.225844
0.117744 0.335870 0.130135
0.176974 0.336025 0.134264
0.275938 0.341616 0.147128
0.379957 0.350290 0.161617
0.487505 0.359979 0.178376
0.594613 0.376189 0.200860
0.696469 0.395683 0.213872
0.789317 0.422655 0.232246
0.129276 0.433251 0.129276
0.133472 0.429135 0.129074
0.272756 0.438359 0.141344
0.395491 0.443901 0.157934
0.503609 0.453110 0.173636
0.610961 0.464217 0.192943
0.711179 0.481082 0.216714
0.800315 0.501495 0.231802
0.140596 0.526968 0.140596
0.140686 0.522199 0.140084
0.281812 0.528388 0.149077
0.408929 0.533754 0.157063
0.518386 0.542278 0.166349
0.624651 0.551093 0.184689
0.723727 0.560782 0.209823
0.811837 0.576105 0.228165
0.150435 0.607389 0.150435
0.151954 0.604148 0.150073
0.302102 0.610855 0.159707
0.426709 0.616811 0.167594
0.534935 0.621341 0.174403
0.637328 0.627572 0.181110
0.733503 0.637195 0.194365
0.821774 0.645226 0.222195
0.088802 0.088432 0.126630
0.126120 0.090737 0.123089
0.197687 0.095277 0.124440
0.281153 0.100788 0.130590
0.384225 0.107551 0.140976
0.497542 0.115239 0.157389
0.610810 0.123037 0.176098
0.709542 0.129730 0.194968
0.105564 0.110252 0.127063
0.191354 0.168233 0.185742
0.262884 0.170561 0.186823
0.360702 0.172794 0.191145
0.465815 0.165894 0.199937
0.574125 0.159978 0.207682
0.678598 0.176705 0.221085
0.777257 0.233687 0.234947
0.122515 0.166026 0.140369
0.206653 0.228761 0.198071
0.283216 0.231886 0.194139
0.380885 0.242060 0.199984
0.486058 0.251610 0.208707
0.593495 0.265949 0.219659
0.697149 0.291697 0.229028
0.790318 0.322597 0.242154
0.145633 0.229599 0.157582
0.210646 0.314810 0.209315
0.295137 0.320202 0.205722
0.398891 0.329626 0.203445
0.504764 0.343045 0.211987
0.609718 0.358068 0.222965
0.711404 0.379924 0.233279
0.801691 0.408051 0.242020
0.118237 0.313641 0.163105
0.175302 0.406625 0.212658
0.300739 0.415029 0.210314
0.413758 0.421575 0.206474
0.520979 0.430147 0.208829
0.626147 0.446005 0.218647
0.725063 0.462786 0.229751
0.814097 0.485647 0.239332
0.127504 0.412130 0.162531
0.145978 0.497728 0.212984
0.306316 0.506691 0.207255
0.426689 0.512793 0.203899
0.536031 0.519631 0.205413
0.638690 0.529331 0.205358
0.736509 0.544310 0.217673
0.823283 0.561190 0.235254
0.138312 0.504713 0.150455
0.162635 0.584138 0.212076
0.325614 0.593146 0.202946
0.443435 0.597278 0.194531
0.550767 0.602777 0.196219
0.653346 0.609778 0.196544
0.747364 0.618866 0.203427
0.833511 0.632142 0.232701
0.147936 0.587565 0.148412
0.228061 0.663172 0.223651
0.357660 0.669661 0.208655
0.468165 0.673015 0.193376
0.570117 0.677092 0.196792
0.667813 0.682937 0.200848
0.759491 0.689051 0.208386
0.843781 0.697598 0.235507
0.093450 0.089685 0.173611
0.117025 0.091214 0.169794
0.173941 0.095150 0.163260
0.250444 0.099594 0.165442
0.345060 0.105825 0.172706
0.454627 0.113222 0.182114
0.569275 0.120815 0.195004
0.671364 0.127669 0.207543
0.098152 0.115978 0.170756
0.185719 0.166562 0.231383
0.244451 0.175135 0.228247
0.329521 0.179547 0.230044
0.431582 0.176026 0.235628
0.538376 0.168153 0.241559
0.644541 0.180870 0.249359
0.742815 0.218610 0.260528
0.124127 0.154635 0.173096
0.213963 0.219193 0.233859
0.322252 0.298900 0.299742
0.421821 0.313147 0.303815
0.525113 0.325810 0.307359
0.629379 0.343703 0.313382
0.727334 0.367822 0.318961
0.816402 0.394251 0.324663
0.152160 0.214850 0.185420
0.223659 0.298528 0.246109
0.336396 0.394989 0.314121
0.441967 0.406819 0.309944
0.545704 0.419360 0.313837
0.647409 0.434975 0.318184
0.743801 0.454677 0.323675
0.831072 0.476077 0.328864
0.134106 0.294344 0.196914
0.210549 0.390798 0.254926
0.342500 0.487880 0.326546
0.457236 0.496573 0.321098
0.559432 0.503464 0.313225
0.660524 0.517355 0.316134
0.755287 0.533134 0.320927
0.841492 0.550483 0.326222
0.125754 0.389078 0.203822
0.174202 0.484238 0.259792
0.357272 0.575680 0.339194
0.471482 0.583546 0.332444
0.574100 0.587779 0.323667
0.674378 0.594970 0.314129
0.766039 0.607607 0.318189
0.849163 0.621552 0.324022
0.137100 0.485010 0.203644
0.180341 0.569888 0.269315
0.382363 0.655982 0.355490
0.491888 0.661564 0.346259
0.592618 0.665179 0.336131
0.686784 0.670392 0.326564
0.776548 0.676848 0.319050
0.858335 0.688083 0.324747
0.147204 0.571271 0.199647
0.240045 0.650830 0.282519
0.420896 0.725627 0.374090
0.519852 0.731172 0.364593
0.611868 0.733479 0.353330
0.703238 0.737723 0.344849
0.789121 0.742468 0.334534
0.866592 0.747442 0.330647
0.097775 0.091276 0.224113
0.107283 0.091895 0.215539
0.163992 0.095750 0.210493
0.226079 0.099581 0.208650
0.308542 0.104447 0.210958
0.413604 0.111353 0.216271
0.527532 0.118839 0.226603
0.631812 0.125771 0.234400
0.105773 0.118237 0.220310
0.173963 0.170270 0.282950
0.233113 0.178022 0.279070
0.300875 0.183223 0.275096
0.395375 0.183108 0.277258
0.501971 0.176889 0.280123
0.606546 0.180749 0.285587
0.707811 0.206949 0.294085
0.121943 0.154760 0.218672
0.206069 0.219454 0.285399
0.312309 0.303748 0.360574
0.395553 0.320326 0.361275
0.494779 0.332510 0.362282
0.597368 0.349793 0.366969
0.696493 0.369472 0.370982
0.787701 0.394326 0.375433
0.152890 0.203959 0.220526
0.233801 0.282398 0.286642
0.351343 0.383243 0.366755
0.486647 0.481580 0.448774
0.584560 0.495963 0.450876
0.682239 0.510110 0.452877
0.774259 0.526446 0.455398
0.855735 0.545826 0.457697
0.154238 0.276797 0.231686
0.230717 0.372788 0.298338
0.360842 0.474805 0.379923
0.502013 0.568857 0.463228
0.603318 0.579196 0.458448
0.698855 0.590448 0.458597
0.787768 0.604274 0.460900
0.868163 0.619543 0.463173
0.124369 0.368496 0.239354
0.220436 0.466655 0.308526
0.372665 0.563362 0.395179
0.518379 0.649422 0.478020
0.619092 0.657019 0.472141
0.711999 0.662007 0.460966
0.798282 0.672577 0.461729
0.876504 0.683924 0.462817
0.135807 0.465134 0.247154
0.212737 0.555919 0.319745
0.394321 0.645094 0.409751
0.541496 0.721493 0.494803
0.635193 0.728036 0.488570
0.725427 0.731042 0.475089
0.808992 0.735679 0.464578
0.884397 0.744650 0.465115
0.146424 0.553275 0.254580
0.249365 0.636229 0.335595
0.426364 0.716725 0.426774
0.569398 0.785284 0.511660
0.657379 0.790744 0.504675
0.741126 0.792470 0.492588
0.820788 0.796242 0.480405
0.892947 0.800270 0.471310
0.099177 0.092686 0.277553
0.102223 0.092756 0.268424
0.155348 0.097386 0.261902
0.213310 0.100609 0.255167
0.279861 0.103626 0.251918
0.378369 0.110048 0.255457
0.489125 0.117284 0.261645
0.594014 0.124137 0.269192
0.106724 0.118845 0.272810
0.161548 0.172852 0.343014
0.218682 0.179733 0.337597
0.288562 0.187029 0.330933
0.365805 0.190019 0.327965
0.469160 0.185861 0.328545
0.573833 0.184024 0.330380
0.674416 0.202329 0.336278
0.124335 0.160048 0.269312
0.196276 0.221833 0.343920
0.302438 0.305863 0.422657
0.384900 0.321923 0.421095
0.464989 0.335354 0.417852
0.565810 0.351630 0.418596
0.664697 0.369592 0.422090
0.757492 0.391670 0.426574
0.145497 0.205330 0.267956
0.224998 0.284236 0.343820
0.340518 0.385294 0.427184
0.476944 0.486240 0.510488
0.560154 0.503913 0.513237
0.655236 0.518190 0.514494
0.746752 0.533706 0.516609
0.830683 0.550927 0.518450
0.171373 0.260409 0.270221
0.245031 0.356856 0.343669
0.374368 0.459756 0.429800
0.515913 0.561292 0.518201
0.640645 0.641993 0.592967
0.730116 0.654181 0.594835
0.813810 0.665749 0.596950
0.890448 0.679011 0.596476
0.140135 0.349537 0.278538
0.241008 0.449710 0.357244
0.386875 0.548418 0.442806
0.531768 0.640625 0.532077
0.657953 0.714410 0.608202
0.747737 0.723674 0.603744
0.828816 0.732872 0.603441
0.900876 0.742516 0.603698
0.134528 0.446249 0.289954
0.242988 0.540479 0.369331
0.405719 0.630868 0.457973
0.553306 0.714016 0.547656
0.676806 0.780423 0.622224
0.760110 0.787187 0.616950
0.838517 0.791172 0.605171
0.907864 0.798760 0.604701
0.145389 0.536074 0.301153
0.261214 0.623326 0.383500
0.432778 0.704734 0.474755
0.578681 0.778180 0.563763
0.697861 0.837444 0.636444
0.777207 0.842587 0.631483
0.850397 0.845434 0.619759
0.914402 0.848583 0.607488
0.094435 0.093844 0.338115
0.094889 0.093751 0.328483
0.133590 0.097351 0.320236
0.202174 0.101016 0.312446
0.267540 0.104696 0.307065
0.347717 0.109339 0.304609
0.451768 0.116082 0.306857
0.557727 0.122998 0.311884
0.097823 0.121524 0.334157
0.134651 0.174848 0.405548
0.204155 0.180948 0.401649
0.278433 0.188950 0.393947
0.353747 0.192361 0.388622
0.438265 0.193051 0.385408
0.539697 0.190733 0.385622
0.642416 0.205331 0.388170
0.120985 0.162358 0.329138
0.177189 0.226605 0.407135
0.291718 0.310314 0.486793
0.374264 0.325067 0.485485
0.454276 0.338115 0.480363
0.535814 0.352198 0.477992
0.633483 0.370203 0.478980
0.727045 0.392351 0.481953
0.139986 0.208553 0.326643
0.210282 0.288611 0.406175
0.331228 0.390107 0.491293
0.466121 0.489695 0.572348
0.549794 0.507534 0.574062
0.626946 0.520620 0.571070
0.717474 0.535621 0.571536
0.802188 0.552749 0.573181
0.159436 0.263759 0.325546
0.236822 0.359262 0.404734
0.366135 0.462555 0.491871
0.507148 0.563835 0.578062
0.632994 0.646985 0.650516
0.707953 0.662337 0.654616
0.790151 0.673714 0.655545
0.866936 0.685734 0.656212
0.146118 0.333354 0.324848
0.260301 0.434247 0.407115
0.399459 0.534422 0.493599
0.542705 0.628669 0.579947
0.669365 0.710360 0.658743
0.778415 0.774524 0.723171
0.852344 0.785363 0.725473
0.918933 0.794908 0.725676
0.134604 0.426838 0.335409
0.261433 0.524903 0.419185
0.418182 0.616244 0.507204
0.563039 0.700673 0.593476
0.686655 0.774281 0.671510
0.794447 0.834299 0.736466
0.866405 0.842424 0.734163
0.928177 0.849027 0.732180
0.144323 0.517663 0.347648
0.275304 0.608211 0.433820
0.445055 0.691669 0.522018
0.585702 0.767684 0.608432
0.706996 0.832722 0.684874
0.810295 0.883811 0.749148
0.878284 0.889425 0.745236
0.934397 0.891873 0.734581
0.095616 0.095616 0.405018
0.095420 0.095805 0.395477
0.102430 0.096432 0.382471
0.180794 0.101910 0.376917
0.254955 0.105491 0.369370
0.331825 0.109681 0.363635
0.417540 0.115206 0.361462
0.523758 0.121990 0.362846
0.098532 0.122195 0.398841
0.109802 0.177708 0.468531
0.178306 0.185586 0.465114
0.264185 0.189402 0.459684
0.345174 0.194845 0.451430
0.425152 0.199251 0.445855
0.508512 0.198651 0.444537
0.609092 0.205367 0.444078
0.105586 0.165218 0.393230
0.153063 0.229510 0.470297
0.285138 0.314922 0.548396
0.366222 0.328873 0.547684
0.444820 0.341281 0.542868
0.525295 0.356540 0.537995
0.605256 0.371454 0.535934
0.698211 0.390731 0.537081
0.125371 0.211623 0.389817
0.197431 0.292579 0.470219
0.325950 0.393891 0.553574
0.459375 0.493594 0.630615
0.540616 0.510318 0.632859
0.617329 0.524120 0.628301
0.691440 0.536908 0.625739
0.774899 0.553669 0.626171
0.143621 0.267694 0.387958
0.226305 0.363919 0.469669
0.355825 0.466712 0.554027
0.498326 0.567174 0.636623
0.624332 0.649620 0.704775
0.698847 0.665551 0.707549
0.764887 0.676365 0.704652
0.840633 0.687762 0.705995
0.141539 0.336611 0.385260
0.252972 0.436895 0.469495
0.391400 0.537042 0.553808
0.534356 0.630491 0.636401
0.662093 0.712645 0.710662
0.771953 0.780032 0.774456
0.833446 0.792791 0.778182
0.899728 0.801637 0.778776
0.137645 0.408805 0.386116
0.285064 0.509318 0.470259
0.428705 0.604708 0.557119
0.571593 0.690952 0.638474
0.695522 0.764734 0.712352
0.804485 0.830372 0.782329
0.890041 0.882659 0.837451
0.941989 0.890376 0.839153
0.143146 0.498968 0.396886
0.296976 0.593855 0.484345
0.454002 0.679526 0.569072
0.594492 0.756204 0.650758
0.714394 0.823212 0.724219
0.819061 0.881064 0.793046
0.901006 0.923394 0.848980
0.949384 0.928952 0.844440
0.097389 0.097389 0.470361
0.096952 0.097475 0.458989
0.096861 0.097490 0.447405
0.155751 0.100733 0.439261
0.240440 0.105800 0.434227
0.323619 0.110678 0.426056
0.405188 0.115940 0.422286
0.489684 0.121268 0.420669
0.100453 0.124700 0.463915
0.109024 0.178872 0.531121
0.168405 0.185043 0.526349
0.254327 0.191275 0.521271
0.335499 0.196370 0.512882
0.416399 0.201223 0.508195
0.497891 0.204811 0.504398
0.579491 0.208666 0.502346
0.105337 0.167617 0.458435
0.154591 0.234238 0.531998
0.287226 0.319542 0.607094
0.361869 0.333366 0.607011
0.438450 0.344413 0.601351
0.516006 0.357931 0.597453
0.594159 0.372982 0.593159
0.670133 0.390224 0.592437
0.114153 0.215879 0.454329
0.194171 0.298315 0.532290
0.324053 0.399672 0.612423
0.456997 0.497435 0.685192
0.535071 0.512694 0.686488
0.610149 0.525950 0.681892
0.682461 0.540314 0.679151
0.750209 0.554598 0.677033
0.131335 0.272658 0.451705
0.224940 0.369319 0.532628
0.355468 0.471111 0.612332
0.494108 0.571183 0.690259
0.617213 0.653298 0.755408
0.691345 0.667747 0.757604
0.757032 0.679172 0.753684
0.817750 0.689484 0.751411
0.134734 0.340248 0.449532
0.249472 0.441426 0.531750
0.389669 0.541465 0.612333
0.529342 0.634773 0.690621
0.654191 0.715127 0.760815
0.763790 0.782556 0.820703
0.826868 0.795953 0.822568
0.879400 0.804463 0.821766
0.135180 0.412026 0.447388
0.277872 0.512395 0.531710
0.425966 0.605367 0.613511
0.564852 0.692931 0.691771
0.687798 0.766717 0.760822
0.797934 0.833199 0.826518
0.883648 0.886868 0.881259
0.926721 0.895643 0.883175
0.143609 0.483897 0.446863
0.316737 0.580036 0.533801
0.465136 0.666774 0.614468
0.603097 0.746092 0.692472
0.720323 0.814287 0.762520
0.825863 0.873132 0.828087
0.906469 0.922244 0.886232
0.959462 0.954984 0.930135
