gsg/02_Everyday/GSG_LUT_Everyday_BlushingMidtones.cube
# GSG LUTs 1.0
# Copyright (c) 2016-2020 Greyscalegorilla
# See EULA for licensing and distribution information
# Converted by Briz LUT Converter
LUT_3D_SIZE 5
DOMAIN_MIN 0.000000 0.000000 0.000000
DOMAIN_MAX 0.903226 0.903226 0.903226
0.000000 0.000000 0.000000
0.180653 0.000000 0.000000
0.459916 0.000000 0.000000
0.759880 0.001725 0.005238
0.971050 0.012368 0.024420
0.044673 0.153303 0.016661
0.164914 0.148508 0.013266
0.474757 0.137410 0.017124
0.794988 0.142652 0.034381
0.999082 0.160473 0.067977
0.000000 0.430178 0.070385
0.031927 0.424727 0.068187
0.455172 0.410222 0.070578
0.789192 0.401028 0.092221
0.998779 0.402232 0.117276
0.000000 0.715704 0.094411
0.000000 0.711654 0.097284
0.399816 0.702938 0.102304
0.745699 0.692940 0.109819
0.971026 0.685449 0.133450
0.000000 0.912151 0.128560
0.000000 0.907546 0.132871
0.420324 0.900671 0.144887
0.719653 0.893214 0.158886
0.958593 0.888960 0.178952
0.000000 0.000000 0.125393
0.188236 0.000000 0.121504
0.472614 0.000030 0.124164
0.775332 0.004979 0.143251
0.987903 0.021717 0.169363
0.045470 0.152570 0.149047
0.163237 0.147903 0.145839
0.485920 0.137574 0.141450
0.830471 0.134802 0.144776
1.000000 0.147775 0.161226
0.000000 0.421592 0.176869
0.029263 0.425565 0.170053
0.458213 0.412544 0.167489
0.805887 0.402036 0.176358
1.000000 0.402611 0.192342
0.000000 0.723432 0.192293
0.000000 0.720075 0.191773
0.397724 0.709459 0.195819
0.752305 0.699127 0.203020
0.986732 0.691483 0.222900
0.000000 0.932948 0.219767
0.000000 0.927837 0.223920
0.409174 0.914568 0.237752
0.723182 0.904795 0.249348
0.970863 0.897701 0.258558
0.000000 0.000244 0.348954
0.193675 0.000214 0.348077
0.485404 0.000000 0.345473
0.794907 0.014982 0.352102
0.998955 0.045457 0.368404
0.051982 0.156270 0.381374
0.162551 0.149150 0.386080
0.485776 0.141438 0.378600
0.830778 0.146341 0.376799
1.000000 0.160273 0.383047
0.000121 0.423604 0.414192
0.042659 0.422096 0.415167
0.459353 0.413959 0.410628
0.824770 0.401949 0.404520
1.000000 0.400306 0.407148
0.000000 0.718350 0.450934
0.000000 0.721066 0.448776
0.389907 0.718974 0.442259
0.761668 0.706745 0.440613
0.998462 0.699189 0.439636
0.000000 0.935838 0.479696
0.000000 0.932455 0.479631
0.393431 0.928275 0.475328
0.726588 0.923475 0.468587
0.988929 0.913212 0.467287
0.003419 0.004734 0.582410
0.210008 0.006294 0.582871
0.494179 0.009479 0.586731
0.816732 0.024908 0.589548
1.000000 0.069677 0.594392
0.066177 0.166610 0.630311
0.169532 0.156743 0.644986
0.487247 0.154507 0.635799
0.835851 0.158574 0.630146
1.000000 0.178162 0.629222
0.000000 0.428155 0.666654
0.060334 0.426164 0.673526
0.456645 0.413443 0.681863
0.822881 0.407190 0.669873
1.000000 0.407481 0.666816
0.000267 0.721605 0.707145
0.000267 0.722258 0.708437
0.394714 0.718679 0.708711
0.763222 0.708507 0.703538
0.998740 0.703035 0.701813
0.000000 0.935728 0.737879
0.000000 0.933505 0.735781
0.397118 0.928473 0.734282
0.726600 0.924314 0.729825
0.988911 0.916418 0.726540
0.015117 0.022734 0.732420
0.229336 0.022406 0.737402
0.504116 0.032761 0.744350
0.828596 0.042768 0.756123
1.000000 0.086313 0.756370
0.084158 0.179674 0.794067
0.173696 0.161859 0.829351
0.491404 0.167701 0.812001
0.839230 0.173767 0.807483
1.000000 0.191358 0.803327
0.000000 0.436158 0.836194
0.068207 0.430799 0.857141
0.456282 0.413316 0.874504
0.828887 0.399560 0.864385
1.000000 0.413277 0.850134
0.000000 0.722801 0.883263
0.000000 0.725798 0.891196
0.383663 0.720616 0.901203
0.762654 0.708437 0.894006
0.998995 0.706314 0.885603
0.000043 0.932194 0.916743
0.000081 0.933804 0.917722
0.398576 0.931357 0.917157
0.726411 0.924424 0.914022
0.988911 0.916797 0.911852
