gsg/02_Everyday/GSG_LUT_Everyday_BlueGreen.cube
# GSG LUTs 1.0
# Copyright (c) 2016-2020 Greyscalegorilla
# See EULA for licensing and distribution information
# Converted by Briz LUT Converter
LUT_3D_SIZE 8
DOMAIN_MIN 0.000000 0.000000 0.000000
DOMAIN_MAX 0.903226 0.903226 0.903226
0.000000 0.005617 0.011477
0.081673 0.000000 0.018599
0.163346 0.000000 0.058254
0.245264 0.000000 0.095467
0.326937 0.000000 0.131522
0.408610 0.000000 0.167419
0.490283 0.000000 0.202954
0.572177 0.000000 0.238954
0.002568 0.100571 0.281650
0.081673 0.118914 0.017247
0.163378 0.118335 0.053913
0.245307 0.117897 0.089566
0.327157 0.117405 0.124826
0.409626 0.117145 0.160285
0.492308 0.116901 0.196329
0.574989 0.116870 0.232880
0.006727 0.214810 0.276671
0.083399 0.234196 0.016968
0.165678 0.233125 0.050289
0.248297 0.232322 0.084123
0.330797 0.231533 0.118437
0.413722 0.230769 0.153483
0.496697 0.230249 0.189523
0.579637 0.229723 0.226807
0.013116 0.326393 0.271811
0.088358 0.347276 0.018492
0.170814 0.345811 0.047807
0.253590 0.344708 0.079478
0.336516 0.343700 0.112677
0.419747 0.342753 0.147166
0.502929 0.342043 0.183357
0.586450 0.341399 0.221001
0.021403 0.438048 0.267510
0.095537 0.460333 0.022096
0.178219 0.458805 0.046854
0.261239 0.457444 0.076134
0.344567 0.456363 0.107929
0.428012 0.455355 0.141880
0.511702 0.454535 0.177849
0.595506 0.453814 0.215912
0.032014 0.551538 0.263752
0.105172 0.575320 0.027566
0.188097 0.573588 0.047800
0.271362 0.572210 0.074379
0.354965 0.571019 0.104573
0.438655 0.570011 0.137673
0.522710 0.569211 0.173434
0.606758 0.568609 0.211777
0.040616 0.674906 0.266982
0.117398 0.693449 0.034984
0.200503 0.691592 0.050928
0.283168 0.691288 0.075048
0.366266 0.691313 0.104634
0.448962 0.692418 0.138745
0.531131 0.694955 0.177310
0.613281 0.697491 0.218780
0.042932 0.810950 0.280011
0.126259 0.822214 0.043386
0.207175 0.823286 0.059979
0.288416 0.824828 0.084997
0.370089 0.826831 0.116310
0.451778 0.829091 0.152019
0.533478 0.831541 0.191041
0.615398 0.834099 0.232618
0.048604 0.309559 0.383205
0.101993 0.000000 0.099445
0.183174 0.000000 0.137571
0.264710 0.000000 0.173871
0.346221 0.000000 0.209540
0.427787 0.000000 0.245216
0.509536 0.000000 0.281027
0.591421 0.000000 0.317306
0.019398 0.099925 0.359991
0.099910 0.116802 0.097849
0.181334 0.116094 0.132758
0.262984 0.115584 0.167455
0.344657 0.115294 0.202205
0.426563 0.114907 0.237449
0.508634 0.114790 0.273376
0.590839 0.114765 0.310213
0.020190 0.211659 0.353996
0.099610 0.230525 0.097577
0.181158 0.229454 0.128932
0.263072 0.228445 0.161516
0.345141 0.227590 0.195250
0.427312 0.226914 0.229934
0.509679 0.226293 0.265895
0.592335 0.225796 0.303354
0.023486 0.321615 0.348442
0.101444 0.342387 0.099435
0.183235 0.340916 0.126321
0.265413 0.339655 0.156709
0.347831 0.338564 0.189055
0.430351 0.337556 0.223183
0.513226 0.336789 0.259149
0.596132 0.336220 0.296869
0.029279 0.432234 0.343613
0.105729 0.454787 0.103059
0.187862 0.453030 0.125372
0.270417 0.451569 0.153159
0.353089 0.450431 0.184109
0.436110 0.449391 0.217504
0.519333 0.448411 0.253385
0.602734 0.447648 0.291378
0.037689 0.546488 0.340772
0.113073 0.569259 0.108506
0.195411 0.567289 0.126459
0.278297 0.565788 0.151385
0.361435 0.564587 0.180589
0.444735 0.564148 0.213599
0.528095 0.564473 0.250302
0.611473 0.565299 0.289936
0.043980 0.678120 0.350830
0.122809 0.689014 0.115920
0.204983 0.688645 0.131305
0.287159 0.690268 0.155848
0.369499 0.692591 0.187104
0.451962 0.695144 0.222589
0.534606 0.697924 0.261452
0.617166 0.700785 0.303197
0.048656 0.814962 0.365426
0.129478 0.824259 0.124585
0.210939 0.825799 0.143213
0.292857 0.827697 0.168787
0.374827 0.829983 0.200865
0.457010 0.832533 0.237124
0.539372 0.835311 0.276570
0.621636 0.838139 0.318529
0.057411 0.314664 0.470991
0.127173 0.000000 0.180078
0.207838 0.000000 0.216708
0.288708 0.000000 0.252180
0.369593 0.000000 0.287408
0.450724 0.000000 0.322856
0.531837 0.000000 0.358667
0.613210 0.000000 0.395193
0.038796 0.099397 0.438150
0.121974 0.114582 0.178530
0.202700 0.113957 0.211728
0.283654 0.113503 0.245262
0.364802 0.113116 0.279433
0.446028 0.112742 0.314361
0.527395 0.112710 0.350293
0.608962 0.112702 0.387359
0.035622 0.208554 0.431320
0.118169 0.226734 0.178525
0.199015 0.225567 0.207641
0.280238 0.224593 0.239040
0.361535 0.223701 0.271935
0.443011 0.222954 0.306322
0.524731 0.222287 0.342253
0.606572 0.221882 0.379747
0.034628 0.316917 0.424979
0.116264 0.337498 0.180452
0.197297 0.335822 0.204880
0.278663 0.334545 0.233904
0.360244 0.333428 0.265345
0.442041 0.332420 0.299129
0.524099 0.331441 0.334875
0.606243 0.330846 0.372716
0.035896 0.426303 0.419237
0.116628 0.449003 0.184027
0.197802 0.447121 0.203921
0.279420 0.445508 0.230127
0.361323 0.444210 0.260008
0.443443 0.443003 0.292925
0.525782 0.442052 0.328479
0.608386 0.441504 0.366747
0.041049 0.546725 0.421750
0.119594 0.562834 0.189318
0.201065 0.560959 0.205111
0.282990 0.560505 0.228975
0.365460 0.560602 0.258485
0.448284 0.562210 0.293025
0.531470 0.565163 0.331917
0.614683 0.568274 0.373565
0.048400 0.682193 0.435592
0.126121 0.689451 0.197149
0.208073 0.691060 0.214271
0.290480 0.693327 0.239403
0.373189 0.695918 0.271207
0.456047 0.698742 0.307220
0.539065 0.701753 0.346559
0.622101 0.704877 0.388435
0.055372 0.819771 0.451904
0.133743 0.827114 0.206166
0.215750 0.829131 0.226963
0.298145 0.831303 0.253365
0.380645 0.833948 0.286122
0.463384 0.836843 0.323014
0.546296 0.839874 0.362997
0.629071 0.842979 0.405285
0.071826 0.321052 0.560061
0.153046 0.000000 0.261038
0.233385 0.000000 0.296057
0.313805 0.000000 0.330548
0.394376 0.000000 0.365292
0.474987 0.000000 0.400400
0.555705 0.000000 0.436307
0.636605 0.000000 0.473166
0.060073 0.099523 0.516511
0.145311 0.112761 0.259653
0.225649 0.112104 0.290880
0.306089 0.111608 0.323300
0.386659 0.111248 0.356855
0.467503 0.110993 0.391508
0.548358 0.110974 0.427362
0.629378 0.110957 0.464513
0.053590 0.205869 0.508669
0.138817 0.223396 0.260047
0.219010 0.222064 0.286575
0.299657 0.221056 0.316806
0.380399 0.220047 0.348970
0.461310 0.219269 0.382977
0.542398 0.218719 0.418717
0.623568 0.218366 0.456331
0.049058 0.312694 0.501669
0.133804 0.332939 0.261896
0.214088 0.331191 0.283930
0.294788 0.329775 0.311404
0.375739 0.328554 0.342106
0.456840 0.327495 0.375249
0.538149 0.326606 0.410878
0.619641 0.325813 0.448791
0.047269 0.422435 0.496741
0.130838 0.443726 0.265455
0.211186 0.441505 0.283003
0.292005 0.439869 0.307502
0.373210 0.438627 0.336615
0.454866 0.438076 0.369496
0.536880 0.438312 0.405924
0.619568 0.439391 0.445680
0.054008 0.551837 0.507038
0.130880 0.559244 0.271062
0.212273 0.559012 0.286321
0.294933 0.561310 0.311200
0.377820 0.564000 0.342578
0.461010 0.566875 0.378364
0.544425 0.570145 0.417524
0.627783 0.573414 0.459358
0.062478 0.687891 0.522360
0.138899 0.693656 0.279811
0.221119 0.695712 0.298872
0.303801 0.698150 0.324657
0.386775 0.701023 0.357013
0.469957 0.704033 0.393548
0.553234 0.707317 0.433353
0.636649 0.710728 0.475623
0.071464 0.826216 0.539982
0.147622 0.831825 0.289248
0.230254 0.834086 0.312269
0.312826 0.836662 0.339432
0.395872 0.839544 0.372823
0.478977 0.842663 0.410389
0.562362 0.846020 0.450876
0.645659 0.849443 0.493630
0.095719 0.328851 0.650542
0.180748 0.000000 0.342612
0.260648 0.000000 0.375651
0.340839 0.000000 0.409215
0.421121 0.000000 0.443359
0.501527 0.000000 0.478304
0.582024 0.000126 0.514191
0.662444 0.000961 0.551313
0.084666 0.100185 0.594927
0.171303 0.111441 0.341415
0.251114 0.110717 0.370432
0.331277 0.110215 0.401656
0.411501 0.109945 0.434663
0.491929 0.109800 0.468904
0.572566 0.109898 0.504842
0.653117 0.110101 0.542227
0.075663 0.203953 0.586523
0.162771 0.220393 0.342045
0.242513 0.219000 0.366339
0.322637 0.217962 0.395084
0.402962 0.217122 0.426532
0.483413 0.216359 0.460115
0.564071 0.215798 0.495780
0.644743 0.215403 0.533413
0.068266 0.309109 0.579007
0.155452 0.328983 0.344019
0.235205 0.327148 0.363676
0.315296 0.325635 0.389691
0.395747 0.324345 0.419434
0.476259 0.323250 0.452175
0.557083 0.322535 0.487532
0.638239 0.322035 0.525711
0.068087 0.425627 0.580427
0.149760 0.438996 0.347657
0.229743 0.437194 0.363208
0.310583 0.436533 0.386919
0.392113 0.436823 0.416340
0.474778 0.438806 0.451232
0.558155 0.442018 0.490178
0.641648 0.445508 0.531936
0.076498 0.558583 0.594239
0.152087 0.562792 0.354541
0.234409 0.564890 0.371910
0.317096 0.567342 0.397245
0.400223 0.570250 0.429136
0.483525 0.573377 0.465398
0.567013 0.576740 0.504890
0.650678 0.580269 0.546906
0.086132 0.695285 0.610740
0.161147 0.699618 0.363791
0.243798 0.702014 0.384906
0.326762 0.704712 0.411393
0.409959 0.707721 0.444460
0.493348 0.711020 0.481509
0.577037 0.714475 0.521657
0.660700 0.718096 0.564273
0.096806 0.834121 0.629560
0.171112 0.838128 0.373578
0.254037 0.840759 0.398776
0.337142 0.843570 0.426734
0.420576 0.846721 0.461195
0.504021 0.850064 0.499374
0.587711 0.853601 0.540312
0.671527 0.857352 0.583459
0.130623 0.337296 0.741668
0.211351 0.000000 0.424620
0.291252 0.000000 0.455890
0.371300 0.000158 0.488337
0.451424 0.000441 0.521982
0.531743 0.001149 0.556753
0.612041 0.001969 0.592666
0.692450 0.002978 0.629950
0.114010 0.101635 0.673945
0.201111 0.110770 0.424221
0.280767 0.110056 0.450746
0.360721 0.109780 0.480846
0.440813 0.109525 0.513112
0.521095 0.109641 0.547074
0.601429 0.109823 0.582851
0.681936 0.110098 0.620579
0.103155 0.203009 0.665020
0.191354 0.218217 0.424878
0.270864 0.216803 0.446776
0.350721 0.215731 0.474184
0.430696 0.214936 0.504758
0.510979 0.214270 0.537980
0.591327 0.213742 0.573454
0.671779 0.213442 0.611291
0.094872 0.307966 0.658362
0.182678 0.325765 0.427051
0.262037 0.323842 0.444465
0.341788 0.322355 0.468891
0.421895 0.321296 0.497846
0.502572 0.320879 0.530589
0.583783 0.321279 0.566923
0.665895 0.322825 0.606962
0.099476 0.433156 0.668132
0.176724 0.437688 0.431253
0.257620 0.437865 0.446684
0.340150 0.440403 0.471612
0.423078 0.443184 0.503060
0.506203 0.446319 0.538890
0.589548 0.449653 0.578112
0.673057 0.453113 0.620111
0.108158 0.566765 0.682965
0.183300 0.569877 0.439656
0.265737 0.572244 0.458783
0.348480 0.574919 0.484778
0.431670 0.578046 0.517200
0.515073 0.581371 0.553853
0.598763 0.584871 0.593689
0.682453 0.588562 0.636054
0.121764 0.703699 0.697267
0.192699 0.707107 0.449034
0.275611 0.709768 0.472146
0.358665 0.712610 0.499557
0.442067 0.715924 0.533232
0.525747 0.719413 0.570822
0.609611 0.723014 0.611454
0.693554 0.726925 0.654472
0.141061 0.840803 0.713370
0.203510 0.845870 0.458988
0.286740 0.848738 0.486330
0.370168 0.851900 0.515318
0.453812 0.855178 0.550616
0.537700 0.858794 0.589507
0.621810 0.862568 0.631049
0.705936 0.866444 0.674806
0.241372 0.324747 0.808193
0.246737 0.001300 0.507905
0.326652 0.001607 0.536877
0.406782 0.002277 0.568333
0.486956 0.002891 0.601268
0.567317 0.003844 0.635834
0.647651 0.004852 0.671748
0.728315 0.005916 0.709276
0.149632 0.104218 0.753839
0.236654 0.111158 0.507737
0.316279 0.110651 0.531981
0.396189 0.110346 0.560941
0.476298 0.110315 0.592425
0.556450 0.110527 0.626102
0.636841 0.110935 0.661909
0.717389 0.111463 0.699676
0.138109 0.203275 0.744535
0.226613 0.217074 0.508856
0.305983 0.215641 0.528447
0.385639 0.214628 0.554390
0.465540 0.213875 0.584131
0.545680 0.213334 0.616795
0.626057 0.212939 0.652275
0.706605 0.212923 0.690439
0.133767 0.314034 0.744606
0.217366 0.323816 0.511262
0.296791 0.322222 0.526872
0.376800 0.321565 0.550195
0.457882 0.322249 0.579894
0.540092 0.324558 0.614857
0.623034 0.327793 0.653824
0.706193 0.331182 0.695671
0.139360 0.442089 0.757296
0.215975 0.444161 0.517240
0.297945 0.446304 0.534554
0.380322 0.448893 0.559890
0.463069 0.451857 0.591815
0.546213 0.455138 0.628094
0.629421 0.458580 0.667516
0.712986 0.462188 0.709620
0.148111 0.576187 0.773209
0.222943 0.578376 0.525626
0.305502 0.581056 0.546906
0.388387 0.583851 0.573536
0.471574 0.587094 0.606588
0.555040 0.590602 0.643721
0.638690 0.594281 0.683950
0.722394 0.598082 0.726522
0.160122 0.713982 0.790730
0.232391 0.715841 0.535233
0.315444 0.718780 0.560542
0.398708 0.721838 0.588688
0.482343 0.725306 0.623161
0.566155 0.728977 0.661389
0.650146 0.732766 0.702485
0.734330 0.736798 0.745724
0.176213 0.853002 0.809928
0.243820 0.854723 0.545414
0.327301 0.857965 0.574639
0.411039 0.861269 0.604956
0.495482 0.864609 0.641634
0.581693 0.867475 0.682551
0.667213 0.871171 0.723972
0.752953 0.875174 0.766617
0.245004 0.350679 0.918973
0.288393 0.004789 0.592209
0.368563 0.005097 0.618943
0.448966 0.005861 0.649218
0.529387 0.006625 0.681622
0.610036 0.007633 0.715712
0.690693 0.008812 0.751680
0.771557 0.010093 0.789397
0.193632 0.107947 0.834697
0.279480 0.113034 0.592760
0.359335 0.112488 0.614697
0.439328 0.112354 0.642223
0.519614 0.112584 0.672935
0.600134 0.113063 0.706348
0.680555 0.113628 0.742030
0.761216 0.114512 0.780023
0.182744 0.206093 0.826192
0.270132 0.217213 0.593982
0.349490 0.215747 0.611491
0.429267 0.214920 0.635817
0.509287 0.214325 0.664858
0.589676 0.214300 0.697525
0.670689 0.215182 0.733885
0.752350 0.217041 0.774290
0.182205 0.323424 0.834196
0.262251 0.325310 0.597331
0.342743 0.325951 0.612683
0.424280 0.328301 0.637517
0.506379 0.331073 0.668827
0.588869 0.334189 0.704574
0.671551 0.337459 0.743745
0.754327 0.340807 0.785640
0.186979 0.452042 0.847860
0.264228 0.453582 0.604268
0.346066 0.455876 0.623428
0.428299 0.458634 0.649302
0.510867 0.461707 0.681717
0.593874 0.465099 0.718327
0.677060 0.468670 0.758093
0.760479 0.472354 0.800549
0.195738 0.587192 0.862365
0.270374 0.588074 0.612645
0.352883 0.590854 0.635893
0.435668 0.593934 0.663167
0.518829 0.597339 0.696995
0.602237 0.600953 0.734633
0.685919 0.604744 0.775170
0.769903 0.608775 0.817997
0.211643 0.726401 0.874219
0.279435 0.725659 0.622211
0.362642 0.728851 0.649611
0.446033 0.732106 0.678638
0.529718 0.735745 0.714014
0.613724 0.739531 0.752909
0.698456 0.743375 0.794810
0.783910 0.747591 0.837308
0.234694 0.863413 0.893665
0.290992 0.864708 0.632431
0.374881 0.868049 0.663397
0.458814 0.871595 0.695362
0.544529 0.874492 0.734987
0.633801 0.876302 0.780128
0.722656 0.879452 0.821444
0.809518 0.884149 0.859998
