gsg/02_Everyday/GSG_LUT_Everyday_OverCaster.cube
# GSG LUTs 1.0
# Copyright (c) 2016-2020 Greyscalegorilla
# See EULA for licensing and distribution information
# Converted by Briz LUT Converter
LUT_3D_SIZE 8
DOMAIN_MIN 0.000000 0.000000 0.000000
DOMAIN_MAX 0.903226 0.903226 0.903226
0.016117 0.041514 0.049084
0.103312 0.091244 0.105077
0.182024 0.123132 0.140226
0.263335 0.147828 0.164095
0.346118 0.163055 0.177817
0.434606 0.172201 0.185718
0.527339 0.180645 0.193399
0.622837 0.191193 0.200835
0.035960 0.093332 0.075292
0.102395 0.125905 0.110701
0.166568 0.150017 0.135704
0.230898 0.167423 0.152325
0.302444 0.182306 0.165944
0.383866 0.195505 0.175166
0.478442 0.206782 0.179139
0.580043 0.221324 0.184332
0.073709 0.185316 0.129662
0.122682 0.200661 0.144117
0.183119 0.217432 0.163259
0.236991 0.228878 0.173886
0.296015 0.239007 0.178193
0.366188 0.249044 0.179650
0.451783 0.258964 0.178295
0.553051 0.270558 0.177345
0.113443 0.306062 0.184174
0.153857 0.306938 0.183429
0.206641 0.308927 0.189191
0.256641 0.311377 0.194433
0.308486 0.316665 0.197829
0.370572 0.325017 0.194567
0.449833 0.335423 0.188767
0.549109 0.349532 0.186062
0.144062 0.443286 0.215582
0.183867 0.429137 0.205254
0.226995 0.414846 0.202315
0.274543 0.407561 0.202332
0.324558 0.405739 0.204102
0.385303 0.412871 0.208922
0.467439 0.433142 0.210609
0.565687 0.457257 0.216629
0.174643 0.577935 0.223813
0.217233 0.551017 0.212754
0.246149 0.524207 0.203889
0.288213 0.511154 0.202081
0.346265 0.518027 0.210492
0.419024 0.535445 0.223600
0.502028 0.556418 0.239198
0.594256 0.579810 0.252339
0.218622 0.688834 0.229430
0.255646 0.660365 0.217871
0.278823 0.646670 0.218001
0.327146 0.650041 0.228600
0.389999 0.657465 0.244020
0.464177 0.669712 0.264117
0.546023 0.686187 0.290842
0.631696 0.706440 0.327013
0.292576 0.783119 0.273890
0.335577 0.780448 0.285480
0.364597 0.776362 0.295159
0.413336 0.778006 0.312503
0.470106 0.782571 0.333345
0.536814 0.792280 0.361023
0.610734 0.807305 0.395778
0.687285 0.827264 0.436514
0.023971 0.058474 0.127244
0.114325 0.102426 0.175213
0.191878 0.135657 0.205151
0.268261 0.156457 0.226031
0.346378 0.168190 0.236795
0.431266 0.175071 0.241695
0.522241 0.181322 0.244546
0.617381 0.190579 0.248641
0.040057 0.104569 0.128508
0.105687 0.132316 0.159028
0.170076 0.154377 0.180896
0.233536 0.169751 0.195489
0.304061 0.182812 0.206610
0.385587 0.194383 0.214932
0.479653 0.206059 0.222046
0.579646 0.220947 0.231505
0.079310 0.188837 0.170648
0.124698 0.201956 0.182234
0.180928 0.217077 0.195516
0.235256 0.227392 0.204162
0.295401 0.237060 0.210350
0.367487 0.246926 0.215890
0.455319 0.257134 0.220598
0.555361 0.270842 0.229247
0.115967 0.302878 0.220595
0.154293 0.303438 0.218688
0.201303 0.306758 0.220150
0.252582 0.309956 0.225423
0.306631 0.315984 0.231412
0.371550 0.324732 0.233674
0.453443 0.335287 0.234786
0.553376 0.352941 0.243717
0.146512 0.435346 0.255331
0.183966 0.424271 0.246275
0.220455 0.413470 0.240197
0.268878 0.407819 0.241611
0.321051 0.407127 0.244931
0.387506 0.418127 0.253267
0.472658 0.439351 0.264040
0.570259 0.463502 0.277815
0.177592 0.568628 0.273586
0.217293 0.546593 0.263660
0.243028 0.523073 0.254398
0.287089 0.516677 0.255851
0.347975 0.526516 0.266981
0.422315 0.543686 0.282522
0.506203 0.564126 0.299776
0.597652 0.587091 0.324183
0.223930 0.678617 0.289243
0.264039 0.658198 0.285972
0.288798 0.649772 0.289447
0.338783 0.653726 0.301947
0.400854 0.661629 0.317894
0.474781 0.673851 0.340824
0.555400 0.691147 0.370115
0.638586 0.712986 0.405146
0.304919 0.781906 0.345171
0.354452 0.778087 0.361824
0.385067 0.775452 0.372802
0.433229 0.778603 0.390145
0.488096 0.784458 0.410283
0.552485 0.795462 0.436830
0.624321 0.812038 0.470256
0.698815 0.833485 0.509489
0.032739 0.078979 0.256174
0.128395 0.116231 0.295655
0.210319 0.146559 0.312125
0.280994 0.167616 0.318622
0.353860 0.177976 0.324516
0.435567 0.182196 0.327818
0.523605 0.186868 0.327564
0.617653 0.194793 0.327022
0.043105 0.121958 0.223315
0.110882 0.143330 0.246123
0.179556 0.162575 0.261244
0.241528 0.178772 0.268249
0.309541 0.190885 0.277795
0.389014 0.200819 0.285811
0.480994 0.211216 0.291724
0.579563 0.224099 0.297407
0.082871 0.201741 0.240582
0.128455 0.211018 0.248511
0.184311 0.222957 0.259086
0.238858 0.231495 0.263171
0.299285 0.239528 0.267333
0.371844 0.247658 0.271618
0.458092 0.257750 0.276512
0.556453 0.271938 0.284142
0.123260 0.307863 0.282389
0.159855 0.306968 0.278190
0.202600 0.309015 0.276283
0.251036 0.311950 0.275289
0.306359 0.316950 0.277196
0.372401 0.324542 0.278804
0.454689 0.336058 0.283200
0.555010 0.356366 0.296802
0.151948 0.434061 0.316665
0.188395 0.422976 0.304635
0.220335 0.412396 0.293511
0.264139 0.408292 0.287638
0.317558 0.408162 0.287963
0.389083 0.422707 0.299320
0.475318 0.444381 0.314168
0.571078 0.468752 0.332238
0.182347 0.562179 0.332576
0.221306 0.541587 0.319208
0.243761 0.520546 0.306098
0.287844 0.521075 0.307698
0.350023 0.532688 0.319077
0.424617 0.549323 0.334855
0.509454 0.569108 0.356152
0.599284 0.592839 0.384125
0.227815 0.669929 0.342903
0.270191 0.657056 0.343438
0.297294 0.652593 0.348213
0.350049 0.655741 0.362124
0.412067 0.663416 0.378635
0.484068 0.676708 0.401172
0.562709 0.695131 0.430065
0.644068 0.718461 0.464744
0.310632 0.782977 0.399727
0.362676 0.779936 0.415596
0.397613 0.776921 0.428324
0.448785 0.779489 0.448186
0.502731 0.785998 0.468379
0.565403 0.798262 0.494558
0.635642 0.816164 0.527900
0.708655 0.838912 0.566811
0.039300 0.099815 0.445272
0.141168 0.129717 0.474381
0.229195 0.154688 0.470625
0.302561 0.171384 0.456561
0.370403 0.184513 0.442230
0.444212 0.191485 0.434625
0.528880 0.194958 0.430308
0.621853 0.201544 0.424981
0.044889 0.140647 0.365088
0.114987 0.155079 0.377598
0.190121 0.170844 0.382348
0.255765 0.184838 0.375507
0.320979 0.199396 0.372089
0.396147 0.210138 0.375657
0.485240 0.218949 0.380137
0.581977 0.229734 0.381959
0.078804 0.218819 0.349580
0.128474 0.223203 0.349672
0.187390 0.230763 0.353657
0.244762 0.236960 0.350047
0.305063 0.245681 0.346553
0.375548 0.253511 0.348967
0.460181 0.262953 0.353016
0.558204 0.276141 0.358529
0.123961 0.319527 0.368019
0.162748 0.315922 0.358998
0.205174 0.315131 0.352633
0.253110 0.316600 0.348359
0.307988 0.320219 0.345486
0.375097 0.327237 0.345948
0.458570 0.340498 0.352474
0.557572 0.363129 0.368606
0.159535 0.437177 0.395341
0.195115 0.426021 0.380158
0.224403 0.414534 0.365108
0.265472 0.410346 0.356190
0.319179 0.413853 0.354639
0.393231 0.429883 0.366124
0.479863 0.451346 0.381766
0.572033 0.477276 0.404100
0.189405 0.559914 0.409378
0.227751 0.540346 0.392238
0.249626 0.524012 0.378414
0.293661 0.528043 0.379982
0.355749 0.539979 0.390070
0.431771 0.555653 0.406566
0.515727 0.575791 0.426295
0.602905 0.600645 0.452711
0.235110 0.669076 0.417837
0.279049 0.661076 0.417765
0.307729 0.658077 0.420807
0.362146 0.661003 0.432343
0.425692 0.667671 0.448276
0.496338 0.681254 0.468744
0.572317 0.700700 0.494423
0.651079 0.725031 0.525698
0.319350 0.785821 0.468489
0.373236 0.783943 0.481530
0.409882 0.781939 0.491951
0.461973 0.784782 0.509154
0.518104 0.790022 0.529135
0.580124 0.802030 0.553536
0.647805 0.820844 0.583647
0.718537 0.844473 0.619340
0.046831 0.120855 0.681074
0.155934 0.149197 0.674991
0.245422 0.168316 0.652184
0.320250 0.179454 0.622438
0.390319 0.188284 0.592857
0.460302 0.196594 0.566285
0.537030 0.204005 0.546602
0.627918 0.209527 0.534768
0.043348 0.157942 0.561513
0.119126 0.167154 0.552882
0.200140 0.179717 0.539012
0.269408 0.190684 0.516835
0.337478 0.202699 0.498359
0.409184 0.216268 0.485196
0.490733 0.227367 0.478668
0.585823 0.236184 0.475561
0.071684 0.235434 0.502963
0.126798 0.235006 0.489377
0.189672 0.238596 0.479576
0.250634 0.242447 0.463521
0.313328 0.249089 0.448381
0.382059 0.258757 0.439340
0.463214 0.269296 0.437661
0.560220 0.281546 0.440051
0.113780 0.334600 0.487886
0.157758 0.327243 0.468355
0.202396 0.322838 0.452336
0.253429 0.322054 0.439737
0.310297 0.324265 0.429626
0.377476 0.331734 0.424048
0.462590 0.347682 0.432265
0.560018 0.372038 0.449078
0.160166 0.445047 0.490169
0.198164 0.432197 0.468652
0.227056 0.418970 0.446641
0.268016 0.413746 0.432847
0.324218 0.420903 0.433247
0.398666 0.438211 0.444718
0.484974 0.460190 0.460377
0.574388 0.488424 0.481219
0.197603 0.559571 0.494359
0.235473 0.540878 0.472176
0.256904 0.529954 0.458618
0.301556 0.536394 0.461058
0.364399 0.547951 0.469907
0.441690 0.563520 0.484011
0.524685 0.584440 0.502004
0.609179 0.610575 0.525359
0.244030 0.670302 0.499112
0.289337 0.666754 0.498727
0.320641 0.664543 0.499849
0.375096 0.668204 0.507900
0.437916 0.675480 0.519932
0.509616 0.688692 0.538763
0.585139 0.708548 0.563026
0.661267 0.733992 0.591710
0.330009 0.790062 0.543275
0.385761 0.789389 0.553600
0.424235 0.788586 0.561743
0.476521 0.792349 0.575806
0.532115 0.798281 0.592328
0.595194 0.809606 0.615328
0.663546 0.828067 0.644675
0.732097 0.852735 0.677792
0.070416 0.150254 0.887912
0.177740 0.177699 0.848319
0.262519 0.190962 0.818719
0.334367 0.196404 0.784887
0.404075 0.199449 0.750172
0.474828 0.203727 0.712807
0.550128 0.210083 0.679054
0.635715 0.217787 0.653092
0.053100 0.177001 0.763922
0.130759 0.183735 0.729544
0.212052 0.194046 0.699886
0.281166 0.202220 0.665908
0.349579 0.211440 0.635067
0.421816 0.222470 0.609306
0.499748 0.233423 0.587774
0.589975 0.242834 0.573791
0.070934 0.250644 0.681097
0.131401 0.247366 0.644662
0.195993 0.248619 0.615625
0.257313 0.250635 0.586750
0.320226 0.255338 0.560441
0.389213 0.263351 0.540414
0.467891 0.274599 0.527526
0.562714 0.288016 0.525470
0.108175 0.347586 0.632294
0.157531 0.337645 0.596441
0.203527 0.330426 0.565017
0.255851 0.328032 0.540657
0.312916 0.329127 0.521123
0.381326 0.336729 0.509917
0.467748 0.355712 0.517856
0.563445 0.382265 0.532929
0.155382 0.454753 0.603616
0.198147 0.439722 0.570539
0.227111 0.424771 0.537882
0.269227 0.419502 0.517660
0.329137 0.429508 0.519202
0.405506 0.447461 0.529457
0.491371 0.470876 0.541688
0.579795 0.499741 0.557288
0.204581 0.561048 0.584470
0.242485 0.544047 0.557198
0.264350 0.537781 0.544448
0.310074 0.545837 0.547373
0.374268 0.556862 0.553117
0.451883 0.572925 0.561854
0.534684 0.594780 0.576116
0.617449 0.622127 0.596640
0.253866 0.673394 0.583879
0.301775 0.673078 0.583119
0.335062 0.671859 0.581516
0.389454 0.676639 0.586018
0.451182 0.684557 0.593951
0.521695 0.698413 0.608245
0.597548 0.718716 0.629632
0.673461 0.744780 0.656518
0.341889 0.795108 0.621031
0.399605 0.795872 0.628248
0.440013 0.796353 0.633834
0.492600 0.801103 0.644833
0.547456 0.807811 0.657678
0.609323 0.819725 0.676663
0.678076 0.838371 0.703118
0.747556 0.862869 0.735265
0.105439 0.186837 1.000000
0.207664 0.214029 0.982773
0.284957 0.225810 0.936994
0.348727 0.229083 0.896392
0.411652 0.227776 0.863697
0.478719 0.226515 0.830387
0.553471 0.227204 0.797393
0.638192 0.231856 0.766387
0.078788 0.201572 0.931549
0.152948 0.207433 0.874625
0.229381 0.216636 0.831428
0.293558 0.220803 0.798744
0.359262 0.226040 0.764574
0.430190 0.232386 0.732194
0.507919 0.238870 0.701981
0.595336 0.247822 0.675373
0.084071 0.266286 0.849322
0.143402 0.261141 0.796301
0.205726 0.260579 0.749289
0.265091 0.260808 0.709169
0.326270 0.262847 0.675178
0.394642 0.268783 0.644690
0.473011 0.278439 0.621498
0.566387 0.294885 0.614811
0.115150 0.358712 0.776931
0.164791 0.347106 0.726900
0.207936 0.337837 0.681232
0.259370 0.334166 0.644610
0.315518 0.334178 0.614512
0.386341 0.344017 0.599995
0.473338 0.365900 0.605247
0.566602 0.394885 0.616317
0.158609 0.462079 0.722428
0.202224 0.445921 0.677064
0.229180 0.429813 0.632517
0.273227 0.427435 0.610187
0.337043 0.439154 0.608457
0.415897 0.458937 0.610867
0.499545 0.483841 0.618979
0.586460 0.512716 0.631676
0.206822 0.564150 0.679401
0.247191 0.551209 0.649803
0.272244 0.547480 0.635903
0.324028 0.554839 0.634253
0.389828 0.566126 0.633978
0.465840 0.583264 0.638023
0.546382 0.606496 0.648182
0.627317 0.635066 0.664887
0.264818 0.679181 0.672397
0.316415 0.679833 0.668122
0.351238 0.680057 0.663919
0.405381 0.685761 0.664798
0.465936 0.694594 0.668745
0.535169 0.709276 0.678619
0.609959 0.730482 0.695342
0.685527 0.757260 0.718282
0.354941 0.801056 0.699820
0.414541 0.803223 0.703798
0.456864 0.804960 0.706832
0.509869 0.810926 0.714401
0.564047 0.818441 0.723729
0.624735 0.830951 0.738479
0.692455 0.850329 0.760818
0.761871 0.875520 0.789360
0.139123 0.222837 1.000000
0.233506 0.243967 1.000000
0.307178 0.253344 1.000000
0.366294 0.256056 0.999506
0.422463 0.257040 0.968810
0.481995 0.256474 0.921694
0.550351 0.255481 0.886077
0.630166 0.258096 0.853545
0.108956 0.228352 1.000000
0.181636 0.235444 0.992634
0.252445 0.245423 0.932145
0.309770 0.248653 0.890603
0.368549 0.251004 0.856527
0.433331 0.252844 0.823165
0.506910 0.255522 0.790475
0.591834 0.261276 0.759859
0.117111 0.286469 0.967477
0.170987 0.280842 0.899883
0.224885 0.278677 0.844815
0.277835 0.277386 0.799951
0.333036 0.276585 0.765191
0.397711 0.278983 0.733126
0.474255 0.286187 0.705421
0.566459 0.308719 0.698765
0.140850 0.370353 0.888267
0.184703 0.357930 0.832250
0.220026 0.346851 0.780299
0.267377 0.342025 0.732636
0.320657 0.341703 0.691770
0.393330 0.356240 0.680001
0.478632 0.381375 0.683644
0.568654 0.411899 0.692045
0.178456 0.466959 0.821538
0.217195 0.450845 0.769396
0.236337 0.434245 0.720652
0.284318 0.436324 0.696939
0.351670 0.450792 0.688191
0.428507 0.472092 0.685915
0.509902 0.498353 0.690092
0.593914 0.528501 0.700531
0.225459 0.563165 0.759587
0.266149 0.556238 0.732742
0.292862 0.555802 0.719884
0.345984 0.563991 0.712788
0.409835 0.576381 0.708416
0.482906 0.594966 0.708937
0.560706 0.619602 0.715453
0.639118 0.649685 0.728721
0.287138 0.682981 0.754973
0.339550 0.685595 0.748115
0.374790 0.687424 0.741763
0.427647 0.694708 0.739790
0.485861 0.704779 0.740451
0.552536 0.720615 0.746636
0.625371 0.742809 0.759323
0.699285 0.770848 0.778198
0.369728 0.807572 0.778469
0.430902 0.811254 0.779078
0.475020 0.814497 0.779350
0.528276 0.821555 0.783609
0.581840 0.829986 0.789463
0.641279 0.843144 0.800096
0.708052 0.863327 0.818243
0.776693 0.889109 0.842604
