gsg/02_Everyday/GSG_LUT_Everyday_Mr_Green.cube
# GSG LUTs 1.0
# Copyright (c) 2016-2020 Greyscalegorilla
# See EULA for licensing and distribution information
# Converted by Briz LUT Converter
LUT_3D_SIZE 5
DOMAIN_MIN 0.000000 0.000000 0.000000
DOMAIN_MAX 0.903226 0.903226 0.903226
0.098168 0.099634 0.107692
0.191626 0.108401 0.110000
0.355162 0.108031 0.113151
0.607791 0.054102 0.112884
0.950380 0.050794 0.057592
0.050794 0.217685 0.147418
0.180895 0.221238 0.156914
0.381808 0.225271 0.145764
0.653035 0.220623 0.134598
0.972886 0.229994 0.063064
0.050794 0.415637 0.210855
0.053545 0.425219 0.223104
0.390844 0.433792 0.230474
0.695831 0.478973 0.148724
0.997506 0.529013 0.120804
0.050794 0.721612 0.269313
0.050794 0.730153 0.246029
0.278955 0.733636 0.315120
0.686244 0.743473 0.322730
0.968781 0.807701 0.209761
0.050794 0.967104 0.479160
0.052487 0.965605 0.495206
0.558832 0.954695 0.601442
0.780847 0.948970 0.638694
0.924130 0.953824 0.661859
0.097593 0.110386 0.206144
0.187818 0.118129 0.218699
0.364776 0.125184 0.220396
0.617009 0.055025 0.216436
0.950304 0.050794 0.192689
0.050794 0.227058 0.248294
0.152199 0.238400 0.255731
0.386868 0.241746 0.256360
0.656265 0.221257 0.240044
0.970465 0.191543 0.207162
0.050794 0.428034 0.299684
0.050794 0.440998 0.294394
0.385330 0.455291 0.312340
0.712888 0.493602 0.261390
0.997874 0.525879 0.269762
0.050794 0.728239 0.363374
0.050794 0.736270 0.349497
0.204738 0.749398 0.385197
0.686348 0.750323 0.407131
0.969836 0.811453 0.332843
0.050794 0.968081 0.514408
0.051632 0.966361 0.527660
0.528313 0.957805 0.615837
0.788320 0.950262 0.669736
0.926855 0.954165 0.693404
0.079972 0.131837 0.374138
0.190140 0.135577 0.387584
0.394706 0.116975 0.415723
0.675595 0.050794 0.435427
0.974323 0.050794 0.406421
0.050794 0.223254 0.412776
0.131384 0.230188 0.427564
0.409634 0.235813 0.458594
0.701357 0.208989 0.460409
0.982975 0.052449 0.406833
0.050794 0.454955 0.486037
0.050794 0.469566 0.496034
0.316506 0.512399 0.522984
0.751005 0.537637 0.534276
0.997956 0.500182 0.487066
0.050794 0.748455 0.539809
0.050794 0.755257 0.536455
0.050794 0.773487 0.532796
0.704663 0.782126 0.594395
0.974993 0.819474 0.556152
0.050794 0.972783 0.593724
0.050794 0.971281 0.601143
0.379887 0.964886 0.644048
0.801785 0.952967 0.738071
0.933322 0.953796 0.761553
0.151640 0.140801 0.630872
0.266113 0.131475 0.639681
0.473847 0.060254 0.663185
0.747092 0.050794 0.690610
0.998703 0.050794 0.699595
0.051306 0.234887 0.660902
0.206565 0.237516 0.668542
0.464632 0.218517 0.687438
0.757071 0.141686 0.714027
0.999301 0.167351 0.712377
0.050794 0.454909 0.699252
0.050794 0.455014 0.705513
0.367857 0.462622 0.726946
0.762099 0.522625 0.757648
0.998596 0.562668 0.748067
0.050794 0.767388 0.746600
0.050794 0.772708 0.749531
0.067915 0.788348 0.758920
0.721047 0.817375 0.783693
0.975978 0.833247 0.797746
0.050794 0.980330 0.748877
0.050794 0.979280 0.747643
0.100436 0.974485 0.749327
0.749703 0.962391 0.795639
0.944042 0.957168 0.855227
0.407082 0.146780 0.892536
0.469298 0.129620 0.894503
0.618222 0.055181 0.900232
0.818726 0.050794 0.910292
1.000000 0.050794 0.916733
0.373733 0.263458 0.898465
0.444029 0.257546 0.900042
0.605458 0.238226 0.905277
0.812838 0.200887 0.914083
0.999944 0.224346 0.920685
0.061680 0.417804 0.908879
0.254567 0.428694 0.910389
0.596233 0.495606 0.913602
0.809387 0.514675 0.920654
0.998149 0.561767 0.928251
0.050794 0.722013 0.922423
0.065867 0.720073 0.922762
0.482140 0.722544 0.924434
0.808549 0.769958 0.927536
0.969773 0.833557 0.938303
0.050794 0.965621 0.941240
0.071188 0.965079 0.941489
0.489515 0.964066 0.943432
0.775928 0.962607 0.946276
0.954389 0.968788 0.956367
