gsg/02_Everyday/GSG_LUT_Everyday_ContrastyCool.cube
# GSG LUTs 1.0
# Copyright (c) 2016-2020 Greyscalegorilla
# See EULA for licensing and distribution information
# Converted by Briz LUT Converter
LUT_3D_SIZE 8
DOMAIN_MIN 0.000000 0.000000 0.000000
DOMAIN_MAX 0.903226 0.903226 0.903226
0.058608 0.059585 0.024420
0.073079 0.060688 0.018803
0.116539 0.063807 0.019481
0.189909 0.069865 0.024932
0.295088 0.078546 0.034227
0.432668 0.089314 0.044956
0.604151 0.101170 0.060979
0.810650 0.113734 0.082949
0.068573 0.099177 0.023876
0.076860 0.091807 0.015936
0.113127 0.090669 0.014691
0.180019 0.094864 0.019303
0.278907 0.103437 0.028350
0.410441 0.115526 0.039001
0.575846 0.130292 0.053330
0.776705 0.147468 0.074134
0.082997 0.173618 0.032928
0.089787 0.161692 0.025318
0.120611 0.155697 0.022537
0.181897 0.155602 0.025121
0.274803 0.159998 0.031020
0.399738 0.167616 0.039119
0.557435 0.178060 0.051391
0.749260 0.190604 0.068120
0.096955 0.276072 0.044791
0.106892 0.261561 0.038516
0.132230 0.251171 0.034621
0.189211 0.247682 0.035173
0.278332 0.249264 0.038766
0.399260 0.254851 0.046172
0.552867 0.263791 0.057448
0.738914 0.276905 0.072706
0.107606 0.405435 0.063453
0.125385 0.389633 0.055984
0.144597 0.375083 0.049548
0.198426 0.368442 0.048586
0.285525 0.367858 0.051723
0.404711 0.372794 0.059306
0.555187 0.386035 0.075593
0.734212 0.408960 0.099976
0.113207 0.562243 0.086407
0.141809 0.546229 0.079148
0.156618 0.527542 0.069864
0.210166 0.518083 0.067941
0.300810 0.517106 0.075686
0.422206 0.525195 0.091622
0.572019 0.543326 0.114345
0.752077 0.572690 0.141889
0.114286 0.748978 0.108787
0.159139 0.732876 0.102930
0.184489 0.709493 0.100291
0.244263 0.696081 0.106440
0.337311 0.694584 0.119866
0.460900 0.704762 0.138853
0.616890 0.727832 0.157736
0.803739 0.764872 0.188334
0.138099 0.965182 0.129127
0.216806 0.947552 0.136040
0.252682 0.919584 0.141717
0.309276 0.900848 0.149842
0.404951 0.898176 0.163794
0.533901 0.910599 0.188091
0.693889 0.938204 0.220043
0.884338 0.982225 0.262312
0.067376 0.067833 0.134893
0.081752 0.067620 0.124448
0.123991 0.070007 0.119304
0.196321 0.075174 0.120126
0.299863 0.082697 0.126189
0.435790 0.092004 0.137119
0.604900 0.102240 0.151168
0.809732 0.113273 0.174343
0.075781 0.106136 0.124278
0.083520 0.097979 0.109969
0.118972 0.096049 0.103012
0.184646 0.099468 0.101725
0.282032 0.107050 0.104870
0.412447 0.118282 0.116871
0.576528 0.132353 0.136437
0.776756 0.149645 0.163371
0.088093 0.178526 0.124905
0.094875 0.165980 0.108839
0.124148 0.158806 0.098073
0.184266 0.157751 0.096628
0.276202 0.161391 0.102914
0.400330 0.168603 0.116163
0.557450 0.178520 0.134964
0.748654 0.190533 0.158192
0.099453 0.278601 0.130510
0.110200 0.263677 0.116286
0.134152 0.252744 0.108526
0.190381 0.248673 0.109549
0.278941 0.249834 0.117044
0.399378 0.255129 0.129651
0.552487 0.263653 0.146754
0.736682 0.278918 0.170882
0.107857 0.406223 0.148961
0.127504 0.390789 0.140159
0.145549 0.375831 0.132645
0.198856 0.368908 0.132911
0.285486 0.368128 0.139195
0.405010 0.374063 0.153183
0.555060 0.389071 0.176567
0.733800 0.413697 0.209162
0.111863 0.562223 0.179158
0.142633 0.546909 0.172285
0.157091 0.528136 0.163044
0.212438 0.518812 0.164600
0.303831 0.518823 0.176689
0.425184 0.528330 0.197546
0.575013 0.547963 0.227972
0.756405 0.579487 0.261941
0.111615 0.748915 0.213143
0.163368 0.733549 0.211732
0.191537 0.710911 0.210784
0.250779 0.698325 0.218610
0.343531 0.697894 0.236333
0.468223 0.709832 0.258180
0.624809 0.734667 0.281973
0.812047 0.773784 0.314156
0.145887 0.964848 0.255235
0.227433 0.949546 0.264256
0.265387 0.923327 0.268937
0.321057 0.905185 0.276553
0.416540 0.903798 0.291399
0.545639 0.917688 0.314120
0.706084 0.947363 0.346405
0.896829 0.993382 0.390757
0.073882 0.074127 0.229178
0.087250 0.072788 0.219040
0.128938 0.074434 0.215873
0.200448 0.078876 0.218764
0.303296 0.085628 0.227800
0.438521 0.094033 0.242719
0.607058 0.103492 0.263558
0.810721 0.113498 0.289962
0.080995 0.110725 0.221592
0.088526 0.102464 0.206970
0.123441 0.100459 0.200317
0.188928 0.103739 0.200995
0.285957 0.111174 0.208138
0.415698 0.121868 0.221612
0.578989 0.135544 0.241489
0.777752 0.151893 0.267651
0.091969 0.182166 0.226279
0.099523 0.169760 0.209390
0.128055 0.162455 0.199161
0.187544 0.160967 0.196505
0.278702 0.163857 0.200339
0.401779 0.170105 0.210231
0.557497 0.178994 0.225572
0.747150 0.190196 0.247035
0.102051 0.282020 0.238325
0.114143 0.267214 0.221021
0.136831 0.255346 0.207439
0.192027 0.250418 0.202529
0.279511 0.250561 0.204496
0.398852 0.254795 0.212925
0.550596 0.262962 0.228177
0.732720 0.280742 0.257972
0.108597 0.408358 0.256608
0.129985 0.392661 0.240035
0.146661 0.376715 0.223475
0.198844 0.368812 0.217136
0.284691 0.367267 0.219167
0.404398 0.374422 0.235888
0.553678 0.391045 0.265227
0.731926 0.417221 0.304221
0.110560 0.562566 0.279334
0.142917 0.546689 0.265071
0.157174 0.527198 0.248379
0.214490 0.518186 0.250043
0.306054 0.519294 0.265586
0.427042 0.530174 0.290675
0.576682 0.551366 0.325152
0.758838 0.584766 0.360044
0.108324 0.746842 0.306682
0.167090 0.731986 0.306592
0.198396 0.710675 0.306792
0.256521 0.698908 0.315336
0.349013 0.699870 0.334197
0.474472 0.713415 0.355974
0.631421 0.740149 0.383750
0.818855 0.781544 0.421368
0.152737 0.962141 0.353876
0.236814 0.949182 0.364214
0.277082 0.925090 0.369415
0.331790 0.907963 0.377865
0.427011 0.907965 0.395146
0.556535 0.923887 0.421723
0.717407 0.955423 0.458256
0.908500 0.995239 0.507108
0.079838 0.079838 0.320351
0.091922 0.077045 0.310891
0.132750 0.077821 0.309308
0.203340 0.081492 0.314630
0.305351 0.087469 0.326678
0.439616 0.095067 0.345124
0.607113 0.103533 0.369777
0.809918 0.112513 0.400289
0.085174 0.114199 0.315771
0.092715 0.106091 0.302063
0.127023 0.103919 0.296684
0.191897 0.107054 0.299382
0.288486 0.114161 0.309331
0.417538 0.124600 0.326255
0.580494 0.138193 0.349929
0.778730 0.153822 0.379545
0.094868 0.184544 0.325220
0.103048 0.172383 0.308738
0.130766 0.164787 0.298634
0.189662 0.163085 0.297152
0.280363 0.165563 0.302762
0.402811 0.171365 0.314779
0.557995 0.179698 0.332662
0.747057 0.190555 0.355851
0.103473 0.283698 0.342405
0.117074 0.269230 0.325277
0.138814 0.257177 0.310962
0.193378 0.251815 0.305983
0.280451 0.251537 0.308507
0.399303 0.255361 0.317616
0.550118 0.264530 0.335146
0.730760 0.284662 0.367320
0.108559 0.409666 0.365364
0.132104 0.394290 0.348815
0.147756 0.377911 0.330529
0.199297 0.369560 0.322491
0.285836 0.368541 0.325250
0.405600 0.377071 0.342793
0.554368 0.394924 0.372117
0.731980 0.422505 0.411777
0.109089 0.563331 0.391987
0.143548 0.547773 0.376311
0.160212 0.528441 0.358746
0.218581 0.520000 0.359119
0.310038 0.522031 0.372774
0.430651 0.533902 0.396903
0.580029 0.556457 0.431269
0.763100 0.591585 0.463580
0.109669 0.747113 0.423988
0.174230 0.733629 0.423616
0.206844 0.713166 0.420146
0.263852 0.701881 0.424976
0.356504 0.703804 0.439741
0.482321 0.718558 0.459150
0.639079 0.746763 0.486687
0.826423 0.789919 0.524797
0.161336 0.962882 0.471211
0.248091 0.951814 0.478724
0.290580 0.929135 0.480407
0.343949 0.912461 0.485316
0.438484 0.913347 0.500318
0.567786 0.930310 0.525580
0.728469 0.963614 0.562557
0.919684 0.996436 0.613593
0.084879 0.084509 0.411470
0.095923 0.080688 0.403616
0.135957 0.080690 0.404476
0.205751 0.083658 0.412880
0.306920 0.088794 0.428377
0.440466 0.095608 0.450880
0.607260 0.103246 0.480120
0.809177 0.111284 0.515561
0.088913 0.117192 0.411715
0.096665 0.109321 0.399792
0.130261 0.107129 0.396579
0.194524 0.110045 0.402377
0.290614 0.117011 0.415859
0.419440 0.127331 0.436869
0.582169 0.140935 0.465428
0.779761 0.155349 0.499357
0.097215 0.186561 0.427061
0.106447 0.174739 0.412334
0.133301 0.166985 0.403632
0.191613 0.164924 0.404240
0.281966 0.167158 0.412553
0.404157 0.172631 0.427891
0.559044 0.180478 0.449430
0.747726 0.191395 0.476711
0.104478 0.285177 0.450924
0.120015 0.271235 0.435373
0.140625 0.258920 0.421633
0.194678 0.253303 0.418057
0.281531 0.252799 0.422634
0.400122 0.256288 0.434257
0.550565 0.267965 0.456301
0.730551 0.290358 0.491083
0.108250 0.410861 0.480746
0.133938 0.396053 0.465520
0.148990 0.379501 0.447095
0.200156 0.370861 0.439837
0.288283 0.371256 0.445313
0.408214 0.381272 0.463736
0.556873 0.400489 0.493425
0.734367 0.429618 0.534103
0.107456 0.564465 0.514031
0.144399 0.549317 0.499270
0.165010 0.531120 0.483169
0.224184 0.523544 0.482435
0.315444 0.526500 0.494516
0.435971 0.539514 0.517800
0.586149 0.563639 0.550135
0.770092 0.600697 0.581095
0.112213 0.748986 0.555198
0.182654 0.737292 0.555371
0.216747 0.717850 0.548200
0.272948 0.707112 0.548979
0.366217 0.710014 0.558794
0.492374 0.726118 0.576340
0.649400 0.756012 0.603715
0.836945 0.801067 0.642824
0.171452 0.966103 0.602497
0.261204 0.957028 0.607726
0.306321 0.936206 0.605993
0.358402 0.919782 0.606996
0.452705 0.921480 0.619809
0.581878 0.939884 0.644156
0.742914 0.974880 0.681193
0.934156 0.997671 0.733230
0.089519 0.088629 0.504518
0.099692 0.083926 0.499150
0.138737 0.083162 0.502950
0.207822 0.085370 0.515048
0.308291 0.089921 0.534888
0.441129 0.095908 0.562212
0.607413 0.102753 0.596668
0.808815 0.109890 0.637796
0.092268 0.120166 0.510837
0.100417 0.112475 0.501819
0.133223 0.110162 0.501771
0.197058 0.113029 0.511207
0.292866 0.119893 0.529148
0.421528 0.130272 0.555335
0.584023 0.143475 0.589353
0.781045 0.156806 0.628738
0.099413 0.188515 0.533659
0.109732 0.177013 0.521761
0.135679 0.169089 0.515454
0.193593 0.166805 0.519106
0.283768 0.168900 0.531200
0.405692 0.174094 0.550908
0.560463 0.181757 0.577243
0.748670 0.194174 0.610082
0.105331 0.286693 0.565690
0.122978 0.273222 0.553137
0.142430 0.260750 0.541089
0.196128 0.255058 0.540151
0.282908 0.254290 0.547862
0.401628 0.258522 0.563278
0.552048 0.272745 0.588074
0.731705 0.297181 0.624194
0.107818 0.412252 0.604259
0.135709 0.398031 0.591875
0.150345 0.381399 0.574798
0.202174 0.373178 0.569445
0.291779 0.375210 0.575952
0.412016 0.386671 0.593927
0.560513 0.407128 0.623430
0.738335 0.438056 0.663987
0.105984 0.566151 0.646547
0.146566 0.551944 0.634727
0.171709 0.535112 0.618612
0.230753 0.528449 0.615164
0.321889 0.532256 0.624890
0.442528 0.546452 0.646977
0.594070 0.572259 0.675088
0.778691 0.611194 0.705357
0.116416 0.752148 0.696680
0.193135 0.742590 0.693219
0.228556 0.724214 0.682389
0.284164 0.713984 0.678142
0.377545 0.717793 0.684311
0.504033 0.735325 0.700386
0.661358 0.766951 0.727293
0.849369 0.814053 0.766963
0.182765 0.971224 0.741242
0.275711 0.964332 0.744117
0.323737 0.945085 0.738966
0.374536 0.928944 0.735777
0.468449 0.931672 0.745903
0.597856 0.951447 0.768819
0.759024 0.988221 0.805405
0.950637 0.999113 0.858034
0.093797 0.092331 0.600512
0.103414 0.086920 0.598268
0.141469 0.085360 0.605815
0.209839 0.087035 0.622288
0.309759 0.090803 0.647031
0.441959 0.096183 0.679905
0.607657 0.102233 0.720321
0.808594 0.108564 0.768028
0.095474 0.122935 0.614386
0.104148 0.115562 0.609337
0.136210 0.113338 0.613144
0.199573 0.116157 0.627049
0.295203 0.122887 0.650232
0.423789 0.133493 0.682524
0.586111 0.145809 0.722413
0.783047 0.158219 0.768190
0.101318 0.190287 0.646141
0.112990 0.179274 0.637989
0.138141 0.171246 0.634764
0.195682 0.168978 0.642458
0.285540 0.170693 0.659195
0.407645 0.175690 0.684101
0.562548 0.183471 0.716258
0.749874 0.198994 0.753559
0.105988 0.288243 0.687856
0.125779 0.275426 0.679243
0.144314 0.262767 0.669769
0.197813 0.257004 0.672301
0.284596 0.256184 0.684210
0.403992 0.262248 0.702440
0.554421 0.278621 0.727559
0.733838 0.304827 0.763641
0.107351 0.413982 0.736711
0.137494 0.400295 0.728246
0.151922 0.383753 0.713543
0.205870 0.376778 0.709450
0.296315 0.380319 0.714590
0.416650 0.393006 0.730938
0.565311 0.414836 0.759401
0.744219 0.447607 0.797404
0.104451 0.568392 0.789818
0.151876 0.556100 0.781032
0.179894 0.540427 0.762128
0.238275 0.534442 0.754592
0.329326 0.539131 0.761526
0.450262 0.554661 0.781547
0.603683 0.582150 0.803934
0.788830 0.623168 0.833854
0.124635 0.757175 0.843094
0.204816 0.749249 0.836076
0.242051 0.732064 0.820905
0.296804 0.722262 0.811806
0.390333 0.727031 0.814553
0.517067 0.745835 0.828630
0.674868 0.779241 0.854548
0.863206 0.828418 0.894159
0.195200 0.977841 0.885305
0.291279 0.972889 0.885592
0.342516 0.955591 0.876646
0.392119 0.939718 0.868822
0.485651 0.943267 0.875684
0.615083 0.964362 0.896641
0.776875 0.995210 0.932414
0.968626 0.999937 0.984918
0.097830 0.095656 0.700421
0.106923 0.089672 0.702041
0.144173 0.087376 0.713809
0.211856 0.088322 0.735277
0.311147 0.091567 0.765658
0.442932 0.096270 0.804743
0.608421 0.101574 0.851889
0.809282 0.107131 0.906636
0.098468 0.125684 0.723536
0.107892 0.118799 0.722938
0.139171 0.116562 0.731193
0.202099 0.119260 0.750454
0.297823 0.126114 0.779609
0.426322 0.136748 0.818716
0.588617 0.148143 0.865205
0.785764 0.159785 0.917827
0.103019 0.192241 0.765063
0.116271 0.181535 0.761599
0.140608 0.173624 0.762311
0.197721 0.171067 0.774709
0.287738 0.172862 0.796891
0.409915 0.177666 0.827894
0.565053 0.185750 0.865997
0.751389 0.205742 0.904277
0.106637 0.289969 0.817894
0.128583 0.277776 0.814278
0.146431 0.265213 0.808174
0.199631 0.259263 0.814989
0.286702 0.258552 0.831626
0.407170 0.267232 0.848821
0.557633 0.285639 0.872465
0.737218 0.313404 0.908064
0.106834 0.415999 0.878631
0.139376 0.402969 0.875044
0.153865 0.386724 0.863460
0.210653 0.381468 0.857013
0.301764 0.386399 0.858794
0.422182 0.400227 0.872936
0.571186 0.423531 0.900137
0.752063 0.458162 0.932144
0.103021 0.571295 0.944064
0.158578 0.561227 0.934843
0.189332 0.546998 0.911253
0.246748 0.541457 0.899217
0.337690 0.547091 0.902771
0.459851 0.564000 0.917642
0.614570 0.593210 0.935735
0.800125 0.636175 0.965001
0.135227 0.763328 0.993202
0.217660 0.757191 0.982140
0.256925 0.741144 0.962604
0.310771 0.731678 0.948638
0.404261 0.737490 0.947953
0.531345 0.757723 0.959636
0.689655 0.792830 0.984023
0.878509 0.844093 0.999494
0.208675 0.985561 0.999899
0.307924 0.982885 0.999840
0.362786 0.967624 0.998687
0.411024 0.951843 0.996900
0.504245 0.956257 0.997512
0.633836 0.978778 0.999687
0.795852 0.996853 1.000000
0.987897 1.000000 1.000000
