gsg/02_Everyday/GSG_LUT_Everyday_ContrastyCool.cube
# GSG LUTs 1.0
# Copyright (c) 2016-2020 Greyscalegorilla
# See EULA for licensing and distribution information
# Converted by Briz LUT Converter
LUT_3D_SIZE 5
DOMAIN_MIN 0.000000 0.000000 0.000000
DOMAIN_MAX 0.903226 0.903226 0.903226
0.058608 0.059585 0.024420
0.102989 0.062736 0.018914
0.238355 0.073898 0.029320
0.472299 0.092174 0.048060
0.810650 0.113734 0.082949
0.079215 0.152318 0.030155
0.107373 0.137145 0.019886
0.223796 0.139429 0.026042
0.437839 0.153730 0.040874
0.753943 0.175467 0.068549
0.102800 0.337327 0.053133
0.129724 0.312049 0.041782
0.233760 0.304050 0.042228
0.436417 0.311611 0.054094
0.734639 0.338180 0.083721
0.113884 0.606081 0.092205
0.153537 0.574513 0.077266
0.257954 0.558384 0.079270
0.464463 0.571462 0.107733
0.762330 0.618157 0.150513
0.138099 0.965182 0.129127
0.246122 0.927116 0.140588
0.352775 0.897588 0.155986
0.571011 0.915948 0.195329
0.884338 0.982225 0.262312
0.072370 0.072614 0.206050
0.114821 0.072669 0.192765
0.247091 0.081279 0.198276
0.477169 0.096049 0.221582
0.810721 0.113561 0.262492
0.088294 0.160865 0.200020
0.115142 0.144138 0.175915
0.228700 0.144344 0.173469
0.439727 0.156181 0.189664
0.752415 0.175434 0.222920
0.105589 0.341343 0.220248
0.133161 0.314789 0.191929
0.234290 0.304691 0.184068
0.434927 0.311158 0.200818
0.730254 0.344088 0.255984
0.110646 0.605524 0.258053
0.155774 0.574317 0.236489
0.264160 0.559949 0.249057
0.470259 0.577456 0.293631
0.770536 0.630062 0.350709
0.150916 0.962771 0.329489
0.267609 0.931953 0.345620
0.372411 0.905390 0.362294
0.591259 0.928806 0.404698
0.905751 0.994805 0.479516
0.082359 0.082248 0.365836
0.121580 0.078915 0.356020
0.251382 0.085082 0.369373
0.478719 0.097294 0.403489
0.809537 0.111789 0.457156
0.093867 0.165450 0.371691
0.120528 0.148769 0.349359
0.232367 0.148030 0.351572
0.441873 0.158689 0.375611
0.753084 0.176570 0.418083
0.106779 0.344005 0.408395
0.136231 0.317694 0.378655
0.235691 0.306429 0.369414
0.435667 0.314879 0.389072
0.728549 0.352683 0.447016
0.107499 0.606751 0.459407
0.162972 0.576773 0.434006
0.272756 0.564526 0.439651
0.477962 0.585255 0.480738
0.779822 0.643097 0.534365
0.166203 0.964244 0.535634
0.291104 0.938939 0.542670
0.393548 0.914449 0.550692
0.611845 0.941774 0.591867
0.926553 0.997027 0.672441
0.090693 0.089551 0.528126
0.127142 0.083640 0.526202
0.254575 0.087743 0.550872
0.479696 0.097617 0.599364
0.808665 0.109559 0.669526
0.098153 0.169168 0.553856
0.125307 0.152830 0.539301
0.235871 0.151608 0.551390
0.444637 0.161371 0.588674
0.755282 0.179678 0.646901
0.107137 0.346331 0.615428
0.139436 0.320949 0.591959
0.237808 0.309142 0.589386
0.439880 0.322800 0.615367
0.732396 0.365538 0.675235
0.105057 0.609935 0.693020
0.177880 0.584716 0.672051
0.285281 0.574248 0.667592
0.491972 0.598707 0.700552
0.796182 0.662242 0.750017
0.185765 0.972799 0.776848
0.320320 0.953562 0.775414
0.420925 0.930717 0.771698
0.639536 0.962234 0.808300
0.954998 0.999501 0.889551
0.097830 0.095656 0.700421
0.132136 0.087565 0.709869
0.257571 0.089685 0.749385
0.481051 0.097530 0.815715
0.809282 0.107131 0.906636
0.101816 0.172642 0.753357
0.130138 0.157068 0.751122
0.239702 0.155450 0.777441
0.448496 0.164766 0.832472
0.759132 0.186966 0.907509
0.107204 0.349416 0.847535
0.142989 0.325068 0.835994
0.242608 0.315001 0.841353
0.446867 0.334062 0.863254
0.740051 0.381388 0.920822
0.105037 0.615692 0.959274
0.195842 0.596313 0.931336
0.300752 0.587522 0.913335
0.510898 0.616147 0.930399
0.816864 0.685557 0.976958
0.208675 0.985561 0.999899
0.353627 0.972776 0.999080
0.452595 0.951670 0.996862
0.671435 0.987200 0.999879
0.987897 1.000000 1.000000
