gsg/02_Everyday/GSG_LUT_Everyday_Cool_Beans.cube
# GSG LUTs 1.0
# Copyright (c) 2016-2020 Greyscalegorilla
# See EULA for licensing and distribution information
# Converted by Briz LUT Converter
LUT_3D_SIZE 5
DOMAIN_MIN 0.000000 0.000000 0.000000
DOMAIN_MAX 0.903226 0.903226 0.903226
0.000000 0.000000 0.000000
0.206814 0.003151 0.004837
0.464390 0.017819 0.028122
0.697979 0.042609 0.056016
0.875923 0.067407 0.075466
0.000000 0.222466 0.031549
0.203928 0.228781 0.047880
0.453119 0.234869 0.064131
0.677610 0.231246 0.083353
0.853196 0.252570 0.111920
0.000000 0.510221 0.069014
0.142206 0.519099 0.086473
0.429435 0.539932 0.125159
0.655474 0.556954 0.149464
0.866784 0.567828 0.148492
0.000000 0.761022 0.131049
0.126956 0.769095 0.144205
0.465721 0.777073 0.148222
0.714101 0.780099 0.136961
0.915562 0.782135 0.120816
0.281382 0.936839 0.233518
0.395225 0.937264 0.234018
0.586796 0.939441 0.227479
0.785758 0.937721 0.227529
0.950780 0.937175 0.233482
0.000000 0.000788 0.255323
0.194250 0.006015 0.259314
0.460499 0.024365 0.271514
0.690177 0.051085 0.293680
0.868103 0.077018 0.316552
0.000000 0.221362 0.270695
0.197102 0.232039 0.279699
0.449519 0.239680 0.299395
0.671710 0.238106 0.321053
0.848279 0.262202 0.343147
0.000000 0.514755 0.310160
0.146762 0.523122 0.322183
0.429003 0.545584 0.353640
0.663184 0.558989 0.366836
0.876572 0.567966 0.366179
0.000000 0.765893 0.360469
0.137611 0.773214 0.369548
0.472964 0.778795 0.369450
0.722933 0.779456 0.364505
0.923349 0.781981 0.357906
0.292511 0.938551 0.408035
0.402224 0.938971 0.406847
0.591394 0.940184 0.398812
0.788251 0.938558 0.391960
0.952152 0.937462 0.389365
0.000000 0.003639 0.524132
0.112011 0.007415 0.525269
0.450381 0.032975 0.528224
0.679361 0.061802 0.544413
0.858096 0.088070 0.562431
0.000000 0.226630 0.528218
0.149469 0.232004 0.532387
0.441077 0.241044 0.547473
0.663313 0.242860 0.566018
0.841654 0.271310 0.586678
0.000000 0.519051 0.558533
0.114581 0.527515 0.568318
0.423948 0.550824 0.594752
0.672125 0.559489 0.602356
0.884413 0.568687 0.603011
0.000000 0.771287 0.602876
0.137401 0.774522 0.606528
0.482779 0.778130 0.605537
0.728708 0.779267 0.601648
0.925013 0.782288 0.597558
0.293422 0.937619 0.622354
0.404683 0.938332 0.620319
0.593229 0.940072 0.616175
0.785659 0.938073 0.611754
0.947048 0.936797 0.608674
0.000000 0.007822 0.763299
0.048969 0.009926 0.764284
0.439714 0.041927 0.759833
0.668685 0.072206 0.770493
0.845744 0.097979 0.784844
0.000000 0.226474 0.759150
0.069987 0.225932 0.760257
0.432059 0.241392 0.771595
0.653924 0.246943 0.787325
0.831839 0.287506 0.806461
0.000000 0.523699 0.781106
0.071858 0.529368 0.786227
0.422617 0.554504 0.811182
0.675968 0.560581 0.815152
0.884835 0.570817 0.816636
0.000000 0.771562 0.814733
0.147251 0.773688 0.815568
0.487853 0.777400 0.817207
0.729341 0.778515 0.817466
0.918586 0.782223 0.816597
0.300715 0.936232 0.825342
0.405554 0.938387 0.824460
0.590947 0.938285 0.824020
0.776257 0.936449 0.822375
0.933707 0.934826 0.821912
0.000000 0.012407 0.944385
0.157667 0.022060 0.937090
0.461196 0.053002 0.932591
0.671819 0.081965 0.940029
0.838538 0.105650 0.951465
0.000000 0.220425 0.933662
0.186970 0.227161 0.933131
0.453604 0.239253 0.941404
0.658750 0.254630 0.954860
0.827789 0.307515 0.971939
0.000000 0.529904 0.947784
0.192390 0.543445 0.960166
0.457945 0.556318 0.972606
0.693064 0.561633 0.975993
0.886324 0.574740 0.978827
0.012551 0.771877 0.969979
0.266904 0.775006 0.973677
0.521467 0.777657 0.976960
0.739411 0.778741 0.980122
0.914367 0.782314 0.982002
0.373453 0.935890 0.977943
0.449600 0.936993 0.979174
0.609547 0.936412 0.980729
0.774997 0.936048 0.982819
0.925044 0.934008 0.984540
