gsg/02_Everyday/GSG_LUT_Everyday_Mr_Green.cube
# GSG LUTs 1.0
# Copyright (c) 2016-2020 Greyscalegorilla
# See EULA for licensing and distribution information
# Converted by Briz LUT Converter
LUT_3D_SIZE 8
DOMAIN_MIN 0.000000 0.000000 0.000000
DOMAIN_MAX 0.903226 0.903226 0.903226
0.098168 0.099634 0.107692
0.140935 0.103974 0.108701
0.210595 0.109410 0.110505
0.300484 0.110583 0.112033
0.416873 0.102131 0.114782
0.564299 0.065729 0.114388
0.751719 0.050794 0.100335
0.950380 0.050794 0.057592
0.069298 0.157430 0.124841
0.132963 0.159927 0.129179
0.212928 0.159785 0.123179
0.309887 0.158813 0.125243
0.428887 0.154611 0.126581
0.578208 0.139695 0.123359
0.762274 0.104433 0.106587
0.955205 0.081707 0.060008
0.050794 0.239679 0.156052
0.078223 0.241884 0.165018
0.201885 0.244118 0.167426
0.317845 0.251543 0.149101
0.457745 0.252892 0.152111
0.621069 0.254424 0.144945
0.802482 0.256684 0.120317
0.977060 0.270920 0.065992
0.050794 0.347631 0.193635
0.050794 0.352196 0.190984
0.149985 0.354390 0.210682
0.318048 0.360838 0.211447
0.474835 0.385232 0.176343
0.649192 0.396514 0.154901
0.844298 0.422969 0.139249
0.997044 0.442722 0.096640
0.050794 0.492954 0.226492
0.050794 0.499011 0.218945
0.051373 0.508027 0.239032
0.276771 0.508258 0.251331
0.471915 0.517432 0.247949
0.655598 0.559525 0.187129
0.837203 0.583598 0.112417
0.996048 0.608465 0.119153
0.050794 0.674639 0.258246
0.050794 0.679750 0.248856
0.050794 0.687499 0.247715
0.099506 0.690403 0.290754
0.450448 0.688553 0.304252
0.644544 0.700774 0.298976
0.821557 0.743854 0.230033
0.974655 0.768773 0.157757
0.050794 0.846540 0.321454
0.050794 0.848130 0.316519
0.050794 0.850731 0.311992
0.058021 0.849588 0.387837
0.439840 0.846805 0.411462
0.653480 0.843499 0.434208
0.801973 0.852978 0.434103
0.930995 0.880945 0.398499
0.050794 0.967104 0.479160
0.050794 0.966608 0.484626
0.061367 0.964942 0.502098
0.426069 0.958731 0.573635
0.629565 0.952660 0.610844
0.753135 0.949585 0.632454
0.854828 0.947444 0.658503
0.924130 0.953824 0.661859
0.099783 0.105227 0.155130
0.138178 0.106412 0.159294
0.210068 0.116791 0.160723
0.301673 0.126960 0.165334
0.420324 0.120463 0.167129
0.568318 0.078703 0.163591
0.749529 0.050794 0.153264
0.945625 0.050794 0.127751
0.062995 0.162366 0.176546
0.119753 0.167900 0.180303
0.207852 0.172706 0.182025
0.308802 0.172940 0.180709
0.431950 0.166582 0.177357
0.582063 0.147152 0.171762
0.761342 0.100848 0.158812
0.952074 0.059100 0.131167
0.050794 0.245374 0.200725
0.055547 0.249310 0.200739
0.195933 0.252508 0.209642
0.321348 0.259672 0.195937
0.461296 0.260258 0.200344
0.619749 0.256874 0.191883
0.797705 0.253309 0.173196
0.972743 0.260551 0.142327
0.050794 0.351548 0.231113
0.050794 0.355871 0.228334
0.112266 0.364305 0.237286
0.314370 0.365426 0.245049
0.474353 0.388596 0.215742
0.649623 0.398002 0.200545
0.841067 0.420372 0.195520
0.994931 0.435798 0.169758
0.050794 0.496972 0.263650
0.050794 0.501985 0.258297
0.050794 0.513439 0.251210
0.251484 0.516926 0.277806
0.468316 0.521197 0.279182
0.655096 0.562463 0.230043
0.839064 0.585316 0.178746
0.995838 0.607416 0.193597
0.050794 0.675651 0.296998
0.050794 0.679380 0.289575
0.050794 0.688255 0.270829
0.075820 0.694916 0.315421
0.439132 0.693190 0.330526
0.641967 0.701602 0.331426
0.820154 0.744694 0.274150
0.974685 0.769131 0.220434
0.050794 0.845743 0.352229
0.050794 0.846924 0.347651
0.050794 0.849801 0.338707
0.053747 0.850501 0.394886
0.432555 0.848122 0.433128
0.651493 0.844833 0.455270
0.801396 0.852498 0.458487
0.930019 0.880721 0.425803
0.050794 0.966656 0.490688
0.050794 0.966180 0.495862
0.060200 0.964669 0.510996
0.383322 0.959536 0.571134
0.636636 0.953345 0.625231
0.756356 0.950055 0.644616
0.855715 0.947677 0.668389
0.924672 0.953739 0.672735
0.096018 0.112718 0.225617
0.131734 0.115381 0.231053
0.208753 0.121902 0.241437
0.310607 0.132411 0.245171
0.432519 0.113873 0.241997
0.578240 0.054926 0.234975
0.759022 0.050794 0.231521
0.952168 0.050794 0.216135
0.064471 0.161896 0.245862
0.114914 0.166971 0.251270
0.206469 0.175162 0.260190
0.315184 0.180640 0.260376
0.440331 0.167147 0.253268
0.590857 0.139475 0.248363
0.771175 0.063261 0.238922
0.958865 0.050812 0.220975
0.050794 0.251569 0.275502
0.051425 0.256369 0.278870
0.167744 0.266232 0.285186
0.324849 0.272841 0.288909
0.468437 0.268610 0.284688
0.627607 0.257428 0.273669
0.805335 0.241281 0.257974
0.977092 0.231577 0.237092
0.050794 0.363851 0.303318
0.050794 0.368821 0.304468
0.056772 0.380060 0.304716
0.298388 0.391270 0.316645
0.488228 0.406193 0.302153
0.670552 0.412429 0.295696
0.851066 0.422225 0.292855
0.996669 0.426120 0.271122
0.050794 0.510401 0.340038
0.050794 0.515279 0.337982
0.050794 0.527362 0.330961
0.148079 0.545545 0.334909
0.467274 0.545189 0.352963
0.665538 0.580274 0.320760
0.853932 0.597388 0.286728
0.997683 0.611745 0.311801
0.050794 0.684974 0.375856
0.050794 0.688742 0.371721
0.050794 0.697323 0.360336
0.051665 0.710482 0.353271
0.415729 0.712380 0.397210
0.643481 0.713033 0.407524
0.823404 0.753343 0.367229
0.978112 0.773720 0.328556
0.050794 0.849825 0.419432
0.050794 0.851090 0.416480
0.050794 0.853792 0.410933
0.050794 0.857516 0.416590
0.427692 0.855462 0.489395
0.653821 0.851325 0.508996
0.806092 0.854918 0.519238
0.931231 0.883957 0.493548
0.050794 0.968144 0.522740
0.050794 0.967485 0.526873
0.054706 0.965988 0.539745
0.272818 0.962766 0.574650
0.641057 0.954701 0.650998
0.763367 0.951096 0.671993
0.859311 0.948699 0.693110
0.927187 0.953912 0.700253
0.086100 0.124983 0.317712
0.130033 0.127524 0.323388
0.207681 0.131143 0.335343
0.320188 0.127830 0.349729
0.456922 0.116624 0.357703
0.612139 0.053614 0.360543
0.783962 0.050794 0.345132
0.960089 0.050794 0.315576
0.052838 0.168087 0.338986
0.112297 0.175153 0.344214
0.205536 0.177786 0.353507
0.325569 0.174567 0.367187
0.467663 0.170204 0.371832
0.621926 0.117032 0.368562
0.791439 0.050794 0.347136
0.964137 0.050794 0.323683
0.050794 0.248690 0.365402
0.051151 0.252030 0.370388
0.161805 0.258202 0.381975
0.325765 0.270405 0.400482
0.488079 0.273645 0.404319
0.643953 0.248530 0.388690
0.813840 0.197311 0.367387
0.980358 0.140599 0.346345
0.050794 0.374849 0.407122
0.050794 0.380058 0.410927
0.052974 0.392989 0.420156
0.255195 0.414165 0.434079
0.498897 0.433114 0.447571
0.685470 0.428685 0.438186
0.854453 0.413591 0.416420
0.997197 0.400569 0.389392
0.050794 0.529246 0.443964
0.050794 0.534593 0.445271
0.050794 0.547425 0.447636
0.064104 0.568307 0.449114
0.435577 0.590712 0.467471
0.681030 0.607219 0.463592
0.872342 0.614906 0.442591
0.998249 0.618034 0.460539
0.050794 0.699138 0.478418
0.050794 0.703068 0.477290
0.050794 0.711014 0.473042
0.050794 0.724081 0.466666
0.308572 0.739092 0.485309
0.649697 0.736217 0.518641
0.830867 0.766332 0.497971
0.982748 0.779404 0.467810
0.050794 0.855683 0.505522
0.050794 0.856914 0.503956
0.050794 0.859650 0.500991
0.050794 0.863546 0.502232
0.299870 0.866227 0.536462
0.664990 0.861508 0.589179
0.816356 0.859519 0.602969
0.934184 0.887862 0.584501
0.050794 0.971050 0.568437
0.050794 0.970537 0.571523
0.050968 0.968801 0.581239
0.201563 0.965512 0.606401
0.582328 0.959662 0.658841
0.773152 0.952800 0.711849
0.864375 0.950398 0.729415
0.931165 0.954012 0.739591
0.077167 0.137886 0.437008
0.135092 0.138887 0.442262
0.223027 0.138223 0.453456
0.336839 0.126556 0.471685
0.482402 0.078557 0.489846
0.648483 0.050794 0.502808
0.829225 0.050794 0.516945
0.987513 0.050794 0.502488
0.051109 0.181169 0.457680
0.109452 0.181830 0.461796
0.216258 0.180577 0.471027
0.338706 0.172613 0.487528
0.491285 0.145112 0.506367
0.659460 0.090481 0.515080
0.836531 0.050925 0.523413
0.990347 0.050794 0.503399
0.050794 0.246935 0.482962
0.050794 0.247943 0.488517
0.138393 0.254653 0.502187
0.330555 0.264595 0.520633
0.503871 0.256511 0.541265
0.684570 0.249411 0.546132
0.852692 0.215288 0.540486
0.994852 0.085181 0.506358
0.050794 0.376691 0.521305
0.050794 0.379850 0.525656
0.051384 0.387647 0.536828
0.252728 0.400062 0.556858
0.499115 0.425033 0.584293
0.710254 0.441534 0.594857
0.865482 0.416806 0.567000
0.996814 0.368008 0.525395
0.050794 0.544807 0.566614
0.050794 0.550047 0.569969
0.050794 0.562865 0.577881
0.059323 0.584993 0.590868
0.409140 0.614421 0.608207
0.704882 0.642640 0.632261
0.878788 0.633535 0.618361
0.997882 0.606206 0.588083
0.050794 0.715895 0.592866
0.050794 0.719411 0.593302
0.050794 0.727001 0.593034
0.050794 0.739031 0.592218
0.241623 0.754022 0.598257
0.655154 0.768564 0.636398
0.849664 0.782601 0.641263
0.985959 0.786688 0.623068
0.050794 0.864114 0.605377
0.050794 0.865036 0.603539
0.050794 0.867210 0.599323
0.050794 0.870633 0.597412
0.221322 0.873725 0.611892
0.656448 0.874758 0.663712
0.832097 0.869761 0.691299
0.940988 0.893036 0.681420
0.050794 0.975537 0.625710
0.050794 0.975063 0.626679
0.050794 0.973533 0.631501
0.082276 0.969922 0.648456
0.513776 0.964267 0.685120
0.757025 0.956857 0.743480
0.871047 0.952878 0.774374
0.936227 0.954037 0.786744
0.122612 0.142384 0.589436
0.179045 0.140524 0.593386
0.270755 0.132674 0.601881
0.388444 0.104690 0.616885
0.530127 0.051548 0.636680
0.693166 0.050794 0.651622
0.861831 0.050794 0.661094
0.998369 0.050794 0.667212
0.067160 0.184478 0.604000
0.148718 0.182869 0.607107
0.258311 0.177241 0.614850
0.383949 0.160933 0.627773
0.530617 0.111743 0.646137
0.698109 0.051422 0.661571
0.867968 0.050794 0.668565
0.998557 0.050794 0.670405
0.050794 0.245773 0.627693
0.052051 0.250215 0.631856
0.190850 0.260294 0.641386
0.365683 0.257758 0.653149
0.529876 0.243741 0.669188
0.708854 0.215875 0.686356
0.882750 0.201061 0.689102
0.999060 0.237301 0.683325
0.050794 0.375054 0.652765
0.050794 0.375056 0.655922
0.050794 0.374497 0.664250
0.268988 0.379120 0.680357
0.519469 0.408219 0.700057
0.714907 0.417672 0.717754
0.894655 0.437132 0.720636
0.998941 0.453577 0.702921
0.050794 0.545701 0.683958
0.050794 0.548002 0.686652
0.050794 0.552874 0.692623
0.088528 0.560969 0.703180
0.451905 0.577937 0.719835
0.715089 0.624756 0.741810
0.890071 0.652158 0.752733
0.995124 0.628006 0.721387
0.050794 0.726475 0.713598
0.050794 0.729333 0.715212
0.050794 0.735706 0.718659
0.050794 0.746690 0.724726
0.301878 0.763357 0.735727
0.663091 0.783761 0.752262
0.877855 0.807310 0.777732
0.981162 0.796141 0.762462
0.050794 0.873725 0.720557
0.050794 0.874805 0.719997
0.050794 0.877048 0.718431
0.050794 0.880286 0.716565
0.123233 0.882451 0.717978
0.626869 0.884577 0.739429
0.851033 0.887678 0.783167
0.951332 0.901042 0.784160
0.050794 0.979306 0.722539
0.050794 0.978930 0.721899
0.050794 0.977894 0.720627
0.050824 0.975521 0.720819
0.379423 0.970398 0.734591
0.708406 0.962608 0.772344
0.876082 0.957045 0.825759
0.942338 0.955958 0.840813
0.258072 0.132286 0.752546
0.294353 0.126587 0.754846
0.369363 0.107488 0.759264
0.474015 0.057145 0.766806
0.599840 0.050794 0.777331
0.741515 0.050794 0.790764
0.894117 0.050794 0.798002
0.999920 0.050794 0.796013
0.229598 0.181191 0.758066
0.271635 0.177657 0.760112
0.353877 0.166711 0.764153
0.464461 0.139979 0.770994
0.594107 0.072641 0.780814
0.738259 0.050794 0.793692
0.892888 0.050794 0.801175
0.999945 0.050794 0.798487
0.109985 0.263441 0.772661
0.187111 0.264527 0.774390
0.311773 0.261718 0.777972
0.442526 0.252516 0.784236
0.584459 0.235042 0.793085
0.735939 0.205962 0.804780
0.894254 0.173949 0.813642
1.000000 0.222215 0.810464
0.050794 0.354216 0.785128
0.050794 0.352831 0.786849
0.092689 0.356302 0.792014
0.384790 0.384067 0.800716
0.572634 0.398366 0.809505
0.733954 0.403310 0.820035
0.891970 0.417561 0.830639
0.999754 0.458858 0.826740
0.050794 0.528860 0.800840
0.050794 0.527730 0.802079
0.050794 0.524393 0.804801
0.228914 0.521175 0.810570
0.521237 0.543195 0.820362
0.741003 0.601501 0.831737
0.884183 0.625487 0.843638
0.997723 0.656102 0.843573
0.050794 0.706901 0.818241
0.050794 0.707222 0.819095
0.050794 0.707625 0.821093
0.062246 0.709516 0.824899
0.442619 0.717860 0.831992
0.707739 0.742979 0.842389
0.883679 0.794448 0.858424
0.978096 0.814994 0.865547
0.050794 0.871490 0.837353
0.050794 0.872261 0.837971
0.050794 0.873738 0.838964
0.050794 0.876256 0.841170
0.359113 0.880843 0.846345
0.666185 0.887574 0.854578
0.854629 0.897370 0.866857
0.962783 0.913982 0.886567
0.050794 0.980122 0.835958
0.050794 0.979866 0.835497
0.050794 0.979130 0.834888
0.051521 0.977131 0.834112
0.399079 0.973784 0.836230
0.669992 0.968217 0.842905
0.853949 0.962792 0.866362
0.950856 0.962497 0.901614
0.407082 0.146780 0.892536
0.431136 0.141493 0.893615
0.485824 0.123373 0.895032
0.568694 0.076852 0.898203
0.671940 0.051221 0.902688
0.788243 0.050794 0.908581
0.911181 0.050794 0.915646
1.000000 0.050794 0.916733
0.394005 0.198212 0.894332
0.419193 0.194794 0.895151
0.476314 0.184208 0.896759
0.561852 0.162899 0.899697
0.667100 0.118711 0.903904
0.784623 0.059761 0.909490
0.908454 0.051512 0.916390
1.000000 0.058404 0.917516
0.363965 0.288747 0.899693
0.392742 0.287346 0.900264
0.456066 0.283110 0.901653
0.548823 0.275946 0.904750
0.659224 0.264155 0.908405
0.780236 0.250021 0.913406
0.904866 0.242449 0.919881
0.999792 0.276842 0.921415
0.198909 0.374513 0.905853
0.284451 0.383494 0.906386
0.417679 0.403945 0.907645
0.538803 0.416013 0.910168
0.655171 0.418427 0.913811
0.778195 0.423894 0.918268
0.900489 0.437683 0.924033
0.998911 0.471655 0.926329
0.057290 0.500250 0.911573
0.065441 0.498438 0.912191
0.241714 0.495879 0.913521
0.444397 0.513113 0.915746
0.657498 0.576932 0.917134
0.786032 0.600652 0.920823
0.896502 0.619773 0.926243
0.992670 0.649759 0.930599
0.050794 0.679035 0.919799
0.052050 0.677982 0.920092
0.095229 0.675860 0.920288
0.381193 0.675966 0.921458
0.586958 0.682096 0.922747
0.777637 0.731124 0.924914
0.900104 0.781081 0.929881
0.973581 0.802791 0.936696
0.050794 0.840280 0.930460
0.050794 0.840053 0.930534
0.069885 0.839794 0.930588
0.346085 0.841463 0.931611
0.570947 0.844338 0.932539
0.744428 0.851003 0.933818
0.884173 0.873087 0.936687
0.963533 0.908603 0.945054
0.050794 0.965621 0.941240
0.053123 0.965376 0.941261
0.080409 0.964885 0.941558
0.377248 0.964562 0.942803
0.582688 0.963499 0.944029
0.741229 0.962682 0.945617
0.866496 0.963896 0.949156
0.954389 0.968788 0.956367
