gsg/02_Everyday/GSG_LUT_Everyday_AmberWaves.cube
# GSG LUTs 1.0
# Copyright (c) 2016-2020 Greyscalegorilla
# See EULA for licensing and distribution information
# Converted by Briz LUT Converter
LUT_3D_SIZE 8
DOMAIN_MIN 0.000000 0.000000 0.000000
DOMAIN_MAX 0.903226 0.903226 0.903226
0.050794 0.050794 0.050794
0.066769 0.050794 0.051203
0.115168 0.051038 0.059057
0.177510 0.055552 0.077025
0.254780 0.065871 0.108787
0.352940 0.086778 0.152633
0.460286 0.112797 0.198472
0.545236 0.136595 0.236898
0.055174 0.069629 0.051203
0.089070 0.074080 0.055119
0.157233 0.082420 0.070526
0.241309 0.096365 0.102628
0.349045 0.114808 0.150117
0.467499 0.136029 0.202173
0.565438 0.158925 0.244447
0.642198 0.177626 0.277996
0.073229 0.116113 0.061302
0.097906 0.120880 0.063206
0.156546 0.130559 0.073753
0.245818 0.143171 0.107845
0.361865 0.161849 0.156058
0.495538 0.182109 0.214610
0.599123 0.200909 0.259518
0.672693 0.217112 0.292176
0.095435 0.189263 0.074111
0.115277 0.192171 0.077033
0.160155 0.199520 0.085709
0.238370 0.210989 0.111895
0.364393 0.228321 0.162629
0.508661 0.247775 0.221895
0.622155 0.263473 0.270073
0.698961 0.277828 0.302920
0.093064 0.288479 0.089984
0.103622 0.291264 0.090266
0.135746 0.298602 0.098209
0.202499 0.310145 0.113579
0.348914 0.326905 0.162629
0.510448 0.345795 0.223535
0.640857 0.357937 0.278669
0.725621 0.367181 0.315844
0.055386 0.407405 0.116326
0.055386 0.407405 0.112340
0.056194 0.409948 0.105430
0.084293 0.422128 0.115444
0.287609 0.438694 0.154912
0.486352 0.462362 0.217370
0.648732 0.475049 0.283627
0.751817 0.478215 0.328257
0.050794 0.528520 0.143519
0.050794 0.528520 0.138269
0.050794 0.531451 0.126669
0.050794 0.533908 0.112504
0.096974 0.550445 0.134606
0.393474 0.573174 0.190154
0.626836 0.601496 0.278676
0.766892 0.605837 0.336878
0.050794 0.630045 0.162283
0.050794 0.630331 0.158715
0.050794 0.630629 0.147324
0.050794 0.634056 0.130236
0.050794 0.639992 0.109738
0.111668 0.658792 0.142597
0.516098 0.689125 0.237829
0.748524 0.718465 0.332746
0.054701 0.050794 0.066359
0.148632 0.057623 0.078159
0.201223 0.065572 0.088873
0.232938 0.077977 0.099961
0.288023 0.094072 0.123854
0.368633 0.116117 0.158801
0.464352 0.139532 0.200115
0.548857 0.162238 0.237512
0.070464 0.084545 0.074491
0.116423 0.092198 0.081720
0.188467 0.103716 0.093513
0.277872 0.118721 0.119296
0.383262 0.138707 0.165290
0.495083 0.159816 0.214433
0.590051 0.178427 0.255841
0.667482 0.196204 0.289413
0.093104 0.131466 0.088598
0.116676 0.138378 0.091596
0.177435 0.147363 0.101301
0.272180 0.160838 0.120625
0.394000 0.180500 0.170660
0.522213 0.200834 0.225705
0.619268 0.217589 0.268884
0.692858 0.234001 0.300851
0.111053 0.202843 0.101613
0.130054 0.206663 0.104404
0.175922 0.214387 0.111969
0.257507 0.226782 0.126169
0.388109 0.244769 0.173135
0.528464 0.263761 0.230359
0.636593 0.279048 0.276166
0.713991 0.293055 0.309258
0.097752 0.301004 0.113259
0.112195 0.304634 0.115047
0.142079 0.312015 0.120748
0.215279 0.323992 0.133066
0.368227 0.342352 0.170589
0.527140 0.360874 0.230956
0.653697 0.372983 0.284961
0.739215 0.382897 0.321688
0.051736 0.418819 0.137736
0.051736 0.418956 0.131943
0.053100 0.422782 0.126154
0.108338 0.436288 0.135948
0.306357 0.452836 0.161531
0.502608 0.476506 0.223752
0.661046 0.488590 0.290076
0.762988 0.493137 0.333314
0.050794 0.536367 0.161943
0.050794 0.536429 0.157196
0.050794 0.538806 0.143796
0.050794 0.543699 0.129010
0.125506 0.561170 0.144030
0.413265 0.583650 0.196016
0.640453 0.612195 0.284523
0.776212 0.617490 0.341451
0.050794 0.637257 0.177800
0.050794 0.637570 0.174045
0.050794 0.638268 0.164690
0.050794 0.641418 0.144189
0.050794 0.647663 0.121378
0.134332 0.668372 0.145760
0.527381 0.699671 0.242244
0.760119 0.726779 0.339334
0.065840 0.055646 0.112994
0.171389 0.065078 0.120154
0.244356 0.075041 0.131364
0.321124 0.093960 0.145109
0.353981 0.119670 0.152965
0.416199 0.141138 0.180392
0.493778 0.163504 0.214187
0.568561 0.185860 0.245577
0.086026 0.100161 0.123919
0.138856 0.108633 0.127776
0.213127 0.120569 0.134726
0.297189 0.138432 0.147594
0.389380 0.158946 0.169887
0.492013 0.179567 0.213543
0.584492 0.201048 0.253159
0.661323 0.219759 0.286000
0.118176 0.152820 0.137930
0.141380 0.157358 0.139511
0.200733 0.166765 0.144159
0.297511 0.181529 0.157080
0.418929 0.201357 0.184006
0.540509 0.222548 0.234821
0.643667 0.238616 0.278791
0.725255 0.250426 0.315139
0.143228 0.220110 0.157092
0.158126 0.224973 0.157548
0.196987 0.236312 0.159329
0.284133 0.249978 0.168080
0.419790 0.268652 0.190612
0.555365 0.287905 0.241656
0.660014 0.303378 0.286597
0.745630 0.311458 0.323416
0.115868 0.317873 0.171073
0.118614 0.324749 0.169067
0.144065 0.334430 0.171335
0.242658 0.347554 0.176183
0.400057 0.367215 0.195157
0.555612 0.386394 0.243089
0.676621 0.399981 0.294964
0.766617 0.405912 0.333791
0.050794 0.438188 0.181221
0.050794 0.440144 0.177108
0.050794 0.446167 0.176931
0.150522 0.460285 0.179282
0.338932 0.478582 0.192672
0.534004 0.502141 0.237488
0.684686 0.515272 0.300910
0.786369 0.518467 0.344244
0.050794 0.551802 0.202928
0.050794 0.552193 0.197400
0.050794 0.553537 0.183844
0.050794 0.561575 0.174670
0.172081 0.581683 0.178125
0.451829 0.606263 0.210769
0.665903 0.631997 0.295991
0.798925 0.637766 0.352299
0.050794 0.650820 0.238378
0.050794 0.652518 0.232026
0.050794 0.652828 0.212237
0.050794 0.656234 0.181778
0.050794 0.664112 0.156891
0.174258 0.690826 0.163810
0.561980 0.720298 0.257086
0.782615 0.746094 0.348499
0.082949 0.065887 0.174217
0.193470 0.079376 0.176612
0.269461 0.092540 0.181167
0.361957 0.111447 0.191566
0.441951 0.134846 0.202574
0.480677 0.168782 0.209085
0.538796 0.194462 0.233417
0.601632 0.217461 0.260855
0.112419 0.122978 0.188005
0.165275 0.131257 0.192983
0.239822 0.142658 0.197524
0.340404 0.160064 0.205221
0.440030 0.183942 0.216368
0.522065 0.211598 0.228960
0.601557 0.233839 0.260545
0.672714 0.254558 0.292174
0.141928 0.177223 0.207400
0.166372 0.181308 0.209722
0.229451 0.192208 0.214451
0.331148 0.207511 0.221131
0.444301 0.230661 0.231145
0.552018 0.253287 0.244348
0.645576 0.272660 0.279764
0.728882 0.287462 0.315956
0.165597 0.252965 0.229557
0.180973 0.257320 0.230804
0.220219 0.265650 0.233363
0.317429 0.280197 0.238661
0.454952 0.300221 0.247695
0.588346 0.319431 0.260471
0.691909 0.333665 0.300857
0.770353 0.345183 0.335038
0.126443 0.346207 0.251622
0.133201 0.350448 0.252520
0.168905 0.360473 0.253847
0.278797 0.377713 0.254199
0.438595 0.398749 0.262625
0.590862 0.418741 0.272832
0.708116 0.433026 0.309070
0.793608 0.441038 0.346203
0.050908 0.457569 0.272072
0.050916 0.463761 0.271482
0.070141 0.475559 0.269460
0.179765 0.491886 0.268825
0.383859 0.513231 0.274817
0.574406 0.536698 0.285045
0.718181 0.551290 0.315636
0.815907 0.556390 0.357359
0.050943 0.570347 0.293126
0.051019 0.572431 0.288662
0.050888 0.575405 0.275496
0.051260 0.588431 0.276416
0.225232 0.609784 0.274799
0.501571 0.636543 0.286434
0.702912 0.660378 0.313195
0.828482 0.667251 0.365353
0.051038 0.671812 0.330262
0.050888 0.672042 0.323675
0.050864 0.673621 0.310845
0.050794 0.675858 0.283050
0.050813 0.689777 0.263241
0.220127 0.722474 0.255923
0.611885 0.751158 0.290463
0.813355 0.772748 0.362306
0.113277 0.084430 0.242664
0.218078 0.101422 0.244618
0.294209 0.116143 0.247793
0.388491 0.133807 0.255891
0.483012 0.153917 0.256280
0.555637 0.184707 0.256985
0.593414 0.226836 0.259950
0.643925 0.254682 0.279000
0.142813 0.150088 0.265633
0.196185 0.158385 0.276483
0.271298 0.169995 0.280272
0.373118 0.187753 0.285170
0.485485 0.207119 0.287580
0.578305 0.237157 0.282110
0.639460 0.272909 0.283046
0.700200 0.298986 0.304060
0.173333 0.207481 0.293208
0.199408 0.213577 0.299618
0.264724 0.224078 0.310616
0.368229 0.240386 0.314904
0.490936 0.260129 0.315476
0.595533 0.287215 0.305774
0.671899 0.317450 0.301434
0.743318 0.339554 0.323118
0.179520 0.292926 0.325196
0.196641 0.296315 0.329799
0.253374 0.303826 0.337463
0.359766 0.319093 0.347538
0.495199 0.338911 0.348547
0.612925 0.363503 0.337427
0.711541 0.382924 0.321519
0.793492 0.396348 0.345667
0.144434 0.389846 0.354500
0.172622 0.393661 0.357639
0.231473 0.402080 0.363642
0.334600 0.416655 0.373047
0.481514 0.437444 0.379080
0.625260 0.457647 0.366209
0.740773 0.473321 0.340259
0.823832 0.484494 0.359478
0.101641 0.497357 0.382399
0.111409 0.501189 0.384286
0.139876 0.509639 0.389063
0.263565 0.526187 0.395023
0.434682 0.549441 0.403057
0.612248 0.572478 0.394962
0.749858 0.589062 0.364887
0.845905 0.598053 0.371217
0.050794 0.592105 0.392608
0.050794 0.594996 0.393374
0.050817 0.603302 0.396620
0.077888 0.619505 0.401386
0.304901 0.640191 0.412223
0.547982 0.669367 0.414025
0.736614 0.691067 0.385280
0.858410 0.700781 0.379262
0.051038 0.694372 0.414027
0.050931 0.695462 0.410504
0.050920 0.696648 0.401747
0.050847 0.700914 0.389750
0.051978 0.719962 0.400797
0.327007 0.751155 0.406095
0.655835 0.785358 0.397569
0.847118 0.804013 0.378474
0.149947 0.112907 0.315656
0.249049 0.129064 0.324657
0.325131 0.146372 0.334801
0.415731 0.163958 0.341804
0.511706 0.182854 0.339633
0.599107 0.202316 0.323450
0.658580 0.242383 0.311021
0.695241 0.294045 0.310930
0.184266 0.185184 0.357080
0.240623 0.198107 0.374234
0.315491 0.208577 0.383292
0.412706 0.225988 0.393371
0.519003 0.244774 0.393127
0.620458 0.262731 0.372027
0.695732 0.297496 0.344328
0.744714 0.349174 0.336546
0.213145 0.248887 0.390972
0.241903 0.256005 0.401547
0.316343 0.269477 0.423465
0.418081 0.284877 0.436014
0.527636 0.303075 0.434864
0.635658 0.320294 0.413860
0.719715 0.352164 0.377259
0.777524 0.400145 0.357523
0.210596 0.334647 0.425129
0.239581 0.339369 0.432509
0.307145 0.351414 0.452299
0.413847 0.366774 0.469479
0.537674 0.385053 0.479285
0.651587 0.402803 0.460282
0.742440 0.429163 0.416928
0.817070 0.458860 0.374023
0.215926 0.442730 0.457834
0.237033 0.446330 0.462306
0.292707 0.453948 0.474162
0.391115 0.466862 0.494986
0.528569 0.484340 0.511355
0.658961 0.502627 0.503417
0.763659 0.523780 0.456973
0.851187 0.540029 0.391711
0.164757 0.543938 0.487076
0.195008 0.547741 0.490142
0.259085 0.555074 0.499294
0.367527 0.568863 0.515985
0.502508 0.588238 0.535785
0.647252 0.608683 0.539794
0.775488 0.626019 0.496947
0.873729 0.638815 0.417399
0.059172 0.631568 0.505490
0.061401 0.635149 0.508055
0.089119 0.642763 0.514243
0.231607 0.656063 0.526728
0.410854 0.676430 0.546978
0.597216 0.702030 0.563124
0.763443 0.723739 0.536483
0.883489 0.736014 0.449722
0.050794 0.715918 0.492396
0.050794 0.719346 0.494381
0.050794 0.724075 0.497422
0.050794 0.736546 0.507067
0.088110 0.755256 0.528936
0.437806 0.785024 0.560778
0.691796 0.821690 0.558050
0.874911 0.837085 0.478017
0.197912 0.151239 0.390736
0.293411 0.169329 0.412628
0.365938 0.185271 0.426373
0.451059 0.203705 0.440549
0.539604 0.222934 0.445900
0.626582 0.241246 0.431240
0.699049 0.260129 0.391179
0.749209 0.310528 0.365511
0.239639 0.229690 0.446197
0.306402 0.250352 0.487172
0.375803 0.261374 0.491776
0.461297 0.274922 0.500269
0.554983 0.291524 0.507008
0.647749 0.307698 0.496372
0.728836 0.322739 0.453973
0.790695 0.373067 0.406548
0.269950 0.302514 0.488731
0.312819 0.316654 0.514397
0.385957 0.328522 0.533804
0.478277 0.344056 0.552439
0.576687 0.358964 0.561997
0.667711 0.373696 0.547848
0.749705 0.388608 0.505212
0.818246 0.430500 0.444565
0.282099 0.388593 0.529158
0.315764 0.396321 0.544082
0.383335 0.407664 0.561277
0.479209 0.421994 0.582363
0.585875 0.437910 0.598608
0.686637 0.451218 0.599150
0.773538 0.465086 0.561201
0.845354 0.503347 0.487926
0.299009 0.503646 0.563735
0.321162 0.508036 0.571849
0.372319 0.514004 0.588308
0.463958 0.522350 0.608978
0.584410 0.538982 0.630334
0.693970 0.554175 0.637578
0.792671 0.566933 0.612817
0.871685 0.594991 0.536700
0.307592 0.598550 0.593685
0.326988 0.602203 0.598648
0.374466 0.610056 0.612833
0.459798 0.620969 0.633158
0.568665 0.633082 0.655360
0.687417 0.648075 0.670723
0.798933 0.663398 0.656627
0.887935 0.681420 0.587482
0.273612 0.683300 0.617360
0.294824 0.686915 0.621548
0.345585 0.693886 0.632200
0.429254 0.706450 0.650644
0.536476 0.722880 0.674063
0.661304 0.740897 0.694886
0.790916 0.758319 0.694682
0.900421 0.772899 0.633787
0.055038 0.766615 0.619768
0.058219 0.768130 0.621787
0.076095 0.773987 0.628692
0.160694 0.783598 0.642697
0.356784 0.800596 0.666517
0.552883 0.824682 0.698342
0.738829 0.851783 0.718650
0.893228 0.870812 0.678170
0.247729 0.195274 0.467116
0.345125 0.217661 0.489023
0.412944 0.233053 0.507655
0.490329 0.251388 0.526255
0.569203 0.269771 0.538410
0.650250 0.287801 0.537881
0.722447 0.305293 0.513036
0.780190 0.322143 0.455967
0.314923 0.290377 0.541562
0.389485 0.319504 0.589754
0.456678 0.330668 0.607485
0.528973 0.341259 0.612773
0.603669 0.354498 0.616292
0.680985 0.366579 0.613056
0.753399 0.378554 0.589792
0.817048 0.393673 0.527129
0.362692 0.375430 0.601215
0.402514 0.384695 0.617511
0.466524 0.395868 0.635533
0.545138 0.408899 0.655098
0.629004 0.422900 0.671275
0.710877 0.434182 0.675730
0.782747 0.443073 0.654286
0.843523 0.457763 0.588212
0.388866 0.464632 0.642781
0.415142 0.469271 0.650239
0.474035 0.479056 0.665100
0.554162 0.491500 0.686203
0.641740 0.505200 0.704607
0.725738 0.517391 0.713333
0.803783 0.526653 0.704270
0.872424 0.539096 0.651678
0.432628 0.578833 0.680782
0.448357 0.578739 0.684740
0.484849 0.579734 0.695467
0.551230 0.583039 0.713380
0.646583 0.596644 0.735498
0.735569 0.609654 0.748439
0.817833 0.620823 0.745989
0.890913 0.631748 0.706097
0.474651 0.672291 0.715034
0.486805 0.673707 0.718922
0.518202 0.676030 0.728111
0.573026 0.680212 0.743539
0.645007 0.683759 0.762022
0.735333 0.694408 0.779871
0.826062 0.706854 0.784264
0.904604 0.717163 0.754985
0.498055 0.761283 0.748493
0.509270 0.762284 0.752195
0.536493 0.765755 0.760170
0.583930 0.771575 0.772635
0.649926 0.779328 0.789533
0.730730 0.788223 0.807621
0.824760 0.798763 0.819224
0.915836 0.810302 0.801102
0.466242 0.834873 0.770619
0.474671 0.837852 0.774072
0.498022 0.841724 0.779119
0.542714 0.847224 0.791125
0.608067 0.857104 0.808124
0.694543 0.870340 0.827254
0.801548 0.886003 0.845722
0.912739 0.901355 0.844254
