gsg/02_Everyday/GSG_LUT_Everyday_MagazineCover.cube
# GSG LUTs 1.0
# Copyright (c) 2016-2020 Greyscalegorilla
# See EULA for licensing and distribution information
# Converted by Briz LUT Converter
LUT_3D_SIZE 5
DOMAIN_MIN 0.000000 0.000000 0.000000
DOMAIN_MAX 0.903226 0.903226 0.903226
0.000000 0.000000 0.000000
0.131774 0.001000 0.000922
0.460254 0.000000 0.000000
0.796014 0.000000 0.000000
0.998535 0.000000 0.000000
0.000000 0.121580 0.020560
0.151659 0.155764 0.000567
0.476854 0.111537 0.000000
0.781538 0.062826 0.000000
0.993443 0.168227 0.000000
0.000000 0.309236 0.000000
0.001448 0.402659 0.000000
0.561597 0.533533 0.000000
0.832558 0.492876 0.000000
0.996203 0.504275 0.000000
0.000000 0.551585 0.000000
0.000000 0.642544 0.000037
0.330847 0.679760 0.000000
0.826604 0.789671 0.000000
0.998378 0.781773 0.000000
0.000000 0.956879 0.246177
0.002748 0.977313 0.268807
0.442716 0.974576 0.293004
0.813279 0.981987 0.246025
0.996927 0.968931 0.092666
0.000000 0.000000 0.159920
0.132196 0.000000 0.148777
0.451430 0.000000 0.125731
0.564339 0.000000 0.067618
0.784237 0.000000 0.028080
0.000000 0.142253 0.176812
0.135828 0.152412 0.174639
0.432587 0.105321 0.126709
0.722309 0.057235 0.088734
0.959317 0.142587 0.026534
0.000000 0.340041 0.137234
0.005881 0.444294 0.187603
0.555848 0.530806 0.131235
0.817899 0.485352 0.044017
0.994354 0.498127 0.003183
0.000000 0.588415 0.145081
0.000000 0.674154 0.184589
0.338850 0.680440 0.175252
0.824791 0.791976 0.063793
0.997031 0.782253 0.004917
0.000000 0.959834 0.339051
0.015725 0.980046 0.363164
0.440561 0.974491 0.383111
0.805532 0.981972 0.365010
0.995085 0.968912 0.276823
0.000000 0.000000 0.463878
0.050071 0.000000 0.464554
0.460327 0.000000 0.399503
0.578156 0.000000 0.301832
0.794597 0.000000 0.279517
0.000000 0.081475 0.479915
0.037186 0.091578 0.463454
0.451771 0.059554 0.396572
0.763393 0.115580 0.415195
0.956495 0.061528 0.346239
0.000000 0.363954 0.374830
0.000487 0.494710 0.502031
0.517909 0.519870 0.512485
0.773047 0.472228 0.434027
0.983153 0.477728 0.378427
0.000000 0.663804 0.423472
0.001946 0.745677 0.486764
0.388631 0.709227 0.457714
0.810038 0.798612 0.492062
0.986892 0.780196 0.427824
0.000000 0.968275 0.564669
0.016510 0.984241 0.564067
0.439726 0.978755 0.557555
0.772602 0.979111 0.570117
0.984499 0.968258 0.548987
0.000000 0.000000 0.753830
0.003360 0.000000 0.752877
0.437961 0.000000 0.630166
0.590594 0.000000 0.508836
0.826159 0.062689 0.582204
0.000000 0.022000 0.746108
0.001435 0.016010 0.704855
0.451196 0.000645 0.654275
0.773634 0.009443 0.675332
0.957195 0.302270 0.695827
0.000000 0.283671 0.605660
0.000000 0.317698 0.669852
0.407952 0.382290 0.728604
0.800459 0.460295 0.738244
0.980973 0.588803 0.754260
0.000000 0.672199 0.676879
0.000000 0.767806 0.771953
0.283978 0.775693 0.776864
0.774917 0.802969 0.795518
0.926812 0.749708 0.711176
0.000000 0.978705 0.805209
0.000082 0.994079 0.828160
0.421626 0.989214 0.820172
0.736313 0.978261 0.795127
0.950964 0.967072 0.796148
0.000000 0.000000 0.944945
0.065221 0.000000 0.895071
0.440583 0.000000 0.746243
0.641829 0.000000 0.683744
0.856226 0.000000 0.756030
0.000000 0.000000 0.956911
0.011781 0.000000 0.889913
0.490976 0.000000 0.856329
0.823762 0.000000 0.885317
0.992301 0.011772 0.895918
0.000000 0.152690 0.940763
0.000000 0.146415 0.861866
0.434246 0.256600 0.964517
0.818024 0.254301 0.924183
0.996367 0.443479 0.925146
0.000000 0.542901 0.789599
0.000000 0.656949 0.959639
0.000064 0.599019 0.908086
0.690105 0.668495 0.939567
0.954564 0.761183 0.938266
0.000000 0.975567 0.979981
0.000000 0.996339 0.998406
0.033831 0.994208 0.998014
0.675550 0.988881 0.993116
0.923091 0.964923 0.962106
