gsg/02_Everyday/GSG_LUT_Everyday_MagazineCover.cube
# GSG LUTs 1.0
# Copyright (c) 2016-2020 Greyscalegorilla
# See EULA for licensing and distribution information
# Converted by Briz LUT Converter
LUT_3D_SIZE 8
DOMAIN_MIN 0.000000 0.000000 0.000000
DOMAIN_MAX 0.903226 0.903226 0.903226
0.000000 0.000000 0.000000
0.050297 0.002292 0.000977
0.167947 0.000181 0.000733
0.351853 0.000000 0.000000
0.563291 0.000000 0.000000
0.754004 0.000000 0.000000
0.901335 0.000000 0.000000
0.998535 0.000000 0.000000
0.000000 0.043665 0.015093
0.050599 0.052232 0.008251
0.189343 0.043186 0.002584
0.367145 0.007682 0.000000
0.551774 0.000313 0.000000
0.738878 0.000032 0.000000
0.887738 0.000161 0.000000
0.994669 0.010732 0.000000
0.000000 0.160337 0.018606
0.003175 0.162345 0.015936
0.210109 0.209920 0.000000
0.422033 0.192470 0.000000
0.578571 0.157993 0.000000
0.747094 0.142064 0.000000
0.887562 0.159331 0.000000
0.993606 0.223886 0.000000
0.000000 0.294923 0.000843
0.000000 0.326349 0.004711
0.057651 0.355660 0.000000
0.458773 0.439092 0.000000
0.670967 0.423549 0.000000
0.784035 0.390349 0.000000
0.903626 0.391357 0.000000
0.995554 0.416881 0.000000
0.000000 0.376360 0.000000
0.000000 0.476901 0.000000
0.000720 0.465807 0.000000
0.291216 0.526906 0.000000
0.646668 0.613673 0.000000
0.831378 0.608450 0.000000
0.919320 0.581536 0.000000
0.996263 0.588370 0.000000
0.000000 0.521943 0.000000
0.000000 0.612180 0.000000
0.000000 0.595997 0.000000
0.150064 0.625828 0.000000
0.503536 0.681511 0.000000
0.793296 0.756601 0.000000
0.940411 0.759159 0.000000
0.997734 0.744856 0.000000
0.000000 0.712828 0.015975
0.000000 0.795903 0.029505
0.000000 0.788425 0.047189
0.073693 0.780540 0.061094
0.469250 0.813213 0.013794
0.720814 0.848542 0.001226
0.928913 0.890567 0.000000
0.999154 0.887255 0.000000
0.000000 0.956879 0.246177
0.000000 0.978163 0.264434
0.027198 0.977183 0.271877
0.311412 0.974173 0.290186
0.564681 0.976698 0.286092
0.769133 0.980742 0.257585
0.913666 0.984086 0.190831
0.996927 0.968931 0.092666
0.000000 0.000000 0.067801
0.045143 0.000484 0.064008
0.162505 0.000000 0.059231
0.360966 0.000000 0.056515
0.496230 0.000000 0.034999
0.556438 0.000000 0.009309
0.632517 0.000000 0.001009
0.789504 0.000000 0.000035
0.000000 0.049707 0.076391
0.039301 0.052905 0.076606
0.184907 0.046015 0.070608
0.354766 0.008232 0.053351
0.499700 0.000268 0.029208
0.641446 0.000032 0.008012
0.782183 0.000077 0.000714
0.916789 0.006328 0.000003
0.000000 0.180321 0.088434
0.005358 0.177795 0.086846
0.200647 0.202274 0.064872
0.396935 0.182733 0.032745
0.551728 0.150268 0.012336
0.720057 0.134125 0.002529
0.866781 0.150209 0.000163
0.979931 0.213285 0.000000
0.000000 0.310591 0.070202
0.000000 0.350512 0.089444
0.072244 0.353630 0.075695
0.454949 0.435590 0.011880
0.657617 0.415423 0.000668
0.775068 0.384475 0.000138
0.898862 0.387070 0.000000
0.994716 0.413049 0.000000
0.000000 0.396788 0.046790
0.000000 0.496784 0.077349
0.001091 0.474229 0.083869
0.298704 0.529405 0.021249
0.646713 0.614087 0.000372
0.825497 0.604905 0.000000
0.915891 0.579581 0.000000
0.995646 0.586623 0.000000
0.000000 0.540682 0.047901
0.000000 0.629139 0.073518
0.000000 0.614562 0.088115
0.164892 0.628021 0.060931
0.505661 0.683334 0.006768
0.793238 0.757720 0.000066
0.938402 0.758817 0.000000
0.997352 0.744893 0.000000
0.000000 0.722666 0.099450
0.000000 0.805704 0.126026
0.000000 0.798986 0.137832
0.090387 0.783981 0.148364
0.470080 0.814080 0.104452
0.719899 0.849097 0.036828
0.928160 0.891588 0.004113
0.999059 0.887775 0.000074
0.000000 0.958451 0.287434
0.000000 0.980023 0.309346
0.055805 0.978790 0.314652
0.325283 0.975555 0.329063
0.562953 0.976678 0.328959
0.766598 0.980975 0.307121
0.911600 0.984183 0.261013
0.996138 0.968933 0.162774
0.000000 0.000000 0.198425
0.015076 0.000000 0.197921
0.176239 0.000000 0.184759
0.373550 0.000000 0.181800
0.501486 0.000000 0.137166
0.556312 0.000000 0.097918
0.623480 0.000000 0.079262
0.781899 0.000000 0.064981
0.000000 0.036385 0.207066
0.010741 0.040590 0.209942
0.193477 0.032200 0.201778
0.355637 0.009809 0.176015
0.498643 0.000297 0.142397
0.630491 0.000032 0.123997
0.772985 0.000056 0.107411
0.910481 0.003330 0.077087
0.000000 0.181282 0.214396
0.000945 0.189099 0.216805
0.182214 0.196017 0.213303
0.373894 0.178542 0.185551
0.535471 0.149300 0.160164
0.707390 0.133393 0.141417
0.858622 0.147043 0.113023
0.976840 0.204344 0.068175
0.000000 0.333511 0.196082
0.000014 0.400227 0.240467
0.114377 0.378302 0.228889
0.446100 0.432361 0.217688
0.634455 0.405256 0.171929
0.762562 0.378987 0.131447
0.891766 0.383240 0.090878
0.992790 0.407877 0.036892
0.000000 0.446777 0.190365
0.000000 0.539867 0.228986
0.010121 0.514939 0.220439
0.309186 0.529300 0.210612
0.642959 0.614510 0.170465
0.812948 0.599790 0.114991
0.908427 0.577231 0.057855
0.994139 0.583400 0.025787
0.000000 0.575113 0.180876
0.000000 0.655340 0.214024
0.000000 0.643379 0.217881
0.191181 0.626004 0.216970
0.504929 0.683592 0.193460
0.791410 0.759847 0.139684
0.931871 0.758260 0.076384
0.995670 0.744360 0.031022
0.000000 0.738873 0.213943
0.000000 0.817270 0.246640
0.000000 0.810532 0.251803
0.131515 0.793579 0.258999
0.462974 0.809706 0.250714
0.714154 0.848179 0.228985
0.924266 0.892673 0.189150
0.998472 0.888503 0.123623
0.000000 0.960490 0.360463
0.000000 0.981331 0.382315
0.049708 0.979983 0.386256
0.332356 0.977256 0.397271
0.549395 0.975503 0.404527
0.757799 0.980505 0.395200
0.905292 0.983934 0.369912
0.994502 0.968861 0.315926
0.000000 0.000000 0.375367
0.000210 0.000000 0.375348
0.163663 0.000000 0.371259
0.393284 0.000000 0.351523
0.491567 0.000000 0.289769
0.558689 0.000000 0.236185
0.644818 0.000000 0.200721
0.775017 0.000000 0.196812
0.000000 0.022473 0.382020
0.000208 0.023562 0.387468
0.169377 0.005394 0.380706
0.373231 0.001010 0.333055
0.507481 0.001002 0.304100
0.667693 0.000117 0.290554
0.788015 0.000003 0.255153
0.902964 0.000368 0.244124
0.000000 0.145809 0.393342
0.000000 0.143417 0.387036
0.118758 0.150022 0.369238
0.382623 0.156661 0.349823
0.558756 0.178922 0.347135
0.711565 0.127137 0.315556
0.848119 0.125506 0.293370
0.971109 0.181100 0.275762
0.000000 0.324560 0.346831
0.000000 0.391075 0.407202
0.043983 0.397040 0.405596
0.416962 0.419658 0.418896
0.593615 0.393136 0.375758
0.736209 0.372847 0.339389
0.876675 0.377697 0.314140
0.987887 0.396470 0.283288
0.000000 0.490336 0.337523
0.000000 0.586960 0.409519
0.043087 0.583703 0.414174
0.354965 0.559208 0.400996
0.627716 0.613401 0.407131
0.787521 0.592565 0.368266
0.893684 0.572659 0.326991
0.989793 0.576297 0.289732
0.000000 0.624511 0.358378
0.000000 0.703827 0.411108
0.011507 0.695286 0.398381
0.268965 0.667028 0.378246
0.501093 0.682535 0.377553
0.783546 0.763564 0.392353
0.917548 0.757070 0.363474
0.991023 0.742584 0.315317
0.000000 0.773049 0.384401
0.000000 0.842298 0.414392
0.000303 0.832228 0.397952
0.203955 0.816447 0.395493
0.449656 0.801299 0.392573
0.699600 0.844010 0.401850
0.914455 0.893872 0.414064
0.996555 0.889883 0.387143
0.000000 0.964632 0.471753
0.000000 0.983665 0.493116
0.028504 0.982021 0.493110
0.332591 0.979182 0.497877
0.532034 0.974490 0.504657
0.737846 0.978683 0.509778
0.892451 0.983282 0.501831
0.990327 0.968629 0.473759
0.000000 0.000000 0.549860
0.000000 0.000000 0.550019
0.078437 0.000000 0.554279
0.390737 0.000000 0.514176
0.499182 0.000000 0.427503
0.544378 0.000000 0.359650
0.698135 0.000000 0.391231
0.815890 0.000252 0.383524
0.000000 0.008230 0.557791
0.000000 0.004826 0.561720
0.074251 0.000309 0.541654
0.373476 0.000000 0.490859
0.524165 0.000023 0.450077
0.645565 0.000474 0.434056
0.826672 0.024650 0.471029
0.936357 0.024636 0.444061
0.000000 0.100737 0.566606
0.000000 0.103863 0.558321
0.049379 0.111144 0.522912
0.372306 0.082660 0.499737
0.562754 0.092367 0.491028
0.733426 0.194131 0.510490
0.892022 0.234296 0.518090
0.982616 0.199979 0.469929
0.000000 0.273583 0.488478
0.000000 0.302355 0.524095
0.000830 0.296331 0.510534
0.340618 0.336800 0.541516
0.603810 0.379639 0.554155
0.763930 0.428092 0.557527
0.874205 0.396903 0.509497
0.972428 0.375910 0.461803
0.000000 0.478535 0.487269
0.000000 0.577090 0.585198
0.000016 0.582217 0.586164
0.308757 0.587450 0.586345
0.604350 0.610269 0.600002
0.746367 0.582965 0.554569
0.859873 0.556497 0.507529
0.971521 0.556662 0.473318
0.000000 0.666762 0.509523
0.000000 0.743984 0.571831
0.001392 0.740595 0.571415
0.314459 0.732476 0.572808
0.529968 0.708385 0.559742
0.765386 0.766018 0.587510
0.892705 0.752433 0.554321
0.976970 0.736532 0.505931
0.000000 0.801831 0.530690
0.000000 0.867455 0.579572
0.009903 0.862080 0.579850
0.305727 0.850723 0.572235
0.476453 0.822835 0.545913
0.677367 0.837502 0.557494
0.897420 0.894854 0.596200
0.989773 0.889528 0.572946
0.000000 0.970376 0.640535
0.027634 0.987611 0.663736
0.151121 0.985982 0.654688
0.342192 0.982608 0.627910
0.531107 0.978177 0.620971
0.705601 0.975717 0.627156
0.872400 0.981660 0.633136
0.976764 0.967851 0.622732
0.000000 0.000000 0.714711
0.000000 0.000000 0.715557
0.037149 0.000000 0.714228
0.362029 0.000000 0.654993
0.496858 0.000000 0.548994
0.561824 0.000000 0.482098
0.663847 0.000000 0.485277
0.835753 0.094474 0.562450
0.000000 0.000215 0.716747
0.000000 0.000091 0.710239
0.030536 0.000000 0.676921
0.348058 0.000000 0.633127
0.537683 0.000000 0.593425
0.686063 0.000000 0.591976
0.787397 0.007363 0.582878
0.930556 0.199956 0.633197
0.000000 0.059204 0.714252
0.000000 0.066559 0.688773
0.017151 0.059370 0.669304
0.345973 0.022814 0.644284
0.577010 0.013655 0.643675
0.751110 0.043647 0.656155
0.858161 0.215120 0.650561
0.982132 0.361537 0.689223
0.000000 0.226567 0.641052
0.000000 0.228079 0.640709
0.000014 0.220315 0.625135
0.298060 0.279287 0.678267
0.588161 0.297324 0.689391
0.765710 0.350345 0.690627
0.885525 0.457263 0.701788
0.991046 0.509256 0.709444
0.000000 0.399745 0.578731
0.000000 0.490672 0.702172
0.000000 0.487430 0.696189
0.091000 0.475698 0.679710
0.526643 0.521570 0.710528
0.759808 0.577455 0.724961
0.877348 0.629222 0.728142
0.954273 0.590691 0.674723
0.000000 0.646586 0.651969
0.000000 0.730161 0.735466
0.000000 0.733437 0.737200
0.087825 0.737710 0.739088
0.504918 0.743411 0.741682
0.746182 0.768928 0.760129
0.847495 0.738234 0.712808
0.935287 0.710969 0.663654
0.000000 0.837427 0.690042
0.000000 0.902220 0.745440
0.000000 0.898122 0.742679
0.124474 0.890461 0.740499
0.516927 0.876856 0.740559
0.688961 0.851926 0.726664
0.872446 0.894255 0.759565
0.970040 0.885891 0.733557
0.000000 0.976469 0.768092
0.000000 0.992927 0.793921
0.006549 0.991500 0.790598
0.300667 0.988892 0.787109
0.560719 0.985003 0.780088
0.697114 0.977837 0.759070
0.845376 0.979958 0.763641
0.956407 0.967063 0.763558
0.000000 0.000000 0.852724
0.000000 0.000000 0.852148
0.036084 0.000000 0.830613
0.350500 0.000000 0.751286
0.486852 0.000000 0.648321
0.576429 0.000000 0.581853
0.713731 0.000000 0.622433
0.800492 0.000614 0.633381
0.000000 0.000000 0.832216
0.000000 0.000000 0.813311
0.024493 0.000000 0.786502
0.344598 0.000000 0.748815
0.541476 0.000000 0.720262
0.710938 0.000000 0.719573
0.842089 0.000000 0.737804
0.904445 0.040033 0.721210
0.000000 0.013886 0.837777
0.000000 0.015709 0.815641
0.007434 0.010109 0.804376
0.344690 0.000246 0.779872
0.580913 0.000000 0.782031
0.776867 0.000087 0.793632
0.902563 0.029474 0.798677
0.960275 0.254283 0.778423
0.000000 0.155869 0.819115
0.000000 0.149848 0.783068
0.000000 0.168900 0.759850
0.292070 0.221703 0.830149
0.575201 0.203472 0.816767
0.779161 0.235434 0.818463
0.905316 0.328506 0.818965
0.966420 0.466738 0.808441
0.000000 0.324565 0.663793
0.000000 0.396992 0.792954
0.000000 0.375700 0.765098
0.023026 0.354541 0.741944
0.487257 0.446463 0.826489
0.747861 0.483003 0.833132
0.884009 0.545817 0.830582
0.956198 0.645445 0.836136
0.000000 0.568289 0.730218
0.000000 0.665176 0.852179
0.000000 0.660540 0.848503
0.001299 0.651503 0.840685
0.304294 0.633036 0.818698
0.679810 0.687541 0.847187
0.861356 0.739030 0.855235
0.940408 0.785964 0.858005
0.000000 0.811600 0.812029
0.000000 0.888466 0.889150
0.000000 0.889308 0.890031
0.003750 0.890281 0.891399
0.376654 0.888062 0.889417
0.676761 0.884301 0.885383
0.854105 0.895511 0.890991
0.933451 0.874619 0.856830
0.000000 0.983261 0.911296
0.000000 0.999393 0.936567
0.000000 0.998938 0.932342
0.035204 0.997489 0.925301
0.463250 0.994482 0.916027
0.702345 0.989624 0.904465
0.831116 0.980834 0.885444
0.935683 0.966342 0.877731
0.000000 0.000000 0.944945
0.000057 0.000000 0.927381
0.150039 0.000000 0.877542
0.375341 0.000000 0.787519
0.493679 0.000000 0.708494
0.600075 0.000000 0.671068
0.753534 0.000000 0.719915
0.856226 0.000000 0.756030
0.000000 0.000000 0.913445
0.000000 0.000000 0.888064
0.106344 0.000000 0.865616
0.388073 0.000000 0.832295
0.569537 0.000000 0.819406
0.733935 0.000000 0.822697
0.879512 0.000000 0.843152
0.961788 0.000003 0.857932
0.000000 0.000006 0.960651
0.000000 0.000015 0.944679
0.045609 0.000000 0.921337
0.395301 0.000000 0.896544
0.610763 0.000000 0.894255
0.801201 0.000000 0.906353
0.940614 0.000009 0.909133
0.995695 0.046014 0.911743
0.000000 0.061806 0.939580
0.000000 0.069978 0.896907
0.000540 0.111971 0.927427
0.339550 0.107060 0.960532
0.594311 0.057612 0.923857
0.791362 0.058395 0.921140
0.937191 0.167269 0.923056
0.998968 0.338613 0.924124
0.000000 0.256076 0.812525
0.000000 0.262866 0.840288
0.000000 0.233940 0.815137
0.039278 0.250869 0.810301
0.505816 0.374610 0.949167
0.746228 0.378027 0.927810
0.907566 0.442201 0.926255
0.989552 0.541297 0.927226
0.000000 0.485586 0.782514
0.000000 0.591667 0.950423
0.000000 0.576033 0.939797
0.000000 0.532620 0.895600
0.084123 0.487477 0.853335
0.651959 0.608609 0.937986
0.867300 0.655502 0.939625
0.962179 0.719262 0.935059
0.000000 0.764088 0.888654
0.000000 0.857851 0.987353
0.000000 0.854833 0.987480
0.000000 0.845535 0.984650
0.033818 0.828763 0.977246
0.512319 0.800577 0.954819
0.811524 0.838873 0.964634
0.949230 0.877881 0.962938
0.000000 0.975567 0.979981
0.000000 0.996679 0.998451
0.000000 0.996080 0.998406
0.000564 0.995012 0.998306
0.230467 0.992958 0.997852
0.617778 0.989716 0.995205
0.803259 0.981761 0.982193
0.923091 0.964923 0.962106
