gsg/02_Everyday/GSG_LUT_Everyday_SimpleWarm.cube
# GSG LUTs 1.0
# Copyright (c) 2016-2020 Greyscalegorilla
# See EULA for licensing and distribution information
# Converted by Briz LUT Converter
LUT_3D_SIZE 5
DOMAIN_MIN 0.000000 0.000000 0.000000
DOMAIN_MAX 0.903226 0.903226 0.903226
0.050794 0.050794 0.050794
0.128197 0.067462 0.055843
0.351822 0.050794 0.055859
0.636866 0.050794 0.050794
0.882217 0.050794 0.050794
0.050794 0.210438 0.092111
0.163213 0.212136 0.079616
0.436457 0.188723 0.050794
0.689045 0.147884 0.050794
0.898972 0.218570 0.050794
0.050794 0.535468 0.115129
0.050794 0.533704 0.092909
0.509916 0.540518 0.050794
0.758943 0.519576 0.050794
0.911872 0.526796 0.050794
0.050794 0.775289 0.273930
0.054791 0.774010 0.267054
0.477184 0.771397 0.249962
0.752035 0.770529 0.219647
0.915184 0.766758 0.092806
0.452188 0.924968 0.532112
0.491825 0.924645 0.530051
0.583106 0.922797 0.520072
0.737974 0.922982 0.517444
0.897833 0.924745 0.514964
0.050794 0.056631 0.182047
0.131806 0.067332 0.178323
0.377943 0.050794 0.164495
0.636988 0.050794 0.142776
0.876789 0.050794 0.062621
0.050794 0.201163 0.225839
0.179820 0.208348 0.220723
0.433030 0.190217 0.194189
0.682350 0.141299 0.151272
0.889407 0.186781 0.057458
0.050794 0.525317 0.294149
0.056228 0.527479 0.265228
0.514686 0.530118 0.244680
0.750622 0.509151 0.165495
0.906553 0.515296 0.051256
0.050794 0.770485 0.374447
0.150347 0.769552 0.368247
0.487260 0.767346 0.356029
0.751027 0.767965 0.341883
0.911218 0.764343 0.271771
0.476575 0.922990 0.571266
0.511429 0.922710 0.569187
0.598731 0.922738 0.564433
0.740088 0.923371 0.560805
0.898161 0.925369 0.559160
0.050794 0.058348 0.406822
0.117956 0.052927 0.406902
0.426290 0.050794 0.404157
0.732310 0.050794 0.393853
0.892009 0.050794 0.314858
0.050794 0.180196 0.436729
0.201870 0.193632 0.435989
0.476814 0.192346 0.432219
0.734231 0.149215 0.405385
0.884522 0.115174 0.328176
0.050794 0.500863 0.490557
0.229408 0.507488 0.489967
0.542169 0.525533 0.487133
0.735272 0.503544 0.438212
0.894760 0.490943 0.363281
0.301937 0.762563 0.560181
0.408101 0.761862 0.560956
0.550537 0.762719 0.543355
0.751026 0.765047 0.534669
0.901502 0.755660 0.472706
0.559493 0.917413 0.676665
0.578357 0.917895 0.670856
0.623017 0.920188 0.650930
0.737012 0.921171 0.644342
0.896585 0.923799 0.643944
0.050794 0.050794 0.641742
0.203150 0.050794 0.642152
0.480268 0.050794 0.642519
0.740180 0.050794 0.640957
0.941628 0.050794 0.641159
0.095147 0.163604 0.652680
0.278758 0.158760 0.652558
0.517010 0.144190 0.652665
0.750558 0.155379 0.650451
0.935953 0.249168 0.648072
0.050794 0.408367 0.668971
0.279993 0.422319 0.669705
0.559222 0.482457 0.672094
0.752077 0.523496 0.671895
0.908320 0.537311 0.652226
0.330618 0.734139 0.703962
0.418400 0.735924 0.704241
0.582332 0.742877 0.705635
0.752946 0.759953 0.708488
0.880540 0.730344 0.652781
0.546740 0.916538 0.766261
0.576401 0.916649 0.766072
0.654070 0.917488 0.765441
0.750480 0.919538 0.755596
0.898289 0.922650 0.753052
0.346237 0.050794 0.837717
0.428554 0.050794 0.837297
0.600096 0.050794 0.836528
0.779764 0.050794 0.834558
0.937622 0.050794 0.830328
0.374076 0.064753 0.838458
0.449259 0.061230 0.837880
0.610182 0.058022 0.836840
0.779627 0.086867 0.834459
0.931857 0.213370 0.830927
0.361402 0.392434 0.840256
0.450943 0.404932 0.839537
0.606917 0.422157 0.838420
0.767128 0.465984 0.836359
0.911368 0.521359 0.833549
0.277432 0.663890 0.844437
0.363549 0.659917 0.843650
0.532676 0.655712 0.841944
0.741533 0.708897 0.841383
0.891542 0.749024 0.843989
0.533910 0.895845 0.867207
0.562594 0.896367 0.866991
0.639846 0.898985 0.867193
0.754626 0.905100 0.867547
0.907198 0.919764 0.871725
