gsg/02_Everyday/GSG_LUT_Everyday_WarmEmbrace.cube
# GSG LUTs 1.0
# Copyright (c) 2016-2020 Greyscalegorilla
# See EULA for licensing and distribution information
# Converted by Briz LUT Converter
LUT_3D_SIZE 8
DOMAIN_MIN 0.000000 0.000000 0.000000
DOMAIN_MAX 0.903226 0.903226 0.903226
0.019780 0.025885 0.000000
0.037040 0.025224 0.000000
0.094230 0.036772 0.000063
0.191524 0.044917 0.000000
0.340226 0.044177 0.000000
0.492670 0.058411 0.000788
0.650542 0.083060 0.023231
0.823632 0.112088 0.051550
0.081949 0.128048 0.042026
0.101355 0.119213 0.036020
0.152609 0.126464 0.033078
0.245866 0.136886 0.018711
0.386423 0.144726 0.000817
0.533105 0.166824 0.016157
0.694427 0.196793 0.042484
0.871503 0.231612 0.073801
0.123865 0.258955 0.051566
0.158550 0.243955 0.048659
0.216402 0.243829 0.051299
0.307464 0.254094 0.033332
0.435289 0.266556 0.019665
0.578455 0.287148 0.038582
0.739178 0.314048 0.063642
0.916468 0.346251 0.094143
0.162070 0.405081 0.054701
0.202170 0.388869 0.041505
0.266108 0.381841 0.035763
0.363202 0.386808 0.037156
0.485454 0.399661 0.047855
0.628506 0.419552 0.066917
0.789700 0.445461 0.092061
0.961405 0.475634 0.123006
0.217551 0.545236 0.086203
0.255843 0.529072 0.070440
0.317672 0.520595 0.062420
0.413776 0.523958 0.065832
0.535626 0.536004 0.077955
0.675734 0.554715 0.098129
0.817202 0.575834 0.127022
0.958183 0.598579 0.160038
0.270464 0.684588 0.116901
0.307801 0.667552 0.101020
0.367608 0.658175 0.092599
0.461180 0.660507 0.097414
0.573338 0.670177 0.115958
0.694640 0.684124 0.141731
0.822577 0.701485 0.170984
0.954239 0.721548 0.202749
0.320619 0.821427 0.146197
0.360620 0.805128 0.133290
0.414058 0.794257 0.132429
0.499025 0.794436 0.146148
0.601451 0.801292 0.166450
0.714790 0.812817 0.191272
0.834735 0.828067 0.219374
0.958113 0.845534 0.249801
0.367435 0.955831 0.184804
0.421576 0.944677 0.188748
0.464024 0.930434 0.189529
0.540432 0.927852 0.201875
0.635429 0.932364 0.221104
0.741588 0.941825 0.244886
0.853994 0.954736 0.271905
0.969331 0.970074 0.301335
0.028579 0.033644 0.033322
0.048592 0.033897 0.032778
0.105597 0.041640 0.045634
0.206081 0.045133 0.057691
0.354050 0.042877 0.065353
0.499432 0.060885 0.085215
0.657812 0.085729 0.110608
0.831368 0.115050 0.140278
0.082733 0.134401 0.084561
0.107003 0.125385 0.077837
0.164225 0.129843 0.079628
0.265645 0.134882 0.075993
0.396688 0.147456 0.083672
0.541063 0.171704 0.105645
0.702903 0.202013 0.133195
0.880028 0.236133 0.164724
0.116051 0.267431 0.109111
0.155843 0.252278 0.100915
0.221152 0.249454 0.099772
0.319206 0.255729 0.096751
0.442617 0.269892 0.108985
0.585872 0.290921 0.128992
0.746987 0.318035 0.154737
0.924531 0.350515 0.185561
0.168577 0.406810 0.141266
0.208149 0.391811 0.127277
0.272137 0.384957 0.120835
0.369848 0.389712 0.125597
0.492314 0.402781 0.138304
0.635576 0.422884 0.157708
0.796728 0.448995 0.183128
0.961000 0.477781 0.214786
0.223813 0.546836 0.174872
0.262039 0.530859 0.159826
0.323998 0.522843 0.152342
0.419993 0.526385 0.156226
0.541977 0.538768 0.168396
0.677745 0.556674 0.190287
0.815245 0.577155 0.219343
0.954069 0.599831 0.251630
0.276356 0.685840 0.206341
0.314061 0.669293 0.190931
0.373342 0.660136 0.182644
0.465500 0.662366 0.189744
0.575142 0.671748 0.209080
0.694892 0.685741 0.234417
0.821320 0.703175 0.263003
0.951563 0.723189 0.293986
0.326040 0.822435 0.235794
0.368180 0.807328 0.226309
0.419718 0.796233 0.226606
0.503168 0.796431 0.239797
0.604263 0.803241 0.259411
0.716343 0.814831 0.283713
0.835016 0.829877 0.311122
0.956757 0.847493 0.340984
0.372253 0.956860 0.278782
0.429474 0.946990 0.283486
0.470873 0.932716 0.283522
0.545589 0.930113 0.295011
0.639419 0.934625 0.313691
0.744319 0.944070 0.336943
0.855405 0.956997 0.363425
0.969371 0.972332 0.392094
0.036094 0.039568 0.097050
0.060759 0.038709 0.089077
0.116830 0.047360 0.100642
0.215889 0.047957 0.123285
0.360399 0.043972 0.142078
0.504856 0.061956 0.162258
0.663374 0.086793 0.188113
0.837394 0.116285 0.219095
0.087227 0.139895 0.146103
0.111923 0.129315 0.135782
0.173493 0.129930 0.138265
0.276565 0.133777 0.145802
0.402612 0.150100 0.161834
0.547560 0.174980 0.185536
0.709866 0.205699 0.214888
0.887272 0.239250 0.248028
0.120494 0.268880 0.184183
0.158037 0.254804 0.170664
0.225113 0.250715 0.167009
0.324830 0.257145 0.174190
0.448264 0.271929 0.189799
0.592062 0.293496 0.211808
0.753846 0.321150 0.239397
0.931876 0.354110 0.272054
0.173548 0.407247 0.218188
0.213586 0.392713 0.205740
0.277411 0.386172 0.201205
0.375296 0.391267 0.207806
0.498105 0.404925 0.222432
0.641815 0.425549 0.243705
0.801924 0.451674 0.270531
0.957905 0.479125 0.302879
0.228611 0.547190 0.254534
0.267210 0.531793 0.241535
0.329253 0.524227 0.236049
0.425473 0.528267 0.241547
0.547314 0.540873 0.255380
0.678336 0.558184 0.279076
0.812429 0.578249 0.308127
0.949773 0.600839 0.339883
0.281303 0.686275 0.289330
0.319668 0.670301 0.275928
0.378349 0.661482 0.269083
0.469140 0.663961 0.279085
0.576627 0.673171 0.298847
0.694940 0.687061 0.323637
0.819955 0.704459 0.351731
0.948570 0.724455 0.382066
0.330953 0.822892 0.321497
0.375777 0.809191 0.316332
0.425200 0.797942 0.317342
0.507098 0.798021 0.329828
0.606827 0.804890 0.349008
0.717610 0.816497 0.372643
0.834820 0.831540 0.399636
0.955310 0.849191 0.428863
0.376966 0.957547 0.369229
0.436751 0.948944 0.374482
0.477462 0.934871 0.374205
0.550599 0.931885 0.385019
0.643240 0.936589 0.402978
0.746953 0.946075 0.425749
0.856794 0.959004 0.451712
0.969352 0.974343 0.479898
0.042136 0.043019 0.197629
0.071930 0.038591 0.178699
0.133988 0.045146 0.181525
0.228372 0.050956 0.201951
0.368684 0.046778 0.230952
0.511978 0.064833 0.250093
0.670272 0.089204 0.273890
0.844271 0.118232 0.302824
0.083347 0.144461 0.236834
0.114760 0.131305 0.224769
0.182797 0.130477 0.224142
0.284771 0.137478 0.233532
0.409991 0.154241 0.248599
0.554957 0.179321 0.270327
0.716877 0.209154 0.297497
0.893926 0.241914 0.329024
0.125821 0.272046 0.273211
0.164578 0.257835 0.258150
0.231683 0.253180 0.252649
0.330977 0.259664 0.258122
0.454235 0.274265 0.271887
0.597990 0.295874 0.292569
0.759966 0.323493 0.319475
0.937977 0.356747 0.352074
0.179881 0.408896 0.303859
0.219701 0.394303 0.289360
0.282902 0.387730 0.282870
0.380418 0.392742 0.288100
0.503177 0.406431 0.301938
0.646934 0.427226 0.323116
0.802649 0.452769 0.350792
0.952674 0.479207 0.383288
0.233816 0.547692 0.335679
0.272108 0.532427 0.321412
0.333874 0.525003 0.315048
0.429996 0.529149 0.320446
0.549255 0.541617 0.335921
0.676862 0.558483 0.360277
0.808834 0.578347 0.389104
0.944646 0.600909 0.420820
0.285614 0.686087 0.367860
0.324463 0.670573 0.354413
0.382045 0.661924 0.349854
0.471227 0.664407 0.361035
0.577154 0.673569 0.380753
0.694113 0.687456 0.405443
0.817833 0.705006 0.433365
0.945037 0.724880 0.463454
0.334688 0.822626 0.401987
0.382642 0.810318 0.399653
0.429719 0.798787 0.400329
0.510159 0.798706 0.412596
0.608635 0.805632 0.431584
0.718091 0.817266 0.454933
0.834074 0.832408 0.481447
0.953087 0.849941 0.510562
0.380417 0.957311 0.451637
0.442788 0.949772 0.457918
0.483259 0.936063 0.457921
0.554727 0.933060 0.468170
0.646073 0.937643 0.485749
0.748694 0.947250 0.508403
0.857345 0.960191 0.534431
0.968748 0.975673 0.562456
0.045555 0.042853 0.330954
0.080903 0.034117 0.303674
0.151974 0.035770 0.297828
0.250480 0.042429 0.307317
0.378032 0.049815 0.326513
0.519894 0.068526 0.343824
0.678168 0.092599 0.366387
0.852188 0.121383 0.394037
0.083793 0.147591 0.345975
0.121077 0.134164 0.328575
0.192248 0.132797 0.323147
0.293822 0.142140 0.328543
0.418519 0.159897 0.342019
0.563377 0.184709 0.362445
0.724921 0.213499 0.388007
0.901838 0.245749 0.418052
0.133412 0.275890 0.368773
0.172972 0.261830 0.352459
0.239268 0.256930 0.345289
0.338262 0.263341 0.349470
0.461394 0.278017 0.361960
0.605181 0.299586 0.381517
0.767295 0.327299 0.407317
0.944872 0.360427 0.438589
0.187261 0.411769 0.396005
0.226732 0.397170 0.380415
0.289542 0.390525 0.372604
0.386859 0.395611 0.376669
0.509496 0.409184 0.389183
0.653020 0.429929 0.409073
0.801726 0.454151 0.435985
0.947232 0.479869 0.466991
0.240094 0.549632 0.424954
0.278302 0.534426 0.409561
0.339690 0.526992 0.401928
0.435415 0.531112 0.405925
0.551301 0.543009 0.421569
0.675762 0.559407 0.444952
0.805946 0.579022 0.472141
0.939910 0.601397 0.501889
0.291092 0.687243 0.454244
0.330536 0.671992 0.439831
0.386606 0.663184 0.435876
0.473890 0.665574 0.446619
0.578365 0.674558 0.464776
0.693779 0.688330 0.487590
0.815814 0.705466 0.513662
0.941367 0.725251 0.542197
0.339052 0.823018 0.487624
0.389956 0.812194 0.486660
0.434829 0.800218 0.485379
0.513488 0.799795 0.495608
0.610535 0.806444 0.512817
0.718627 0.818016 0.534704
0.833068 0.832925 0.559948
0.950595 0.850327 0.587492
0.384182 0.957446 0.536035
0.448787 0.950928 0.541726
0.489184 0.937381 0.540221
0.558766 0.933960 0.548823
0.648813 0.938395 0.565168
0.749985 0.947833 0.586240
0.857270 0.960700 0.610722
0.967052 0.976036 0.637379
0.055701 0.049612 0.440963
0.090570 0.036186 0.421009
0.164164 0.034432 0.413833
0.264808 0.040955 0.415983
0.387071 0.053803 0.425087
0.528363 0.072559 0.440640
0.686478 0.096388 0.461909
0.860420 0.124952 0.488283
0.092977 0.153074 0.447430
0.131097 0.140060 0.429099
0.201630 0.138610 0.422336
0.302761 0.147849 0.426229
0.427545 0.165953 0.438634
0.572042 0.190233 0.457757
0.733178 0.218091 0.481732
0.909971 0.249886 0.510467
0.142202 0.280233 0.466950
0.182126 0.266405 0.449596
0.247412 0.261292 0.441099
0.345976 0.267612 0.444144
0.469100 0.282191 0.455579
0.612895 0.303815 0.474070
0.774882 0.331582 0.498745
0.948741 0.364140 0.529195
0.194976 0.415135 0.491270
0.234214 0.400545 0.474586
0.296821 0.393944 0.465699
0.393698 0.398966 0.468558
0.516208 0.412575 0.480196
0.657612 0.433019 0.499399
0.800499 0.456199 0.525932
0.942725 0.481523 0.555814
0.246847 0.552213 0.517607
0.285186 0.537057 0.501167
0.345858 0.529524 0.492451
0.440670 0.533641 0.496163
0.553459 0.545221 0.512242
0.675516 0.561311 0.534699
0.804219 0.580871 0.560786
0.936674 0.603098 0.589259
0.297066 0.688983 0.544308
0.337739 0.674394 0.530216
0.392111 0.665530 0.527010
0.477650 0.667724 0.537314
0.580651 0.676658 0.554345
0.694696 0.690233 0.575824
0.815196 0.707330 0.600733
0.939182 0.727057 0.627960
0.344094 0.824495 0.578258
0.398027 0.814802 0.578478
0.441253 0.802670 0.575937
0.518153 0.802044 0.584867
0.613856 0.808599 0.600873
0.720485 0.820072 0.621412
0.833510 0.834916 0.645268
0.949502 0.852143 0.671486
0.388979 0.958841 0.626130
0.455683 0.953155 0.631656
0.496544 0.940026 0.629367
0.564288 0.936319 0.636550
0.652889 0.940674 0.651448
0.752719 0.949976 0.671086
0.858705 0.962645 0.694157
0.967099 0.977856 0.719397
0.066793 0.057001 0.547513
0.101594 0.042868 0.525920
0.173792 0.040102 0.516964
0.273998 0.045996 0.517397
0.395856 0.058514 0.525172
0.536949 0.076904 0.539363
0.695033 0.100421 0.559238
0.869004 0.128741 0.584521
0.102698 0.159006 0.550537
0.141529 0.146435 0.531379
0.211169 0.144807 0.523120
0.312049 0.154141 0.525873
0.436693 0.172191 0.537091
0.580841 0.195739 0.554551
0.741617 0.222872 0.577150
0.918480 0.254231 0.604678
0.151436 0.284944 0.566945
0.191376 0.271338 0.548714
0.255750 0.265984 0.538794
0.354090 0.272132 0.540563
0.477000 0.286781 0.550774
0.620882 0.308449 0.568215
0.782476 0.336155 0.592023
0.949532 0.367716 0.621574
0.203125 0.418796 0.588449
0.241912 0.404305 0.570557
0.304225 0.397700 0.560626
0.400835 0.402607 0.562401
0.523202 0.416232 0.572981
0.660408 0.435960 0.592180
0.799035 0.458721 0.617974
0.938837 0.483877 0.646956
0.254023 0.555067 0.611881
0.292228 0.540037 0.594612
0.352271 0.532412 0.584726
0.445325 0.536524 0.589216
0.555728 0.547786 0.605180
0.676040 0.563787 0.626819
0.803225 0.583342 0.651810
0.934154 0.605453 0.679244
0.303202 0.691087 0.636106
0.345747 0.677545 0.624067
0.397949 0.668501 0.620885
0.482051 0.670537 0.630336
0.583610 0.679377 0.646249
0.696237 0.692914 0.666848
0.815467 0.710004 0.690594
0.937941 0.729538 0.716836
0.349380 0.826445 0.671945
0.406411 0.818076 0.672646
0.448186 0.805804 0.668997
0.523497 0.804987 0.676829
0.617887 0.811474 0.691649
0.723220 0.822852 0.711202
0.834934 0.837615 0.734019
0.949407 0.854837 0.759140
0.394265 0.960629 0.718529
0.462984 0.955992 0.723994
0.504620 0.943429 0.721374
0.570586 0.939399 0.727083
0.657935 0.943653 0.740950
0.756484 0.952914 0.759699
0.861187 0.965589 0.781731
0.968277 0.980629 0.805754
0.077664 0.064303 0.655347
0.112647 0.049451 0.632187
0.183757 0.045894 0.621403
0.283192 0.051188 0.620095
0.404699 0.063311 0.626342
0.545780 0.081343 0.639096
0.703809 0.104681 0.657626
0.877829 0.132774 0.681587
0.112750 0.165237 0.655003
0.152067 0.152990 0.634998
0.220913 0.151160 0.625243
0.321655 0.160861 0.626752
0.446004 0.178613 0.636638
0.589541 0.201016 0.652422
0.750201 0.227723 0.673515
0.927016 0.258566 0.699692
0.160692 0.290045 0.668451
0.200550 0.276338 0.648841
0.264380 0.270756 0.637575
0.362220 0.276913 0.638057
0.485120 0.291504 0.647172
0.628882 0.313183 0.663545
0.789915 0.340858 0.686369
0.947783 0.371092 0.715255
0.211131 0.422734 0.686754
0.249718 0.408241 0.667643
0.311765 0.401639 0.656522
0.408043 0.406546 0.657030
0.530126 0.420072 0.666728
0.662261 0.439249 0.686339
0.797451 0.461611 0.711531
0.935635 0.486669 0.739478
0.261200 0.558092 0.707361
0.299585 0.543278 0.688938
0.358811 0.535546 0.677990
0.450013 0.539655 0.683879
0.558233 0.550853 0.699571
0.677209 0.566802 0.720332
0.802857 0.586337 0.744434
0.932262 0.608413 0.770845
0.309583 0.693348 0.729000
0.354439 0.681114 0.719511
0.404492 0.671779 0.716312
0.486945 0.673796 0.724779
0.587215 0.682585 0.739729
0.698480 0.696120 0.759371
0.816220 0.713191 0.782298
0.937136 0.732616 0.807402
0.354941 0.828705 0.767001
0.414635 0.821647 0.767995
0.455771 0.809386 0.763508
0.529392 0.808453 0.770256
0.622474 0.814924 0.784119
0.726529 0.826214 0.802720
0.836922 0.840961 0.824680
0.950042 0.858118 0.848680
0.400016 0.962866 0.812320
0.470611 0.959276 0.817829
0.513471 0.947414 0.815050
0.577505 0.943026 0.819679
0.663537 0.947250 0.832501
0.760903 0.956580 0.850250
0.864298 0.969265 0.871244
0.970061 0.984140 0.894387
