gsg/03_Cinematic/GSG_LUT_Cinematic_Furiosa.cube
# GSG LUTs 1.0
# Copyright (c) 2016-2020 Greyscalegorilla
# See EULA for licensing and distribution information
# Converted by Briz LUT Converter
LUT_3D_SIZE 8
DOMAIN_MIN 0.000000 0.000000 0.000000
DOMAIN_MAX 0.903226 0.903226 0.903226
0.057143 0.025153 0.007814
0.162015 0.042239 0.016125
0.273961 0.064264 0.023026
0.376951 0.082343 0.027146
0.463933 0.096877 0.029430
0.541258 0.109181 0.030438
0.609224 0.119650 0.030580
0.668053 0.128749 0.030304
0.149104 0.144346 0.024152
0.189088 0.068310 0.019795
0.281224 0.074512 0.024034
0.386979 0.096097 0.028122
0.478152 0.115783 0.030060
0.559680 0.133196 0.030694
0.631290 0.148104 0.030329
0.693510 0.161145 0.029540
0.205491 0.231856 0.029493
0.397339 0.221987 0.030456
0.314033 0.105773 0.026829
0.394295 0.106122 0.028579
0.483043 0.122217 0.030163
0.564944 0.140053 0.030612
0.638220 0.157005 0.030092
0.702495 0.172516 0.029027
0.266572 0.317586 0.030431
0.514726 0.352337 0.025605
0.494923 0.231294 0.029913
0.429350 0.141075 0.030039
0.493735 0.136423 0.030453
0.571186 0.148281 0.030578
0.642993 0.163415 0.029997
0.707456 0.178944 0.028754
0.328938 0.400803 0.027579
0.552662 0.431706 0.019741
0.720888 0.419765 0.014017
0.587847 0.252357 0.028129
0.530288 0.174056 0.030582
0.585114 0.166298 0.030444
0.651555 0.174206 0.029603
0.713411 0.186420 0.028362
0.389358 0.478814 0.022096
0.596004 0.507398 0.012331
0.772106 0.554807 0.061831
0.784299 0.418626 0.015204
0.675903 0.277604 0.025158
0.622107 0.205854 0.029121
0.668282 0.195495 0.028780
0.724219 0.200069 0.027705
0.444752 0.549230 0.015038
0.614059 0.583205 0.033156
0.761594 0.633761 0.104652
0.863843 0.634214 0.137018
0.844183 0.428316 0.018796
0.756919 0.304472 0.021166
0.704932 0.236531 0.026466
0.743366 0.224309 0.026263
0.487487 0.612163 0.014573
0.613700 0.654409 0.072586
0.752811 0.702649 0.143952
0.872841 0.745195 0.211208
0.901193 0.631374 0.146908
0.888490 0.447287 0.035779
0.830246 0.331670 0.016666
0.778993 0.266131 0.022943
0.085037 0.066816 0.062689
0.187325 0.069987 0.068124
0.296427 0.086360 0.073315
0.397570 0.101233 0.076509
0.483414 0.113600 0.078042
0.559975 0.124290 0.078541
0.627177 0.133696 0.078380
0.685706 0.141817 0.077692
0.137832 0.145146 0.065186
0.243630 0.136579 0.074532
0.340720 0.147071 0.077128
0.448882 0.169576 0.078415
0.539152 0.186443 0.078227
0.618906 0.200172 0.077133
0.688265 0.211640 0.075593
0.748409 0.221337 0.073810
0.202033 0.233881 0.073710
0.347653 0.255051 0.078505
0.374816 0.178867 0.078065
0.457725 0.181218 0.078462
0.552219 0.203243 0.077813
0.637227 0.223599 0.076001
0.711656 0.241059 0.073678
0.775780 0.255773 0.071125
0.266619 0.320123 0.075489
0.402409 0.339281 0.076163
0.588732 0.346155 0.071249
0.495940 0.219126 0.078029
0.561119 0.214619 0.077517
0.643990 0.232083 0.075627
0.719862 0.251432 0.072958
0.786753 0.269608 0.069911
0.331042 0.403481 0.072945
0.463061 0.421910 0.070712
0.665572 0.449833 0.061358
0.681755 0.361502 0.067272
0.601771 0.256650 0.075434
0.656573 0.248128 0.074717
0.727124 0.260635 0.072314
0.792998 0.277383 0.069277
0.392962 0.481839 0.067483
0.522839 0.499767 0.063181
0.685436 0.531528 0.077875
0.809514 0.559686 0.128824
0.766211 0.381823 0.062739
0.697857 0.292297 0.071255
0.743472 0.281130 0.070632
0.802400 0.289218 0.068129
0.449376 0.552279 0.060467
0.566299 0.573350 0.067782
0.683165 0.612884 0.122392
0.807083 0.656040 0.185634
0.861061 0.579516 0.156066
0.840509 0.407994 0.063143
0.783866 0.326297 0.066218
0.821679 0.313286 0.065839
0.485825 0.617382 0.068014
0.572310 0.646618 0.109344
0.682048 0.684246 0.163975
0.797835 0.724903 0.226292
0.899049 0.755204 0.280399
0.899588 0.592122 0.175477
0.889057 0.441150 0.085156
0.860013 0.358404 0.060721
0.110859 0.095356 0.117515
0.186895 0.072890 0.118918
0.306582 0.090701 0.124400
0.408004 0.105573 0.127220
0.493993 0.117790 0.128466
0.570767 0.128567 0.128741
0.638064 0.137833 0.128293
0.696428 0.145931 0.127537
0.166465 0.178384 0.104893
0.271155 0.178512 0.126933
0.374879 0.183061 0.128569
0.477742 0.197653 0.128573
0.564882 0.209769 0.127708
0.642483 0.220419 0.126031
0.710323 0.229696 0.124203
0.769372 0.237796 0.122158
0.206412 0.235708 0.095521
0.328317 0.254763 0.123664
0.433060 0.246350 0.128116
0.521114 0.253402 0.127054
0.615405 0.273912 0.124429
0.697181 0.289565 0.121399
0.767901 0.302039 0.118298
0.828759 0.312359 0.115223
0.272669 0.322558 0.103637
0.395044 0.340823 0.123700
0.536563 0.360460 0.121888
0.556945 0.287474 0.125080
0.625830 0.287168 0.123462
0.712790 0.308999 0.119698
0.789392 0.328980 0.115577
0.855242 0.345581 0.111449
0.338296 0.406184 0.105267
0.460790 0.424152 0.118706
0.592102 0.442276 0.114514
0.745488 0.451011 0.115296
0.664869 0.326427 0.120035
0.722121 0.320767 0.118563
0.796845 0.338234 0.114530
0.864705 0.357549 0.110189
0.400859 0.484777 0.102424
0.523380 0.502441 0.111171
0.640158 0.522894 0.116968
0.756477 0.562291 0.170579
0.809968 0.479468 0.140543
0.762275 0.363269 0.113917
0.809572 0.354212 0.112709
0.871724 0.366799 0.109333
0.457795 0.555510 0.097146
0.562045 0.578132 0.123543
0.646372 0.606899 0.164013
0.750972 0.642969 0.216215
0.857524 0.673154 0.268773
0.856867 0.507295 0.168543
0.845397 0.399230 0.111216
0.883453 0.388146 0.111693
0.487083 0.622860 0.114585
0.568649 0.651697 0.165956
0.650869 0.679993 0.207883
0.748177 0.714052 0.259311
0.851296 0.750866 0.317293
0.905475 0.701650 0.303152
0.896943 0.539326 0.198827
0.890655 0.441341 0.141228
0.139249 0.124692 0.180692
0.159981 0.072114 0.177392
0.310655 0.094625 0.184229
0.420332 0.110465 0.186853
0.506526 0.122738 0.187812
0.583363 0.133428 0.187727
0.650841 0.142718 0.187207
0.709425 0.150735 0.186199
0.233053 0.254013 0.187349
0.304073 0.212627 0.187699
0.373698 0.186149 0.187727
0.490462 0.202540 0.187483
0.577723 0.214603 0.186285
0.655367 0.225290 0.184469
0.723345 0.234679 0.182314
0.782418 0.242681 0.180259
0.239748 0.272542 0.137232
0.364144 0.292056 0.171110
0.462004 0.287672 0.185260
0.559030 0.290255 0.183709
0.647053 0.302336 0.180821
0.725172 0.313025 0.177518
0.793455 0.322452 0.174312
0.852536 0.330697 0.171263
0.276516 0.323975 0.121612
0.401276 0.343301 0.152081
0.520922 0.361130 0.174312
0.618822 0.355300 0.178236
0.693395 0.360468 0.175304
0.777831 0.379036 0.170396
0.845369 0.394242 0.170837
0.887211 0.410836 0.189208
0.342881 0.408033 0.126088
0.468963 0.427199 0.154946
0.588017 0.444659 0.169525
0.708414 0.463959 0.172375
0.727540 0.393408 0.171254
0.788996 0.393134 0.168687
0.848929 0.419126 0.183298
0.890094 0.445204 0.208736
0.406631 0.486975 0.127768
0.532844 0.505939 0.152158
0.634174 0.528016 0.180443
0.713756 0.555303 0.219921
0.812616 0.573685 0.259608
0.809800 0.435069 0.181257
0.850193 0.432535 0.190745
0.890937 0.456741 0.215260
0.464500 0.557966 0.126317
0.563535 0.584527 0.177464
0.641575 0.612694 0.229680
0.717725 0.639257 0.269642
0.812344 0.672596 0.319673
0.863964 0.605873 0.294772
0.857434 0.481821 0.219826
0.892266 0.474943 0.225824
0.488330 0.627563 0.154505
0.569911 0.658428 0.222781
0.647096 0.686315 0.274728
0.721156 0.712456 0.315530
0.806735 0.742835 0.363023
0.899360 0.774108 0.415645
0.902689 0.631556 0.322899
0.897578 0.525672 0.256730
0.169719 0.154941 0.249352
0.140342 0.072905 0.242483
0.286243 0.094734 0.249289
0.427703 0.115077 0.252613
0.520399 0.128150 0.253251
0.597479 0.138840 0.252926
0.665083 0.148148 0.252086
0.723679 0.156134 0.250951
0.269211 0.288983 0.253172
0.339651 0.246930 0.253202
0.342672 0.185315 0.253094
0.495062 0.206650 0.252724
0.592020 0.220061 0.251022
0.669804 0.230698 0.248958
0.737831 0.240007 0.246653
0.796894 0.248112 0.244258
0.329883 0.371192 0.231056
0.424504 0.353626 0.249009
0.498820 0.323204 0.248696
0.558982 0.293765 0.248595
0.661568 0.307808 0.244852
0.739690 0.318555 0.241362
0.808017 0.327968 0.237889
0.867026 0.336212 0.234681
0.316080 0.365935 0.168500
0.442868 0.385480 0.202893
0.563659 0.403426 0.228348
0.649428 0.394311 0.238822
0.730220 0.393783 0.235771
0.802737 0.406324 0.237764
0.850258 0.421820 0.257374
0.890244 0.435527 0.275905
0.347284 0.409729 0.146126
0.474044 0.429099 0.177187
0.595251 0.447375 0.200946
0.698153 0.466670 0.231460
0.762149 0.467721 0.257995
0.810130 0.478721 0.277230
0.856696 0.502878 0.304068
0.896288 0.521159 0.326370
0.410847 0.488503 0.146462
0.538958 0.508210 0.178553
0.635466 0.533748 0.229823
0.707324 0.561135 0.288952
0.776429 0.585656 0.328425
0.817562 0.516323 0.300436
0.857857 0.520872 0.314843
0.897948 0.548305 0.343038
0.469510 0.559830 0.147883
0.564543 0.589199 0.217294
0.642840 0.619292 0.286449
0.713403 0.646051 0.341948
0.777521 0.669029 0.379310
0.863307 0.689801 0.420252
0.863575 0.562283 0.340938
0.898611 0.560837 0.350752
0.489094 0.630982 0.185651
0.570935 0.663670 0.268860
0.648145 0.693475 0.336161
0.717980 0.719764 0.389561
0.779950 0.742032 0.426548
0.859839 0.770701 0.472616
0.907460 0.719804 0.454800
0.902768 0.605553 0.379401
0.201221 0.185435 0.317200
0.132355 0.077831 0.308745
0.258030 0.094205 0.314333
0.410721 0.116176 0.318209
0.529008 0.132840 0.318839
0.611596 0.144244 0.318193
0.679318 0.153460 0.317185
0.738146 0.161542 0.315696
0.304565 0.322174 0.317716
0.375445 0.280560 0.317864
0.323208 0.188888 0.318606
0.470811 0.206712 0.318338
0.598945 0.224407 0.316058
0.684257 0.236107 0.313457
0.752310 0.245497 0.310902
0.811383 0.253567 0.308365
0.392989 0.434686 0.310432
0.461424 0.387550 0.311200
0.536349 0.357701 0.310707
0.530395 0.293222 0.314483
0.665788 0.311823 0.309402
0.754319 0.324013 0.305211
0.822575 0.333491 0.301562
0.879286 0.342492 0.300852
0.406848 0.461948 0.258360
0.533280 0.478813 0.294842
0.619258 0.458625 0.300513
0.684996 0.430130 0.301390
0.729634 0.397239 0.300280
0.805772 0.415128 0.314315
0.852180 0.430950 0.335429
0.891955 0.444846 0.354136
0.393236 0.456725 0.198375
0.521658 0.476622 0.232794
0.631886 0.498512 0.270355
0.705337 0.524989 0.334888
0.760415 0.513727 0.355328
0.813859 0.515467 0.371581
0.859394 0.531406 0.394248
0.898464 0.545331 0.414292
0.416315 0.490575 0.170407
0.544253 0.510329 0.202230
0.636258 0.537264 0.259268
0.708165 0.565531 0.327248
0.767866 0.589998 0.389275
0.821671 0.593388 0.419776
0.863654 0.605705 0.440295
0.902603 0.626104 0.465398
0.473945 0.561456 0.167427
0.565201 0.592343 0.244465
0.643599 0.623294 0.320778
0.714303 0.651843 0.391456
0.773114 0.675531 0.448928
0.830893 0.696961 0.487274
0.868494 0.638298 0.462110
0.903535 0.644404 0.477386
0.489700 0.633983 0.210390
0.571686 0.667439 0.300712
0.648994 0.698322 0.378266
0.718989 0.726502 0.446857
0.777093 0.749391 0.499530
0.831711 0.769451 0.535163
0.905751 0.791615 0.575877
0.906789 0.679447 0.501024
0.232479 0.215739 0.379653
0.153769 0.099806 0.372917
0.232844 0.093875 0.375153
0.383651 0.115688 0.379164
0.517974 0.134562 0.379952
0.619957 0.148509 0.378940
0.692757 0.158502 0.377431
0.751585 0.166574 0.375903
0.338997 0.354547 0.376887
0.410080 0.313137 0.377049
0.342776 0.213512 0.379791
0.440978 0.205940 0.379557
0.582356 0.225354 0.377013
0.691200 0.240270 0.373677
0.765938 0.250546 0.370616
0.824897 0.258687 0.367848
0.428508 0.467256 0.367324
0.497122 0.420379 0.368234
0.572609 0.391160 0.367535
0.519139 0.301836 0.374956
0.644441 0.312085 0.370633
0.759531 0.327988 0.364931
0.835476 0.338767 0.361486
0.885092 0.349884 0.368685
0.484318 0.554083 0.359926
0.561763 0.525893 0.374625
0.634787 0.497185 0.379170
0.699342 0.470881 0.382651
0.706440 0.397596 0.361444
0.800074 0.421154 0.383418
0.853763 0.439553 0.408153
0.893452 0.453457 0.427128
0.478885 0.545928 0.285035
0.565966 0.578180 0.369809
0.643548 0.601096 0.435162
0.710893 0.583778 0.448504
0.764097 0.556666 0.448526
0.804772 0.520399 0.439628
0.860656 0.540113 0.467621
0.899591 0.553972 0.487778
0.466431 0.540770 0.227067
0.564177 0.569786 0.297055
0.642647 0.600701 0.371759
0.713537 0.629107 0.441154
0.772274 0.650204 0.499602
0.819989 0.635695 0.513074
0.865694 0.634487 0.526862
0.904242 0.648419 0.548090
0.480336 0.563961 0.195477
0.566108 0.596138 0.277332
0.644145 0.626958 0.351630
0.714808 0.655355 0.421193
0.773667 0.679628 0.484260
0.825168 0.701529 0.542783
0.870775 0.706722 0.574831
0.907500 0.720351 0.596154
0.490383 0.637026 0.236864
0.572207 0.670466 0.327041
0.649483 0.701658 0.406015
0.719508 0.730308 0.479691
0.777844 0.754655 0.544918
0.829004 0.775914 0.599719
0.877107 0.794191 0.635538
0.910327 0.746618 0.614755
0.262807 0.245689 0.433495
0.178742 0.124446 0.429073
0.211100 0.093749 0.428217
0.353783 0.114350 0.432328
0.496896 0.134392 0.433495
0.611510 0.150176 0.432369
0.700002 0.162283 0.430454
0.763275 0.170924 0.428459
0.371893 0.385863 0.427637
0.443019 0.344475 0.428018
0.374655 0.244671 0.432863
0.411531 0.204615 0.433251
0.557803 0.224751 0.430777
0.678756 0.241444 0.427027
0.772129 0.254107 0.423150
0.836785 0.263043 0.419867
0.461334 0.497806 0.416194
0.530915 0.452148 0.417142
0.606881 0.423617 0.416302
0.542139 0.329150 0.425776
0.618468 0.311346 0.424541
0.743162 0.328578 0.418488
0.838441 0.343004 0.415825
0.886802 0.357304 0.432140
0.491355 0.605460 0.457096
0.566171 0.563797 0.455209
0.639269 0.536626 0.460696
0.703769 0.512109 0.465354
0.697097 0.410532 0.419400
0.779787 0.421206 0.437046
0.849330 0.445132 0.469252
0.894672 0.460953 0.491167
0.494029 0.642739 0.441671
0.574241 0.663715 0.513342
0.647367 0.643301 0.523899
0.714127 0.621829 0.531352
0.767487 0.597206 0.532877
0.783956 0.521172 0.493408
0.854052 0.545011 0.528015
0.900599 0.561670 0.552331
0.492245 0.634416 0.370350
0.573822 0.667872 0.460391
0.650739 0.698582 0.535633
0.719828 0.716023 0.590263
0.775548 0.698040 0.597568
0.822441 0.674800 0.598000
0.856338 0.638423 0.585883
0.905008 0.656169 0.612786
0.490661 0.626563 0.303630
0.572479 0.660018 0.393282
0.649581 0.690905 0.469439
0.719557 0.719161 0.539430
0.777771 0.743261 0.601295
0.828786 0.761239 0.653147
0.870093 0.744687 0.659325
0.908807 0.740904 0.669833
0.491410 0.641498 0.274850
0.572980 0.674710 0.363702
0.650188 0.705606 0.440076
0.720028 0.733835 0.510480
0.778161 0.757972 0.572876
0.829440 0.779492 0.630187
0.873858 0.798532 0.682565
0.912519 0.805400 0.715071
