gsg/03_Cinematic/GSG_LUT_Cinematic_CoolasIce.cube
# GSG LUTs 1.0
# Copyright (c) 2016-2020 Greyscalegorilla
# See EULA for licensing and distribution information
# Converted by Briz LUT Converter
LUT_3D_SIZE 32
0.000000 0.000000 0.000000
0.029107 0.006018 0.015298
0.054016 0.011060 0.028154
0.078215 0.016101 0.040986
0.102477 0.021143 0.053653
0.127260 0.026185 0.066761
0.152562 0.031273 0.079964
0.178384 0.036622 0.093576
0.204726 0.042105 0.107314
0.231518 0.047540 0.121431
0.258647 0.053259 0.135626
0.286211 0.058892 0.150081
0.313939 0.064595 0.164701
0.341770 0.070243 0.179322
0.369640 0.076041 0.193942
0.397251 0.081839 0.208563
0.424475 0.087510 0.222931
0.451314 0.093056 0.237048
0.477608 0.098460 0.250880
0.503123 0.103754 0.264343
0.527701 0.108890 0.277545
0.551404 0.113931 0.290157
0.573981 0.118626 0.302162
0.595439 0.123164 0.313648
0.615857 0.127512 0.324424
0.634842 0.131600 0.334617
0.652676 0.135429 0.344086
0.669258 0.138997 0.352988
0.684541 0.142085 0.361369
0.698523 0.145110 0.368774
0.711442 0.147899 0.375848
0.723077 0.150427 0.381929
0.017811 0.028847 0.025846
0.035820 0.036538 0.037172
0.058611 0.040877 0.049173
0.082515 0.044719 0.060615
0.106738 0.048989 0.072692
0.131262 0.053305 0.084899
0.156358 0.057880 0.097734
0.182118 0.062655 0.110690
0.208269 0.067500 0.124099
0.235055 0.072533 0.137774
0.262182 0.077645 0.151709
0.289653 0.082931 0.165901
0.317224 0.088311 0.180259
0.345052 0.093749 0.194624
0.372811 0.099146 0.208985
0.400288 0.104679 0.223345
0.427512 0.110095 0.237583
0.454350 0.115384 0.251561
0.480499 0.120670 0.265280
0.505912 0.125806 0.278593
0.530490 0.130687 0.291538
0.554187 0.135476 0.304055
0.576762 0.140087 0.316058
0.598220 0.144441 0.327362
0.618449 0.148720 0.338076
0.637569 0.152609 0.348263
0.655449 0.156384 0.357730
0.672031 0.159738 0.366631
0.687100 0.163015 0.374785
0.701281 0.165836 0.382394
0.713978 0.168601 0.389247
0.725606 0.171129 0.395321
0.032904 0.053267 0.047981
0.049493 0.060538 0.058040
0.065919 0.067434 0.068462
0.087453 0.071839 0.080613
0.111259 0.075692 0.092115
0.135563 0.079749 0.103969
0.160610 0.084018 0.116134
0.186167 0.088345 0.128777
0.212253 0.092938 0.141738
0.238851 0.097704 0.155141
0.265903 0.102567 0.168816
0.293214 0.107592 0.182670
0.320778 0.112712 0.196711
0.348497 0.117989 0.210958
0.376219 0.123164 0.225067
0.403710 0.128316 0.239174
0.430934 0.133593 0.253275
0.457741 0.138745 0.267108
0.483786 0.143778 0.280711
0.509195 0.148663 0.294017
0.533767 0.153452 0.306800
0.557304 0.158220 0.319078
0.579802 0.162653 0.330998
0.601260 0.166938 0.342286
0.621490 0.171023 0.352995
0.640419 0.174855 0.362992
0.658240 0.178432 0.372413
0.674820 0.181748 0.381301
0.690102 0.185011 0.389254
0.704084 0.187829 0.396826
0.716767 0.190366 0.403679
0.728378 0.192887 0.409752
0.047548 0.077238 0.069432
0.063594 0.084027 0.078970
0.079214 0.091039 0.088807
0.095502 0.097884 0.099333
0.116351 0.102556 0.112016
0.140140 0.106475 0.123605
0.165103 0.110489 0.135333
0.190476 0.114622 0.147696
0.216503 0.119059 0.160339
0.242925 0.123480 0.173312
0.269952 0.128252 0.186727
0.297247 0.133033 0.200401
0.324723 0.137893 0.214241
0.352302 0.142920 0.228183
0.379920 0.147951 0.242176
0.407385 0.152980 0.256147
0.434585 0.158009 0.269999
0.461158 0.163026 0.283598
0.487229 0.167915 0.297058
0.512584 0.172705 0.310254
0.537067 0.177479 0.322880
0.560605 0.181929 0.335216
0.583103 0.186215 0.347023
0.604543 0.190482 0.358086
0.624767 0.194383 0.368724
0.643696 0.198165 0.378715
0.661326 0.201721 0.388137
0.677868 0.205034 0.396825
0.693129 0.208090 0.404934
0.707109 0.210887 0.412335
0.719792 0.213423 0.419151
0.731199 0.215920 0.425247
0.062452 0.101469 0.091142
0.077765 0.107992 0.100200
0.093125 0.114573 0.109762
0.108768 0.121572 0.119608
0.125312 0.128415 0.130299
0.145607 0.133547 0.143480
0.169678 0.137575 0.155420
0.195062 0.141557 0.167396
0.221041 0.145645 0.179787
0.247398 0.149978 0.192523
0.274197 0.154574 0.205677
0.301332 0.159234 0.219092
0.328788 0.163866 0.232671
0.356354 0.168745 0.246353
0.383954 0.173658 0.260199
0.411312 0.178550 0.274048
0.438284 0.183450 0.287754
0.464871 0.188222 0.301217
0.490895 0.192997 0.314559
0.516145 0.197767 0.327606
0.540628 0.202387 0.340147
0.564144 0.206759 0.352312
0.586632 0.211022 0.363882
0.607909 0.215117 0.375021
0.628075 0.218961 0.385537
0.647005 0.222717 0.395478
0.664634 0.226082 0.404873
0.681149 0.229359 0.413557
0.696235 0.232416 0.421494
0.710168 0.235183 0.429054
0.722848 0.237717 0.435669
0.734444 0.239994 0.441979
0.077616 0.125999 0.113151
0.092417 0.132269 0.121948
0.107516 0.138785 0.131214
0.122900 0.145382 0.140837
0.138777 0.152436 0.150916
0.155352 0.159554 0.161786
0.175319 0.165242 0.175294
0.199916 0.169204 0.187693
0.225657 0.173146 0.200061
0.252003 0.177309 0.212695
0.278774 0.181740 0.225602
0.305833 0.186112 0.238782
0.333137 0.190729 0.252117
0.360589 0.195478 0.265563
0.388048 0.200244 0.279245
0.415385 0.205015 0.292950
0.442357 0.209784 0.306416
0.468922 0.214439 0.319776
0.494828 0.219096 0.332972
0.519981 0.223719 0.345889
0.544423 0.228231 0.358415
0.567808 0.232589 0.370436
0.590212 0.236701 0.381937
0.611477 0.240734 0.392918
0.631644 0.244578 0.403349
0.650541 0.248131 0.413281
0.668163 0.251481 0.422498
0.684493 0.254730 0.431147
0.699744 0.257745 0.439241
0.713498 0.260346 0.446619
0.726165 0.262870 0.453220
0.737548 0.265107 0.459490
0.093040 0.151002 0.135634
0.107376 0.157060 0.144211
0.122215 0.163375 0.153032
0.137338 0.169908 0.162586
0.152988 0.176771 0.172431
0.169192 0.184072 0.182764
0.186065 0.191413 0.193903
0.205595 0.197442 0.207418
0.230628 0.201409 0.220709
0.256985 0.205372 0.233448
0.283596 0.209642 0.246194
0.310623 0.213982 0.259253
0.337847 0.218502 0.272407
0.365154 0.223010 0.285738
0.392493 0.227636 0.299187
0.419717 0.232282 0.312655
0.446665 0.236945 0.326015
0.473095 0.241601 0.339323
0.499000 0.246111 0.352357
0.524122 0.250628 0.365064
0.548371 0.255008 0.377479
0.571790 0.259261 0.389484
0.594100 0.263358 0.400985
0.615306 0.267356 0.411931
0.635435 0.271188 0.422227
0.654157 0.274614 0.432086
0.671740 0.278065 0.441293
0.688070 0.281161 0.449943
0.703278 0.283965 0.457852
0.717071 0.286694 0.465209
0.729695 0.289228 0.471811
0.741077 0.291307 0.477876
0.108724 0.176376 0.158486
0.122799 0.182376 0.166946
0.137379 0.188629 0.175561
0.152247 0.195024 0.184860
0.167711 0.201812 0.194494
0.183827 0.208900 0.204599
0.200260 0.216248 0.215224
0.217332 0.223903 0.226753
0.236809 0.230379 0.240309
0.262043 0.234415 0.254397
0.288611 0.238444 0.267649
0.315448 0.242649 0.280468
0.342658 0.247020 0.293418
0.369916 0.251408 0.306606
0.397116 0.255945 0.319934
0.424283 0.260483 0.333267
0.451129 0.265089 0.346570
0.477460 0.269692 0.359666
0.503226 0.274119 0.372515
0.528353 0.278544 0.385198
0.552657 0.282866 0.397452
0.575942 0.287004 0.409366
0.598188 0.291016 0.420828
0.619353 0.294852 0.431653
0.639316 0.298633 0.442023
0.657994 0.302173 0.451755
0.675576 0.305487 0.460924
0.691858 0.308551 0.469525
0.706881 0.311355 0.477427
0.720840 0.313900 0.484785
0.733286 0.316420 0.491386
0.744661 0.318642 0.497452
0.124731 0.202466 0.181992
0.138544 0.208269 0.190072
0.152806 0.214286 0.198610
0.167492 0.220781 0.207667
0.182866 0.227390 0.217220
0.198732 0.234403 0.227130
0.215006 0.241596 0.237547
0.231951 0.249204 0.248432
0.249249 0.257128 0.260101
0.268894 0.263855 0.273700
0.293950 0.268043 0.288728
0.320526 0.272093 0.302273
0.347598 0.276261 0.315223
0.374895 0.280623 0.328331
0.402037 0.285095 0.341521
0.429014 0.289567 0.354728
0.455827 0.293979 0.367836
0.482146 0.298394 0.380910
0.507790 0.302903 0.393706
0.532774 0.307252 0.406271
0.556964 0.311396 0.418419
0.580228 0.315574 0.430246
0.602474 0.319493 0.441553
0.623498 0.323274 0.452417
0.643364 0.327006 0.462673
0.662078 0.330430 0.472362
0.679619 0.333666 0.481531
0.695726 0.336721 0.489968
0.710725 0.339525 0.497846
0.724625 0.342069 0.505203
0.737067 0.344590 0.511804
0.748442 0.346623 0.517870
0.141116 0.229005 0.205829
0.154665 0.234802 0.213833
0.168572 0.240627 0.222178
0.183167 0.246886 0.230982
0.198291 0.253472 0.240363
0.213998 0.260345 0.250199
0.230246 0.267596 0.260522
0.247076 0.275001 0.271204
0.264298 0.282805 0.282303
0.281845 0.290789 0.294020
0.301509 0.297744 0.307763
0.326236 0.302252 0.323383
0.352822 0.306373 0.337477
0.379837 0.310615 0.350585
0.406947 0.314900 0.363693
0.433931 0.319185 0.376835
0.460651 0.323560 0.389943
0.486935 0.327929 0.402883
0.512474 0.332315 0.415597
0.537382 0.336567 0.428008
0.561456 0.340740 0.440175
0.584607 0.344834 0.451896
0.606779 0.348694 0.463122
0.627784 0.352475 0.473903
0.647509 0.356068 0.484131
0.666271 0.359540 0.493763
0.683682 0.362645 0.502919
0.699821 0.365670 0.511355
0.714765 0.368475 0.519233
0.728489 0.371019 0.526524
0.740919 0.373471 0.533121
0.752223 0.375572 0.539186
0.157659 0.255882 0.230108
0.170953 0.261601 0.237859
0.184768 0.267415 0.246193
0.199110 0.273505 0.254827
0.214067 0.280019 0.264114
0.229693 0.286852 0.273759
0.245807 0.293891 0.283856
0.262340 0.301256 0.294435
0.279526 0.308882 0.305400
0.297088 0.316815 0.316791
0.314804 0.325078 0.328517
0.334602 0.332281 0.342347
0.358759 0.337026 0.358565
0.385100 0.341159 0.372916
0.412033 0.345307 0.386242
0.438886 0.349592 0.399473
0.465524 0.353878 0.412582
0.491725 0.358120 0.425476
0.517263 0.362370 0.438190
0.542124 0.366607 0.450494
0.566166 0.370704 0.462543
0.589200 0.374737 0.474172
0.611194 0.378597 0.485368
0.632148 0.382378 0.496219
0.651873 0.385909 0.506410
0.670432 0.389224 0.515948
0.687794 0.392362 0.525020
0.704016 0.395331 0.533512
0.718815 0.398125 0.541329
0.732522 0.400670 0.548524
0.744953 0.402954 0.555114
0.756083 0.405223 0.561101
0.174548 0.283194 0.254646
0.187582 0.288660 0.262229
0.201142 0.294468 0.270474
0.215321 0.300461 0.279011
0.230167 0.306826 0.288137
0.245547 0.313632 0.297680
0.261523 0.320533 0.307606
0.277998 0.327878 0.318051
0.294947 0.335437 0.328972
0.312457 0.343297 0.340212
0.330321 0.351381 0.351746
0.348333 0.359699 0.363678
0.367768 0.367103 0.377559
0.391104 0.372282 0.393757
0.417361 0.376376 0.408671
0.444064 0.380519 0.422288
0.470398 0.384804 0.435441
0.496514 0.388956 0.448415
0.522053 0.393081 0.461179
0.546865 0.397127 0.473573
0.570821 0.401126 0.485549
0.593824 0.405160 0.497231
0.615756 0.409020 0.508419
0.636621 0.412737 0.519122
0.656324 0.416184 0.529210
0.674749 0.419481 0.538793
0.692079 0.422685 0.547814
0.708157 0.425523 0.556362
0.722935 0.428296 0.564040
0.736561 0.430840 0.571373
0.748986 0.433125 0.577975
0.760636 0.435567 0.581457
0.191437 0.310670 0.279349
0.204214 0.315976 0.286924
0.217616 0.321689 0.294915
0.231682 0.327622 0.303305
0.246280 0.333963 0.312411
0.261523 0.340619 0.321801
0.277480 0.347581 0.331648
0.293844 0.354815 0.342072
0.310646 0.362227 0.352838
0.328040 0.369999 0.363862
0.345812 0.378007 0.375391
0.363845 0.386228 0.387126
0.381861 0.394522 0.399223
0.401059 0.402185 0.413023
0.423712 0.407805 0.429143
0.449433 0.411972 0.444514
0.475669 0.416062 0.458285
0.501432 0.420265 0.471311
0.526787 0.424341 0.484210
0.551598 0.428225 0.496824
0.575539 0.432103 0.509020
0.598519 0.436038 0.520769
0.620407 0.439801 0.531912
0.641136 0.443443 0.542527
0.660725 0.446924 0.552712
0.679129 0.450234 0.562204
0.696380 0.453307 0.571326
0.712607 0.456283 0.578940
0.728007 0.459251 0.583401
0.742257 0.462079 0.587399
0.755269 0.464565 0.591048
0.767884 0.467328 0.590090
0.208429 0.338249 0.304155
0.220951 0.343448 0.311623
0.234237 0.349019 0.319469
0.248052 0.354996 0.327849
0.262515 0.361298 0.336849
0.277725 0.367702 0.346143
0.293481 0.374674 0.355930
0.309725 0.381787 0.366214
0.326488 0.389161 0.376812
0.343741 0.396835 0.387839
0.361393 0.404829 0.399189
0.379377 0.412895 0.410835
0.397472 0.421111 0.422711
0.415551 0.429619 0.434870
0.434428 0.437485 0.448571
0.456200 0.443363 0.464604
0.481294 0.447567 0.480229
0.506824 0.451605 0.494080
0.531678 0.455808 0.507106
0.556123 0.459797 0.519855
0.579957 0.463618 0.532301
0.602885 0.467330 0.544226
0.624918 0.470905 0.555654
0.645797 0.474463 0.566413
0.665296 0.477813 0.576533
0.684409 0.481421 0.582616
0.702486 0.484830 0.587318
0.719634 0.488206 0.590347
0.736098 0.491589 0.589365
0.751474 0.494780 0.588081
0.765426 0.497677 0.586958
0.778069 0.500351 0.585805
0.225460 0.365757 0.329111
0.237725 0.370921 0.336327
0.250865 0.376376 0.344166
0.264537 0.382221 0.352428
0.278886 0.388523 0.361282
0.293954 0.394903 0.370458
0.309473 0.401735 0.380243
0.325691 0.408760 0.390382
0.342369 0.416133 0.400877
0.359581 0.423766 0.411887
0.377096 0.431624 0.423136
0.394967 0.439616 0.434732
0.413045 0.447777 0.446474
0.431138 0.456151 0.458459
0.449160 0.464658 0.470605
0.467585 0.472657 0.484188
0.488556 0.478755 0.499894
0.512558 0.483122 0.515590
0.537170 0.487194 0.529608
0.561119 0.491284 0.542531
0.584481 0.495230 0.555091
0.607110 0.498960 0.567226
0.629319 0.502525 0.577762
0.651471 0.506036 0.584651
0.672231 0.509712 0.589526
0.692712 0.513787 0.589477
0.712035 0.517734 0.587995
0.730111 0.521320 0.586482
0.746686 0.524750 0.585069
0.761928 0.527811 0.583796
0.775871 0.530836 0.582536
0.788515 0.533373 0.581520
0.242231 0.392981 0.353830
0.254358 0.398275 0.361027
0.267384 0.403600 0.368742
0.281043 0.409434 0.376868
0.295239 0.415629 0.385616
0.310087 0.421990 0.394769
0.325583 0.428720 0.404420
0.341676 0.435705 0.414463
0.358219 0.442987 0.424924
0.375309 0.450586 0.435834
0.392698 0.458355 0.447045
0.410430 0.466294 0.458561
0.428422 0.474379 0.470251
0.446522 0.482697 0.482099
0.464546 0.491073 0.494113
0.482451 0.499460 0.506343
0.500422 0.507454 0.519484
0.520316 0.513960 0.534663
0.543028 0.518626 0.550283
0.566652 0.522515 0.564449
0.590051 0.526609 0.575623
0.613420 0.530801 0.583249
0.637080 0.534607 0.588134
0.660628 0.538527 0.588502
0.682752 0.542747 0.586900
0.703548 0.546835 0.585135
0.722762 0.550769 0.583576
0.740714 0.554461 0.582063
0.757273 0.557785 0.580771
0.772405 0.560833 0.579511
0.786226 0.563858 0.578365
0.798747 0.566395 0.577471
0.258868 0.420080 0.378282
0.270865 0.425247 0.385474
0.283760 0.430564 0.393068
0.297290 0.436268 0.401182
0.311355 0.442349 0.409799
0.326094 0.448690 0.418843
0.341541 0.455339 0.428469
0.357430 0.462397 0.438410
0.373909 0.469549 0.448839
0.390812 0.477054 0.459656
0.408160 0.484823 0.470826
0.425806 0.492717 0.482211
0.443750 0.500721 0.493820
0.461720 0.508986 0.505668
0.479727 0.517232 0.517626
0.497641 0.525550 0.529664
0.515221 0.533869 0.541699
0.532667 0.541993 0.554443
0.551786 0.548839 0.567932
0.574860 0.553597 0.578838
0.599154 0.558228 0.584287
0.623601 0.562945 0.585920
0.648293 0.567141 0.585885
0.671537 0.571451 0.584505
0.693368 0.575769 0.582838
0.713932 0.579857 0.581204
0.732991 0.583686 0.579668
0.750704 0.587467 0.578266
0.767116 0.590807 0.577104
0.782118 0.593856 0.575856
0.795687 0.596881 0.574954
0.808074 0.599417 0.574068
0.275371 0.446784 0.402466
0.287112 0.451700 0.409535
0.299870 0.457009 0.416999
0.313277 0.462602 0.425113
0.327219 0.468683 0.433715
0.341819 0.475025 0.442635
0.357131 0.481647 0.452149
0.372925 0.488597 0.462090
0.389373 0.495719 0.472488
0.406184 0.503132 0.483178
0.423483 0.510851 0.494253
0.441002 0.518713 0.505597
0.458813 0.526751 0.517129
0.476710 0.534885 0.528977
0.494658 0.543062 0.540875
0.512562 0.551316 0.552783
0.530358 0.559634 0.563858
0.548179 0.568165 0.573145
0.566112 0.576631 0.580842
0.587218 0.583806 0.583831
0.610879 0.589743 0.583710
0.634952 0.594947 0.583732
0.658851 0.599536 0.582810
0.681665 0.604041 0.581241
0.703240 0.608389 0.579700
0.723544 0.612478 0.578187
0.742455 0.616419 0.576787
0.760046 0.620105 0.575509
0.776336 0.623427 0.574469
0.791202 0.626476 0.573358
0.804777 0.629371 0.572449
0.817031 0.632037 0.571444
0.291473 0.472827 0.426129
0.303095 0.477632 0.433058
0.315600 0.482941 0.440544
0.328875 0.488521 0.448525
0.342802 0.494474 0.457127
0.357266 0.500792 0.466029
0.372366 0.507275 0.475423
0.388128 0.514136 0.485250
0.404467 0.521257 0.495648
0.421245 0.528638 0.506306
0.438420 0.536279 0.517257
0.455804 0.544130 0.528555
0.473544 0.552105 0.540124
0.491382 0.560172 0.551885
0.509325 0.568413 0.563092
0.527652 0.576897 0.572378
0.546188 0.585508 0.579859
0.564678 0.594281 0.585816
0.582302 0.603598 0.589285
0.601267 0.612589 0.588057
0.623139 0.619860 0.585306
0.646052 0.625962 0.583141
0.669244 0.631120 0.581066
0.691816 0.635740 0.579295
0.713160 0.640088 0.577746
0.733203 0.644177 0.576234
0.752066 0.648091 0.574807
0.769533 0.651676 0.573647
0.785805 0.654984 0.572498
0.800567 0.658166 0.571476
0.814105 0.660963 0.570468
0.826389 0.663594 0.569601
0.307054 0.498090 0.449124
0.318673 0.502890 0.455953
0.331063 0.508055 0.463531
0.344087 0.513624 0.471402
0.357879 0.519485 0.479869
0.372327 0.525787 0.488771
0.387341 0.532183 0.498145
0.403046 0.539044 0.507889
0.419189 0.546166 0.518249
0.435925 0.553547 0.528796
0.452960 0.561140 0.539762
0.470275 0.568853 0.551075
0.488072 0.576820 0.562111
0.506273 0.585166 0.571506
0.524819 0.593781 0.578996
0.543621 0.602552 0.585120
0.562450 0.611375 0.590385
0.580687 0.620362 0.595056
0.597510 0.630344 0.596208
0.615532 0.639999 0.593661
0.635881 0.648356 0.589188
0.657703 0.655439 0.584279
0.680291 0.661184 0.580575
0.702405 0.666061 0.578297
0.723565 0.670448 0.576567
0.743382 0.674657 0.574900
0.762071 0.678514 0.573484
0.779424 0.682083 0.572291
0.795548 0.685391 0.571043
0.810296 0.688528 0.570011
0.823735 0.691468 0.569002
0.835968 0.694001 0.568238
0.322116 0.522415 0.471496
0.333578 0.527218 0.478320
0.345961 0.532433 0.485746
0.358888 0.537855 0.493607
0.372574 0.543716 0.501989
0.386884 0.550018 0.510865
0.401868 0.556414 0.520138
0.417425 0.563240 0.529973
0.433454 0.570239 0.540187
0.450045 0.577620 0.550664
0.467115 0.585233 0.561305
0.484811 0.593157 0.570560
0.503133 0.601526 0.577826
0.521813 0.610146 0.584155
0.540628 0.618969 0.589428
0.559534 0.627792 0.594559
0.578232 0.636533 0.599564
0.595535 0.646066 0.602737
0.611946 0.656579 0.602190
0.629650 0.666497 0.599033
0.648788 0.675481 0.593738
0.669627 0.683269 0.587264
0.691556 0.689585 0.581816
0.713239 0.694796 0.578048
0.734188 0.699370 0.575895
0.753893 0.703691 0.574131
0.772352 0.707566 0.572643
0.789665 0.711272 0.571220
0.805561 0.714601 0.570082
0.820284 0.717649 0.568918
0.833571 0.720522 0.567899
0.845705 0.723211 0.567135
0.336658 0.545866 0.493017
0.348027 0.550666 0.499839
0.360251 0.555810 0.507180
0.373161 0.561306 0.515026
0.386687 0.567146 0.523258
0.400922 0.573303 0.532147
0.415857 0.579700 0.541470
0.431210 0.586506 0.551223
0.447260 0.593438 0.561113
0.464102 0.600915 0.569797
0.481804 0.608898 0.576699
0.499933 0.617196 0.582788
0.518460 0.625767 0.588112
0.537231 0.634440 0.593384
0.556017 0.643263 0.598472
0.574832 0.652006 0.603513
0.593144 0.660958 0.607917
0.609662 0.671236 0.609314
0.626021 0.681891 0.607736
0.643322 0.692045 0.603912
0.661739 0.701343 0.598141
0.681825 0.709451 0.591455
0.703008 0.716379 0.584668
0.724186 0.722094 0.579382
0.744832 0.726970 0.575855
0.764347 0.731348 0.573658
0.782701 0.735363 0.572067
0.799856 0.739026 0.570554
0.815652 0.742495 0.569333
0.830213 0.745559 0.568235
0.843405 0.748348 0.567222
0.855536 0.750955 0.566292
0.350506 0.568364 0.513671
0.361873 0.573162 0.520320
0.374009 0.578223 0.527662
0.386750 0.583631 0.535516
0.400205 0.589460 0.543812
0.414411 0.595549 0.552534
0.429253 0.601946 0.561562
0.444940 0.608869 0.569591
0.461547 0.616293 0.575825
0.478874 0.624073 0.581548
0.496727 0.632219 0.586640
0.514963 0.640562 0.591768
0.533459 0.649021 0.596995
0.552143 0.657694 0.602080
0.570838 0.666439 0.607043
0.589526 0.675132 0.611822
0.606960 0.684744 0.614908
0.622980 0.695489 0.614936
0.639182 0.706269 0.612504
0.656138 0.716614 0.608003
0.674450 0.726048 0.602191
0.693996 0.734271 0.595738
0.714397 0.741515 0.588764
0.735111 0.747723 0.582106
0.755342 0.753059 0.577115
0.774698 0.757673 0.573717
0.792891 0.761787 0.571764
0.809949 0.765394 0.570223
0.825579 0.768924 0.568931
0.840049 0.771996 0.567737
0.853236 0.774952 0.566718
0.865367 0.777486 0.565710
0.363756 0.589641 0.533365
0.374936 0.594439 0.539942
0.386904 0.599496 0.547284
0.399730 0.604837 0.555128
0.413068 0.610689 0.563081
0.427696 0.616995 0.569626
0.443183 0.623765 0.575286
0.459325 0.631029 0.580590
0.476104 0.638608 0.585379
0.493434 0.646359 0.590187
0.511237 0.654504 0.595100
0.529409 0.662822 0.600164
0.547788 0.671236 0.605246
0.566442 0.679833 0.610212
0.585096 0.688522 0.615038
0.603487 0.697398 0.619446
0.620067 0.707603 0.621158
0.635701 0.718606 0.620031
0.651728 0.729574 0.616768
0.668534 0.740116 0.611674
0.686755 0.749452 0.605837
0.705970 0.757758 0.599579
0.725708 0.765111 0.592866
0.745747 0.771713 0.585994
0.765710 0.777430 0.579562
0.784887 0.782319 0.574846
0.802986 0.786634 0.571850
0.819874 0.790429 0.570152
0.835417 0.793818 0.568697
0.849710 0.797042 0.567419
0.862886 0.799903 0.566395
0.874836 0.802615 0.565205
0.376108 0.609807 0.552019
0.387412 0.614605 0.558590
0.399347 0.619686 0.565554
0.412653 0.625418 0.570269
0.426658 0.631620 0.575181
0.441570 0.638031 0.579811
0.457135 0.645054 0.584190
0.473378 0.652224 0.588783
0.490141 0.659689 0.593523
0.507370 0.667533 0.598227
0.524977 0.675617 0.603169
0.543066 0.683808 0.608015
0.561453 0.692221 0.612935
0.579991 0.700792 0.617795
0.598560 0.709387 0.622474
0.616115 0.718773 0.625876
0.632110 0.729499 0.626385
0.647615 0.740687 0.624444
0.663460 0.751846 0.620356
0.680318 0.762246 0.615154
0.698499 0.771468 0.609366
0.717521 0.779794 0.603151
0.736909 0.787302 0.596771
0.756417 0.794053 0.590074
0.775795 0.799997 0.583415
0.794641 0.805299 0.577204
0.812691 0.809911 0.572810
0.829360 0.813966 0.570085
0.844870 0.817330 0.568622
0.859104 0.820607 0.567179
0.872275 0.823412 0.566143
0.884162 0.826185 0.565079
0.388404 0.629131 0.567466
0.400177 0.634138 0.571387
0.412691 0.639608 0.575572
0.426102 0.645434 0.579377
0.440135 0.651583 0.583416
0.455087 0.658143 0.587530
0.470567 0.665036 0.591863
0.486607 0.672149 0.596411
0.503218 0.679586 0.601036
0.520430 0.687414 0.605804
0.537981 0.695341 0.610627
0.555982 0.703494 0.615416
0.574257 0.711907 0.620148
0.592761 0.720477 0.624826
0.611304 0.729048 0.629410
0.628166 0.738945 0.631662
0.643539 0.750191 0.630999
0.658817 0.761524 0.628281
0.674556 0.772701 0.623656
0.691520 0.782961 0.618344
0.709701 0.792162 0.612629
0.728419 0.800488 0.606483
0.747483 0.808175 0.600181
0.766690 0.814999 0.593663
0.785555 0.821138 0.587402
0.804071 0.826586 0.580937
0.821907 0.831596 0.575070
0.838497 0.835771 0.570809
0.854000 0.839321 0.568674
0.868234 0.842617 0.567127
0.881215 0.845612 0.565897
0.893095 0.848194 0.564882
0.401166 0.647879 0.576147
0.413037 0.652930 0.579432
0.425675 0.658293 0.582977
0.438891 0.664114 0.586782
0.452855 0.670227 0.590815
0.467595 0.676821 0.594888
0.482894 0.683674 0.599180
0.498932 0.690787 0.603553
0.515611 0.698171 0.608100
0.532672 0.705833 0.612738
0.550223 0.713792 0.617461
0.568207 0.722012 0.622112
0.586372 0.730293 0.626807
0.604750 0.738863 0.631361
0.622646 0.747896 0.635163
0.638805 0.758248 0.636417
0.653950 0.769698 0.634901
0.669105 0.781242 0.631439
0.685013 0.792201 0.626609
0.702122 0.802355 0.621182
0.720251 0.811556 0.615611
0.738832 0.820021 0.609555
0.757687 0.827662 0.603253
0.776481 0.834592 0.596770
0.794997 0.840821 0.590594
0.813242 0.846445 0.584481
0.830646 0.851402 0.578588
0.847162 0.855916 0.572989
0.862665 0.859931 0.569236
0.876899 0.863080 0.567154
0.889834 0.866107 0.565851
0.901509 0.868849 0.564835
0.413596 0.665469 0.583245
0.425248 0.670519 0.586317
0.437678 0.675844 0.589862
0.450857 0.681665 0.593646
0.464788 0.687751 0.597487
0.479336 0.694159 0.601525
0.494740 0.701012 0.605674
0.510567 0.708126 0.610137
0.527102 0.715499 0.614510
0.544133 0.723132 0.619057
0.561616 0.731035 0.623685
0.579456 0.739199 0.628378
0.597605 0.747509 0.632936
0.615870 0.755949 0.637473
0.633134 0.765456 0.640456
0.648817 0.776241 0.640742
0.663722 0.787820 0.638555
0.678554 0.799606 0.634230
