gsg/03_Cinematic/GSG_LUT_Cinematic_AlienMovie.cube
# GSG LUTs 1.0
# Copyright (c) 2016-2020 Greyscalegorilla
# See EULA for licensing and distribution information
# Converted by Briz LUT Converter
LUT_3D_SIZE 8
DOMAIN_MIN 0.000000 0.000000 0.000000
DOMAIN_MAX 0.903226 0.903226 0.903226
0.007570 0.037851 0.053724
0.025050 0.048974 0.070133
0.046382 0.061381 0.088621
0.073016 0.075505 0.109866
0.108464 0.092505 0.135153
0.158903 0.113671 0.166686
0.237686 0.141392 0.207964
0.370310 0.178053 0.263051
0.011603 0.074733 0.085257
0.029603 0.085639 0.100870
0.051487 0.098019 0.118161
0.078822 0.112049 0.138268
0.115145 0.128772 0.162125
0.166628 0.149800 0.191748
0.246698 0.177273 0.230540
0.380886 0.213927 0.282091
0.015085 0.117185 0.118689
0.033637 0.128032 0.133286
0.056103 0.140210 0.149608
0.084415 0.154012 0.168191
0.121549 0.170672 0.190445
0.174247 0.191382 0.218085
0.255900 0.218709 0.254315
0.391689 0.255126 0.302397
0.017527 0.168026 0.155091
0.037005 0.178778 0.168549
0.060286 0.190728 0.183654
0.089398 0.204514 0.200859
0.127725 0.220899 0.221354
0.181746 0.241301 0.246755
0.265123 0.268258 0.280088
0.402978 0.304376 0.324591
0.018803 0.232526 0.196266
0.039175 0.243003 0.208389
0.063492 0.254709 0.221953
0.093828 0.268201 0.237487
0.133412 0.284294 0.256024
0.189226 0.304436 0.279000
0.274576 0.330860 0.309112
0.414762 0.366513 0.349963
0.017842 0.320501 0.244492
0.039395 0.330595 0.255110
0.065053 0.341984 0.266967
0.096969 0.355122 0.280557
0.138422 0.370680 0.296701
0.196376 0.390161 0.316956
0.284517 0.415932 0.343751
0.427564 0.450683 0.381078
0.012407 0.451904 0.303864
0.035795 0.461506 0.312805
0.063454 0.472252 0.322604
0.097643 0.484596 0.333995
0.141820 0.499263 0.347738
0.203163 0.517705 0.365111
0.295306 0.542022 0.388995
0.457053 0.570442 0.409958
0.001505 0.662247 0.379259
0.027930 0.670608 0.386564
0.058886 0.679822 0.394769
0.096978 0.690544 0.404545
0.150986 0.701618 0.411489
0.239229 0.710470 0.406524
0.370121 0.721173 0.398624
0.569336 0.736112 0.391620
0.008547 0.042128 0.074686
0.026059 0.053007 0.091402
0.047454 0.065170 0.110410
0.074268 0.079294 0.131950
0.109748 0.096033 0.157887
0.160432 0.116952 0.190098
0.239458 0.144252 0.232605
0.372327 0.180611 0.289007
0.012309 0.078825 0.106771
0.030340 0.089696 0.122876
0.052314 0.101808 0.140658
0.079840 0.115838 0.161046
0.116381 0.132317 0.185398
0.168041 0.153149 0.215796
0.248418 0.180298 0.255728
0.382851 0.216466 0.308808
0.015519 0.121218 0.140998
0.034293 0.132065 0.156028
0.056818 0.144015 0.172704
0.085179 0.157776 0.191822
0.122557 0.174205 0.214624
0.175478 0.194639 0.242897
0.257361 0.221545 0.280002
0.393456 0.257655 0.329621
0.017791 0.172078 0.178345
0.037334 0.182681 0.192142
0.060787 0.194517 0.207533
0.090008 0.208059 0.225216
0.128483 0.224288 0.246160
0.182754 0.244575 0.272331
0.266354 0.271191 0.306556
0.404474 0.306916 0.352414
0.018803 0.236433 0.220410
0.039313 0.246792 0.232919
0.063740 0.258461 0.246834
0.094134 0.271809 0.262728
0.133989 0.287644 0.281735
0.189930 0.307520 0.305319
0.275580 0.333696 0.336375
0.416022 0.369033 0.378467
0.017598 0.324290 0.269920
0.039258 0.334367 0.280954
0.065053 0.345641 0.293087
0.097003 0.358510 0.307054
0.138753 0.373961 0.323713
0.196896 0.393197 0.344457
0.285321 0.418733 0.372149
0.428572 0.453198 0.410515
0.012131 0.455638 0.331041
0.035522 0.465050 0.340226
0.063210 0.475715 0.350302
0.097624 0.487820 0.362085
0.142065 0.502368 0.376168
0.203430 0.520607 0.393989
0.295812 0.544656 0.418550
0.461762 0.571553 0.436674
0.001237 0.665299 0.408512
0.027694 0.673643 0.415901
0.058883 0.682855 0.424512
0.097064 0.693349 0.434330
0.154769 0.703046 0.438222
0.243424 0.711777 0.433509
0.374423 0.722426 0.426051
0.573441 0.737151 0.419813
0.009343 0.046713 0.098523
0.027067 0.057560 0.115759
0.048525 0.069645 0.135027
0.075560 0.083477 0.157147
0.111277 0.099957 0.183686
0.162182 0.120603 0.216757
0.241420 0.147560 0.260239
0.374644 0.183394 0.318390
0.012879 0.083383 0.131466
0.031317 0.094198 0.147841
0.053314 0.106134 0.166053
0.081051 0.119871 0.186975
0.117638 0.136350 0.211975
0.169542 0.156748 0.243136
0.250188 0.183579 0.284129
0.384967 0.219268 0.338726
0.016015 0.125803 0.166473
0.034852 0.136406 0.181764
0.057568 0.148246 0.198937
0.086148 0.161844 0.218499
0.123598 0.178037 0.241877
0.176730 0.198281 0.271001
0.258899 0.224877 0.309197
0.395392 0.260467 0.360146
0.018054 0.176549 0.204632
0.037737 0.187089 0.218884
0.061269 0.198742 0.234613
0.090701 0.212116 0.252774
0.129366 0.228155 0.274320
0.183859 0.248106 0.301219
0.267661 0.274377 0.336425
0.406032 0.309717 0.383715
0.018803 0.240774 0.247918
0.039423 0.251100 0.260734
0.063989 0.262595 0.274985
0.094534 0.275741 0.291362
0.134633 0.291384 0.310892
0.190786 0.311060 0.335191
0.276713 0.336965 0.367280
0.417401 0.371842 0.410566
0.017354 0.328590 0.298775
0.039127 0.338501 0.310107
0.065059 0.349552 0.322645
0.097175 0.362299 0.336933
0.139047 0.377568 0.354093
0.197457 0.396605 0.375568
0.286112 0.421772 0.404006
0.429801 0.456001 0.443500
0.011611 0.459686 0.361735
0.035092 0.469053 0.371106
0.063120 0.479523 0.381610
0.097493 0.491542 0.393595
0.142118 0.505840 0.408177
0.203845 0.523741 0.426614
0.296401 0.547503 0.451829
0.466840 0.572782 0.466639
0.000912 0.668896 0.441500
0.027450 0.677010 0.449102
0.058862 0.686104 0.457806
0.097072 0.696511 0.468036
0.159056 0.704723 0.468298
0.248244 0.713266 0.463613
0.379247 0.723683 0.456890
0.578201 0.738432 0.451202
0.010351 0.052093 0.126740
0.028300 0.062696 0.144496
0.049809 0.074552 0.164299
0.077018 0.088280 0.187015
0.112931 0.104573 0.214227
0.164134 0.124784 0.248273
0.243754 0.151349 0.293143
0.377408 0.186673 0.352963
0.013770 0.088731 0.160641
0.032108 0.099334 0.177382
0.054308 0.111127 0.196118
0.082212 0.124637 0.217598
0.119052 0.140722 0.243322
0.171292 0.160919 0.275395
0.252204 0.187273 0.317641
0.387456 0.222546 0.373988
0.016487 0.130939 0.196660
0.035513 0.141447 0.212275
0.058389 0.153108 0.229816
0.087046 0.166561 0.249997
0.124824 0.182516 0.274084
0.178213 0.202476 0.304067
0.260655 0.228666 0.343511
0.397548 0.263708 0.396201
0.018410 0.181685 0.235814
0.038083 0.192032 0.250317
0.061819 0.203549 0.266632
0.091411 0.216763 0.285261
0.130293 0.232509 0.307483
0.185054 0.252208 0.335273
0.269176 0.278100 0.371644
0.408024 0.312939 0.420418
0.018803 0.245910 0.280271
0.039537 0.255970 0.293403
0.064249 0.267328 0.308174
0.094989 0.280224 0.325194
0.135253 0.295695 0.345228
0.191671 0.315083 0.370365
0.277889 0.340573 0.403403
0.419025 0.375002 0.448246
0.017049 0.333461 0.332772
0.038923 0.343170 0.344470
0.065075 0.354138 0.357341
0.097357 0.366762 0.372188
0.139449 0.381770 0.389914
0.198072 0.400502 0.412071
0.287085 0.425373 0.441463
0.431053 0.459070 0.482231
0.010976 0.464270 0.397818
0.034635 0.473504 0.407387
0.062766 0.483821 0.418235
0.097493 0.495645 0.430780
0.142320 0.509755 0.445763
0.204305 0.527504 0.464812
0.297165 0.550895 0.490706
0.472930 0.574302 0.501707
0.000481 0.672803 0.480232
0.027198 0.680839 0.487963
0.058681 0.689771 0.496915
0.098620 0.699598 0.506075
0.164130 0.706670 0.503445
0.253874 0.714867 0.498861
0.384875 0.725199 0.492742
0.583626 0.739934 0.487787
0.011485 0.058514 0.162307
0.029572 0.068872 0.180504
0.051337 0.080578 0.200907
0.078640 0.094071 0.224357
0.114947 0.109985 0.252489
0.166395 0.129941 0.287636
0.246500 0.156025 0.334066
0.380559 0.190571 0.396033
0.014628 0.095151 0.197148
0.033144 0.105510 0.214407
0.055552 0.117060 0.233768
0.083650 0.130341 0.255963
0.120791 0.146237 0.282510
0.173309 0.165957 0.315702
0.254630 0.191902 0.359360
0.390344 0.226445 0.417829
0.017069 0.137359 0.234219
0.036229 0.147550 0.250534
0.059341 0.159084 0.268597
0.088201 0.172205 0.289446
0.126259 0.187908 0.314288
0.179955 0.207465 0.345370
0.262762 0.233125 0.386207
0.400039 0.267613 0.440919
0.018654 0.187861 0.274766
0.038489 0.197976 0.289828
0.062416 0.209325 0.306594
0.092210 0.222347 0.325963
0.131301 0.237851 0.348948
0.186425 0.257176 0.377675
0.271031 0.282618 0.415453
0.410237 0.316803 0.466100
0.018738 0.252020 0.320700
0.039553 0.261875 0.334404
0.064561 0.273030 0.349681
0.095506 0.285785 0.367200
0.136010 0.300949 0.388081
0.192781 0.319952 0.414134
0.279384 0.345003 0.448493
0.420844 0.378893 0.494904
0.016582 0.339297 0.375094
0.038693 0.348943 0.387183
0.064918 0.359731 0.400561
0.097455 0.372051 0.415956
0.139841 0.386782 0.434364
0.198819 0.405252 0.457396
0.288160 0.429649 0.487932
0.432583 0.462933 0.530036
0.010236 0.469810 0.442612
0.034140 0.478892 0.452633
0.062515 0.489069 0.463869
0.097377 0.500659 0.476793
0.142463 0.514503 0.492333
0.204814 0.531963 0.512040
0.298118 0.555048 0.538895
0.480383 0.575942 0.545062
0.000200 0.677624 0.527941
0.026953 0.685512 0.536075
0.058657 0.694383 0.545251
0.104352 0.702225 0.549404
0.170238 0.709076 0.547046
0.260684 0.716817 0.542459
0.391689 0.727047 0.537137
0.590094 0.741715 0.532876
0.012856 0.066777 0.210532
0.031226 0.076978 0.229391
0.053173 0.088377 0.250636
0.080848 0.101485 0.275062
0.117411 0.117158 0.304284
0.169302 0.136493 0.340958
0.249927 0.161897 0.389243
0.384726 0.195675 0.454055
0.015605 0.103415 0.246690
0.034369 0.113509 0.264751
0.057075 0.124771 0.284767
0.085517 0.137792 0.307870
0.122875 0.153318 0.335546
0.175822 0.172514 0.370129
0.257748 0.197778 0.415734
0.394016 0.231549 0.476787
0.017622 0.145465 0.285298
0.037095 0.155528 0.302096
0.060349 0.166693 0.320988
0.089620 0.179559 0.342771
0.128012 0.194792 0.368711
0.182133 0.213942 0.401079
0.265479 0.239025 0.443849
0.403402 0.272685 0.500993
0.018803 0.195967 0.327480
0.038944 0.205829 0.343111
0.063098 0.216897 0.360667
0.093277 0.229554 0.380779
0.132709 0.244694 0.404836
0.188168 0.263579 0.434902
0.273284 0.288328 0.474256
0.413086 0.321903 0.527230
0.018596 0.259947 0.375409
0.039553 0.269594 0.389707
0.064808 0.280422 0.405629
0.096043 0.292883 0.423930
0.136988 0.307731 0.445721
0.194087 0.326209 0.472942
0.281248 0.350701 0.508879
0.423288 0.383985 0.557369
0.015874 0.346945 0.432132
0.038204 0.356407 0.444734
0.064760 0.366843 0.458810
0.097672 0.378928 0.474866
0.140384 0.393338 0.494122
0.199708 0.411304 0.518154
0.289637 0.435266 0.550013
0.434527 0.467871 0.594000
0.009319 0.477065 0.502718
0.033471 0.485825 0.513214
0.062072 0.495782 0.524954
0.097270 0.507097 0.538463
0.142697 0.520678 0.554677
0.205467 0.537730 0.575245
0.299323 0.560325 0.603107
0.490205 0.578197 0.602617
0.000127 0.683981 0.591792
0.026699 0.691599 0.600184
0.060264 0.699758 0.608244
0.112317 0.705440 0.606838
0.178835 0.711915 0.604585
0.269721 0.719398 0.600573
0.400725 0.729355 0.595917
0.598869 0.744120 0.592482
0.014542 0.078593 0.283304
0.033243 0.088439 0.303202
0.055623 0.099429 0.325473
0.083690 0.112017 0.351176
0.120732 0.127118 0.382008
0.173284 0.145803 0.420548
0.254729 0.170164 0.471697
0.390371 0.202810 0.540239
0.016858 0.114987 0.321297
0.036023 0.124833 0.340176
0.058997 0.135772 0.361379
0.087808 0.148267 0.385790
0.125684 0.163160 0.414971
0.179282 0.181693 0.451581
0.262019 0.206056 0.499772
0.399187 0.238685 0.564461
0.018323 0.156991 0.361906
0.038113 0.166745 0.379720
0.061795 0.177489 0.399660
0.091379 0.189947 0.422642
0.130315 0.204687 0.449974
0.185016 0.223120 0.484283
0.269115 0.247236 0.529483
0.407967 0.279833 0.589888
0.018919 0.207379 0.406509
0.039386 0.216862 0.423027
0.063871 0.227561 0.441555
0.094450 0.239818 0.462804
0.134515 0.254417 0.488232
0.190539 0.272586 0.519944
0.276407 0.296610 0.561766
0.417099 0.329054 0.617796
0.018091 0.271117 0.457051
0.039443 0.280468 0.472169
0.065038 0.290913 0.488976
0.096730 0.302926 0.508355
0.138152 0.317245 0.531430
0.195849 0.335114 0.560298
0.283761 0.358828 0.598311
0.426561 0.391140 0.649491
0.014896 0.357808 0.517125
0.037486 0.366947 0.530450
0.064385 0.377085 0.545299
0.097759 0.388749 0.562328
0.140976 0.402641 0.582728
0.201004 0.420036 0.608103
0.291614 0.443232 0.641865
0.437394 0.475033 0.687872
0.007877 0.487250 0.591788
0.032335 0.495849 0.602942
0.061386 0.505375 0.615306
0.097121 0.516332 0.629619
0.143092 0.529464 0.646661
0.206503 0.545918 0.668238
0.306360 0.566193 0.692325
0.504104 0.581382 0.687252
0.000029 0.692870 0.685654
0.028121 0.699796 0.692876
0.071476 0.704629 0.692310
0.123926 0.709960 0.691340
0.191757 0.715721 0.688762
0.282806 0.722880 0.685622
0.413773 0.732753 0.681991
0.611410 0.747570 0.679403
0.016779 0.096231 0.403876
0.035756 0.105581 0.425279
0.058874 0.115995 0.449149
0.087518 0.128008 0.476670
0.125437 0.142137 0.509925
0.178913 0.159794 0.551499
0.261475 0.182827 0.606604
0.398574 0.213563 0.680522
0.018079 0.132624 0.444686
0.037823 0.141921 0.465049
0.061463 0.152145 0.487799
0.090822 0.163937 0.513978
0.129606 0.178038 0.545427
0.184137 0.195530 0.584818
0.267983 0.218552 0.636813
0.406596 0.249465 0.706392
0.018803 0.174507 0.488353
0.039080 0.183615 0.507450
0.063506 0.193800 0.528916
0.093704 0.205523 0.553582
0.133379 0.219465 0.583168
0.189112 0.236866 0.620070
0.274415 0.259716 0.668830
0.414654 0.290783 0.733759
0.018709 0.224516 0.536168
0.039553 0.233604 0.554113
0.064719 0.243626 0.574044
0.096002 0.255240 0.596995
0.136788 0.268959 0.624299
0.193810 0.286212 0.658529
0.280862 0.309064 0.703551
0.422735 0.340020 0.763570
0.016889 0.287967 0.590688
0.038866 0.296821 0.607052
0.064991 0.306734 0.625246
0.097387 0.318087 0.646085
0.139594 0.331579 0.670948
0.198361 0.348572 0.702043
0.287414 0.371178 0.742777
0.431607 0.402084 0.797462
0.012935 0.374194 0.655457
0.036121 0.382788 0.669913
0.063683 0.392310 0.685868
0.097662 0.403387 0.704252
0.141766 0.416621 0.726118
0.202835 0.433160 0.753330
0.294594 0.455244 0.789265
0.452119 0.482486 0.827668
0.005672 0.502682 0.735881
0.030777 0.510807 0.747681
0.060429 0.519808 0.760988
0.096772 0.530273 0.776197
0.143651 0.542667 0.794437
0.208131 0.558386 0.817328
0.325375 0.572620 0.826963
0.525768 0.586488 0.821905
0.007670 0.703144 0.826719
0.045406 0.707251 0.826690
0.089763 0.711431 0.826191
0.143857 0.716019 0.824754
0.212067 0.721476 0.822996
0.303352 0.728552 0.820801
0.434141 0.738181 0.818218
0.631054 0.753218 0.816070
