gsg/03_Cinematic/GSG_LUT_Cinematic_DustyStorm.cube
# GSG LUTs 1.0
# Copyright (c) 2016-2020 Greyscalegorilla
# See EULA for licensing and distribution information
# Converted by Briz LUT Converter
LUT_3D_SIZE 8
DOMAIN_MIN 0.000000 0.000000 0.000000
DOMAIN_MAX 0.903226 0.903226 0.903226
0.007814 0.007814 0.007814
0.072984 0.016732 0.011312
0.131443 0.027792 0.019410
0.201639 0.037276 0.025413
0.281059 0.041806 0.033369
0.375383 0.040096 0.041341
0.486715 0.013470 0.054016
0.604222 0.000000 0.062492
0.027862 0.048344 0.013959
0.072816 0.054796 0.016948
0.130206 0.057625 0.020918
0.200236 0.061892 0.028562
0.280553 0.064239 0.034958
0.372910 0.061589 0.043910
0.481593 0.049258 0.056046
0.597285 0.019646 0.066087
0.038324 0.075639 0.020166
0.083223 0.083620 0.023326
0.133891 0.090274 0.027262
0.198689 0.095874 0.033299
0.279317 0.096801 0.039230
0.370742 0.094738 0.046515
0.479173 0.086897 0.059109
0.594922 0.077402 0.065515
0.061412 0.109465 0.027272
0.091356 0.118899 0.028432
0.141428 0.125269 0.032949
0.201490 0.135292 0.037924
0.281101 0.136402 0.044513
0.372521 0.139829 0.052242
0.479531 0.135728 0.058787
0.593118 0.132752 0.067841
0.074450 0.147276 0.036417
0.107070 0.156317 0.034940
0.150649 0.166734 0.038464
0.214800 0.176776 0.043112
0.284923 0.188560 0.047702
0.374367 0.193053 0.053789
0.481532 0.192188 0.060224
0.594911 0.191650 0.068518
0.080302 0.191626 0.036591
0.114987 0.200404 0.039105
0.163842 0.212533 0.042649
0.225011 0.226620 0.045313
0.297365 0.239628 0.050646
0.381605 0.251406 0.054089
0.484164 0.255784 0.059695
0.596638 0.257970 0.063212
0.092804 0.241514 0.039537
0.121372 0.254117 0.040363
0.170652 0.265884 0.042630
0.236079 0.279253 0.044889
0.310091 0.295288 0.047130
0.395454 0.310499 0.050932
0.489254 0.325055 0.053529
0.602502 0.330937 0.056362
0.092339 0.295923 0.035567
0.127314 0.308436 0.037402
0.178817 0.322192 0.038215
0.245491 0.339483 0.040045
0.324132 0.354615 0.039338
0.409990 0.373360 0.040489
0.504480 0.390067 0.039730
0.607005 0.408954 0.044119
0.022994 0.016606 0.043050
0.051245 0.019835 0.035440
0.101510 0.027076 0.025687
0.166067 0.034411 0.022989
0.238320 0.041052 0.030817
0.326407 0.041965 0.038297
0.428989 0.036501 0.049696
0.539539 0.011942 0.059782
0.023937 0.049616 0.032946
0.095494 0.081651 0.068704
0.146811 0.080467 0.061610
0.219147 0.083918 0.056707
0.300701 0.081793 0.052218
0.398395 0.078838 0.053228
0.507558 0.069649 0.058174
0.629420 0.046590 0.067291
0.043306 0.082180 0.036749
0.104411 0.110457 0.071185
0.153293 0.121192 0.066493
0.221930 0.123477 0.059140
0.302916 0.123653 0.057209
0.399455 0.121436 0.056655
0.509271 0.114904 0.059681
0.626960 0.108790 0.067715
0.058511 0.115255 0.038791
0.115766 0.148766 0.073111
0.163424 0.160933 0.066692
0.226532 0.169228 0.061276
0.306021 0.172831 0.060343
0.402249 0.174076 0.059022
0.510051 0.174370 0.062444
0.628531 0.169463 0.069831
0.075795 0.153271 0.045386
0.125341 0.191680 0.074739
0.172804 0.204253 0.067899
0.238524 0.215830 0.063512
0.311228 0.228487 0.060066
0.404687 0.232399 0.061609
0.514039 0.233148 0.062791
0.630656 0.234151 0.067134
0.083353 0.196792 0.051191
0.132924 0.241466 0.076362
0.183775 0.254787 0.068239
0.250234 0.267975 0.063129
0.323763 0.283332 0.059109
0.411035 0.297699 0.056380
0.518942 0.301904 0.057293
0.633712 0.305275 0.063127
0.094944 0.247477 0.051104
0.138375 0.298166 0.071858
0.193441 0.313057 0.064175
0.261417 0.327886 0.059605
0.337661 0.344165 0.053464
0.424761 0.361037 0.049099
0.521902 0.377730 0.045697
0.637714 0.383334 0.049639
0.095079 0.301003 0.048964
0.143850 0.358101 0.066814
0.204249 0.375257 0.056462
0.269513 0.391438 0.048183
0.349503 0.409348 0.038257
0.442505 0.427293 0.031817
0.539664 0.446846 0.024382
0.643385 0.464003 0.026641
0.030761 0.019788 0.073993
0.040475 0.024309 0.064935
0.078236 0.026879 0.053942
0.133099 0.035672 0.044574
0.198219 0.041303 0.039942
0.279871 0.044979 0.038357
0.372891 0.043565 0.042543
0.480122 0.021207 0.053935
0.033150 0.053958 0.057478
0.085623 0.081609 0.098330
0.123669 0.088740 0.088550
0.184777 0.090075 0.081349
0.260741 0.088880 0.076470
0.350098 0.087558 0.070195
0.453250 0.080635 0.068309
0.566931 0.067318 0.070531
0.043075 0.086590 0.051319
0.105928 0.117410 0.088807
0.179799 0.152403 0.126271
0.250402 0.153732 0.116324
0.331618 0.156365 0.108476
0.428409 0.155829 0.101891
0.539377 0.152355 0.097840
0.660468 0.144838 0.095074
0.061200 0.119600 0.052466
0.118962 0.154788 0.089407
0.191912 0.196187 0.126590
0.257246 0.209722 0.120934
0.340733 0.211862 0.112821
0.436947 0.214495 0.104751
0.546885 0.214757 0.098872
0.666857 0.212493 0.095779
0.079485 0.157154 0.057110
0.122799 0.199780 0.089542
0.201328 0.245315 0.128612
0.271063 0.260624 0.121852
0.344862 0.274882 0.111771
0.440925 0.277573 0.103959
0.551685 0.279595 0.097806
0.668991 0.281761 0.092168
0.085658 0.202646 0.059518
0.134869 0.248292 0.091230
0.213424 0.302018 0.129784
0.281480 0.317693 0.121364
0.357375 0.333436 0.111241
0.447461 0.348754 0.100565
0.555096 0.354375 0.093324
0.674237 0.356270 0.087425
0.090819 0.253940 0.058900
0.140488 0.305465 0.087798
0.223277 0.363775 0.126915
0.293434 0.381983 0.119059
0.372815 0.398748 0.106844
0.460944 0.416938 0.092574
0.559554 0.433859 0.084545
0.676348 0.440093 0.075221
0.092841 0.311241 0.055263
0.141708 0.367735 0.082637
0.224562 0.431188 0.126835
0.300553 0.451271 0.112404
0.385542 0.469278 0.096460
0.474709 0.487811 0.084475
0.575697 0.506614 0.070204
0.680263 0.527316 0.055251
0.052787 0.024948 0.104723
0.045609 0.024508 0.095658
0.068870 0.030398 0.086958
0.109838 0.033305 0.077239
0.165768 0.041974 0.066944
0.236061 0.048751 0.061987
0.322987 0.049102 0.056101
0.420073 0.042324 0.058174
0.044744 0.056848 0.092876
0.085927 0.085809 0.132965
0.117861 0.089515 0.121341
0.159097 0.092245 0.111855
0.222895 0.094078 0.103411
0.303171 0.094529 0.096701
0.399432 0.089212 0.092030
0.504755 0.081338 0.087881
0.048417 0.092233 0.077419
0.100390 0.122188 0.117549
0.170809 0.159043 0.163415
0.220858 0.163182 0.156188
0.295160 0.162712 0.144190
0.384676 0.164440 0.134697
0.489198 0.163235 0.126431
0.602804 0.157724 0.121583
0.063712 0.125000 0.069201
0.116720 0.160705 0.106486
0.191876 0.206340 0.152244
0.293777 0.254183 0.208616
0.376804 0.257417 0.195748
0.475313 0.258956 0.183532
0.585494 0.259064 0.171548
0.703075 0.259964 0.160270
0.079576 0.162261 0.070026
0.125061 0.205983 0.105267
0.203289 0.255887 0.153760
0.307521 0.310668 0.211275
0.386526 0.328517 0.202834
0.485108 0.331207 0.188538
0.595613 0.334196 0.175428
0.713315 0.336942 0.163619
0.086999 0.209445 0.071844
0.134715 0.256979 0.106512
0.214417 0.311261 0.153661
0.318634 0.373391 0.213522
0.399611 0.392542 0.204729
0.490724 0.407721 0.190570
0.600697 0.413166 0.176123
0.717041 0.417789 0.164412
0.094486 0.260607 0.070667
0.140776 0.313571 0.106352
0.222144 0.375041 0.154771
0.330655 0.440953 0.215307
0.413484 0.463221 0.204309
0.504912 0.480645 0.188534
0.603694 0.498088 0.174003
0.721242 0.505701 0.159844
0.092587 0.318648 0.065762
0.145025 0.376740 0.102163
0.228568 0.442895 0.154789
0.336756 0.513358 0.216713
0.425037 0.535733 0.204404
0.519149 0.554993 0.186302
0.619423 0.574586 0.169364
0.724184 0.595175 0.151498
0.068857 0.029139 0.138871
0.061419 0.031072 0.128185
0.072192 0.031525 0.117283
0.099723 0.037390 0.106619
0.140658 0.041192 0.096768
0.201460 0.049434 0.088724
0.280169 0.051942 0.080804
0.370425 0.048546 0.076470
0.061530 0.058248 0.124088
0.086993 0.089236 0.176135
0.113781 0.092794 0.161013
0.150216 0.094306 0.147967
0.194204 0.098434 0.135781
0.266375 0.099574 0.126549
0.352569 0.097591 0.118504
0.452099 0.092472 0.111968
0.061771 0.094668 0.106755
0.102002 0.126679 0.154021
0.164766 0.159976 0.213632
0.212107 0.167560 0.199569
0.262981 0.169723 0.186765
0.343513 0.169824 0.173804
0.439195 0.170308 0.162342
0.545172 0.168726 0.152557
0.072474 0.130597 0.093445
0.114803 0.168017 0.135962
0.186183 0.212438 0.193742
0.283203 0.261778 0.261228
0.345926 0.268364 0.253385
0.435162 0.269365 0.236005
0.539412 0.271398 0.220450
0.652446 0.272031 0.207823
0.080950 0.169436 0.085373
0.126116 0.212441 0.124646
0.204566 0.263830 0.177462
0.307907 0.322506 0.248257
0.425518 0.379883 0.322836
0.526964 0.386175 0.304534
0.637509 0.389525 0.285192
0.754384 0.392152 0.268511
0.088777 0.215314 0.085228
0.136573 0.263846 0.124569
0.214621 0.319671 0.177976
0.322289 0.386163 0.250253
0.441996 0.452267 0.327561
0.537457 0.471186 0.315424
0.649531 0.477030 0.296266
0.765973 0.481782 0.277217
0.094807 0.268816 0.084043
0.142649 0.323344 0.124369
0.222212 0.383998 0.179133
0.330204 0.454518 0.252757
0.454099 0.525050 0.331932
0.551132 0.547627 0.319418
0.652780 0.566682 0.299920
0.768112 0.572385 0.280428
0.096491 0.325321 0.080240
0.143633 0.386063 0.123729
0.227066 0.453384 0.179336
0.340700 0.526758 0.254597
0.466756 0.600782 0.336030
0.564636 0.625763 0.322954
0.666055 0.645689 0.301531
0.770745 0.664204 0.282582
0.079972 0.032053 0.184143
0.075313 0.035336 0.171039
0.075519 0.036412 0.158140
0.100156 0.037694 0.143899
0.130679 0.043865 0.130447
0.174155 0.048310 0.119844
0.240562 0.054281 0.109374
0.324694 0.053297 0.102909
0.073845 0.063898 0.164785
0.092958 0.091292 0.226273
0.110639 0.094209 0.211472
0.143660 0.096521 0.194575
0.186131 0.099791 0.178196
0.234646 0.103562 0.165546
0.310414 0.105186 0.152469
0.400853 0.100219 0.144028
0.074000 0.098494 0.144848
0.102766 0.129303 0.203122
0.153029 0.165777 0.272661
0.203329 0.169225 0.256398
0.254483 0.172998 0.237829
0.308906 0.176508 0.222285
0.394144 0.178925 0.206919
0.493549 0.177032 0.194085
0.079441 0.135034 0.125264
0.113051 0.173674 0.178726
0.175344 0.218181 0.247949
0.268973 0.265404 0.329929
0.332072 0.273875 0.314245
0.395874 0.278970 0.295956
0.490213 0.280409 0.278140
0.597844 0.281671 0.260750
0.086074 0.175213 0.112626
0.125180 0.220587 0.160486
0.197638 0.271343 0.223973
0.296189 0.331816 0.307425
0.412221 0.390327 0.393988
0.488345 0.400578 0.383464
0.593212 0.403806 0.360806
0.706987 0.406644 0.339099
0.093352 0.222843 0.098591
0.138202 0.271508 0.146237
0.214624 0.329031 0.206037
0.319735 0.394934 0.285231
0.443170 0.466372 0.378233
0.577643 0.534982 0.471757
0.690594 0.542875 0.451264
0.806970 0.546883 0.426235
0.095354 0.275552 0.100194
0.143540 0.331340 0.144239
0.223126 0.393283 0.206938
0.332233 0.463792 0.286558
0.456193 0.541152 0.380233
0.594656 0.617166 0.481060
0.701503 0.640774 0.468801
0.815461 0.646275 0.442668
0.097590 0.335086 0.097883
0.142095 0.395578 0.143646
0.226411 0.462239 0.209598
0.338447 0.538127 0.289999
0.468209 0.616345 0.386000
0.608516 0.694795 0.487855
0.713506 0.720161 0.475050
0.816510 0.738467 0.450034
0.088542 0.036339 0.237473
0.086385 0.037883 0.220180
0.084213 0.037583 0.204487
0.098596 0.039508 0.187523
0.125925 0.043803 0.173269
0.166700 0.047597 0.157219
0.213151 0.055786 0.146507
0.284958 0.056015 0.135284
0.083600 0.066363 0.212288
0.089668 0.093569 0.285640
0.104021 0.097411 0.269285
0.136894 0.097642 0.249381
0.177708 0.102432 0.229113
0.224470 0.105181 0.213011
0.280106 0.105796 0.197447
0.361764 0.106696 0.183785
0.083895 0.100847 0.189438
0.096680 0.134137 0.260488
0.143349 0.168013 0.340986
0.188515 0.172687 0.324567
0.241070 0.176003 0.301590
0.297389 0.180563 0.280379
0.359313 0.183412 0.263084
0.448451 0.185375 0.245551
0.090135 0.140862 0.167482
0.112305 0.179442 0.231358
0.165823 0.224294 0.312975
0.248572 0.271171 0.408065
0.314901 0.277306 0.391335
0.381702 0.284310 0.365013
0.451012 0.289589 0.344346
0.548662 0.291690 0.323871
0.094028 0.183012 0.148061
0.121710 0.227867 0.207188
0.185159 0.280391 0.282323
0.278308 0.339097 0.379290
0.388704 0.396556 0.481680
0.470067 0.407675 0.462913
0.546618 0.413377 0.439635
0.652874 0.416718 0.414499
0.097900 0.230513 0.133046
0.136153 0.282046 0.186364
0.204895 0.339044 0.257266
0.305961 0.405080 0.348089
0.425324 0.477096 0.453451
0.557895 0.548380 0.563861
0.648054 0.560246 0.549786
0.758647 0.564476 0.522405
0.098613 0.284096 0.119957
0.143782 0.340901 0.170128
0.221136 0.403608 0.238185
0.329138 0.475628 0.325073
0.452579 0.552468 0.426678
0.595057 0.634007 0.545690
0.737646 0.710632 0.657719
0.852696 0.718417 0.634286
0.100991 0.344386 0.113459
0.147183 0.404559 0.169846
0.225907 0.472755 0.237014
0.336576 0.548918 0.326714
0.465499 0.628859 0.429631
0.608286 0.713308 0.550026
0.754754 0.791838 0.669690
0.859658 0.813657 0.655178
0.089826 0.040742 0.299831
0.084264 0.042548 0.280101
0.088177 0.041833 0.260236
0.097734 0.041758 0.241652
0.120974 0.046361 0.222804
0.156125 0.051923 0.204269
0.201639 0.054402 0.189268
0.252983 0.057992 0.175210
0.085720 0.069631 0.269689
0.080881 0.097546 0.356414
0.096052 0.099497 0.337350
0.126459 0.099270 0.314325
0.165119 0.101615 0.292189
0.213951 0.105610 0.269352
0.267988 0.108326 0.251636
0.325593 0.112076 0.234880
0.090252 0.103996 0.244761
0.092555 0.137547 0.326376
0.122262 0.172696 0.418803
0.167434 0.176477 0.401562
0.223567 0.177303 0.375151
0.283235 0.182498 0.349653
0.345056 0.186635 0.325782
0.410688 0.191269 0.307130
0.094471 0.144903 0.215732
0.106292 0.184799 0.292741
0.146454 0.228478 0.387916
0.223830 0.276543 0.494304
0.288828 0.282071 0.478398
0.361502 0.287012 0.448117
0.433273 0.292628 0.419947
0.507378 0.298180 0.396970
0.101714 0.188937 0.192952
0.121122 0.235084 0.263514
0.170238 0.286488 0.352862
0.254645 0.346216 0.463612
0.358588 0.403445 0.576717
0.444461 0.411782 0.558682
0.527341 0.418933 0.525535
0.607289 0.425179 0.499386
0.107586 0.238354 0.172047
0.130639 0.290445 0.237921
0.191596 0.348761 0.320187
0.283894 0.416343 0.424370
0.396680 0.487391 0.543262
0.527019 0.554543 0.664455
0.624789 0.566945 0.646328
0.709035 0.574997 0.617108
0.106681 0.292769 0.153514
0.139121 0.350548 0.214802
0.210526 0.414586 0.292987
0.309944 0.488549 0.392318
0.430815 0.565685 0.503716
0.569009 0.646370 0.633626
0.713840 0.722649 0.759607
0.807165 0.735807 0.742031
0.102543 0.352989 0.137040
0.141642 0.416575 0.193975
0.223770 0.483574 0.270979
0.333427 0.561240 0.367570
0.460210 0.641749 0.476780
0.606052 0.724487 0.602776
0.753483 0.807557 0.738305
0.886538 0.878624 0.851337
