gsg/03_Cinematic/GSG_LUT_Cinematic_LosAngelesHaze.cube
# GSG LUTs 1.0
# Copyright (c) 2016-2020 Greyscalegorilla
# See EULA for licensing and distribution information
# Converted by Briz LUT Converter
LUT_3D_SIZE 5
DOMAIN_MIN 0.000000 0.000000 0.000000
DOMAIN_MAX 0.903226 0.903226 0.903226
0.050794 0.050794 0.050794
0.197133 0.062436 0.050794
0.379873 0.070267 0.050794
0.575541 0.051581 0.050794
0.778408 0.050794 0.050794
0.070259 0.168821 0.050794
0.208039 0.208898 0.050794
0.390259 0.236981 0.050794
0.588602 0.257151 0.050794
0.792112 0.278488 0.050794
0.057686 0.319241 0.050794
0.230952 0.359686 0.050794
0.401027 0.403907 0.050794
0.601146 0.436019 0.050794
0.808465 0.464928 0.050794
0.050794 0.476450 0.050794
0.243972 0.524580 0.050794
0.430774 0.572425 0.050794
0.613708 0.620874 0.050794
0.823695 0.654424 0.050794
0.050794 0.645248 0.050794
0.245941 0.695396 0.050794
0.451589 0.744554 0.050794
0.645028 0.795242 0.050794
0.834822 0.844603 0.050794
0.057734 0.094923 0.144890
0.113827 0.058547 0.090041
0.279888 0.069638 0.088573
0.464079 0.071763 0.086576
0.663397 0.054104 0.079188
0.054571 0.135886 0.118513
0.238040 0.228823 0.212202
0.420814 0.254867 0.212088
0.618590 0.280403 0.209402
0.826614 0.298465 0.206011
0.053650 0.274134 0.114689
0.265219 0.380568 0.210254
0.440375 0.428155 0.213369
0.640640 0.459535 0.208307
0.849947 0.488209 0.200158
0.050872 0.431545 0.091551
0.281837 0.545315 0.198898
0.468178 0.596639 0.196347
0.653566 0.645070 0.186282
0.863821 0.679053 0.173176
0.050794 0.596959 0.054365
0.287856 0.716087 0.170082
0.492839 0.770506 0.159908
0.685654 0.820962 0.134816
0.876441 0.870349 0.102442
0.056347 0.158415 0.259096
0.122297 0.107960 0.201943
0.188096 0.064501 0.147637
0.360251 0.070306 0.145098
0.551809 0.056818 0.142964
0.053144 0.195821 0.232208
0.247899 0.291840 0.333522
0.328919 0.246359 0.281907
0.515035 0.266985 0.277974
0.717724 0.288620 0.276771
0.053091 0.238418 0.206035
0.252572 0.344591 0.312746
0.472436 0.450500 0.416909
0.675158 0.480492 0.417549
0.884668 0.510015 0.416516
0.050794 0.385801 0.201056
0.268822 0.500653 0.308530
0.505562 0.618390 0.418443
0.696637 0.670336 0.422233
0.908122 0.704350 0.420579
0.050794 0.548269 0.189226
0.275797 0.669298 0.299908
0.532084 0.792450 0.411668
0.728741 0.847153 0.414223
0.921186 0.895685 0.410079
0.050794 0.225586 0.384080
0.125718 0.171510 0.321818
0.195108 0.117366 0.259971
0.267722 0.067414 0.204514
0.442972 0.068857 0.201670
0.050794 0.263181 0.354447
0.257117 0.363200 0.461297
0.337808 0.309895 0.404931
0.414671 0.256476 0.343730
0.602754 0.276862 0.340202
0.050794 0.302174 0.325251
0.258930 0.411849 0.439345
0.484594 0.519380 0.550895
0.577321 0.469532 0.497015
0.775494 0.495554 0.492976
0.050794 0.347480 0.296713
0.253064 0.459339 0.411032
0.492186 0.579364 0.531803
0.732054 0.693457 0.644253
0.942834 0.727529 0.645462
0.050794 0.500824 0.292851
0.261719 0.619777 0.405778
0.516179 0.745173 0.527828
0.768976 0.868995 0.645848
0.964338 0.922185 0.652833
0.050794 0.292576 0.513104
0.118261 0.237867 0.446717
0.202497 0.182962 0.381740
0.274803 0.125102 0.318501
0.344454 0.070640 0.260732
0.050794 0.332171 0.482513
0.256905 0.436435 0.595762
0.347493 0.382870 0.535426
0.424323 0.321556 0.467566
0.498865 0.264661 0.404834
0.050794 0.373017 0.452173
0.261772 0.486297 0.572223
0.498431 0.597278 0.689161
0.586395 0.540913 0.628435
0.665594 0.481225 0.563331
0.050794 0.412352 0.421505
0.255792 0.527938 0.541400
0.502292 0.651841 0.666848
0.745015 0.767512 0.784802
0.838755 0.713552 0.727721
0.050794 0.459384 0.391875
0.244484 0.576150 0.511398
0.497316 0.700991 0.636039
0.753074 0.828022 0.764083
0.988745 0.945142 0.882337
