gsg/03_Cinematic/GSG_LUT_Cinematic_LosAngelesHaze.cube
# GSG LUTs 1.0
# Copyright (c) 2016-2020 Greyscalegorilla
# See EULA for licensing and distribution information
# Converted by Briz LUT Converter
LUT_3D_SIZE 32
0.050794 0.050794 0.050794
0.063382 0.052802 0.050794
0.083516 0.054567 0.050794
0.106889 0.056379 0.050794
0.129481 0.058553 0.050794
0.151373 0.060026 0.050794
0.173335 0.061286 0.050794
0.197133 0.062436 0.050794
0.223097 0.063697 0.050794
0.249273 0.066399 0.050794
0.275915 0.068526 0.050794
0.301690 0.069093 0.050794
0.325952 0.070227 0.050794
0.351640 0.071952 0.050794
0.379873 0.070267 0.050794
0.405861 0.072315 0.050794
0.430564 0.075844 0.050794
0.457734 0.073087 0.050794
0.486392 0.066076 0.050794
0.514932 0.061507 0.050794
0.546158 0.055835 0.050794
0.575541 0.051581 0.050794
0.602324 0.052700 0.050794
0.631510 0.059096 0.050794
0.661759 0.055378 0.050794
0.691221 0.051558 0.050794
0.720052 0.050833 0.050794
0.748789 0.050794 0.050794
0.778408 0.050794 0.050794
0.808153 0.050794 0.050794
0.839316 0.050794 0.050794
0.873504 0.050794 0.050794
0.052818 0.061507 0.050794
0.065381 0.066676 0.050794
0.083710 0.068482 0.050794
0.105814 0.070224 0.050794
0.129839 0.073477 0.050794
0.152449 0.075219 0.050794
0.175969 0.077931 0.050794
0.199898 0.079965 0.050794
0.223843 0.082136 0.050794
0.248429 0.087047 0.050794
0.275059 0.089576 0.050794
0.302183 0.089777 0.050794
0.327987 0.091405 0.050794
0.353628 0.094869 0.050794
0.380568 0.094699 0.050794
0.406368 0.097501 0.050794
0.432243 0.101977 0.050794
0.460140 0.100806 0.050794
0.488886 0.095593 0.050794
0.517553 0.093633 0.050794
0.547104 0.091862 0.050794
0.576040 0.089800 0.050794
0.604319 0.090523 0.050794
0.633489 0.095795 0.050794
0.661817 0.096374 0.050794
0.690784 0.093897 0.050794
0.720854 0.089124 0.050794
0.751091 0.080814 0.050794
0.780911 0.081355 0.050794
0.810430 0.077943 0.050794
0.841325 0.072801 0.050794
0.874528 0.070550 0.050794
0.055024 0.076301 0.050794
0.068650 0.080944 0.050794
0.085236 0.084557 0.050794
0.106060 0.087654 0.050794
0.131449 0.090191 0.050794
0.154637 0.092930 0.050794
0.177587 0.096715 0.050794
0.200920 0.100027 0.050794
0.224853 0.103060 0.050794
0.249475 0.108032 0.050794
0.276690 0.111819 0.050794
0.303594 0.113663 0.050794
0.329307 0.114971 0.050794
0.355462 0.117648 0.050794
0.381417 0.120024 0.050794
0.407530 0.122268 0.050794
0.434518 0.124809 0.050794
0.462474 0.125923 0.050794
0.490534 0.125262 0.050794
0.518479 0.126328 0.050794
0.546934 0.127268 0.050794
0.576189 0.127030 0.050794
0.605883 0.127211 0.050794
0.636035 0.128806 0.050794
0.663485 0.129682 0.050794
0.692508 0.127933 0.050794
0.722825 0.124846 0.050794
0.752612 0.122142 0.050794
0.782859 0.119867 0.050794
0.812445 0.118280 0.050794
0.842869 0.115608 0.050794
0.876041 0.109417 0.050794
0.056072 0.093718 0.050794
0.072664 0.096861 0.050794
0.088580 0.102148 0.050794
0.107945 0.107153 0.050794
0.132999 0.110310 0.050794
0.156717 0.113222 0.050794
0.179327 0.117804 0.050794
0.202471 0.121931 0.050794
0.227081 0.124942 0.050794
0.251581 0.129373 0.050794
0.278744 0.133877 0.050794
0.305009 0.137202 0.050794
0.330335 0.138932 0.050794
0.357096 0.141206 0.050794
0.383054 0.144994 0.050794
0.409628 0.147048 0.050794
0.436730 0.148227 0.050794
0.463981 0.150656 0.050794
0.491567 0.153397 0.050794
0.519098 0.156262 0.050794
0.547769 0.158447 0.050794
0.577360 0.159622 0.050794
0.607311 0.159840 0.050794
0.637968 0.159017 0.050794
0.666156 0.158909 0.050794
0.695091 0.159162 0.050794
0.724592 0.160083 0.050794
0.753219 0.162672 0.050794
0.784412 0.158719 0.050794
0.814462 0.159975 0.050794
0.844712 0.161435 0.050794
0.877435 0.156438 0.050794
0.055851 0.111426 0.050794
0.075853 0.115355 0.050794
0.092842 0.120654 0.050794
0.111158 0.127129 0.050794
0.133834 0.133949 0.050794
0.157675 0.135907 0.050794
0.181818 0.140836 0.050794
0.206319 0.144757 0.050794
0.230677 0.146629 0.050794
0.253690 0.150955 0.050794
0.279653 0.155045 0.050794
0.306050 0.158369 0.050794
0.331900 0.161839 0.050794
0.358462 0.165728 0.050794
0.385603 0.168314 0.050794
0.412290 0.171856 0.050794
0.438270 0.174597 0.050794
0.464581 0.176137 0.050794
0.491882 0.178673 0.050794
0.520340 0.181081 0.050794
0.550816 0.182901 0.050794
0.580629 0.184789 0.050794
0.609249 0.186459 0.050794
0.638608 0.187206 0.050794
0.668674 0.187366 0.050794
0.697734 0.191116 0.050794
0.725659 0.195184 0.050794
0.753732 0.193522 0.050794
0.785397 0.191948 0.050794
0.816622 0.192619 0.050794
0.847223 0.195540 0.050794
0.878317 0.200299 0.050794
0.061460 0.129615 0.050794
0.073801 0.136146 0.050794
0.093021 0.140946 0.050794
0.114326 0.146170 0.050794
0.134338 0.153496 0.050794
0.158360 0.157752 0.050794
0.181630 0.162275 0.050794
0.205317 0.166329 0.050794
0.229915 0.169466 0.050794
0.254811 0.172728 0.050794
0.281516 0.177131 0.050794
0.308625 0.181586 0.050794
0.334538 0.185216 0.050794
0.359707 0.188185 0.050794
0.386285 0.191268 0.050794
0.412552 0.194496 0.050794
0.438662 0.197078 0.050794
0.465442 0.199484 0.050794
0.492921 0.202547 0.050794
0.521281 0.205451 0.050794
0.552249 0.208076 0.050794
0.582405 0.210307 0.050794
0.610859 0.212129 0.050794
0.639869 0.214172 0.050794
0.669480 0.215246 0.050794
0.699839 0.217573 0.050794
0.729562 0.220420 0.050794
0.757394 0.222102 0.050794
0.788333 0.221979 0.050794
0.818693 0.223509 0.050794
0.849651 0.226460 0.050794
0.883099 0.229690 0.050794
0.068156 0.148300 0.050794
0.076983 0.156173 0.050794
0.097248 0.161044 0.050794
0.120099 0.165935 0.050794
0.138737 0.173024 0.050794
0.160787 0.178124 0.050794
0.183031 0.182926 0.050794
0.206472 0.187347 0.050794
0.231054 0.191138 0.050794
0.256337 0.193765 0.050794
0.283045 0.198298 0.050794
0.309845 0.203813 0.050794
0.335578 0.208337 0.050794
0.361232 0.210977 0.050794
0.387935 0.214392 0.050794
0.414398 0.217426 0.050794
0.440614 0.220495 0.050794
0.467650 0.223502 0.050794
0.495671 0.225815 0.050794
0.524156 0.228217 0.050794
0.555262 0.230926 0.050794
0.585631 0.233449 0.050794
0.613923 0.236195 0.050794
0.642169 0.240236 0.050794
0.671422 0.242936 0.050794
0.701834 0.244616 0.050794
0.731710 0.246429 0.050794
0.759746 0.248724 0.050794
0.790342 0.250992 0.050794
0.820707 0.252530 0.050794
0.851668 0.254138 0.050794
0.884974 0.257119 0.050794
0.070259 0.168821 0.050794
0.081420 0.175541 0.050794
0.102715 0.180829 0.050794
0.126026 0.186135 0.050794
0.144376 0.192293 0.050794
0.163699 0.198045 0.050794
0.185274 0.203633 0.050794
0.208039 0.208898 0.050794
0.231699 0.213080 0.050794
0.257774 0.215699 0.050794
0.284519 0.219879 0.050794
0.310403 0.225877 0.050794
0.335789 0.231287 0.050794
0.362800 0.233686 0.050794
0.390259 0.236981 0.050794
0.417300 0.240015 0.050794
0.443573 0.244138 0.050794
0.470746 0.247824 0.050794
0.499255 0.249305 0.050794
0.527351 0.251404 0.050794
0.558376 0.254311 0.050794
0.588602 0.257151 0.050794
0.616401 0.260365 0.050794
0.644576 0.264721 0.050794
0.673966 0.268934 0.050794
0.704048 0.271552 0.050794
0.733626 0.273131 0.050794
0.761573 0.274603 0.050794
0.792112 0.278488 0.050794
0.822810 0.280336 0.050794
0.853955 0.281809 0.050794
0.886510 0.285005 0.050794
0.068368 0.190059 0.050794
0.084357 0.194827 0.050794
0.106799 0.200209 0.050794
0.130006 0.205913 0.050794
0.148795 0.211485 0.050794
0.166431 0.218058 0.050794
0.187721 0.224675 0.050794
0.209669 0.230746 0.050794
0.231801 0.235301 0.050794
0.258621 0.238685 0.050794
0.285549 0.243072 0.050794
0.311214 0.248562 0.050794
0.336892 0.253451 0.050794
0.364833 0.255963 0.050794
0.392374 0.258924 0.050794
0.419776 0.262247 0.050794
0.446602 0.267150 0.050794
0.473828 0.271452 0.050794
0.501987 0.273629 0.050794
0.529485 0.276431 0.050794
0.560063 0.279907 0.050794
0.589836 0.283096 0.050794
0.617428 0.286124 0.050794
0.646707 0.288968 0.050794
0.676438 0.293570 0.050794
0.706302 0.297563 0.050794
0.735620 0.299991 0.050794
0.763417 0.300972 0.050794
0.794054 0.304540 0.050794
0.825294 0.307424 0.050794
0.856903 0.310251 0.050794
0.889094 0.313805 0.050794
0.072480 0.208082 0.050794
0.086265 0.215208 0.050794
0.107344 0.220891 0.050794
0.130596 0.226524 0.050794
0.150720 0.233005 0.050794
0.169210 0.239412 0.050794
0.191742 0.245368 0.050794
0.214602 0.251103 0.050794
0.235822 0.256497 0.050794
0.260011 0.261246 0.050794
0.286749 0.267139 0.050794
0.314051 0.271801 0.050794
0.341156 0.274902 0.050794
0.367730 0.278845 0.050794
0.393139 0.283162 0.050794
0.420075 0.286402 0.050794
0.448076 0.290001 0.050794
0.475380 0.294669 0.050794
0.502531 0.298790 0.050794
0.530218 0.301926 0.050794
0.560681 0.306438 0.050794
0.590769 0.310851 0.050794
0.619334 0.314062 0.050794
0.648546 0.316885 0.050794
0.678490 0.320116 0.050794
0.708192 0.323301 0.050794
0.737236 0.326115 0.050794
0.765336 0.328498 0.050794
0.796585 0.331904 0.050794
0.827687 0.334685 0.050794
0.858931 0.336981 0.050794
0.891937 0.339391 0.050794
0.068762 0.229635 0.050794
0.086268 0.237641 0.050794
0.106356 0.243735 0.050794
0.127952 0.249322 0.050794
0.149731 0.255329 0.050794
0.173655 0.261405 0.050794
0.198346 0.266791 0.050794
0.220913 0.273040 0.050794
0.240599 0.280214 0.050794
0.263512 0.285652 0.050794
0.288691 0.291888 0.050794
0.315659 0.296358 0.050794
0.342984 0.299582 0.050794
0.369005 0.304430 0.050794
0.394490 0.308594 0.050794
0.421986 0.311941 0.050794
0.450223 0.315214 0.050794
0.477403 0.319497 0.050794
0.504630 0.324194 0.050794
0.532386 0.328108 0.050794
0.563129 0.332764 0.050794
0.593604 0.337099 0.050794
0.622403 0.340243 0.050794
0.651794 0.343097 0.050794
0.681917 0.346018 0.050794
0.711379 0.349019 0.050794
0.740210 0.352445 0.050794
0.768940 0.356817 0.050794
0.799448 0.359959 0.050794
0.829826 0.362593 0.050794
0.861103 0.365035 0.050794
0.894726 0.368112 0.050794
0.064091 0.252834 0.050794
0.085426 0.260314 0.050794
0.107991 0.266217 0.050794
0.130792 0.271504 0.050794
0.153668 0.276959 0.050794
0.177178 0.282941 0.050794
0.201467 0.289145 0.050794
0.224413 0.295929 0.050794
0.245139 0.302916 0.050794
0.267292 0.309114 0.050794
0.292160 0.314939 0.050794
0.318196 0.319783 0.050794
0.344387 0.324327 0.050794
0.370572 0.329385 0.050794
0.396495 0.333207 0.050794
0.423833 0.336907 0.050794
0.451411 0.340704 0.050794
0.478776 0.344534 0.050794
0.506972 0.348835 0.050794
0.534842 0.353428 0.050794
0.564994 0.357894 0.050794
0.595485 0.362049 0.050794
0.624581 0.365640 0.050794
0.653404 0.368702 0.050794
0.683304 0.371582 0.050794
0.712765 0.375385 0.050794
0.741815 0.379570 0.050794
0.771774 0.383425 0.050794
0.802087 0.386638 0.050794
0.832441 0.389768 0.050794
0.863878 0.392899 0.050794
0.896562 0.396660 0.050794
0.062137 0.275489 0.050794
0.082612 0.281717 0.050794
0.108915 0.286912 0.050794
0.135516 0.292245 0.050794
0.158114 0.298884 0.050794
0.179595 0.304521 0.050794
0.201967 0.311408 0.050794
0.225509 0.317990 0.050794
0.249267 0.323619 0.050794
0.271615 0.329828 0.050794
0.296566 0.335533 0.050794
0.321377 0.341319 0.050794
0.345951 0.347352 0.050794
0.372327 0.352531 0.050794
0.398486 0.356563 0.050794
0.425053 0.361012 0.050794
0.451802 0.365590 0.050794
0.479765 0.369420 0.050794
0.509101 0.373123 0.050794
0.537201 0.377709 0.050794
0.566011 0.382264 0.050794
0.596450 0.386503 0.050794
0.626512 0.390401 0.050794
0.654511 0.393656 0.050794
0.683663 0.397277 0.050794
0.713017 0.401972 0.050794
0.742543 0.406506 0.050794
0.773389 0.408970 0.050794
0.804304 0.412370 0.050794
0.835122 0.416398 0.050794
0.866405 0.420381 0.050794
0.897853 0.423695 0.050794
0.060617 0.297026 0.050794
0.078144 0.302493 0.050794
0.105705 0.307575 0.050794
0.134088 0.313492 0.050794
0.156366 0.321242 0.050794
0.182419 0.326708 0.050794
0.205408 0.332474 0.050794
0.228159 0.338681 0.050794
0.252586 0.344885 0.050794
0.276938 0.350211 0.050794
0.300823 0.356597 0.050794
0.324113 0.363184 0.050794
0.348056 0.369553 0.050794
0.374051 0.375271 0.050794
0.399753 0.380214 0.050794
0.426504 0.385309 0.050794
0.453733 0.390456 0.050794
0.481922 0.394731 0.050794
0.511373 0.398247 0.050794
0.539446 0.402419 0.050794
0.567932 0.407077 0.050794
0.598727 0.411085 0.050794
0.629709 0.414487 0.050794
0.658096 0.418021 0.050794
0.686390 0.423107 0.050794
0.715566 0.427985 0.050794
0.745322 0.432087 0.050794
0.775296 0.435349 0.050794
0.806432 0.438885 0.050794
0.837104 0.443238 0.050794
0.867986 0.447631 0.050794
0.899925 0.450825 0.050794
0.057686 0.319241 0.050794
0.077887 0.324392 0.050794
0.106802 0.329451 0.050794
0.136535 0.334858 0.050794
0.161208 0.341195 0.050794
0.185316 0.347877 0.050794
0.208592 0.353563 0.050794
0.230952 0.359686 0.050794
0.253851 0.366651 0.050794
0.280061 0.372871 0.050794
0.305062 0.379696 0.050794
0.328567 0.386364 0.050794
0.352199 0.392278 0.050794
0.377084 0.397909 0.050794
0.401027 0.403907 0.050794
0.427972 0.409810 0.050794
0.456591 0.415160 0.050794
0.484603 0.419604 0.050794
0.512831 0.423280 0.050794
0.540357 0.427330 0.050794
0.569674 0.431982 0.050794
0.601146 0.436019 0.050794
0.632275 0.439567 0.050794
0.660598 0.443353 0.050794
0.688595 0.449053 0.050794
0.717807 0.453798 0.050794
0.747710 0.457381 0.050794
0.777515 0.460776 0.050794
0.808465 0.464928 0.050794
0.839150 0.469211 0.050794
0.870003 0.473626 0.050794
0.902446 0.478113 0.050794
0.053314 0.340344 0.050794
0.079702 0.345870 0.050794
0.107412 0.351057 0.050794
0.136048 0.356678 0.050794
0.164930 0.363216 0.050794
0.189066 0.369801 0.050794
0.212276 0.375767 0.050794
0.234164 0.382236 0.050794
0.256339 0.389333 0.050794
0.282494 0.395347 0.050794
0.307933 0.402313 0.050794
0.332686 0.409437 0.050794
0.356730 0.415886 0.050794
0.380164 0.421897 0.050794
0.403680 0.428134 0.050794
0.430211 0.434665 0.050794
0.458476 0.440085 0.050794
0.486151 0.444129 0.050794
0.513940 0.448295 0.050794
0.541560 0.452791 0.050794
0.572703 0.457453 0.050794
0.604370 0.461699 0.050794
0.633954 0.465808 0.050794
0.661776 0.470223 0.050794
0.690616 0.475074 0.050794
0.720361 0.479024 0.050794
0.750036 0.482572 0.050794
0.778624 0.487027 0.050794
0.810378 0.490828 0.050794
0.840931 0.495167 0.050794
0.871554 0.499689 0.050794
0.904376 0.503888 0.050794
0.051172 0.361645 0.050794
0.081011 0.367171 0.050794
0.110193 0.372381 0.050794
0.138776 0.378454 0.050794
0.165983 0.385903 0.050794
0.189713 0.392488 0.050794
0.213931 0.398478 0.050794
0.237108 0.405192 0.050794
0.259380 0.412646 0.050794
0.284425 0.418213 0.050794
0.311067 0.425041 0.050794
0.336846 0.432518 0.050794
0.360255 0.439894 0.050794
0.383002 0.446495 0.050794
0.407241 0.452472 0.050794
0.433021 0.459291 0.050794
0.460050 0.465036 0.050794
0.487664 0.469235 0.050794
0.515379 0.473995 0.050794
0.542947 0.478755 0.050794
0.574252 0.483335 0.050794
0.605581 0.487963 0.050794
0.634604 0.492544 0.050794
0.663122 0.496976 0.050794
0.692352 0.501111 0.050794
0.722126 0.504760 0.050794
0.752117 0.508602 0.050794
0.781425 0.514214 0.050794
0.812593 0.517495 0.050794
0.842720 0.521526 0.050794
0.873197 0.526031 0.050794
0.905888 0.529725 0.050794
0.051392 0.383544 0.050794
0.078026 0.389780 0.050794
0.110259 0.395258 0.050794
0.141289 0.401184 0.050794
0.165309 0.408336 0.050794
0.189001 0.415178 0.050794
0.214394 0.421135 0.050794
0.239558 0.427640 0.050794
0.262991 0.435264 0.050794
0.287151 0.441568 0.050794
0.314570 0.448549 0.050794
0.340574 0.455898 0.050794
0.363686 0.463072 0.050794
0.387179 0.469552 0.050794
0.411911 0.475676 0.050794
0.437225 0.482238 0.050794
0.463449 0.488495 0.050794
0.490488 0.494132 0.050794
0.517408 0.499709 0.050794
0.544136 0.504635 0.050794
0.574563 0.509095 0.050794
0.605814 0.513825 0.050794
0.635527 0.518572 0.050794
0.664782 0.522604 0.050794
0.694365 0.526953 0.050794
0.724120 0.531115 0.050794
0.754240 0.535265 0.050794
0.785003 0.540905 0.050794
0.814646 0.544654 0.050794
0.844491 0.548653 0.050794
0.875579 0.552795 0.050794
0.908724 0.556966 0.050794
0.050998 0.405112 0.050794
0.070920 0.412996 0.050794
0.102321 0.419214 0.050794
0.135473 0.425235 0.050794
0.162526 0.431938 0.050794
0.190041 0.438166 0.050794
0.215759 0.444216 0.050794
0.241726 0.450405 0.050794
0.268034 0.457166 0.050794
0.291725 0.464301 0.050794
0.317285 0.471785 0.050794
0.342834 0.478991 0.050794
0.367591 0.485502 0.050794
0.392395 0.491836 0.050794
0.417631 0.498366 0.050794
0.442916 0.504403 0.050794
0.468189 0.510831 0.050794
0.493950 0.517983 0.050794
0.520026 0.524569 0.050794
0.545818 0.530207 0.050794
0.576526 0.534754 0.050794
0.608241 0.539320 0.050794
0.637620 0.544110 0.050794
0.666030 0.548490 0.050794
0.696959 0.552948 0.050794
0.727354 0.557289 0.050794
0.756671 0.561693 0.050794
0.786311 0.566907 0.050794
0.816253 0.571397 0.050794
0.846381 0.575823 0.050794
0.877943 0.580155 0.050794
0.912364 0.584300 0.050794
0.050794 0.428138 0.050794
0.063733 0.435598 0.050794
0.094747 0.442130 0.050794
0.130520 0.448324 0.050794
0.160059 0.454525 0.050794
0.187581 0.461357 0.050794
0.214861 0.467378 0.050794
0.242816 0.473375 0.050794
0.271191 0.479894 0.050794
0.296806 0.487255 0.050794
0.321077 0.495357 0.050794
0.345423 0.502216 0.050794
0.370657 0.508327 0.050794
0.396155 0.515664 0.050794
0.422078 0.522312 0.050794
0.447811 0.528355 0.050794
0.473076 0.534396 0.050794
0.498132 0.541599 0.050794
0.523226 0.549318 0.050794
0.548387 0.555283 0.050794
0.578591 0.559942 0.050794
0.610186 0.564833 0.050794
0.639910 0.570038 0.050794
0.668180 0.574776 0.050794
0.699265 0.579546 0.050794
0.729371 0.584195 0.050794
0.758258 0.588743 0.050794
0.787598 0.592924 0.050794
0.818509 0.597899 0.050794
0.848700 0.602349 0.050794
0.879923 0.606587 0.050794
0.914097 0.610926 0.050794
0.050794 0.451928 0.050794
0.061746 0.459057 0.050794
0.092823 0.466062 0.050794
0.130763 0.472419 0.050794
0.163453 0.478010 0.050794
0.188893 0.485438 0.050794
0.215690 0.492152 0.050794
0.244150 0.498984 0.050794
0.273175 0.506048 0.050794
0.299108 0.513173 0.050794
0.324731 0.520196 0.050794
0.349144 0.526747 0.050794
0.374092 0.532980 0.050794
0.401224 0.540041 0.050794
0.427247 0.547522 0.050794
0.452500 0.553990 0.050794
0.477309 0.560032 0.050794
0.502366 0.567121 0.050794
0.527720 0.574738 0.050794
0.552601 0.581284 0.050794
0.580914 0.587585 0.050794
0.611283 0.593213 0.050794
0.641079 0.598070 0.050794
0.669627 0.603130 0.050794
0.700728 0.607354 0.050794
0.731227 0.611950 0.050794
0.760740 0.617063 0.050794
0.790703 0.621675 0.050794
0.821464 0.625874 0.050794
0.851247 0.630442 0.050794
0.881865 0.635273 0.050794
0.916176 0.640451 0.050794
0.050794 0.476450 0.050794
0.058663 0.483910 0.050794
0.088798 0.490682 0.050794
0.128730 0.497004 0.050794
0.165843 0.502958 0.050794
0.189316 0.510442 0.050794
0.215733 0.517515 0.050794
0.243972 0.524580 0.050794
0.272319 0.531548 0.050794
0.298987 0.538794 0.050794
0.327179 0.545277 0.050794
0.353403 0.551464 0.050794
0.378680 0.557734 0.050794
0.405753 0.564640 0.050794
0.430774 0.572425 0.050794
0.456315 0.579047 0.050794
0.481621 0.585479 0.050794
0.506400 0.592650 0.050794
0.531867 0.599619 0.050794
0.556814 0.606950 0.050794
0.584663 0.614518 0.050794
0.613708 0.620874 0.050794
0.642228 0.625962 0.050794
0.671140 0.630929 0.050794
0.702227 0.635413 0.050794
0.733136 0.640096 0.050794
0.763332 0.645084 0.050794
0.793268 0.649980 0.050794
0.823695 0.654424 0.050794
0.853438 0.658866 0.050794
0.884367 0.663466 0.050794
0.919036 0.668817 0.050794
0.050794 0.501406 0.050794
0.053248 0.508400 0.050794
0.082705 0.514424 0.050794
0.124515 0.520641 0.050794
0.163623 0.527819 0.050794
0.186453 0.535275 0.050794
0.214087 0.542120 0.050794
0.242917 0.548671 0.050794
0.270764 0.555030 0.050794
0.299370 0.562402 0.050794
0.328979 0.569509 0.050794
0.356630 0.575726 0.050794
0.382582 0.582032 0.050794
0.408376 0.589518 0.050794
0.432824 0.596607 0.050794
0.459555 0.603179 0.050794
0.485893 0.610091 0.050794
0.510331 0.617061 0.050794
0.535602 0.623711 0.050794
0.560613 0.631478 0.050794
0.589072 0.639028 0.050794
0.617405 0.646000 0.050794
0.644245 0.652251 0.050794
0.673089 0.657363 0.050794
0.703737 0.662958 0.050794
0.734539 0.667982 0.050794
0.764882 0.672336 0.050794
0.794706 0.676437 0.050794
0.825113 0.682233 0.050794
0.855254 0.686521 0.050794
0.886942 0.690292 0.050794
0.921982 0.695191 0.050794
0.050794 0.525275 0.050794
0.051748 0.530781 0.050794
0.083051 0.536641 0.050794
0.125219 0.543511 0.050794
0.160483 0.551073 0.050794
0.185617 0.558605 0.050794
0.214307 0.565890 0.050794
0.244826 0.572612 0.050794
0.274862 0.578694 0.050794
0.302745 0.585403 0.050794
0.330858 0.592963 0.050794
0.356937 0.600126 0.050794
0.382693 0.607020 0.050794
0.410802 0.614151 0.050794
0.437926 0.620404 0.050794
0.464237 0.627549 0.050794
0.488961 0.634887 0.050794
0.513934 0.641155 0.050794
0.540377 0.647658 0.050794
0.565288 0.655179 0.050794
0.592995 0.663372 0.050794
0.621358 0.670900 0.050794
0.647966 0.677587 0.050794
0.674299 0.683796 0.050794
0.704519 0.690187 0.050794
0.735729 0.695202 0.050794
0.766447 0.699038 0.050794
0.796645 0.702958 0.050794
0.826935 0.708862 0.050794
0.857190 0.714113 0.050794
0.889094 0.718796 0.050794
0.924826 0.723762 0.050794
0.050794 0.549663 0.050794
0.051441 0.556223 0.050794
0.073178 0.561453 0.050794
0.111292 0.567052 0.050794
0.157867 0.573760 0.050794
0.187977 0.581323 0.050794
0.217021 0.588827 0.050794
0.247630 0.596031 0.050794
0.279227 0.602763 0.050794
0.305158 0.609208 0.050794
0.331909 0.617179 0.050794
0.358929 0.624573 0.050794
0.386084 0.631224 0.050794
0.413601 0.638214 0.050794
0.440847 0.644740 0.050794
0.467323 0.652126 0.050794
0.492079 0.659562 0.050794
0.517471 0.665887 0.050794
0.544943 0.672252 0.050794
0.571411 0.680041 0.050794
0.598500 0.688657 0.050794
0.626062 0.695870 0.050794
0.653434 0.701996 0.050794
0.680517 0.708806 0.050794
0.707713 0.715946 0.050794
0.736727 0.721967 0.050794
0.767087 0.726539 0.050794
0.797385 0.730286 0.050794
0.827634 0.735523 0.050794
0.858237 0.741061 0.050794
0.890165 0.746683 0.050794
0.925330 0.752121 0.050794
0.050794 0.573382 0.050794
0.051174 0.580803 0.050794
0.064433 0.586836 0.050794
0.096404 0.592586 0.050794
0.147634 0.599249 0.050794
0.185690 0.605719 0.050794
0.216832 0.612941 0.050794
0.247768 0.620455 0.050794
0.280152 0.627438 0.050794
0.306279 0.633524 0.050794
0.333903 0.641515 0.050794
0.362060 0.649161 0.050794
0.389764 0.655861 0.050794
0.416020 0.662909 0.050794
0.441867 0.669802 0.050794
0.468514 0.676722 0.050794
0.495502 0.683955 0.050794
0.521844 0.690862 0.050794
0.548134 0.697602 0.050794
0.575130 0.705064 0.050794
0.603735 0.713094 0.050794
0.631942 0.720303 0.050794
0.659081 0.726805 0.050794
0.686107 0.734007 0.050794
0.711890 0.741216 0.050794
0.738973 0.748132 0.050794
0.768263 0.753932 0.050794
0.798939 0.757434 0.050794
0.828731 0.762812 0.050794
0.858827 0.768004 0.050794
0.890915 0.773379 0.050794
0.926062 0.779905 0.050794
0.050794 0.597030 0.050794
0.051027 0.603972 0.050794
0.059480 0.611326 0.050794
0.085164 0.618619 0.050794
0.132946 0.625727 0.050794
0.179567 0.630864 0.050794
0.214030 0.638096 0.050794
0.245174 0.645988 0.050794
0.277745 0.652825 0.050794
0.306931 0.658372 0.050794
0.336112 0.666410 0.050794
0.364418 0.674261 0.050794
0.392094 0.681004 0.050794
0.418820 0.688148 0.050794
0.443994 0.695122 0.050794
0.470314 0.701419 0.050794
0.498847 0.708498 0.050794
0.526281 0.716159 0.050794
0.551558 0.723155 0.050794
0.578140 0.729799 0.050794
0.608186 0.737148 0.050794
0.637328 0.744731 0.050794
0.663993 0.752143 0.050794
0.690109 0.759508 0.050794
0.716180 0.766481 0.050794
0.742653 0.773823 0.050794
0.770399 0.780623 0.050794
0.800759 0.785284 0.050794
0.830600 0.790709 0.050794
0.860570 0.795227 0.050794
0.892297 0.799870 0.050794
0.927685 0.806609 0.050794
0.050794 0.622214 0.050794
0.050855 0.627535 0.050794
0.053794 0.634479 0.050794
0.073881 0.642042 0.050794
0.121148 0.649253 0.050794
0.173374 0.654507 0.050794
0.210302 0.662674 0.050794
0.240525 0.671488 0.050794
0.272228 0.678349 0.050794
0.307270 0.684151 0.050794
0.336823 0.692586 0.050794
0.363967 0.699791 0.050794
0.392840 0.705656 0.050794
0.422844 0.713036 0.050794
0.449437 0.720331 0.050794
0.475850 0.726455 0.050794
0.502172 0.733733 0.050794
0.529102 0.741680 0.050794
