gsg/03_Cinematic/GSG_LUT_Cinematic_Royal_with_Cheese.cube
# GSG LUTs 1.0
# Copyright (c) 2016-2020 Greyscalegorilla
# See EULA for licensing and distribution information
# Converted by Briz LUT Converter
LUT_3D_SIZE 5
DOMAIN_MIN 0.000000 0.000000 0.000000
DOMAIN_MAX 0.903226 0.903226 0.903226
0.026129 0.024664 0.014652
0.110000 0.024664 0.014652
0.213344 0.024664 0.014652
0.313143 0.024664 0.014652
0.462169 0.024664 0.014652
0.026129 0.082532 0.014652
0.110000 0.082532 0.014652
0.213344 0.082532 0.014652
0.313143 0.082532 0.014652
0.462169 0.082532 0.014652
0.026129 0.169900 0.014652
0.110000 0.169900 0.014652
0.213344 0.169900 0.014652
0.313143 0.169900 0.014652
0.462169 0.169900 0.014652
0.026129 0.272874 0.014652
0.110000 0.272874 0.014652
0.213344 0.272874 0.014652
0.313143 0.272874 0.014652
0.462169 0.272874 0.014652
0.026129 0.433337 0.014652
0.110000 0.433337 0.014652
0.213344 0.433337 0.014652
0.313143 0.433337 0.014652
0.462169 0.433337 0.014652
0.026129 0.024664 0.070755
0.110000 0.024664 0.070755
0.213344 0.024664 0.070755
0.313143 0.024664 0.070755
0.462169 0.024664 0.070755
0.026129 0.082532 0.070755
0.110000 0.082532 0.070755
0.213344 0.082532 0.070755
0.313143 0.082532 0.070755
0.462169 0.082532 0.070755
0.026129 0.169900 0.070755
0.110000 0.169900 0.070755
0.213344 0.169900 0.070755
0.313143 0.169900 0.070755
0.462169 0.169900 0.070755
0.026129 0.272874 0.070755
0.110000 0.272874 0.070755
0.213344 0.272874 0.070755
0.313143 0.272874 0.070755
0.462169 0.272874 0.070755
0.026129 0.433337 0.070755
0.110000 0.433337 0.070755
0.213344 0.433337 0.070755
0.313143 0.433337 0.070755
0.462169 0.433337 0.070755
0.026129 0.024664 0.136595
0.110000 0.024664 0.136595
0.213344 0.024664 0.136595
0.313143 0.024664 0.136595
0.462169 0.024664 0.136595
0.026129 0.082532 0.136595
0.110000 0.082532 0.136595
0.213344 0.082532 0.136595
0.313143 0.082532 0.136595
0.462169 0.082532 0.136595
0.026129 0.169900 0.136595
0.110000 0.169900 0.136595
0.213344 0.169900 0.136595
0.313143 0.169900 0.136595
0.462169 0.169900 0.136595
0.026129 0.272874 0.136595
0.110000 0.272874 0.136595
0.213344 0.272874 0.136595
0.313143 0.272874 0.136595
0.462169 0.272874 0.136595
0.026129 0.433337 0.136595
0.110000 0.433337 0.136595
0.213344 0.433337 0.136595
0.313143 0.433337 0.136595
0.462169 0.433337 0.136595
0.026129 0.024664 0.225389
0.110000 0.024664 0.225389
0.213344 0.024664 0.225389
0.313143 0.024664 0.225389
0.462169 0.024664 0.225389
0.026129 0.082532 0.225389
0.110000 0.082532 0.225389
0.213344 0.082532 0.225389
0.313143 0.082532 0.225389
0.462169 0.082532 0.225389
0.026129 0.169900 0.225389
0.110000 0.169900 0.225389
0.213344 0.169900 0.225389
0.313143 0.169900 0.225389
0.462169 0.169900 0.225389
0.026129 0.272874 0.225389
0.110000 0.272874 0.225389
0.213344 0.272874 0.225389
0.313143 0.272874 0.225389
0.462169 0.272874 0.225389
0.026129 0.433337 0.225389
0.110000 0.433337 0.225389
0.213344 0.433337 0.225389
0.313143 0.433337 0.225389
0.462169 0.433337 0.225389
0.026129 0.024664 0.779188
0.110000 0.024664 0.779188
0.213344 0.024664 0.779188
0.313143 0.024664 0.779188
0.462169 0.024664 0.779188
0.026129 0.082532 0.779188
0.110000 0.082532 0.779188
0.213344 0.082532 0.779188
0.313143 0.082532 0.779188
0.462169 0.082532 0.779188
0.026129 0.169900 0.779188
0.110000 0.169900 0.779188
0.213344 0.169900 0.779188
0.313143 0.169900 0.779188
0.462169 0.169900 0.779188
0.026129 0.272874 0.779188
0.110000 0.272874 0.779188
0.213344 0.272874 0.779188
0.313143 0.272874 0.779188
0.462169 0.272874 0.779188
0.026129 0.433337 0.779188
0.110000 0.433337 0.779188
0.213344 0.433337 0.779188
0.313143 0.433337 0.779188
0.462169 0.433337 0.779188
