gsg/03_Cinematic/GSG_LUT_Cinematic_BigDeep.cube
# GSG LUTs 1.0
# Copyright (c) 2016-2020 Greyscalegorilla
# See EULA for licensing and distribution information
# Converted by Briz LUT Converter
LUT_3D_SIZE 5
DOMAIN_MIN 0.000000 0.000000 0.000000
DOMAIN_MAX 0.903226 0.903226 0.903226
0.050794 0.061538 0.077167
0.077348 0.071015 0.080507
0.139887 0.086463 0.091457
0.276939 0.095238 0.106731
0.511922 0.071409 0.104533
0.050794 0.110765 0.137304
0.052740 0.117299 0.133616
0.147199 0.129421 0.131301
0.302302 0.142059 0.132416
0.539990 0.150564 0.122008
0.050794 0.217921 0.215574
0.050794 0.218599 0.218755
0.129288 0.248236 0.202786
0.344881 0.271889 0.186297
0.607485 0.313652 0.169320
0.050794 0.404994 0.302958
0.050794 0.405737 0.305644
0.102424 0.410163 0.311287
0.380415 0.463903 0.272836
0.644712 0.514317 0.241797
0.050794 0.669959 0.447911
0.058627 0.670015 0.451503
0.324238 0.671231 0.463406
0.523828 0.686046 0.469478
0.722468 0.718422 0.432592
0.050794 0.069061 0.163472
0.050922 0.077927 0.169860
0.130145 0.088872 0.173198
0.281772 0.092302 0.177900
0.513582 0.051721 0.171830
0.050794 0.117024 0.197544
0.050794 0.124010 0.203911
0.137644 0.133042 0.201024
0.304337 0.140636 0.196877
0.538877 0.134990 0.185951
0.050794 0.230177 0.252911
0.050794 0.235606 0.264785
0.120702 0.256303 0.256251
0.354580 0.276770 0.244129
0.609100 0.307842 0.229945
0.050794 0.418878 0.335478
0.050794 0.420314 0.342267
0.106079 0.421661 0.348867
0.387230 0.470896 0.318487
0.652635 0.517894 0.294430
0.050794 0.674405 0.472588
0.057066 0.674350 0.475705
0.323610 0.676692 0.488621
0.527624 0.687984 0.498588
0.724715 0.720035 0.464166
0.050794 0.082689 0.283524
0.050794 0.087573 0.290912
0.084239 0.095301 0.303231
0.298270 0.080712 0.312084
0.530437 0.050794 0.289487
0.050794 0.127715 0.313112
0.050794 0.132424 0.318468
0.097237 0.141567 0.328901
0.318339 0.137799 0.326948
0.550378 0.063179 0.303685
0.050794 0.248467 0.364987
0.050794 0.258007 0.371146
0.106096 0.285077 0.389010
0.372663 0.286415 0.373116
0.616477 0.283855 0.346854
0.050794 0.440140 0.417354
0.050794 0.447562 0.420697
0.091108 0.464686 0.444180
0.412080 0.494280 0.433223
0.677414 0.527469 0.416765
0.050794 0.685021 0.499046
0.050794 0.687112 0.508381
0.293053 0.689473 0.550582
0.530944 0.691455 0.567292
0.728025 0.722313 0.539895
0.050794 0.096152 0.445295
0.050794 0.097420 0.450510
0.058329 0.092978 0.465261
0.329135 0.066230 0.477705
0.588505 0.050794 0.502049
0.050794 0.141754 0.467165
0.050794 0.143580 0.471221
0.065927 0.145909 0.483771
0.351922 0.143781 0.495756
0.604515 0.114395 0.512995
0.050794 0.261704 0.506743
0.050794 0.268811 0.512977
0.083447 0.287688 0.528280
0.402710 0.304326 0.542118
0.642394 0.293503 0.535308
0.050794 0.465290 0.564032
0.050794 0.472244 0.568195
0.057843 0.495107 0.582526
0.466389 0.541083 0.614552
0.697941 0.521553 0.577211
0.050794 0.699626 0.626894
0.050794 0.701459 0.626817
0.051179 0.706399 0.628289
0.529028 0.713338 0.670443
0.738699 0.728768 0.664751
0.050794 0.104817 0.686990
0.050794 0.099151 0.689648
0.177682 0.067342 0.697423
0.457002 0.050794 0.710875
0.685825 0.050794 0.715129
0.050794 0.162950 0.696265
0.050794 0.161186 0.698336
0.186722 0.151319 0.705312
0.464194 0.111137 0.717750
0.693043 0.084965 0.722041
0.050794 0.296270 0.717788
0.050794 0.295892 0.719131
0.170668 0.299329 0.725278
0.475800 0.303046 0.736424
0.711141 0.322661 0.742347
0.050794 0.500287 0.746182
0.050794 0.500221 0.746967
0.104114 0.503408 0.751215
0.480879 0.524436 0.763900
0.731186 0.557617 0.775376
0.050794 0.710089 0.787548
0.050794 0.711219 0.788293
0.213625 0.716399 0.791758
0.535525 0.727596 0.800469
0.780545 0.748869 0.822844
