gsg/03_Cinematic/GSG_LUT_Cinematic_Furiosa.cube
# GSG LUTs 1.0
# Copyright (c) 2016-2020 Greyscalegorilla
# See EULA for licensing and distribution information
# Converted by Briz LUT Converter
LUT_3D_SIZE 5
DOMAIN_MIN 0.000000 0.000000 0.000000
DOMAIN_MAX 0.903226 0.903226 0.903226
0.057143 0.025153 0.007814
0.246359 0.059033 0.021576
0.421694 0.089944 0.028548
0.559077 0.111954 0.030525
0.668053 0.128749 0.030304
0.190555 0.209926 0.028548
0.283109 0.096617 0.025453
0.437423 0.111181 0.029525
0.583018 0.143052 0.030586
0.700800 0.170562 0.029083
0.297680 0.359715 0.029462
0.644802 0.371476 0.020418
0.480884 0.157783 0.030586
0.594789 0.158289 0.030450
0.710098 0.182113 0.028595
0.403813 0.497302 0.020332
0.733166 0.562921 0.055363
0.772084 0.378512 0.015297
0.643626 0.213673 0.028569
0.727970 0.204908 0.027453
0.487487 0.612163 0.014573
0.719929 0.691110 0.126477
0.905917 0.728584 0.211356
0.883655 0.409785 0.016180
0.778993 0.266131 0.022943
0.104242 0.088235 0.103210
0.276647 0.085596 0.109859
0.449511 0.110726 0.114602
0.585586 0.129854 0.115444
0.693573 0.144848 0.114246
0.188951 0.213064 0.088479
0.385121 0.218671 0.115346
0.550942 0.242802 0.113610
0.695760 0.270195 0.109247
0.808181 0.289303 0.104491
0.304203 0.364331 0.098864
0.530607 0.396408 0.106735
0.596651 0.290105 0.110764
0.719044 0.299418 0.106844
0.843642 0.333712 0.099791
0.413888 0.502596 0.093117
0.622119 0.536372 0.104162
0.822313 0.593526 0.193595
0.769014 0.354965 0.101145
0.857781 0.351459 0.097788
0.486825 0.621600 0.103386
0.631556 0.671643 0.182261
0.811861 0.734932 0.278653
0.902024 0.631349 0.241775
0.888489 0.419652 0.114223
0.154335 0.139816 0.214825
0.261265 0.089180 0.214959
0.471419 0.119579 0.219977
0.608074 0.138505 0.219946
0.716484 0.153476 0.218194
0.287383 0.323194 0.198553
0.440593 0.287125 0.218467
0.594140 0.277246 0.215676
0.732783 0.296198 0.210491
0.842159 0.311318 0.205246
0.311920 0.367298 0.133964
0.528594 0.400221 0.182900
0.705457 0.408049 0.202958
0.817520 0.432558 0.217666
0.892176 0.466279 0.256840
0.424042 0.506404 0.137756
0.617514 0.546366 0.207720
0.746356 0.592441 0.286623
0.826407 0.487774 0.250231
0.894845 0.505582 0.280079
0.488603 0.629336 0.171076
0.628688 0.683148 0.293675
0.751560 0.727481 0.370968
0.900543 0.778442 0.455105
0.900258 0.566313 0.317736
0.209035 0.192997 0.333420
0.215178 0.088826 0.328762
0.471274 0.125606 0.334629
0.632943 0.148025 0.333656
0.741676 0.162811 0.331254
0.380661 0.416054 0.327701
0.505692 0.347459 0.327949
0.581157 0.281478 0.329527
0.758171 0.305747 0.322126
0.867632 0.320997 0.316273
0.421895 0.482280 0.248793
0.617203 0.518900 0.329009
0.729601 0.482237 0.346928
0.822669 0.472191 0.367358
0.895766 0.497684 0.402970
0.432949 0.509652 0.176589
0.618977 0.553009 0.264746
0.740754 0.601558 0.382965
0.834787 0.623016 0.459555
0.903952 0.650850 0.499201
0.489866 0.634739 0.216456
0.630123 0.691622 0.366769
0.749218 0.739781 0.487371
0.843627 0.775896 0.561327
0.907719 0.696829 0.530324
0.262807 0.245689 0.433495
0.181509 0.089338 0.426957
0.428878 0.124941 0.433361
0.636148 0.153531 0.431943
0.763275 0.170924 0.428459
0.440078 0.471320 0.419447
0.566437 0.404359 0.419601
0.532107 0.279987 0.428950
0.754209 0.310410 0.419442
0.884200 0.330878 0.417874
0.494563 0.644015 0.473323
0.625539 0.597706 0.490923
0.736871 0.555556 0.499322
0.800953 0.477715 0.473705
0.897712 0.511899 0.521589
0.491741 0.632400 0.352877
0.631510 0.689057 0.500582
0.749795 0.727954 0.607079
0.835085 0.692997 0.613756
0.906017 0.678374 0.627484
0.491410 0.641498 0.274850
0.631155 0.697941 0.421473
0.750022 0.746242 0.542461
0.841193 0.784518 0.643651
0.912519 0.805400 0.715071
