gsg/03_Cinematic/GSG_LUT_Cinematic_FeelingBlue.cube
# GSG LUTs 1.0
# Copyright (c) 2016-2020 Greyscalegorilla
# See EULA for licensing and distribution information
# Converted by Briz LUT Converter
LUT_3D_SIZE 32
0.000000 0.000000 0.000000
0.000000 0.000000 0.000000
0.000016 0.000016 0.000110
0.000244 0.000244 0.001733
0.000307 0.000307 0.002395
0.000772 0.000772 0.005648
0.001449 0.001166 0.007885
0.003253 0.002009 0.012005
0.002686 0.002324 0.015912
0.003112 0.003112 0.022230
0.004939 0.005254 0.032676
0.007287 0.008523 0.044854
0.008925 0.010635 0.055095
0.010241 0.012257 0.062247
0.012226 0.015329 0.069463
0.015085 0.019465 0.078120
0.019875 0.025515 0.087825
0.024987 0.031336 0.096168
0.031541 0.037890 0.104817
0.039860 0.043814 0.112356
0.048021 0.048887 0.118626
0.056914 0.052944 0.125842
0.064855 0.055701 0.130978
0.072527 0.058766 0.137004
0.080153 0.062610 0.143243
0.085352 0.063295 0.147718
0.097672 0.069187 0.154413
0.109024 0.075647 0.161936
0.121407 0.084375 0.169719
0.136067 0.094364 0.179590
0.152357 0.107283 0.190854
0.168742 0.120635 0.202442
0.016629 0.029682 0.026421
0.020505 0.033605 0.032431
0.021238 0.034339 0.036209
0.021911 0.035156 0.040353
0.023955 0.038481 0.047225
0.024755 0.039287 0.052990
0.025469 0.040319 0.059127
0.025229 0.041598 0.067209
0.026532 0.044095 0.073605
0.028992 0.047072 0.080406
0.033985 0.053298 0.089101
0.037913 0.058373 0.097090
0.042283 0.063376 0.104286
0.048812 0.069207 0.111597
0.055684 0.074730 0.118489
0.062763 0.080531 0.125871
0.069605 0.085658 0.133343
0.076803 0.089411 0.140010
0.084155 0.091868 0.144862
0.090344 0.093414 0.149001
0.096448 0.094029 0.152931
0.102632 0.094004 0.157189
0.109147 0.095091 0.162014
0.115213 0.095563 0.165794
0.122763 0.097647 0.171118
0.132312 0.101095 0.176412
0.145031 0.107320 0.182911
0.159873 0.117092 0.192437
0.175844 0.129339 0.202086
0.191052 0.139879 0.213671
0.206168 0.150207 0.223861
0.221293 0.160298 0.233944
0.032526 0.057033 0.059679
0.034638 0.060519 0.066442
0.035433 0.061420 0.070212
0.036217 0.062441 0.075926
0.037263 0.063558 0.081902
0.038358 0.064852 0.087839
0.040207 0.068048 0.094585
0.042361 0.071808 0.101208
0.045067 0.075541 0.106652
0.049503 0.079958 0.112549
0.054940 0.085828 0.119832
0.061162 0.092312 0.128450
0.066302 0.098002 0.135941
0.072111 0.103597 0.143450
0.078620 0.108018 0.150484
0.085827 0.112446 0.156384
0.093629 0.116191 0.161060
0.100415 0.117791 0.164805
0.105581 0.118162 0.167620
0.109499 0.117296 0.170342
0.113409 0.115569 0.173018
0.118323 0.114455 0.176627
0.123124 0.114039 0.179713
0.128924 0.113914 0.183655
0.138133 0.116205 0.188011
0.150734 0.122068 0.194146
0.164145 0.129385 0.201463
0.178835 0.138738 0.209622
0.193600 0.148730 0.219438
0.208446 0.159008 0.229502
0.223256 0.168937 0.239508
0.238355 0.179015 0.249588
0.041687 0.079302 0.100193
0.042490 0.080009 0.104118
0.047012 0.085953 0.109178
0.048199 0.087641 0.113382
0.050289 0.090838 0.118613
0.054034 0.094820 0.124295
0.056572 0.098493 0.129383
0.060730 0.102769 0.135300
0.065204 0.107609 0.141092
0.069853 0.112550 0.146416
0.075630 0.118689 0.154107
0.082291 0.124392 0.161130
0.088952 0.129434 0.167434
0.095466 0.134314 0.173986
0.102332 0.139156 0.179576
0.108992 0.142661 0.184349
0.114606 0.143865 0.187264
0.119418 0.143358 0.188926
0.122966 0.140994 0.189496
0.125838 0.138380 0.190747
0.129161 0.136537 0.192811
0.132444 0.134139 0.195392
0.136699 0.132654 0.198667
0.145180 0.134247 0.202094
0.156451 0.137922 0.206557
0.168467 0.142156 0.211072
0.182555 0.150749 0.219692
0.197912 0.158964 0.227804
0.211142 0.167949 0.236902
0.225624 0.177693 0.246660
0.239308 0.185113 0.255498
0.254023 0.194825 0.265422
0.057127 0.108007 0.139927
0.059105 0.108740 0.142192
0.061292 0.111953 0.145697
0.065388 0.117910 0.150236
0.068206 0.121887 0.154455
0.072128 0.126028 0.159869
0.076057 0.130182 0.164169
0.080370 0.134658 0.170070
0.084999 0.139343 0.175651
0.090513 0.145045 0.181312
0.096968 0.150306 0.187580
0.104406 0.155835 0.193437
0.111811 0.160657 0.198103
0.117812 0.164735 0.202728
0.123376 0.167798 0.206535
0.128275 0.168860 0.209223
0.132230 0.168258 0.211032
0.135244 0.165980 0.212032
0.138662 0.162530 0.211439
0.140950 0.159339 0.211981
0.142696 0.155516 0.212870
0.146225 0.153431 0.215152
0.152314 0.153333 0.218138
0.162179 0.154095 0.220732
0.174474 0.158949 0.225031
0.186990 0.163951 0.230762
0.200538 0.170740 0.237793
0.214708 0.179473 0.245572
0.228007 0.186937 0.254219
0.242542 0.196003 0.263603
0.254094 0.202901 0.271748
0.267888 0.210012 0.280641
0.076498 0.141825 0.178526
0.076602 0.141871 0.179086
0.078685 0.143443 0.181656
0.081284 0.146973 0.185038
0.086092 0.153252 0.189995
0.089604 0.156805 0.193573
0.093727 0.161008 0.198253
0.098017 0.165237 0.203212
0.103312 0.169353 0.207404
0.109395 0.174401 0.212251
0.114670 0.178760 0.216493
0.120398 0.182776 0.220447
0.125725 0.185760 0.223652
0.130604 0.188033 0.227050
0.135348 0.189509 0.229794
0.140389 0.189784 0.231745
0.144837 0.188585 0.233046
0.148562 0.186433 0.234103
0.151377 0.182706 0.233563
0.153603 0.178182 0.232423
0.156393 0.174281 0.232383
0.162071 0.173203 0.233743
0.168653 0.172876 0.235826
0.178776 0.175058 0.239129
0.190555 0.178488 0.243029
0.204543 0.184898 0.249344
0.217936 0.191625 0.256023
0.231258 0.198401 0.262861
0.243259 0.205100 0.270679
0.256400 0.212087 0.279192
0.268017 0.218166 0.285559
0.283556 0.225680 0.294758
0.095750 0.176234 0.214101
0.096399 0.176441 0.215615
0.097347 0.178468 0.216988
0.099709 0.180095 0.219387
0.103338 0.185498 0.222545
0.107250 0.189695 0.226483
0.110698 0.193291 0.229882
0.113857 0.196205 0.232937
0.117465 0.198959 0.235527
0.122002 0.202324 0.239074
0.126592 0.205020 0.242059
0.131004 0.207154 0.244711
0.134381 0.208282 0.246855
0.138327 0.209605 0.248878
0.141831 0.210067 0.250505
0.145630 0.209290 0.251783
0.150289 0.208090 0.252978
0.155317 0.205791 0.253979
0.160639 0.202362 0.253991
0.166958 0.199092 0.253149
0.174040 0.197420 0.253461
0.181935 0.197143 0.254600
0.189519 0.197606 0.256257
0.197998 0.198270 0.259387
0.209114 0.200561 0.262831
0.221947 0.206461 0.268501
0.234030 0.211130 0.273324
0.246743 0.217157 0.281009
0.258370 0.223118 0.287294
0.270917 0.229442 0.295182
0.283883 0.234597 0.301351
0.299579 0.242034 0.308779
0.115743 0.211840 0.246965
0.117444 0.212397 0.247483
0.117442 0.212110 0.248417
0.118161 0.212569 0.249315
0.121422 0.215859 0.251470
0.124726 0.219554 0.255000
0.128252 0.223248 0.258207
0.131171 0.225224 0.260229
0.135613 0.228178 0.263262
0.138668 0.229202 0.264941
0.142351 0.230422 0.266909
0.146299 0.231754 0.268826
0.150065 0.232807 0.270785
0.153766 0.233157 0.272187
0.156746 0.232557 0.272870
0.159422 0.231601 0.273701
0.161724 0.229251 0.273518
0.164332 0.225818 0.272615
0.169435 0.222756 0.271950
0.177909 0.220927 0.271685
0.187122 0.219687 0.271697
0.197001 0.219782 0.272967
0.206575 0.220962 0.275143
0.216167 0.222221 0.278695
0.227399 0.223449 0.281826
0.239984 0.228350 0.286581
0.251830 0.232441 0.291551
0.262743 0.236651 0.298175
0.273774 0.241672 0.304116
0.285755 0.246522 0.309936
0.300895 0.253197 0.316703
0.316216 0.260325 0.322722
0.133767 0.243665 0.275639
0.133743 0.243612 0.276104
0.133135 0.242069 0.275485
0.134658 0.242760 0.276855
0.136325 0.244577 0.278741
0.137322 0.245829 0.280246
0.138778 0.248860 0.282576
0.141059 0.251733 0.285164
0.143940 0.252832 0.286848
0.146495 0.253735 0.288445
0.150141 0.254309 0.289673
0.153202 0.254077 0.290425
0.157546 0.254707 0.291946
0.161835 0.254868 0.293715
0.165851 0.254460 0.294460
0.170870 0.254048 0.295028
0.175740 0.252804 0.294943
0.179902 0.250416 0.293495
0.184241 0.247545 0.291955
0.190436 0.244770 0.291154
0.200836 0.244205 0.291654
0.212493 0.244714 0.292918
0.224003 0.245389 0.295020
0.235095 0.246249 0.298329
0.246132 0.247689 0.301362
0.257711 0.250694 0.305964
0.268556 0.253939 0.309788
0.279043 0.257364 0.315814
0.291058 0.261653 0.321300
0.304033 0.267144 0.326370
0.318075 0.272403 0.332052
0.332979 0.278412 0.337910
0.143684 0.269865 0.299468
0.143684 0.269865 0.299957
0.143689 0.269869 0.299980
0.143909 0.269975 0.300472
0.145374 0.270291 0.301996
0.145818 0.270365 0.302580
0.147563 0.273174 0.305276
0.149497 0.275578 0.307536
0.150640 0.276836 0.309297
0.151692 0.277367 0.310561
0.153277 0.277118 0.311047
0.154568 0.275792 0.311061
0.156875 0.275752 0.311761
0.159903 0.275509 0.312321
0.164194 0.275755 0.312710
0.170412 0.275633 0.313071
0.178658 0.275629 0.313461
0.187073 0.274577 0.313025
0.195899 0.273169 0.312475
0.204531 0.271147 0.311853
0.216646 0.270851 0.312841
0.231480 0.271124 0.314634
0.244068 0.271302 0.316561
0.254822 0.271282 0.318686
0.264919 0.271567 0.320871
0.275505 0.273033 0.324725
0.285714 0.275463 0.328521
0.296353 0.278756 0.333795
0.309194 0.282713 0.338084
0.322828 0.287395 0.342839
0.335797 0.292509 0.347288
0.350049 0.297066 0.353145
0.155784 0.298838 0.325322
0.155863 0.298838 0.325810
0.155873 0.298854 0.325889
0.155973 0.298957 0.326993
0.155525 0.297662 0.326650
0.156183 0.297131 0.327132
0.157424 0.298941 0.329079
0.157838 0.299736 0.330180
0.158785 0.301803 0.332172
0.160317 0.303312 0.333785
0.161226 0.303286 0.334430
0.162256 0.302501 0.334435
0.163500 0.302321 0.334560
0.165189 0.302076 0.334216
0.167962 0.301864 0.333857
0.171630 0.301235 0.333336
0.177493 0.300564 0.332872
0.188125 0.300076 0.333288
0.203731 0.300412 0.334191
0.220407 0.300747 0.335241
0.236927 0.300846 0.336645
0.252630 0.300411 0.338197
0.265068 0.300021 0.339379
0.275826 0.298630 0.340514
0.284976 0.297626 0.341956
0.294222 0.297861 0.345180
0.304377 0.299053 0.348821
0.315932 0.301836 0.352235
0.328860 0.305747 0.356406
0.341989 0.309632 0.360471
0.354070 0.312725 0.363803
0.367411 0.316665 0.368569
0.166931 0.328158 0.351696
0.167088 0.328158 0.352271
0.167088 0.328168 0.352321
0.167042 0.328193 0.353013
0.166615 0.327055 0.352626
0.166557 0.326913 0.352919
0.166287 0.326270 0.353167
0.166517 0.326803 0.353944
0.167225 0.328092 0.354827
0.168561 0.330946 0.356326
0.169181 0.332187 0.357170
0.169413 0.332651 0.357514
0.168957 0.331738 0.356773
0.168537 0.330340 0.355889
0.170056 0.330324 0.355712
0.174456 0.330336 0.355814
0.184018 0.330385 0.356376
0.202139 0.332418 0.358942
0.223741 0.334123 0.361533
0.242751 0.334175 0.362620
0.260132 0.333975 0.363625
0.275356 0.332608 0.363967
0.287774 0.330811 0.363991
0.297644 0.327926 0.364162
0.306137 0.325476 0.364926
0.315498 0.325051 0.367402
0.325972 0.325809 0.369691
0.337326 0.327455 0.372229
0.350173 0.330580 0.375835
0.361662 0.333522 0.379142
0.374033 0.335343 0.381945
0.385899 0.338343 0.385293
0.181835 0.358092 0.376746
0.181835 0.358092 0.377195
0.181835 0.358092 0.377195
0.181835 0.358092 0.377195
0.181835 0.358104 0.377231
0.181659 0.357836 0.377318
0.180806 0.356110 0.376526
0.181102 0.356572 0.376899
0.181533 0.357308 0.377854
0.182681 0.359813 0.379003
0.184365 0.363095 0.380788
0.185940 0.365119 0.382062
0.187122 0.364849 0.381797
0.188932 0.364537 0.381900
0.193006 0.364980 0.382550
0.201733 0.366148 0.383971
0.214825 0.367319 0.385801
0.231236 0.368471 0.387979
0.248633 0.368729 0.389383
0.264596 0.367095 0.389126
0.280883 0.365261 0.389070
0.296166 0.362528 0.388268
0.308933 0.359678 0.387651
0.318165 0.355275 0.386679
0.326788 0.352581 0.387029
0.336618 0.351349 0.387991
0.347073 0.351767 0.389392
0.358955 0.353305 0.391800
0.370261 0.354853 0.394122
0.381310 0.356242 0.396672
0.393176 0.357692 0.399158
0.405404 0.360306 0.402655
0.197928 0.391650 0.402127
0.197928 0.391650 0.402127
0.197928 0.391650 0.402127
0.197928 0.391650 0.402127
0.197928 0.391668 0.402182
0.197882 0.391700 0.402529
0.197645 0.391197 0.402383
0.197677 0.391092 0.402406
0.197912 0.391358 0.403160
0.198593 0.392772 0.404326
0.200137 0.395945 0.405806
0.202708 0.399536 0.407635
0.205454 0.401038 0.408790
0.208621 0.401146 0.409406
0.213512 0.401080 0.409851
0.221635 0.401722 0.410690
0.233264 0.402299 0.411983
0.249787 0.402882 0.413885
0.267999 0.402526 0.415312
0.284644 0.400684 0.415303
0.301411 0.398170 0.415314
0.317350 0.395039 0.414373
0.330228 0.390381 0.412468
0.340509 0.385782 0.410677
0.350047 0.382554 0.409878
0.360062 0.380500 0.409406
0.370689 0.380170 0.410905
0.381121 0.380721 0.412678
0.391511 0.380354 0.413664
0.402382 0.380800 0.415802
0.413424 0.382191 0.418033
0.425917 0.383765 0.421316
0.215842 0.429414 0.430155
0.215842 0.429414 0.430155
0.215842 0.429414 0.430155
0.215842 0.429414 0.430155
0.215842 0.429414 0.430155
0.215913 0.429521 0.430262
0.216219 0.429969 0.430774
0.215952 0.429494 0.430566
0.215964 0.429346 0.430767
0.216006 0.429309 0.431689
0.216582 0.430737 0.432360
0.218362 0.434558 0.434141
0.219712 0.437134 0.435405
0.220870 0.437186 0.435668
0.223731 0.436375 0.435264
0.230841 0.436073 0.435525
0.244511 0.436691 0.437266
0.265326 0.438039 0.440001
0.287423 0.438315 0.442260
0.307196 0.436875 0.443328
0.324471 0.433699 0.443073
0.339546 0.429266 0.441692
0.352778 0.423928 0.439078
0.364428 0.418325 0.435765
0.375052 0.414202 0.433937
0.384901 0.411635 0.433062
0.395043 0.409928 0.433686
0.404768 0.409338 0.434012
0.414210 0.407900 0.434636
0.424047 0.407361 0.436343
0.434872 0.408172 0.438713
0.446934 0.409051 0.441388
0.235338 0.469566 0.459601
0.235693 0.470275 0.459955
0.235693 0.470275 0.459955
0.235738 0.470355 0.460024
0.236165 0.471102 0.460679
0.236247 0.471224 0.460904
0.236596 0.471736 0.461490
0.236211 0.471094 0.461233
0.235780 0.470263 0.460961
0.235294 0.469114 0.460667
0.235448 0.469423 0.460821
0.236525 0.471457 0.461814
0.238854 0.474554 0.463436
0.243109 0.477405 0.465329
0.249113 0.478304 0.466522
0.258971 0.478146 0.467433
0.275035 0.478780 0.469449
0.294639 0.478941 0.471630
0.314428 0.478168 0.473045
0.332933 0.475682 0.473297
0.349805 0.471687 0.472144
0.365124 0.466321 0.470019
0.379123 0.461014 0.467289
0.391212 0.454539 0.463035
0.401360 0.448443 0.459587
0.410972 0.444834 0.458150
0.420162 0.441338 0.457275
0.429447 0.439600 0.457225
0.438680 0.437911 0.457494
0.447776 0.436164 0.458442
0.458033 0.436650 0.460633
0.469605 0.435354 0.461601
0.256009 0.512041 0.490606
0.256363 0.512750 0.490961
0.256363 0.512750 0.490961
0.256409 0.512830 0.491029
0.256836 0.513577 0.491685
0.256836 0.513577 0.491788
0.256860 0.513601 0.491885
0.256882 0.513569 0.492239
0.256516 0.512868 0.491934
0.256070 0.511728 0.491363
0.255541 0.510410 0.490867
0.255622 0.510236 0.491165
0.257138 0.511870 0.492152
0.261271 0.515339 0.494131
0.268950 0.518482 0.496332
0.281739 0.519483 0.498300
0.300795 0.520637 0.501162
0.320689 0.520611 0.503286
0.340022 0.518797 0.504156
0.359438 0.515734 0.503993
0.377383 0.511723 0.502483
0.393958 0.506402 0.499670
0.407827 0.500021 0.495941
0.419042 0.492359 0.491113
0.429060 0.485026 0.486690
0.438192 0.479812 0.484183
0.446309 0.474836 0.482479
0.455301 0.472326 0.482087
0.463721 0.469075 0.481185
0.472378 0.466462 0.481422
0.482489 0.465557 0.482962
0.493552 0.463587 0.483532
0.276915 0.555902 0.522234
0.276915 0.555902 0.522251
0.276915 0.555902 0.522770
0.276915 0.555902 0.522770
0.276915 0.555902 0.522770
0.276872 0.555794 0.522727
0.276669 0.555254 0.522587
0.276758 0.555343 0.522943
0.276689 0.555170 0.522874
0.276213 0.554095 0.522366
0.275250 0.551948 0.521431
0.274456 0.550023 0.520901
0.274093 0.549228 0.520557
0.275679 0.550611 0.521235
0.282071 0.554538 0.523624
0.298075 0.558243 0.527315
0.322035 0.560906 0.531662
0.344921 0.561983 0.534766
0.366974 0.560889 0.536074
0.387941 0.557683 0.535625
0.406916 0.553162 0.533571
0.423746 0.547528 0.530206
0.436571 0.539393 0.525050
0.447599 0.530977 0.519934
0.457383 0.522662 0.514799
0.465491 0.515311 0.510841
0.473536 0.509778 0.508805
0.481782 0.505929 0.507246
0.489995 0.501950 0.506293
0.498280 0.498432 0.505710
0.507604 0.496066 0.506103
0.518240 0.493348 0.507180
0.297018 0.598062 0.553602
0.297018 0.598062 0.553615
0.297018 0.598062 0.554012
0.297018 0.598062 0.554012
0.297018 0.598062 0.554012
0.296985 0.597980 0.553979
0.296759 0.597440 0.553834
0.296562 0.596983 0.553981
0.296619 0.596851 0.554037
0.296213 0.596034 0.553673
0.295199 0.594021 0.552713
0.293874 0.590954 0.551293
0.292945 0.588350 0.550159
0.293769 0.587609 0.550012
0.300256 0.590295 0.551917
0.320387 0.597068 0.557293
0.347981 0.603178 0.563379
0.373561 0.605439 0.567148
0.397598 0.604889 0.568798
0.418567 0.601355 0.567883
0.436812 0.595701 0.564855
0.452955 0.588841 0.560749
0.465160 0.579479 0.555107
0.476122 0.570430 0.549331
0.486020 0.561457 0.543911
0.493730 0.552506 0.538819
0.501212 0.545585 0.535645
0.508737 0.540341 0.533357
0.516828 0.536057 0.531907
0.524507 0.531214 0.530735
0.533666 0.527995 0.530388
0.544110 0.523912 0.530545
0.317279 0.640246 0.585309
0.317279 0.640246 0.585309
0.317279 0.640246 0.585309
0.317236 0.640144 0.585265
0.316830 0.639179 0.584860
0.316830 0.639048 0.584860
0.316794 0.638975 0.584878
0.316595 0.638535 0.585009
0.316359 0.637878 0.585160
0.315897 0.636870 0.584836
0.315061 0.635108 0.584037
0.313984 0.632591 0.582737
0.312551 0.629297 0.580730
0.312255 0.626848 0.579354
0.318900 0.627567 0.580120
0.341280 0.634366 0.585707
0.375473 0.644905 0.594648
0.405859 0.650244 0.600246
0.429305 0.649794 0.601867
0.449497 0.646136 0.600735
0.467136 0.639680 0.597209
0.482278 0.630975 0.592018
0.494485 0.621658 0.586458
0.505566 0.611867 0.580204
0.515340 0.601792 0.573626
0.522859 0.591692 0.568094
0.529827 0.583106 0.563822
0.536822 0.576618 0.560801
0.544891 0.571287 0.558633
0.552286 0.565773 0.557296
0.560420 0.560959 0.555731
0.571381 0.555816 0.554539
0.338422 0.684139 0.618110
0.338107 0.683351 0.617795
0.338107 0.683351 0.617795
0.338082 0.683292 0.617770
0.337847 0.682733 0.617535
0.337771 0.682455 0.617459
0.337374 0.681428 0.617093
0.337264 0.681334 0.617204
0.336719 0.680182 0.616802
0.336027 0.678662 0.615635
0.335452 0.677516 0.615171
0.334814 0.676073 0.614330
0.333113 0.672650 0.611852
0.331820 0.668816 0.609206
0.340481 0.668757 0.609929
0.365377 0.674598 0.615849
0.398790 0.684096 0.624269
0.433772 0.693738 0.632676
0.461662 0.697331 0.636651
0.481519 0.693783 0.635527
0.498361 0.686177 0.631599
0.514243 0.677257 0.626676
0.526631 0.667535 0.620691
0.537565 0.657103 0.613821
0.546615 0.644931 0.605901
0.554156 0.633881 0.599530
0.560862 0.624331 0.594746
0.567083 0.616111 0.590387
0.573850 0.608471 0.587149
0.582002 0.602733 0.585129
0.589068 0.596578 0.583187
0.600118 0.589751 0.579999
0.359683 0.728174 0.650888
0.359697 0.727961 0.651238
0.359857 0.728441 0.651558
0.359857 0.728441 0.651558
0.359857 0.728441 0.651558
0.359819 0.728340 0.651520
0.359492 0.727506 0.651177
0.358848 0.726053 0.650256
0.358324 0.725197 0.648923
0.357642 0.723948 0.647972
0.356952 0.722362 0.647337
0.356496 0.721190 0.646356
0.357676 0.719143 0.644763
0.361162 0.716802 0.643858
0.371686 0.716055 0.644685
0.397639 0.720755 0.650246
0.426892 0.726943 0.656743
0.458854 0.735833 0.664665
0.491716 0.744563 0.671668
0.515027 0.744691 0.672822
0.531785 0.737063 0.669046
0.547966 0.727779 0.663828
0.560689 0.717226 0.657434
0.571234 0.705858 0.649874
0.580634 0.692983 0.641618
0.588397 0.680190 0.634457
0.594487 0.668928 0.628244
0.600284 0.659342 0.622609
0.606451 0.650526 0.618678
0.613173 0.642669 0.615346
0.619177 0.633958 0.611725
0.632589 0.627185 0.608035
0.378605 0.767703 0.679074
0.378700 0.767831 0.679324
0.379462 0.769591 0.680490
0.379803 0.770239 0.680898
0.380094 0.770530 0.681838
0.381028 0.772576 0.682950
0.380950 0.772506 0.683004
0.379991 0.770309 0.681892
0.379621 0.769572 0.680969
0.378690 0.767902 0.679344
0.378052 0.766414 0.678528
0.377576 0.764881 0.677672
0.377982 0.763226 0.676417
0.386115 0.762841 0.676909
0.405764 0.765120 0.680635
0.429160 0.767795 0.684826
0.455104 0.771836 0.689981
0.483703 0.778052 0.696313
0.515294 0.786356 0.703470
0.543998 0.792059 0.708134
0.565235 0.789059 0.707172
0.581672 0.779525 0.701779
0.594289 0.767548 0.694450
0.604984 0.755025 0.686486
0.615181 0.741919 0.678097
0.622965 0.727959 0.669745
0.627645 0.714141 0.661785
0.633331 0.702704 0.655209
0.639279 0.693138 0.650952
0.644280 0.682157 0.645047
0.651462 0.673418 0.641250
0.664713 0.664272 0.635637
0.401575 0.802001 0.705290
0.401595 0.802025 0.705308
0.402245 0.802789 0.705951
0.403205 0.803399 0.707508
0.405204 0.803972 0.708504
0.409494 0.806014 0.710510
0.416839 0.808352 0.713839
0.424142 0.810111 0.716671
0.428362 0.811178 0.717303
0.431727 0.811754 0.717716
0.435118 0.812464 0.718494
0.439432 0.812893 0.719037
0.447048 0.813419 0.719826
0.461671 0.816050 0.723141
0.481458 0.819693 0.727539
0.499541 0.822238 0.730702
0.515800 0.823710 0.733247
0.534149 0.825538 0.736004
0.556699 0.829387 0.740032
0.583621 0.835292 0.745041
0.609451 0.838443 0.747716
0.624284 0.831978 0.743300
0.632601 0.820253 0.734552
0.641408 0.807286 0.725311
0.650918 0.793677 0.716586
0.657506 0.777841 0.705919
0.661756 0.761362 0.696442
0.666839 0.747424 0.688706
0.671593 0.735722 0.682277
0.675974 0.723345 0.676309
0.682756 0.712723 0.670587
0.697601 0.702926 0.664240
0.520304 0.845043 0.754193
0.523577 0.846198 0.756299
0.525551 0.846868 0.757173
0.529288 0.848012 0.758724
0.534914 0.849716 0.761387
0.541331 0.851764 0.764009
0.550850 0.854688 0.768095
0.561542 0.857977 0.772217
0.570853 0.860947 0.776362
0.578021 0.863200 0.779471
0.582466 0.864581 0.780602
0.585909 0.865367 0.780583
0.591216 0.866520 0.781778
0.598271 0.868293 0.783314
0.605694 0.870005 0.784520
0.612651 0.871491 0.785590
0.618566 0.872442 0.785891
0.624176 0.873149 0.785665
0.631906 0.874204 0.785790
0.645380 0.876399 0.787291
0.663949 0.879794 0.789071
0.681467 0.880477 0.788609
0.688198 0.872947 0.781244
0.690726 0.860521 0.770276
0.694267 0.845953 0.758526
0.697113 0.829425 0.746168
0.698651 0.811527 0.734345
0.702449 0.795304 0.725105
0.706219 0.782050 0.717489
0.710626 0.768182 0.709996
0.716502 0.755028 0.702652
0.732640 0.743259 0.693481
0.646855 0.884533 0.806129
0.649305 0.885431 0.807271
0.651611 0.886193 0.808346
0.654495 0.887061 0.810322
0.657867 0.888162 0.811625
0.663172 0.889935 0.814610
0.668995 0.891659 0.817110
0.676671 0.894178 0.820999
0.684871 0.896908 0.825380
0.693273 0.899569 0.829777
0.700099 0.901804 0.833237
0.704091 0.903065 0.834891
0.705210 0.903304 0.834495
0.707304 0.903955 0.834964
0.709293 0.904406 0.834609
0.711278 0.904910 0.834347
0.713636 0.905512 0.834119
0.715184 0.905861 0.833170
0.716725 0.906069 0.832076
0.719211 0.906191 0.830358
0.726049 0.907717 0.829764
0.738520 0.910619 0.830013
0.748989 0.911811 0.827912
0.749373 0.908168 0.819235
0.745622 0.896408 0.805818
0.743101 0.880320 0.790941
0.741631 0.861414 0.776598
0.742082 0.844726 0.765011
0.744378 0.829633 0.755048
0.746884 0.814106 0.746083
0.752666 0.799798 0.736723
0.770743 0.786404 0.725086
0.736532 0.913285 0.849218
0.736918 0.913427 0.849368
0.739189 0.914170 0.850376
0.741514 0.914755 0.851468
0.744235 0.915769 0.853429
0.748465 0.917098 0.855353
0.752317 0.918508 0.858143
0.758580 0.920528 0.861675
0.764682 0.922530 0.865211
0.771676 0.924869 0.869298
0.779453 0.927430 0.874151
0.787236 0.930041 0.879059
0.791170 0.931341 0.881422
0.792216 0.931713 0.881348
0.792333 0.931547 0.880458
0.792471 0.931492 0.879877
0.793430 0.931785 0.879202
0.794098 0.931799 0.878057
0.793938 0.931632 0.876743
0.793716 0.931357 0.874654
0.793242 0.930858 0.871897
0.795133 0.931052 0.869175
0.801077 0.932410 0.866272
0.807376 0.933728 0.862683
0.802166 0.929835 0.851396
0.794216 0.923710 0.837495
0.789281 0.911883 0.823174
0.785398 0.893904 0.807749
0.783948 0.877164 0.795460
0.785863 0.861231 0.783445
0.792863 0.847165 0.772486
0.811202 0.832928 0.759809
0.808153 0.936602 0.887369
0.808217 0.936619 0.887393
0.810184 0.937154 0.888249
0.811063 0.937664 0.890018
0.813640 0.938347 0.891204
0.817879 0.939759 0.893991
0.821093 0.940900 0.896439
0.826056 0.942518 0.898712
0.831086 0.944299 0.902335
0.836931 0.946252 0.906774
0.844557 0.948836 0.911400
0.853092 0.951755 0.916912
0.860245 0.954178 0.921548
0.866541 0.956322 0.925678
0.868828 0.957030 0.926789
0.868360 0.956910 0.926299
0.867360 0.956503 0.924994
0.866273 0.955957 0.923189
