gsg/03_Cinematic/GSG_LUT_Cinematic_AlienMovie.cube
# GSG LUTs 1.0
# Copyright (c) 2016-2020 Greyscalegorilla
# See EULA for licensing and distribution information
# Converted by Briz LUT Converter
LUT_3D_SIZE 5
DOMAIN_MIN 0.000000 0.000000 0.000000
DOMAIN_MAX 0.903226 0.903226 0.903226
0.007570 0.037851 0.053724
0.040585 0.058104 0.083832
0.089330 0.083682 0.121927
0.175186 0.119887 0.175840
0.370310 0.178053 0.263051
0.014140 0.105967 0.110056
0.048962 0.125732 0.137256
0.100113 0.150821 0.171358
0.189145 0.186482 0.219591
0.388935 0.244161 0.297268
0.018425 0.198157 0.174973
0.055678 0.217488 0.198425
0.109748 0.241924 0.227860
0.203025 0.276742 0.269302
0.408744 0.333378 0.336700
0.017086 0.348119 0.258183
0.058015 0.366424 0.276663
0.116862 0.389693 0.300150
0.216773 0.422734 0.333507
0.430982 0.477041 0.390413
0.001505 0.662247 0.379259
0.050717 0.677472 0.392501
0.119597 0.696593 0.410201
0.267068 0.712947 0.404742
0.569336 0.736112 0.391620
0.009091 0.045453 0.092221
0.042538 0.065364 0.123416
0.091638 0.090282 0.163056
0.178148 0.125724 0.219455
0.374083 0.182638 0.310594
0.015117 0.113325 0.150861
0.050308 0.132823 0.179073
0.101847 0.157390 0.214647
0.191548 0.192304 0.265070
0.392196 0.248746 0.346601
0.018670 0.205355 0.218386
0.056202 0.224436 0.242937
0.110767 0.248323 0.273724
0.204754 0.282362 0.317332
0.411264 0.337962 0.388217
0.016493 0.354988 0.305510
0.057836 0.372994 0.325040
0.117156 0.395799 0.349713
0.217634 0.428119 0.384864
0.432817 0.481569 0.444458
0.000987 0.667888 0.432809
0.050505 0.682820 0.446784
0.122986 0.700653 0.462158
0.275087 0.715227 0.454008
0.576940 0.738106 0.442907
0.010855 0.055118 0.143298
0.044712 0.074339 0.176068
0.094495 0.098641 0.217609
0.181677 0.133140 0.276848
0.378920 0.188554 0.373135
0.016124 0.122746 0.204900
0.051715 0.141723 0.234398
0.103856 0.165640 0.271857
0.194360 0.199585 0.325062
0.396260 0.254656 0.411302
0.018803 0.214557 0.275870
0.056827 0.233039 0.301581
0.112029 0.256400 0.334142
0.206768 0.289582 0.380246
0.414326 0.343755 0.455405
0.015743 0.363677 0.367746
0.057606 0.381222 0.388446
0.117489 0.403399 0.414499
0.218837 0.434909 0.451855
0.435015 0.487109 0.514872
0.000226 0.675080 0.502667
0.050240 0.689693 0.517255
0.131966 0.704289 0.525278
0.285131 0.718075 0.517945
0.586664 0.740720 0.508971
0.013273 0.069298 0.225806
0.047753 0.087786 0.260640
0.098484 0.111080 0.304959
0.186923 0.144078 0.368525
0.385986 0.197188 0.472235
0.017370 0.136809 0.291329
0.053706 0.154964 0.322947
0.106733 0.177928 0.363142
0.198452 0.210448 0.420316
0.402119 0.263295 0.513448
0.018847 0.228174 0.367380
0.057619 0.245938 0.395109
0.113577 0.268364 0.430109
0.209571 0.300201 0.479915
0.418859 0.352396 0.561064
0.014445 0.376714 0.466383
0.057048 0.393553 0.488755
0.117923 0.414776 0.516876
0.220486 0.445122 0.557194
0.438856 0.495408 0.624110
0.000102 0.685911 0.611596
0.051334 0.699431 0.626168
0.145676 0.709526 0.623964
0.300570 0.722347 0.617416
0.601557 0.744868 0.611003
0.016779 0.096231 0.403876
0.052584 0.113222 0.442790
0.105061 0.134696 0.492565
0.196046 0.164851 0.563740
0.398574 0.213563 0.680522
0.018785 0.163365 0.477046
0.056460 0.180062 0.512685
0.111347 0.201099 0.557756
0.205628 0.231074 0.622108
0.412645 0.279886 0.726847
0.017984 0.254094 0.562406
0.058143 0.270446 0.593641
0.116050 0.291129 0.633040
0.214502 0.320407 0.689095
0.427103 0.369086 0.779922
0.011509 0.401308 0.673898
0.055583 0.416753 0.699047
0.118236 0.436418 0.730616
0.223474 0.464532 0.775638
0.467972 0.504513 0.826837
0.007670 0.703144 0.826719
0.077680 0.710355 0.826491
0.175908 0.718650 0.823902
0.331458 0.730584 0.820114
0.631054 0.753218 0.816070
