gsg/03_Cinematic/GSG_LUT_Cinematic_Falconry.cube
# GSG LUTs 1.0
# Copyright (c) 2016-2020 Greyscalegorilla
# See EULA for licensing and distribution information
# Converted by Briz LUT Converter
LUT_3D_SIZE 8
DOMAIN_MIN 0.000000 0.000000 0.000000
DOMAIN_MAX 0.903226 0.903226 0.903226
0.035653 0.026618 0.014652
0.215905 0.026618 0.014652
0.317011 0.026618 0.014652
0.428666 0.026618 0.014652
0.547182 0.026618 0.014652
0.714719 0.026618 0.014652
0.847178 0.026618 0.014652
0.912427 0.026618 0.014652
0.035653 0.145795 0.014652
0.215905 0.145795 0.014652
0.317011 0.145795 0.014652
0.428666 0.145795 0.014652
0.547182 0.145795 0.014652
0.714719 0.145795 0.014652
0.847178 0.145795 0.014652
0.912427 0.145795 0.014652
0.035653 0.228831 0.014652
0.215905 0.228831 0.014652
0.317011 0.228831 0.014652
0.428666 0.228831 0.014652
0.547182 0.228831 0.014652
0.714719 0.228831 0.014652
0.847178 0.228831 0.014652
0.912427 0.228831 0.014652
0.035653 0.302832 0.014652
0.215905 0.302832 0.014652
0.317011 0.302832 0.014652
0.428666 0.302832 0.014652
0.547182 0.302832 0.014652
0.714719 0.302832 0.014652
0.847178 0.302832 0.014652
0.912427 0.302832 0.014652
0.035653 0.388798 0.014652
0.215905 0.388798 0.014652
0.317011 0.388798 0.014652
0.428666 0.388798 0.014652
0.547182 0.388798 0.014652
0.714719 0.388798 0.014652
0.847178 0.388798 0.014652
0.912427 0.388798 0.014652
0.035653 0.499791 0.014652
0.215905 0.499791 0.014652
0.317011 0.499791 0.014652
0.428666 0.499791 0.014652
0.547182 0.499791 0.014652
0.714719 0.499791 0.014652
0.847178 0.499791 0.014652
0.912427 0.499791 0.014652
0.035653 0.650896 0.014652
0.215905 0.650896 0.014652
0.317011 0.650896 0.014652
0.428666 0.650896 0.014652
0.547182 0.650896 0.014652
0.714719 0.650896 0.014652
0.847178 0.650896 0.014652
0.912427 0.650896 0.014652
0.035653 0.836709 0.014652
0.215905 0.836709 0.014652
0.317011 0.836709 0.014652
0.428666 0.836709 0.014652
0.547182 0.836709 0.014652
0.714719 0.836709 0.014652
0.847178 0.836709 0.014652
0.912427 0.836709 0.014652
0.035653 0.026618 0.042444
0.215905 0.026618 0.042444
0.317011 0.026618 0.042444
0.428666 0.026618 0.042444
0.547182 0.026618 0.042444
0.714719 0.026618 0.042444
0.847178 0.026618 0.042444
0.912427 0.026618 0.042444
0.035653 0.145795 0.042444
0.215905 0.145795 0.042444
0.317011 0.145795 0.042444
0.428666 0.145795 0.042444
0.547182 0.145795 0.042444
0.714719 0.145795 0.042444
0.847178 0.145795 0.042444
0.912427 0.145795 0.042444
0.035653 0.228831 0.042444
0.215905 0.228831 0.042444
0.317011 0.228831 0.042444
0.428666 0.228831 0.042444
0.547182 0.228831 0.042444
0.714719 0.228831 0.042444
0.847178 0.228831 0.042444
0.912427 0.228831 0.042444
0.035653 0.302832 0.042444
0.215905 0.302832 0.042444
0.317011 0.302832 0.042444
0.428666 0.302832 0.042444
0.547182 0.302832 0.042444
0.714719 0.302832 0.042444
0.847178 0.302832 0.042444
0.912427 0.302832 0.042444
0.035653 0.388798 0.042444
0.215905 0.388798 0.042444
0.317011 0.388798 0.042444
0.428666 0.388798 0.042444
0.547182 0.388798 0.042444
0.714719 0.388798 0.042444
0.847178 0.388798 0.042444
0.912427 0.388798 0.042444
0.035653 0.499791 0.042444
0.215905 0.499791 0.042444
0.317011 0.499791 0.042444
0.428666 0.499791 0.042444
0.547182 0.499791 0.042444
0.714719 0.499791 0.042444
0.847178 0.499791 0.042444
0.912427 0.499791 0.042444
0.035653 0.650896 0.042444
0.215905 0.650896 0.042444
0.317011 0.650896 0.042444
0.428666 0.650896 0.042444
0.547182 0.650896 0.042444
0.714719 0.650896 0.042444
0.847178 0.650896 0.042444
0.912427 0.650896 0.042444
0.035653 0.836709 0.042444
0.215905 0.836709 0.042444
0.317011 0.836709 0.042444
0.428666 0.836709 0.042444
0.547182 0.836709 0.042444
0.714719 0.836709 0.042444
0.847178 0.836709 0.042444
0.912427 0.836709 0.042444
0.035653 0.026618 0.115656
0.215905 0.026618 0.115656
0.317011 0.026618 0.115656
0.428666 0.026618 0.115656
0.547182 0.026618 0.115656
0.714719 0.026618 0.115656
0.847178 0.026618 0.115656
0.912427 0.026618 0.115656
0.035653 0.145795 0.115656
0.215905 0.145795 0.115656
0.317011 0.145795 0.115656
0.428666 0.145795 0.115656
0.547182 0.145795 0.115656
0.714719 0.145795 0.115656
0.847178 0.145795 0.115656
0.912427 0.145795 0.115656
0.035653 0.228831 0.115656
0.215905 0.228831 0.115656
0.317011 0.228831 0.115656
0.428666 0.228831 0.115656
0.547182 0.228831 0.115656
0.714719 0.228831 0.115656
0.847178 0.228831 0.115656
0.912427 0.228831 0.115656
0.035653 0.302832 0.115656
0.215905 0.302832 0.115656
0.317011 0.302832 0.115656
0.428666 0.302832 0.115656
0.547182 0.302832 0.115656
0.714719 0.302832 0.115656
0.847178 0.302832 0.115656
0.912427 0.302832 0.115656
0.035653 0.388798 0.115656
0.215905 0.388798 0.115656
0.317011 0.388798 0.115656
0.428666 0.388798 0.115656
0.547182 0.388798 0.115656
0.714719 0.388798 0.115656
0.847178 0.388798 0.115656
0.912427 0.388798 0.115656
0.035653 0.499791 0.115656
0.215905 0.499791 0.115656
0.317011 0.499791 0.115656
0.428666 0.499791 0.115656
0.547182 0.499791 0.115656
0.714719 0.499791 0.115656
0.847178 0.499791 0.115656
0.912427 0.499791 0.115656
0.035653 0.650896 0.115656
0.215905 0.650896 0.115656
0.317011 0.650896 0.115656
0.428666 0.650896 0.115656
0.547182 0.650896 0.115656
0.714719 0.650896 0.115656
0.847178 0.650896 0.115656
0.912427 0.650896 0.115656
0.035653 0.836709 0.115656
0.215905 0.836709 0.115656
0.317011 0.836709 0.115656
0.428666 0.836709 0.115656
0.547182 0.836709 0.115656
0.714719 0.836709 0.115656
0.847178 0.836709 0.115656
0.912427 0.836709 0.115656
0.035653 0.026618 0.185939
0.215905 0.026618 0.185939
0.317011 0.026618 0.185939
0.428666 0.026618 0.185939
0.547182 0.026618 0.185939
0.714719 0.026618 0.185939
0.847178 0.026618 0.185939
0.912427 0.026618 0.185939
0.035653 0.145795 0.185939
0.215905 0.145795 0.185939
0.317011 0.145795 0.185939
0.428666 0.145795 0.185939
0.547182 0.145795 0.185939
0.714719 0.145795 0.185939
0.847178 0.145795 0.185939
0.912427 0.145795 0.185939
0.035653 0.228831 0.185939
0.215905 0.228831 0.185939
0.317011 0.228831 0.185939
0.428666 0.228831 0.185939
0.547182 0.228831 0.185939
0.714719 0.228831 0.185939
0.847178 0.228831 0.185939
0.912427 0.228831 0.185939
0.035653 0.302832 0.185939
0.215905 0.302832 0.185939
0.317011 0.302832 0.185939
0.428666 0.302832 0.185939
0.547182 0.302832 0.185939
0.714719 0.302832 0.185939
0.847178 0.302832 0.185939
0.912427 0.302832 0.185939
0.035653 0.388798 0.185939
0.215905 0.388798 0.185939
0.317011 0.388798 0.185939
0.428666 0.388798 0.185939
0.547182 0.388798 0.185939
0.714719 0.388798 0.185939
0.847178 0.388798 0.185939
0.912427 0.388798 0.185939
0.035653 0.499791 0.185939
0.215905 0.499791 0.185939
0.317011 0.499791 0.185939
0.428666 0.499791 0.185939
0.547182 0.499791 0.185939
0.714719 0.499791 0.185939
0.847178 0.499791 0.185939
0.912427 0.499791 0.185939
0.035653 0.650896 0.185939
0.215905 0.650896 0.185939
0.317011 0.650896 0.185939
0.428666 0.650896 0.185939
0.547182 0.650896 0.185939
0.714719 0.650896 0.185939
0.847178 0.650896 0.185939
0.912427 0.650896 0.185939
0.035653 0.836709 0.185939
0.215905 0.836709 0.185939
0.317011 0.836709 0.185939
0.428666 0.836709 0.185939
0.547182 0.836709 0.185939
0.714719 0.836709 0.185939
0.847178 0.836709 0.185939
0.912427 0.836709 0.185939
0.035653 0.026618 0.259152
0.215905 0.026618 0.259152
0.317011 0.026618 0.259152
0.428666 0.026618 0.259152
0.547182 0.026618 0.259152
0.714719 0.026618 0.259152
0.847178 0.026618 0.259152
0.912427 0.026618 0.259152
0.035653 0.145795 0.259152
0.215905 0.145795 0.259152
0.317011 0.145795 0.259152
0.428666 0.145795 0.259152
0.547182 0.145795 0.259152
0.714719 0.145795 0.259152
0.847178 0.145795 0.259152
0.912427 0.145795 0.259152
0.035653 0.228831 0.259152
0.215905 0.228831 0.259152
0.317011 0.228831 0.259152
0.428666 0.228831 0.259152
0.547182 0.228831 0.259152
0.714719 0.228831 0.259152
0.847178 0.228831 0.259152
0.912427 0.228831 0.259152
0.035653 0.302832 0.259152
0.215905 0.302832 0.259152
0.317011 0.302832 0.259152
0.428666 0.302832 0.259152
0.547182 0.302832 0.259152
0.714719 0.302832 0.259152
0.847178 0.302832 0.259152
0.912427 0.302832 0.259152
0.035653 0.388798 0.259152
0.215905 0.388798 0.259152
0.317011 0.388798 0.259152
0.428666 0.388798 0.259152
0.547182 0.388798 0.259152
0.714719 0.388798 0.259152
0.847178 0.388798 0.259152
0.912427 0.388798 0.259152
0.035653 0.499791 0.259152
0.215905 0.499791 0.259152
0.317011 0.499791 0.259152
0.428666 0.499791 0.259152
0.547182 0.499791 0.259152
0.714719 0.499791 0.259152
0.847178 0.499791 0.259152
0.912427 0.499791 0.259152
0.035653 0.650896 0.259152
0.215905 0.650896 0.259152
0.317011 0.650896 0.259152
0.428666 0.650896 0.259152
0.547182 0.650896 0.259152
0.714719 0.650896 0.259152
0.847178 0.650896 0.259152
0.912427 0.650896 0.259152
0.035653 0.836709 0.259152
0.215905 0.836709 0.259152
0.317011 0.836709 0.259152
0.428666 0.836709 0.259152
0.547182 0.836709 0.259152
0.714719 0.836709 0.259152
0.847178 0.836709 0.259152
0.912427 0.836709 0.259152
0.035653 0.026618 0.338225
0.215905 0.026618 0.338225
0.317011 0.026618 0.338225
0.428666 0.026618 0.338225
0.547182 0.026618 0.338225
0.714719 0.026618 0.338225
0.847178 0.026618 0.338225
0.912427 0.026618 0.338225
0.035653 0.145795 0.338225
0.215905 0.145795 0.338225
0.317011 0.145795 0.338225
0.428666 0.145795 0.338225
0.547182 0.145795 0.338225
0.714719 0.145795 0.338225
0.847178 0.145795 0.338225
0.912427 0.145795 0.338225
0.035653 0.228831 0.338225
0.215905 0.228831 0.338225
0.317011 0.228831 0.338225
0.428666 0.228831 0.338225
0.547182 0.228831 0.338225
0.714719 0.228831 0.338225
0.847178 0.228831 0.338225
0.912427 0.228831 0.338225
0.035653 0.302832 0.338225
0.215905 0.302832 0.338225
0.317011 0.302832 0.338225
0.428666 0.302832 0.338225
0.547182 0.302832 0.338225
0.714719 0.302832 0.338225
0.847178 0.302832 0.338225
0.912427 0.302832 0.338225
0.035653 0.388798 0.338225
0.215905 0.388798 0.338225
0.317011 0.388798 0.338225
0.428666 0.388798 0.338225
0.547182 0.388798 0.338225
0.714719 0.388798 0.338225
0.847178 0.388798 0.338225
0.912427 0.388798 0.338225
0.035653 0.499791 0.338225
0.215905 0.499791 0.338225
0.317011 0.499791 0.338225
0.428666 0.499791 0.338225
0.547182 0.499791 0.338225
0.714719 0.499791 0.338225
0.847178 0.499791 0.338225
0.912427 0.499791 0.338225
0.035653 0.650896 0.338225
0.215905 0.650896 0.338225
0.317011 0.650896 0.338225
0.428666 0.650896 0.338225
0.547182 0.650896 0.338225
0.714719 0.650896 0.338225
0.847178 0.650896 0.338225
0.912427 0.650896 0.338225
0.035653 0.836709 0.338225
0.215905 0.836709 0.338225
0.317011 0.836709 0.338225
0.428666 0.836709 0.338225
0.547182 0.836709 0.338225
0.714719 0.836709 0.338225
0.847178 0.836709 0.338225
0.912427 0.836709 0.338225
0.035653 0.026618 0.577250
0.215905 0.026618 0.577250
0.317011 0.026618 0.577250
0.428666 0.026618 0.577250
0.547182 0.026618 0.577250
0.714719 0.026618 0.577250
0.847178 0.026618 0.577250
0.912427 0.026618 0.577250
0.035653 0.145795 0.577250
0.215905 0.145795 0.577250
0.317011 0.145795 0.577250
0.428666 0.145795 0.577250
0.547182 0.145795 0.577250
0.714719 0.145795 0.577250
0.847178 0.145795 0.577250
0.912427 0.145795 0.577250
0.035653 0.228831 0.577250
0.215905 0.228831 0.577250
0.317011 0.228831 0.577250
0.428666 0.228831 0.577250
0.547182 0.228831 0.577250
0.714719 0.228831 0.577250
0.847178 0.228831 0.577250
0.912427 0.228831 0.577250
0.035653 0.302832 0.577250
0.215905 0.302832 0.577250
0.317011 0.302832 0.577250
0.428666 0.302832 0.577250
0.547182 0.302832 0.577250
0.714719 0.302832 0.577250
0.847178 0.302832 0.577250
0.912427 0.302832 0.577250
0.035653 0.388798 0.577250
0.215905 0.388798 0.577250
0.317011 0.388798 0.577250
0.428666 0.388798 0.577250
0.547182 0.388798 0.577250
0.714719 0.388798 0.577250
0.847178 0.388798 0.577250
0.912427 0.388798 0.577250
0.035653 0.499791 0.577250
0.215905 0.499791 0.577250
0.317011 0.499791 0.577250
0.428666 0.499791 0.577250
0.547182 0.499791 0.577250
0.714719 0.499791 0.577250
0.847178 0.499791 0.577250
0.912427 0.499791 0.577250
0.035653 0.650896 0.577250
0.215905 0.650896 0.577250
0.317011 0.650896 0.577250
0.428666 0.650896 0.577250
0.547182 0.650896 0.577250
0.714719 0.650896 0.577250
0.847178 0.650896 0.577250
0.912427 0.650896 0.577250
0.035653 0.836709 0.577250
0.215905 0.836709 0.577250
0.317011 0.836709 0.577250
0.428666 0.836709 0.577250
0.547182 0.836709 0.577250
0.714719 0.836709 0.577250
0.847178 0.836709 0.577250
0.912427 0.836709 0.577250
0.035653 0.026618 0.810170
0.215905 0.026618 0.810170
0.317011 0.026618 0.810170
0.428666 0.026618 0.810170
0.547182 0.026618 0.810170
0.714719 0.026618 0.810170
0.847178 0.026618 0.810170
0.912427 0.026618 0.810170
0.035653 0.145795 0.810170
0.215905 0.145795 0.810170
0.317011 0.145795 0.810170
0.428666 0.145795 0.810170
0.547182 0.145795 0.810170
0.714719 0.145795 0.810170
0.847178 0.145795 0.810170
0.912427 0.145795 0.810170
0.035653 0.228831 0.810170
0.215905 0.228831 0.810170
0.317011 0.228831 0.810170
0.428666 0.228831 0.810170
0.547182 0.228831 0.810170
0.714719 0.228831 0.810170
0.847178 0.228831 0.810170
0.912427 0.228831 0.810170
0.035653 0.302832 0.810170
0.215905 0.302832 0.810170
0.317011 0.302832 0.810170
0.428666 0.302832 0.810170
0.547182 0.302832 0.810170
0.714719 0.302832 0.810170
0.847178 0.302832 0.810170
0.912427 0.302832 0.810170
0.035653 0.388798 0.810170
0.215905 0.388798 0.810170
0.317011 0.388798 0.810170
0.428666 0.388798 0.810170
0.547182 0.388798 0.810170
0.714719 0.388798 0.810170
0.847178 0.388798 0.810170
0.912427 0.388798 0.810170
0.035653 0.499791 0.810170
0.215905 0.499791 0.810170
0.317011 0.499791 0.810170
0.428666 0.499791 0.810170
0.547182 0.499791 0.810170
0.714719 0.499791 0.810170
0.847178 0.499791 0.810170
0.912427 0.499791 0.810170
0.035653 0.650896 0.810170
0.215905 0.650896 0.810170
0.317011 0.650896 0.810170
0.428666 0.650896 0.810170
0.547182 0.650896 0.810170
0.714719 0.650896 0.810170
0.847178 0.650896 0.810170
0.912427 0.650896 0.810170
0.035653 0.836709 0.810170
0.215905 0.836709 0.810170
0.317011 0.836709 0.810170
0.428666 0.836709 0.810170
0.547182 0.836709 0.810170
0.714719 0.836709 0.810170
0.847178 0.836709 0.810170
0.912427 0.836709 0.810170
