gsg/03_Cinematic/GSG_LUT_Cinematic_Mailroom_Ick.cube
# GSG LUTs 1.0
# Copyright (c) 2016-2020 Greyscalegorilla
# See EULA for licensing and distribution information
# Converted by Briz LUT Converter
LUT_3D_SIZE 32
0.000000 0.000000 0.000000
0.017992 0.000000 0.000000
0.039072 0.000000 0.000000
0.062303 0.000000 0.000000
0.083792 0.000000 0.000000
0.107015 0.000000 0.000000
0.127591 0.000000 0.000000
0.148033 0.000000 0.000000
0.169837 0.000000 0.000000
0.192989 0.000000 0.000000
0.218417 0.000867 0.000000
0.247658 0.002686 0.000000
0.278601 0.002686 0.000000
0.310536 0.003301 0.001126
0.340990 0.004703 0.002576
0.373004 0.006672 0.002442
0.405018 0.007933 0.002442
0.437701 0.008484 0.003915
0.473386 0.010595 0.005695
0.513191 0.014266 0.007153
0.556895 0.018236 0.008287
0.602678 0.021190 0.010201
0.644823 0.025791 0.012895
0.681169 0.033329 0.015487
0.715389 0.039568 0.019709
0.747844 0.045114 0.023317
0.779653 0.053322 0.026185
0.806735 0.061507 0.030872
0.833172 0.067368 0.034149
0.859412 0.075426 0.036945
0.883264 0.083981 0.039718
0.906960 0.095238 0.042491
0.002860 0.012360 0.000000
0.026145 0.012454 0.000000
0.047060 0.012683 0.000000
0.068226 0.012934 0.000000
0.091384 0.015263 0.000000
0.112150 0.015133 0.000000
0.131600 0.015133 0.000000
0.154102 0.015792 0.000000
0.175724 0.018055 0.000000
0.199904 0.018073 0.000000
0.227193 0.018964 0.000000
0.258730 0.020772 0.000000
0.291798 0.021868 0.000030
0.325424 0.024541 0.001172
0.357438 0.027177 0.002576
0.389475 0.029378 0.002442
0.422900 0.031395 0.003052
0.458382 0.034074 0.004449
0.497565 0.038286 0.005695
0.540077 0.042093 0.007003
0.584438 0.047241 0.009933
0.628385 0.054291 0.012887
0.667754 0.060405 0.015582
0.703303 0.066530 0.019640
0.737102 0.073757 0.023226
0.767708 0.081902 0.026157
0.796598 0.088635 0.028948
0.823460 0.096648 0.033794
0.849658 0.107180 0.036874
0.873649 0.116045 0.039868
0.897121 0.129820 0.042656
0.923408 0.144023 0.045673
0.008405 0.025279 0.000000
0.029320 0.027807 0.000000
0.050021 0.027817 0.000000
0.071378 0.027968 0.000000
0.094316 0.028321 0.000000
0.114542 0.030535 0.000000
0.133897 0.030670 0.000000
0.156493 0.031275 0.000000
0.178302 0.033322 0.000000
0.202174 0.033945 0.000000
0.229971 0.035616 0.000000
0.262122 0.037113 0.000061
0.295623 0.039876 0.001058
0.328197 0.042648 0.002554
0.360211 0.045414 0.002583
0.392934 0.048178 0.002450
0.427172 0.050244 0.002531
0.463516 0.053701 0.003993
0.503219 0.058503 0.005750
0.546421 0.062645 0.007078
0.590553 0.068257 0.009956
0.633987 0.075249 0.012887
0.673266 0.081920 0.015671
0.708310 0.089106 0.020199
0.740841 0.095800 0.023569
0.772346 0.103706 0.027930
0.800234 0.112038 0.031302
0.828178 0.120496 0.034515
0.852979 0.131290 0.037347
0.878672 0.142760 0.040120
0.902486 0.156698 0.042908
0.926181 0.173500 0.045925
0.014235 0.042971 0.000000
0.035118 0.043452 0.000000
0.055560 0.043594 0.000000
0.076257 0.045723 0.000000
0.096853 0.046338 0.000000
0.115782 0.046749 0.000000
0.136626 0.048829 0.000000
0.159037 0.049442 0.000000
0.180899 0.051048 0.000000
0.204937 0.052471 0.000048
0.232902 0.054873 0.000196
0.265496 0.057086 0.001121
0.298951 0.059656 0.002686
0.330974 0.062468 0.002686
0.362971 0.065196 0.002740
0.395707 0.067848 0.002755
0.431124 0.070682 0.003966
0.468764 0.074856 0.005281
0.508838 0.078758 0.006669
0.553035 0.083720 0.008294
0.596077 0.090746 0.010515
0.639237 0.097004 0.013147
0.678325 0.104427 0.017094
0.713679 0.111409 0.020829
0.746350 0.119309 0.023777
0.776187 0.127657 0.028213
0.804879 0.136383 0.031754
0.831627 0.146906 0.034598
0.857675 0.158621 0.037392
0.882014 0.172096 0.040167
0.905525 0.185970 0.043153
0.929190 0.202481 0.046390
0.023057 0.061436 0.000000
0.043049 0.064154 0.000000
0.061180 0.064154 0.000000
0.079690 0.064393 0.000000
0.099681 0.066655 0.000000
0.118555 0.067194 0.000000
0.139368 0.069132 0.000043
0.161688 0.070015 0.000242
0.183631 0.071882 0.000323
0.207717 0.073214 0.000788
0.236603 0.076009 0.002141
0.269581 0.078469 0.002707
0.301877 0.080685 0.002759
0.333882 0.083834 0.002941
0.365672 0.087186 0.003513
0.398572 0.090047 0.004611
0.434005 0.093369 0.005432
0.472343 0.096978 0.006871
0.513816 0.101545 0.008029
0.558445 0.107025 0.009788
0.601544 0.114051 0.012960
0.644783 0.121385 0.015901
0.683714 0.128688 0.018646
0.718911 0.136760 0.022687
0.751256 0.145481 0.026066
0.781033 0.154343 0.029427
0.808569 0.165016 0.032329
0.836438 0.175950 0.034882
0.861149 0.189380 0.037815
0.886885 0.201152 0.040638
0.910687 0.215078 0.043687
0.934168 0.228950 0.048375
0.033290 0.082934 0.000000
0.049144 0.085391 0.000354
0.066678 0.085422 0.000354
0.084344 0.086082 0.000354
0.102858 0.088122 0.000365
0.121379 0.088517 0.000433
0.142228 0.090541 0.000711
0.163790 0.091545 0.002006
0.186544 0.093145 0.002534
0.211292 0.094728 0.002746
0.240543 0.097562 0.002904
0.273391 0.100262 0.002984
0.306171 0.102982 0.003586
0.337590 0.105963 0.004817
0.369128 0.109405 0.005501
0.402267 0.112848 0.005704
0.437810 0.115723 0.006883
0.476634 0.120068 0.008200
0.518953 0.125700 0.009893
0.562987 0.131835 0.012455
0.606562 0.139019 0.015148
0.650329 0.147076 0.018583
0.688176 0.155382 0.021671
0.722326 0.163701 0.025712
0.754791 0.172861 0.028712
0.784741 0.183363 0.031588
0.813286 0.194102 0.034401
0.839740 0.205383 0.035746
0.865871 0.216917 0.038308
0.889868 0.228243 0.041309
0.913256 0.241566 0.045539
0.937020 0.255418 0.047241
0.042176 0.108992 0.000520
0.056978 0.108992 0.002292
0.072156 0.109145 0.002292
0.088076 0.111406 0.002292
0.105858 0.111901 0.002343
0.124748 0.112481 0.002686
0.146615 0.115007 0.002686
0.167450 0.116807 0.002686
0.189619 0.117976 0.002686
0.215050 0.120515 0.002686
0.244970 0.122801 0.002917
0.278253 0.125624 0.004049
0.310237 0.128489 0.005375
0.342052 0.131813 0.005716
0.373813 0.135371 0.006447
0.406749 0.138829 0.007645
0.442267 0.142574 0.008377
0.480546 0.147072 0.009792
0.522813 0.153784 0.012344
0.568039 0.160495 0.015117
0.612108 0.168578 0.017890
0.655779 0.177125 0.021388
0.693535 0.185395 0.024574
0.727819 0.193714 0.028397
0.759971 0.204191 0.030531
0.789661 0.214645 0.033014
0.818289 0.223774 0.035827
0.843531 0.234409 0.038566
0.868810 0.245662 0.040906
0.893031 0.256773 0.043817
0.916134 0.268100 0.044888
0.940202 0.282311 0.049226
0.052858 0.135901 0.002686
0.065409 0.136081 0.002686
0.078935 0.136511 0.002686
0.093702 0.136775 0.002686
0.109859 0.138817 0.002686
0.129322 0.139695 0.002686
0.149760 0.142255 0.002686
0.170532 0.143609 0.002686
0.193032 0.145455 0.002772
0.219316 0.147930 0.003081
0.249955 0.150370 0.003926
0.283848 0.153476 0.005439
0.315455 0.156800 0.005690
0.346461 0.160457 0.006427
0.377398 0.164361 0.007791
0.410564 0.168418 0.008654
0.445981 0.173642 0.009483
0.485152 0.179188 0.011420
0.528212 0.185475 0.013958
0.573318 0.192637 0.016684
0.617591 0.200929 0.019635
0.660904 0.209557 0.023312
0.698736 0.217780 0.026932
0.732940 0.225953 0.029936
0.763795 0.235475 0.033016
0.794156 0.244502 0.035963
0.821472 0.253565 0.038499
0.847958 0.262011 0.041010
0.872519 0.272656 0.042044
0.896270 0.283892 0.044582
0.919302 0.295657 0.046924
0.942975 0.311765 0.049762
0.061869 0.166529 0.002686
0.074880 0.167119 0.002686
0.088890 0.168562 0.002686
0.102665 0.169204 0.002686
0.118033 0.170042 0.002686
0.134931 0.172240 0.002686
0.153560 0.173917 0.002772
0.173662 0.175347 0.003184
0.196455 0.178022 0.003660
0.223233 0.180637 0.004677
0.254295 0.183240 0.005250
0.288521 0.186576 0.005596
0.319560 0.190184 0.006448
0.350628 0.194270 0.007609
0.382273 0.198267 0.008464
0.415207 0.202985 0.009300
0.450754 0.208112 0.010845
0.490556 0.213700 0.013203
0.533905 0.219962 0.015802
0.578498 0.227200 0.018488
0.622950 0.234817 0.022073
0.666363 0.242679 0.025572
0.703691 0.250158 0.029172
0.736888 0.257906 0.032361
0.768475 0.265411 0.035132
0.797864 0.273666 0.038183
0.825086 0.283209 0.039605
0.851558 0.292250 0.041837
0.876737 0.302741 0.044172
0.900496 0.314483 0.046733
0.922610 0.327931 0.047969
0.946252 0.343842 0.049888
0.072464 0.203726 0.002686
0.084990 0.203751 0.002686
0.097483 0.204584 0.002686
0.112160 0.205786 0.002741
0.127450 0.206714 0.003253
0.142916 0.208842 0.003288
0.160103 0.209790 0.003715
0.178973 0.212297 0.004907
0.200943 0.214747 0.005425
0.227728 0.217499 0.005372
0.258584 0.220356 0.005555
0.292356 0.223535 0.006630
0.323984 0.226934 0.007952
0.354850 0.230403 0.008207
0.386345 0.234215 0.008997
0.420267 0.238676 0.010429
0.456481 0.243145 0.012031
0.496339 0.248661 0.014243
0.540429 0.254419 0.017290
0.585297 0.261124 0.020521
0.628727 0.267810 0.024094
0.671827 0.274632 0.027934
0.709236 0.281914 0.031168
0.742030 0.289697 0.034149
0.773147 0.296717 0.036842
0.802505 0.305141 0.039633
0.829557 0.315168 0.041680
0.855650 0.325893 0.044009
0.879825 0.336949 0.045641
0.903379 0.348063 0.047633
0.926788 0.361374 0.049819
0.950404 0.374690 0.050865
0.077065 0.242152 0.003553
0.089495 0.242221 0.003631
0.101926 0.244287 0.003631
0.115619 0.244340 0.003760
0.130338 0.245104 0.004955
0.146227 0.247063 0.005035
0.162726 0.248274 0.005468
0.181826 0.250229 0.005538
0.204194 0.252772 0.005617
0.232010 0.255204 0.005937
0.264130 0.257964 0.006612
0.297824 0.260983 0.007738
0.328730 0.263807 0.008303
0.359286 0.266785 0.009135
0.391118 0.270208 0.010201
0.425097 0.274371 0.011484
0.462230 0.279042 0.013200
0.502918 0.283942 0.015365
0.547342 0.289800 0.018564
0.592217 0.296278 0.022343
0.635291 0.302873 0.026010
0.677675 0.310105 0.029788
0.714805 0.317788 0.032904
0.747576 0.325272 0.036045
0.777766 0.333357 0.038946
0.806358 0.342806 0.041852
0.833449 0.351396 0.043204
0.859326 0.361718 0.045011
0.883649 0.371977 0.047682
0.907385 0.380649 0.048613
0.929906 0.391754 0.050245
0.953082 0.402466 0.050959
0.074213 0.281531 0.005372
0.086706 0.281571 0.005530
0.098626 0.282768 0.005530
0.112079 0.282908 0.005530
0.125556 0.284357 0.005530
0.141803 0.285531 0.005544
0.159052 0.287016 0.005586
0.180139 0.288728 0.005655
0.206640 0.291230 0.006570
0.236907 0.293418 0.007479
0.269536 0.296349 0.008039
0.302643 0.299539 0.008330
0.333174 0.302704 0.009287
0.364117 0.305945 0.010507
0.396374 0.309370 0.011184
0.430643 0.313593 0.012660
0.468650 0.318020 0.014579
0.510606 0.322998 0.016677
0.555259 0.329326 0.019731
0.599379 0.335982 0.023308
0.642601 0.343011 0.027135
0.684001 0.350720 0.030977
0.720460 0.357914 0.034316
0.753080 0.365454 0.036868
0.782902 0.373240 0.039596
0.811253 0.380799 0.042109
0.837960 0.388964 0.044683
0.863975 0.397076 0.046058
0.887731 0.405365 0.047766
0.911403 0.412312 0.049533
0.933360 0.421604 0.050589
0.956020 0.431195 0.050967
0.066493 0.321454 0.005372
0.078786 0.321866 0.005372
0.089354 0.322923 0.005372
0.101821 0.323636 0.005372
0.115745 0.324654 0.005458
0.132444 0.325830 0.006104
0.152442 0.327517 0.006504
0.179058 0.329392 0.006994
0.209258 0.331927 0.008153
0.241301 0.334350 0.008169
0.273727 0.337249 0.008544
0.306172 0.340443 0.009600
0.336788 0.344047 0.010436
0.367932 0.347631 0.011085
0.400808 0.350808 0.012378
0.436128 0.354768 0.013967
0.475631 0.359488 0.015528
0.518406 0.364969 0.018060
0.563008 0.370163 0.021333
0.607194 0.375555 0.024671
0.649297 0.381673 0.027957
0.689720 0.388502 0.031511
0.726118 0.394950 0.035066
0.758128 0.401447 0.037555
0.787674 0.407842 0.040202
0.815579 0.413633 0.042199
0.842129 0.420578 0.044387
0.867393 0.426849 0.047083
0.891125 0.434548 0.048028
0.914717 0.441459 0.049426
0.936790 0.449317 0.050097
0.959266 0.459144 0.051377
0.040774 0.364804 0.005987
0.053942 0.365985 0.005987
0.066335 0.366082 0.006020
0.081144 0.367545 0.006499
0.100647 0.368136 0.006627
0.123351 0.369022 0.007560
0.150254 0.371090 0.007972
0.180316 0.372620 0.008339
0.212306 0.374893 0.008973
0.244074 0.377051 0.009388
0.276502 0.379651 0.009758
0.308916 0.382635 0.010831
0.339778 0.385835 0.011331
0.371857 0.388956 0.012330
0.405787 0.391857 0.013240
0.442492 0.395227 0.014362
0.483235 0.399374 0.016370
0.526716 0.404017 0.019205
0.571284 0.408415 0.022377
0.614503 0.412888 0.026013
0.655894 0.417963 0.029432
0.695558 0.423716 0.032513
0.731373 0.428963 0.035195
0.762674 0.434330 0.037996
0.792051 0.439876 0.040695
0.819922 0.445536 0.042896
0.846501 0.451109 0.044515
0.871519 0.457238 0.046645
0.895256 0.463766 0.048470
0.918234 0.471125 0.049549
0.940699 0.478245 0.049612
0.962787 0.487235 0.051219
0.029194 0.405751 0.007389
0.044498 0.407216 0.007389
0.060748 0.407259 0.007432
0.079925 0.407885 0.008059
0.103685 0.408146 0.008059
0.129674 0.410049 0.008148
0.156561 0.411090 0.008631
0.186118 0.412520 0.009051
0.216806 0.414138 0.010421
0.248060 0.416471 0.011099
0.280412 0.418567 0.011198
0.312772 0.421175 0.011650
0.344064 0.423648 0.012696
0.376884 0.426421 0.013708
0.412170 0.429194 0.014223
0.450347 0.432256 0.015604
0.491993 0.435924 0.017784
0.536066 0.439647 0.020718
0.580099 0.443963 0.024072
0.622339 0.448388 0.027270
0.662845 0.452740 0.030432
0.701454 0.457482 0.033633
0.735968 0.462244 0.036155
0.767477 0.467066 0.038445
0.796951 0.472014 0.041190
0.824295 0.477435 0.043168
0.850544 0.482981 0.044813
0.875315 0.488643 0.046247
0.898993 0.494206 0.047866
0.921305 0.501233 0.049038
0.943617 0.508703 0.049108
0.965670 0.516334 0.049911
0.044791 0.443389 0.008059
0.059979 0.445445 0.008078
0.076061 0.445445 0.008649
0.094898 0.445445 0.008649
0.115194 0.445700 0.008726
0.138053 0.447576 0.009361
0.163407 0.448662 0.010013
0.192132 0.450128 0.010285
0.222831 0.451598 0.011117
0.253469 0.453464 0.011996
0.285340 0.455118 0.012616
0.317670 0.457589 0.013177
0.349707 0.459813 0.013712
0.383291 0.462586 0.014651
0.419543 0.465359 0.015960
0.458973 0.468486 0.017421
0.501936 0.472015 0.019308
0.546289 0.475545 0.022177
0.589611 0.479371 0.025507
0.630741 0.483549 0.028268
0.670138 0.487683 0.031381
0.707450 0.491805 0.034577
0.740848 0.496413 0.037174
0.772506 0.500753 0.039119
0.801761 0.505281 0.041738
0.828674 0.509678 0.043059
0.854336 0.514995 0.044657
0.878721 0.520540 0.045893
0.901944 0.526193 0.046825
0.924764 0.531868 0.048716
0.946413 0.538763 0.048726
0.968577 0.545575 0.048722
0.052479 0.480318 0.009445
0.065728 0.481642 0.009464
0.080200 0.482423 0.010036
0.096902 0.483130 0.010036
0.117150 0.483207 0.010112
0.141017 0.484058 0.010727
0.169501 0.485925 0.011273
0.198939 0.486879 0.011517
0.229442 0.488771 0.012284
0.259226 0.489999 0.013293
0.290504 0.491718 0.013880
0.323179 0.493897 0.014275
0.355916 0.496218 0.014874
0.390772 0.498654 0.015977
0.428235 0.501394 0.017668
0.469097 0.504659 0.018755
0.512905 0.507993 0.020446
0.557242 0.511340 0.023506
0.599645 0.514800 0.026967
0.639422 0.518637 0.029471
0.677354 0.522397 0.031983
0.713361 0.526425 0.034955
0.746394 0.530269 0.037194
0.777490 0.534560 0.039461
0.805965 0.538892 0.041266
0.832707 0.542086 0.042912
0.857841 0.547135 0.044129
0.882124 0.552022 0.045702
0.905347 0.556893 0.046130
0.928049 0.562495 0.048549
0.949080 0.568049 0.047990
0.971350 0.574942 0.048596
0.039001 0.517878 0.010745
0.056311 0.517899 0.010762
0.074029 0.518582 0.011280
0.095576 0.519292 0.011293
0.120279 0.520139 0.011414
0.147223 0.520425 0.011615
0.176624 0.522036 0.012680
0.206501 0.522957 0.012894
0.235810 0.524565 0.013550
0.265548 0.525726 0.014476
0.296888 0.527464 0.015333
0.330341 0.529497 0.015997
0.363696 0.531657 0.016564
0.399763 0.533699 0.017425
0.438857 0.536702 0.019026
0.480930 0.539977 0.020456
0.524975 0.543058 0.021981
0.568459 0.546142 0.024620
0.609752 0.549568 0.027795
0.648298 0.552921 0.030190
0.684880 0.556375 0.032824
0.720494 0.559895 0.035610
0.752406 0.563038 0.037266
0.782288 0.567026 0.039284
0.810734 0.570871 0.040660
0.836788 0.574055 0.042772
0.861753 0.577897 0.043521
0.885628 0.582162 0.045609
0.908718 0.586109 0.046009
0.930750 0.591102 0.047052
0.951735 0.596621 0.047367
0.973185 0.602828 0.047926
0.057734 0.553310 0.012305
0.075819 0.553310 0.012318
0.093587 0.553347 0.012714
0.114110 0.554029 0.012724
0.136654 0.555464 0.012817
0.160882 0.555670 0.012984
0.186790 0.556453 0.013884
0.215459 0.558074 0.014158
0.243670 0.558849 0.014912
0.273423 0.560098 0.015763
0.305392 0.561897 0.016624
0.339687 0.563698 0.017460
0.373854 0.565424 0.018190
0.410908 0.567950 0.019025
0.451403 0.570921 0.020720
0.494293 0.573863 0.022284
0.538061 0.576814 0.023850
0.580141 0.579755 0.025718
0.619717 0.582766 0.028382
0.657088 0.585773 0.031085
0.692670 0.588875 0.033937
0.727541 0.591807 0.035981
0.758437 0.594782 0.037271
0.787333 0.598017 0.038770
0.814909 0.601239 0.040199
0.840952 0.604269 0.042239
0.865339 0.607082 0.043218
0.888970 0.611343 0.044959
0.912057 0.614835 0.045841
0.933426 0.619658 0.045910
0.954366 0.623796 0.046504
0.975186 0.629296 0.046382
0.080421 0.586041 0.014030
0.094789 0.586094 0.014030
0.110331 0.587712 0.014030
0.128653 0.588121 0.014030
0.150051 0.588645 0.014165
0.173281 0.588727 0.015123
0.198398 0.589229 0.015379
0.226412 0.591340 0.015562
0.254324 0.591680 0.015977
0.284044 0.592926 0.016389
0.316115 0.594682 0.017598
0.350971 0.596217 0.019009
0.386565 0.597920 0.019866
0.425192 0.600717 0.020767
0.466567 0.603316 0.022384
0.509519 0.606089 0.024187
0.551815 0.608911 0.025545
0.592008 0.611729 0.027084
0.630068 0.614155 0.029367
0.666049 0.616585 0.032190
0.700857 0.619361 0.034615
0.734201 0.622167 0.035703
0.765035 0.625074 0.037201
0.793062 0.627458 0.038733
0.819652 0.630076 0.040017
0.845737 0.632849 0.041748
0.869786 0.635622 0.042916
0.892862 0.638971 0.043568
0.915436 0.641915 0.044068
0.937260 0.647121 0.045654
0.957075 0.650153 0.045760
0.977959 0.655016 0.045067
0.095230 0.618528 0.015353
0.109756 0.618558 0.015353
0.125282 0.619552 0.015353
0.143426 0.620599 0.015353
0.165246 0.620741 0.015431
0.187854 0.620817 0.015985
0.213589 0.621398 0.016117
0.240427 0.622452 0.016437
0.268249 0.623702 0.017616
0.297910 0.624871 0.018068
0.330610 0.626299 0.019437
0.366485 0.628032 0.021310
0.403462 0.630041 0.021626
0.443260 0.632311 0.022201
0.484326 0.634913 0.024113
0.526072 0.637218 0.026156
0.566075 0.639584 0.026847
0.604357 0.642357 0.028160
0.641160 0.644837 0.030089
0.675897 0.646863 0.032159
0.708916 0.649094 0.034548
0.741149 0.651541 0.035574
0.771475 0.653989 0.037325
0.798803 0.656530 0.038447
0.825271 0.659254 0.039667
0.850005 0.660883 0.040721
0.873804 0.663382 0.042115
0.896923 0.666017 0.042486
0.919415 0.668770 0.042934
0.940817 0.672434 0.043871
0.959872 0.676489 0.043932
0.980732 0.679909 0.042956
0.118453 0.650140 0.015873
0.131931 0.650140 0.015873
0.147450 0.650261 0.015873
0.165425 0.652022 0.016033
0.186500 0.652093 0.017570
0.207986 0.652212 0.017871
0.232488 0.652826 0.017937
0.258919 0.653267 0.018097
0.286286 0.654989 0.018985
0.315861 0.655994 0.020343
0.349320 0.657397 0.021717
0.386924 0.659085 0.022637
0.424838 0.661249 0.022635
0.464140 0.663476 0.023393
0.504337 0.665765 0.025684
0.543953 0.667600 0.027353
0.581870 0.670084 0.027902
0.618310 0.672484 0.028968
0.652907 0.674645 0.030641
0.685966 0.676599 0.032223
0.717827 0.678862 0.033922
0.749133 0.680687 0.035308
0.777651 0.682572 0.036799
0.804226 0.685213 0.037940
0.830651 0.686854 0.038668
0.854889 0.688585 0.039740
0.878292 0.691050 0.040286
0.901364 0.693728 0.040849
0.923495 0.696042 0.041137
0.944291 0.698922 0.041160
0.963947 0.702315 0.041640
0.983505 0.705109 0.042002
0.142369 0.679412 0.017779
0.156960 0.679412 0.017779
0.172215 0.679482 0.017779
0.188708 0.680617 0.017848
0.209004 0.681735 0.018507
0.230309 0.681920 0.018630
0.254226 0.682099 0.018865
0.280571 0.682579 0.020039
0.307840 0.684370 0.020972
0.338122 0.685009 0.021971
0.372206 0.686174 0.022805
0.409899 0.688251 0.023338
0.447520 0.690224 0.023565
0.485478 0.692084 0.024786
0.523650 0.694463 0.027100
0.561168 0.696515 0.028288
0.597402 0.698267 0.028739
0.631916 0.700472 0.029754
0.664760 0.702376 0.031115
0.696149 0.703982 0.032238
0.726707 0.706377 0.033048
0.756647 0.707992 0.034784
0.783873 0.709570 0.035732
0.809802 0.711823 0.036740
0.835850 0.713073 0.037915
0.860073 0.715231 0.038649
0.883359 0.717461 0.039577
0.905432 0.719082 0.039768
0.926664 0.721350 0.039773
0.947379 0.723665 0.040097
0.967508 0.726577 0.040326
0.986278 0.729355 0.040096
0.169073 0.708441 0.018559
0.184378 0.708441 0.018559
0.197718 0.708453 0.018559
0.215244 0.708672 0.018559
0.233975 0.709079 0.018770
0.255262 0.709134 0.020248
0.279109 0.709449 0.020673
0.305485 0.710974 0.021327
0.332913 0.711820 0.022041
0.364157 0.712692 0.022884
0.398097 0.714239 0.023794
0.435371 0.715649 0.024190
0.471417 0.717679 0.024280
0.507072 0.719268 0.025685
0.542756 0.721336 0.027997
0.578014 0.723518 0.028922
0.611939 0.724904 0.029300
0.644357 0.727003 0.029576
0.676088 0.728917 0.029983
0.706271 0.730450 0.031453
0.735544 0.731910 0.032613
0.764297 0.733501 0.033581
0.791180 0.735520 0.034988
0.815940 0.736812 0.035643
0.841327 0.738509 0.036017
0.865185 0.740027 0.037322
0.887337 0.741776 0.037932
0.908677 0.744017 0.037780
0.930621 0.745530 0.038076
0.950233 0.747320 0.038229
0.970349 0.750094 0.038062
0.989050 0.753051 0.037867
0.199701 0.735602 0.020639
0.212970 0.735602 0.020639
0.227563 0.735602 0.020639
0.243945 0.735584 0.020639
0.264074 0.735413 0.020727
0.285186 0.735718 0.021372
0.308590 0.737473 0.021707
0.333795 0.738203 0.022167
0.362491 0.738707 0.022832
0.392675 0.740220 0.023626
0.425915 0.741437 0.023894
0.461998 0.742853 0.024475
0.495718 0.744615 0.025036
0.528868 0.746242 0.027110
0.562341 0.747700 0.028377
0.595613 0.749803 0.029044
0.626740 0.751190 0.029325
0.657278 0.752814 0.029353
0.687342 0.754334 0.029438
0.716307 0.756321 0.029731
0.744418 0.757431 0.030525
0.772252 0.759008 0.032225
0.797903 0.760454 0.033201
0.822008 0.761967 0.033329
0.845947 0.763209 0.034647
0.869153 0.764999 0.035387
0.892143 0.766012 0.035472
0.913271 0.768145 0.035259
0.934134 0.768984 0.035669
0.953047 0.770995 0.035716
0.973122 0.772265 0.035480
0.991445 0.775044 0.035283
0.233377 0.761873 0.021245
0.248156 0.761873 0.021245
0.261327 0.761873 0.021258
0.278832 0.761869 0.021461
0.297546 0.761826 0.021671
0.318547 0.762188 0.021955
0.341655 0.764166 0.022495
0.367010 0.764559 0.023317
0.395350 0.765114 0.023960
0.423971 0.766923 0.024635
0.454778 0.767930 0.024377
0.487434 0.769372 0.024656
0.518962 0.770711 0.026169
0.550393 0.772129 0.027820
0.581265 0.773516 0.028260
0.611652 0.775125 0.028364
0.640933 0.776512 0.028820
0.670146 0.777939 0.029112
0.698806 0.779862 0.028670
0.726200 0.781255 0.028923
0.752682 0.782002 0.029553
0.779371 0.783451 0.030144
0.804978 0.784692 0.030499
0.829079 0.786119 0.030849
0.851378 0.786936 0.032347
0.874071 0.788989 0.032754
0.895603 0.789531 0.032754
0.916529 0.790432 0.034257
0.937360 0.792071 0.032786
0.957323 0.793183 0.032605
0.975946 0.794911 0.032368
0.994108 0.797653 0.030541
0.271960 0.787885 0.021860
0.286641 0.788294 0.021866
0.299710 0.788294 0.022080
0.317244 0.788294 0.022333
0.335382 0.788294 0.022637
0.354472 0.788351 0.023286
0.377642 0.789100 0.023726
0.401711 0.790980 0.023732
0.428083 0.791072 0.023675
0.454701 0.792023 0.024454
0.482904 0.793848 0.023753
0.512900 0.794653 0.023863
0.541441 0.796046 0.025327
0.570779 0.797322 0.027512
0.599619 0.798606 0.028237
0.627693 0.800003 0.027402
0.655414 0.801390 0.026955
0.683359 0.802225 0.027012
0.710697 0.803837 0.026920
0.736511 0.805144 0.026975
0.761528 0.806598 0.027076
0.787208 0.807481 0.027256
0.811528 0.807973 0.027508
0.835021 0.809680 0.027789
0.856962 0.810278 0.029503
0.879570 0.811274 0.029981
0.900837 0.812883 0.029981
0.921575 0.813250 0.030290
0.940436 0.815585 0.029980
0.960455 0.815944 0.029942
0.978731 0.816653 0.029706
0.994832 0.818953 0.027090
0.313025 0.812360 0.023041
0.326157 0.812423 0.023049
0.340819 0.812423 0.023288
0.356431 0.812608 0.023341
0.374000 0.814337 0.023574
0.392567 0.814406 0.023597
0.413604 0.814829 0.023211
0.435378 0.815445 0.022703
0.459154 0.816762 0.022404
0.483459 0.817398 0.023201
0.510182 0.818286 0.023458
0.538423 0.819684 0.024204
0.564875 0.820416 0.025348
0.591538 0.821471 0.026298
0.618274 0.822964 0.026498
0.644701 0.823876 0.026589
0.669982 0.825153 0.025410
0.695469 0.825892 0.024162
