gsg/03_Cinematic/GSG_LUT_Cinematic_Punchy_Cool.cube
# GSG LUTs 1.0
# Copyright (c) 2016-2020 Greyscalegorilla
# See EULA for licensing and distribution information
# Converted by Briz LUT Converter
LUT_3D_SIZE 32
0.050794 0.050794 0.050794
0.074686 0.049265 0.049265
0.105030 0.047233 0.047233
0.140951 0.044964 0.044964
0.179645 0.042759 0.042790
0.212360 0.040994 0.041278
0.246800 0.039277 0.039765
0.285100 0.037764 0.038308
0.325999 0.036378 0.037111
0.364347 0.035370 0.036244
0.403576 0.034519 0.035819
0.443239 0.034101 0.035653
0.481366 0.033944 0.035748
0.516862 0.034046 0.036205
0.551995 0.034298 0.036961
0.584860 0.034787 0.037835
0.615991 0.035543 0.038844
0.647800 0.036433 0.040120
0.680318 0.037441 0.041774
0.711639 0.038599 0.043539
0.743401 0.040175 0.045461
0.774430 0.041774 0.047477
0.803986 0.043460 0.049667
0.833046 0.045224 0.051936
0.860144 0.046989 0.054205
0.887400 0.048950 0.056670
0.914672 0.050762 0.059191
0.940407 0.052739 0.061712
0.965867 0.054756 0.064233
0.980362 0.055859 0.065611
0.985687 0.056395 0.066163
0.985836 0.056410 0.066178
0.047509 0.074812 0.047769
0.070652 0.076963 0.046257
0.102723 0.073640 0.044737
0.139616 0.069457 0.042987
0.176780 0.067993 0.041256
0.211114 0.063110 0.039837
0.247466 0.056884 0.038837
0.286973 0.046930 0.037892
0.328651 0.037313 0.037083
0.367252 0.035988 0.036231
0.406210 0.034933 0.035813
0.444282 0.034306 0.035653
0.480854 0.033976 0.035748
0.516209 0.034051 0.036102
0.550546 0.034298 0.036827
0.583516 0.034787 0.037835
0.616180 0.035543 0.038848
0.648647 0.036433 0.040123
0.680117 0.037441 0.041637
0.711381 0.038604 0.043447
0.743437 0.040178 0.045461
0.774464 0.041774 0.047483
0.804174 0.043460 0.049669
0.834005 0.045224 0.052111
0.861728 0.046989 0.054447
0.888497 0.048950 0.056717
0.914806 0.050762 0.059191
0.940397 0.052739 0.061705
0.964756 0.054756 0.064011
0.979369 0.055859 0.065367
0.985655 0.056395 0.066155
0.985836 0.056410 0.066178
0.043901 0.101453 0.044728
0.064720 0.105198 0.043255
0.096564 0.102918 0.042011
0.134083 0.099542 0.040721
0.172780 0.098573 0.039082
0.207956 0.094563 0.038127
0.245467 0.089332 0.037377
0.284942 0.080611 0.036704
0.325315 0.068107 0.036221
0.366178 0.057131 0.035815
0.406530 0.049720 0.035658
0.445364 0.042419 0.035669
0.481636 0.036486 0.035770
0.516065 0.035503 0.036134
0.550157 0.035306 0.036858
0.583763 0.035477 0.037859
0.617086 0.035957 0.038985
0.649457 0.036629 0.040246
0.680723 0.037488 0.041781
0.712190 0.038749 0.043539
0.744592 0.040262 0.045461
0.775527 0.041774 0.047643
0.804625 0.043460 0.049738
0.833669 0.045224 0.051936
0.861180 0.046989 0.054381
0.887767 0.048938 0.056714
0.914060 0.050760 0.059178
0.940082 0.052739 0.061497
0.964547 0.054756 0.063988
0.979385 0.055859 0.065382
0.985656 0.056395 0.066155
0.985836 0.056410 0.066178
0.038993 0.135279 0.041451
0.056659 0.137125 0.040538
0.088235 0.136155 0.039553
0.126558 0.134314 0.038527
0.167800 0.132765 0.037397
0.203486 0.131059 0.036669
0.241322 0.127969 0.036052
0.279720 0.122382 0.035829
0.318849 0.112608 0.035683
0.360931 0.100039 0.035714
0.402403 0.089421 0.035834
0.441651 0.076950 0.036041
0.477884 0.065451 0.036285
0.512415 0.060571 0.036803
0.547128 0.054815 0.037496
0.581882 0.048890 0.038336
0.616108 0.043909 0.039308
0.649161 0.040357 0.040519
0.681180 0.038366 0.041886
0.712870 0.038749 0.043539
0.745295 0.040262 0.045461
0.775974 0.041774 0.047627
0.804666 0.043460 0.049731
0.832937 0.045224 0.051936
0.860097 0.046989 0.054205
0.886852 0.048753 0.056670
0.913557 0.050723 0.058986
0.939848 0.052739 0.061468
0.965004 0.054756 0.063988
0.979890 0.055859 0.065595
0.985672 0.056395 0.066163
0.985836 0.056410 0.066178
0.033006 0.176273 0.038363
0.046534 0.172986 0.038310
0.078817 0.173115 0.037603
0.118409 0.172377 0.036704
0.162465 0.168750 0.036236
0.198340 0.169418 0.035837
0.235127 0.169216 0.035691
0.272916 0.166491 0.035786
0.311874 0.160661 0.036103
0.351956 0.154183 0.036491
0.392570 0.146921 0.037060
0.430490 0.139797 0.037716
0.465780 0.133254 0.038537
0.501605 0.124348 0.039256
0.537796 0.109407 0.039743
0.574278 0.091123 0.040228
0.610114 0.073733 0.040924
0.644902 0.060695 0.041730
0.678459 0.052380 0.042816
0.710510 0.050040 0.044370
0.742085 0.050532 0.046260
0.772906 0.050365 0.048201
0.802533 0.049880 0.050249
0.831312 0.050484 0.052425
0.859309 0.050745 0.054580
0.886615 0.051464 0.056941
0.913294 0.052746 0.059212
0.939619 0.053673 0.061551
0.965353 0.055003 0.063994
0.980212 0.055930 0.065595
0.985591 0.056793 0.066193
0.985553 0.057671 0.066304
0.027382 0.213195 0.036677
0.037120 0.211059 0.036466
0.064650 0.211998 0.036241
0.104597 0.212012 0.035838
0.153852 0.209014 0.035663
0.191433 0.209662 0.035784
0.229207 0.209162 0.036117
0.266891 0.208054 0.036561
0.304684 0.205844 0.037389
0.343450 0.201408 0.038268
0.382666 0.198110 0.039357
0.419911 0.194133 0.040520
0.455119 0.189403 0.041836
0.490383 0.184633 0.043092
0.525119 0.178181 0.044315
0.559053 0.171294 0.045675
0.593238 0.162280 0.046911
0.627250 0.152656 0.048135
0.659777 0.145288 0.049596
0.692276 0.137983 0.051149
0.726042 0.131505 0.052859
0.759526 0.120227 0.054307
0.791335 0.105786 0.055422
0.821085 0.099054 0.057044
0.850842 0.089251 0.058451
0.879680 0.082695 0.060073
0.907215 0.078989 0.062035
0.934129 0.072367 0.063448
0.960908 0.069144 0.065410
0.976630 0.069080 0.066974
0.982344 0.072165 0.067816
0.981157 0.078349 0.068494
0.021332 0.250943 0.035653
0.025611 0.250328 0.035653
0.050136 0.249553 0.035656
0.091278 0.249098 0.035714
0.139673 0.248819 0.035918
0.180531 0.249841 0.036551
0.222558 0.248727 0.037374
0.261677 0.247908 0.038355
0.297202 0.248166 0.039589
0.334939 0.245957 0.040858
0.372902 0.243877 0.042419
0.409963 0.241391 0.043997
0.445841 0.238329 0.045684
0.480732 0.235209 0.047517
0.514329 0.232482 0.049379
0.546066 0.230903 0.051359
0.578942 0.226044 0.053197
0.612420 0.219543 0.054918
0.643905 0.215809 0.056780
0.675886 0.210744 0.058642
0.709751 0.204319 0.060632
0.743202 0.195009 0.062265
0.774782 0.185342 0.063671
0.804089 0.181882 0.065768
0.833411 0.173531 0.067378
0.862326 0.166293 0.068895
0.890283 0.161016 0.070826
0.917766 0.154326 0.072541
0.943479 0.152115 0.074733
0.958888 0.153379 0.076317
0.965076 0.156274 0.077356
0.964756 0.158840 0.077538
0.015227 0.289566 0.035819
0.015778 0.289507 0.035820
0.034807 0.287651 0.035893
0.075613 0.286749 0.036255
0.125350 0.288267 0.037149
0.168611 0.289751 0.038223
0.213639 0.288556 0.039429
0.254608 0.287497 0.040968
0.289952 0.288241 0.042483
0.326269 0.287518 0.044264
0.364056 0.285551 0.046103
0.400562 0.284448 0.048068
0.435544 0.283576 0.050177
0.470574 0.281372 0.052353
0.503662 0.280145 0.054678
0.534699 0.280506 0.057096
0.566965 0.278441 0.059324
0.600105 0.274579 0.061436
0.631354 0.272643 0.063737
0.662369 0.270591 0.066062
0.695321 0.266917 0.068424
0.727933 0.261666 0.070603
0.758447 0.257102 0.072677
0.787144 0.256236 0.075171
0.815712 0.252605 0.077245
0.844392 0.247846 0.079079
0.872365 0.244058 0.081059
0.899249 0.242477 0.083384
0.924132 0.242119 0.085567
0.939823 0.244300 0.087140
0.946685 0.246213 0.088127
0.947205 0.245358 0.088022
0.008925 0.328134 0.036827
0.009222 0.327904 0.036833
0.020156 0.326626 0.037040
0.054886 0.326099 0.037627
0.112194 0.327236 0.039026
0.158325 0.328556 0.040500
0.202247 0.328089 0.042125
0.243951 0.327456 0.044024
0.282060 0.327614 0.046108
0.317361 0.327049 0.048073
0.355985 0.325412 0.050278
0.391428 0.325712 0.052654
0.424158 0.326913 0.055113
0.459525 0.325965 0.057600
0.493044 0.325084 0.060149
0.524853 0.325193 0.062735
0.556664 0.324786 0.065256
0.589227 0.322456 0.067647
0.621106 0.319983 0.070085
0.651562 0.319096 0.072645
0.683489 0.318479 0.075388
0.715492 0.315779 0.077810
0.745709 0.312269 0.080014
0.774445 0.310164 0.082264
0.803045 0.308875 0.084581
0.831369 0.306721 0.086718
0.858517 0.305368 0.088853
0.883776 0.307631 0.091363
0.909237 0.305508 0.093229
0.926487 0.306208 0.094706
0.934609 0.308401 0.095506
0.934602 0.309449 0.095774
0.003119 0.366726 0.038875
0.003198 0.366034 0.038804
0.006887 0.365074 0.038836
0.032238 0.364451 0.039465
0.094259 0.364940 0.041343
0.148375 0.366150 0.043478
0.191772 0.366344 0.045482
0.231540 0.367183 0.047682
0.270809 0.368958 0.050232
0.308825 0.368622 0.052697
0.347016 0.367833 0.055291
0.382195 0.367397 0.057773
0.415322 0.368001 0.060325
0.450340 0.368527 0.063205
0.484589 0.367656 0.065918
0.516660 0.367525 0.068657
0.547235 0.367326 0.071214
0.578339 0.365918 0.073685
0.609963 0.364628 0.076247
0.641140 0.364437 0.078904
0.672211 0.364990 0.081761
0.703385 0.362924 0.084147
0.734067 0.359162 0.086187
0.763344 0.357554 0.088385
0.792148 0.357058 0.090842
0.819914 0.357614 0.093109
0.846400 0.358820 0.095450
0.871806 0.360387 0.097523
0.898057 0.358327 0.099255
0.916265 0.358541 0.100489
0.925423 0.360356 0.101272
0.925448 0.361322 0.101469
0.000000 0.406838 0.041806
0.000000 0.406307 0.041640
0.000806 0.404968 0.041672
0.017690 0.403869 0.042302
0.073671 0.403825 0.044260
0.131760 0.405530 0.046943
0.179075 0.406066 0.049595
0.220877 0.407164 0.052182
0.260033 0.409016 0.055016
0.299308 0.408875 0.057812
0.338168 0.409348 0.060691
0.373591 0.408960 0.063398
0.406133 0.408848 0.065950
0.440010 0.410549 0.068975
0.473914 0.410741 0.071925
0.506577 0.409844 0.074585
0.537655 0.409466 0.077232
0.568416 0.409909 0.079952
0.599578 0.409905 0.082604
0.630674 0.409355 0.085146
0.661435 0.409654 0.087794
0.692761 0.408313 0.090183
0.723975 0.405488 0.092308
0.753473 0.404948 0.094529
0.781191 0.406050 0.096865
0.808761 0.406684 0.098893
0.836254 0.406985 0.100762
0.862727 0.408022 0.102685
0.888881 0.407486 0.104179
0.907698 0.407796 0.105227
0.917723 0.408539 0.105922
0.917854 0.409453 0.105944
0.000000 0.444003 0.045169
0.000000 0.443089 0.045088
0.000203 0.443333 0.045287
0.006465 0.443426 0.045861
0.045606 0.442459 0.047350
0.109813 0.444032 0.050554
0.164539 0.444268 0.053758
0.211330 0.444909 0.056942
0.251355 0.446570 0.059993
0.289478 0.447169 0.062901
0.328509 0.448182 0.066005
0.364694 0.448320 0.069028
0.397879 0.448197 0.071714
0.431158 0.449472 0.074650
0.463778 0.450548 0.077585
0.496152 0.450517 0.080334
0.528227 0.450407 0.083025
0.559653 0.450823 0.085785
0.590565 0.451082 0.088377
0.621242 0.451037 0.090801
0.652756 0.451104 0.093307
0.684499 0.450091 0.095580
0.715065 0.448851 0.097675
0.744060 0.449848 0.099894
0.771654 0.451206 0.101839
0.799550 0.450601 0.103480
0.827739 0.449632 0.105006
0.855132 0.450714 0.106580
0.882038 0.451401 0.107568
0.902368 0.451278 0.107837
0.913483 0.451586 0.107903
0.913900 0.453338 0.107818
0.000000 0.478286 0.048982
0.000000 0.477402 0.048845
0.000000 0.479618 0.049258
0.000826 0.481281 0.049767
0.017894 0.479691 0.050748
0.091041 0.480316 0.054637
0.152408 0.480491 0.058324
0.201891 0.481095 0.061798
0.243347 0.482699 0.065037
0.280740 0.484237 0.068159
0.318705 0.485216 0.071300
0.355111 0.485901 0.074426
0.389715 0.486270 0.077356
0.423240 0.486454 0.080129
0.455287 0.487207 0.082902
0.487389 0.488481 0.085747
0.519692 0.489249 0.088471
0.551602 0.488838 0.090940
0.582850 0.488385 0.093364
0.612955 0.489140 0.095787
0.645738 0.489159 0.098052
0.677853 0.488588 0.100223
0.706912 0.488696 0.102115
0.735161 0.490016 0.104032
0.764064 0.490252 0.105587
0.792493 0.489428 0.106881
0.821029 0.488536 0.107791
0.850295 0.489327 0.107914
0.879319 0.489343 0.107450
0.902529 0.488593 0.106170
0.915782 0.488923 0.105193
0.916420 0.491339 0.104919
0.000000 0.514238 0.053472
0.000000 0.514525 0.053579
0.000000 0.515835 0.053734
0.000000 0.516468 0.054023
0.009041 0.515312 0.054824
0.080393 0.515554 0.059389
0.143310 0.516405 0.063433
0.191273 0.517619 0.067013
0.233591 0.518989 0.070369
0.272680 0.521051 0.073676
0.310681 0.522305 0.076947
0.346612 0.523213 0.079935
0.380716 0.523849 0.082800
0.414402 0.524148 0.085572
0.447860 0.524148 0.088299
0.480834 0.524609 0.090966
0.512331 0.525890 0.093507
0.543493 0.526586 0.095845
0.575131 0.526363 0.098054
0.605158 0.526701 0.100217
0.638212 0.526238 0.102222
0.670520 0.526149 0.104133
0.699480 0.526871 0.105798
0.727929 0.527254 0.107246
0.758327 0.526563 0.107830
0.788572 0.526130 0.107891
0.819348 0.525702 0.107083
0.851195 0.524634 0.105227
0.881132 0.523825 0.103246
0.905959 0.523393 0.101498
0.921072 0.523704 0.100110
0.921769 0.525259 0.099823
0.000000 0.550349 0.058482
0.000000 0.550709 0.058616
0.000000 0.550886 0.058616
0.000000 0.550869 0.058629
0.007096 0.550506 0.059349
0.065501 0.550642 0.064059
0.129709 0.551585 0.068271
0.179853 0.552686 0.072086
0.224521 0.553804 0.075552
0.262747 0.556272 0.078900
0.302632 0.557513 0.082307
0.339784 0.558525 0.085320
0.373219 0.559486 0.088051
0.406978 0.559878 0.090710
0.441055 0.560056 0.093308
0.473903 0.560181 0.095722
0.505092 0.561145 0.098003
0.535985 0.562493 0.100211
0.567267 0.563247 0.102224
0.598042 0.563720 0.104127
0.630996 0.562921 0.105801
0.662937 0.562582 0.107338
0.693496 0.563144 0.107980
0.724638 0.563455 0.107889
0.757316 0.561727 0.106736
0.789875 0.560335 0.104860
0.821982 0.559510 0.102755
0.854000 0.557903 0.100529
0.884206 0.556921 0.098163
0.910374 0.556611 0.095906
0.926828 0.556961 0.094241
0.927567 0.557730 0.093946
0.000000 0.584946 0.063657
0.000000 0.585773 0.063776
0.000000 0.585270 0.063768
0.000000 0.584820 0.063657
0.004812 0.584835 0.064241
0.048211 0.585191 0.068887
0.115511 0.586811 0.073346
0.169804 0.588003 0.077338
0.214920 0.588522 0.080712
0.252880 0.591069 0.083991
0.293384 0.591890 0.087236
0.333089 0.592582 0.090301
0.368212 0.593839 0.093056
0.400239 0.594777 0.095478
0.433555 0.595225 0.097808
0.465828 0.595823 0.100028
0.497512 0.596763 0.102109
0.529162 0.597787 0.104057
0.560206 0.598665 0.105757
0.591384 0.599343 0.107327
0.625025 0.598553 0.107999
0.658998 0.597271 0.107841
0.692737 0.596173 0.106711
0.726730 0.595420 0.104753
0.760567 0.593643 0.102523
0.792972 0.592281 0.100161
0.824584 0.591354 0.097770
0.856521 0.590448 0.094961
0.887638 0.589559 0.092181
0.915083 0.588695 0.089527
0.932593 0.588191 0.087707
0.933483 0.588428 0.087526
0.000000 0.618347 0.068825
0.000000 0.619056 0.068943
0.000000 0.618804 0.068936
0.000000 0.618473 0.068825
0.002828 0.618618 0.069392
0.033627 0.619811 0.073969
0.106147 0.621146 0.078664
0.164274 0.622261 0.082729
0.207178 0.623333 0.085973
0.245489 0.625336 0.089086
0.284074 0.626587 0.092070
0.323648 0.627353 0.094920
0.360837 0.628414 0.097545
0.393454 0.629869 0.099836
0.426509 0.630446 0.101922
0.458765 0.631419 0.103874
0.490970 0.632489 0.105695
0.522986 0.632777 0.107253
0.554908 0.632468 0.108050
0.588574 0.632308 0.107933
0.624606 0.631161 0.106734
0.660958 0.629191 0.104755
0.695778 0.627362 0.102519
0.729039 0.626145 0.100155
0.763462 0.624661 0.097469
0.796021 0.623616 0.094790
0.827292 0.622738 0.092033
0.859387 0.621612 0.088944
0.890764 0.620690 0.085676
0.919413 0.619826 0.082619
0.938224 0.618957 0.080531
0.939533 0.618047 0.080594
0.000000 0.651487 0.074119
0.000000 0.651597 0.074119
0.000000 0.651614 0.074119
0.000000 0.651930 0.074132
0.001351 0.652735 0.074803
0.022406 0.654100 0.079219
0.096945 0.654242 0.083690
0.158694 0.655145 0.087785
0.201600 0.657542 0.091068
0.238982 0.658954 0.093955
0.277025 0.661030 0.096763
0.315324 0.662279 0.099310
0.352398 0.662776 0.101598
0.387135 0.663814 0.103673
0.420526 0.664503 0.105505
0.453123 0.665703 0.107066
0.486495 0.666297 0.108014
0.520520 0.665433 0.107919
0.554981 0.664137 0.106870
0.591186 0.663048 0.105003
0.628634 0.661279 0.102690
0.665083 0.659514 0.100193
0.699587 0.658373 0.097474
0.732037 0.657173 0.094776
0.766644 0.655839 0.091739
0.799641 0.654629 0.088665
0.831112 0.653346 0.085523
0.863437 0.650994 0.082360
0.894027 0.649914 0.078877
0.923265 0.649855 0.075200
0.943458 0.649513 0.072713
0.945851 0.647658 0.072748
0.000000 0.684367 0.079412
0.000000 0.684367 0.079412
0.000000 0.684408 0.079412
0.000000 0.685143 0.079436
0.000304 0.686605 0.080156
0.013355 0.687258 0.084194
0.083688 0.687128 0.088452
0.149112 0.688156 0.092457
0.194746 0.690939 0.095761
0.231872 0.692430 0.098387
0.271869 0.694282 0.100935
0.311240 0.695367 0.103223
0.347861 0.695578 0.105196
0.381895 0.695971 0.106817
0.414949 0.696695 0.107987
0.449689 0.697765 0.108032
0.486240 0.697139 0.106946
0.522892 0.695236 0.105149
0.559300 0.694130 0.102821
0.595698 0.693111 0.100390
0.632931 0.691011 0.097726
0.669465 0.689363 0.094843
0.704394 0.688394 0.091650
0.737338 0.686948 0.088618
0.771015 0.685887 0.085211
0.803998 0.684403 0.081870
0.836081 0.682301 0.078474
0.868263 0.679988 0.074927
0.897934 0.678906 0.071265
0.927181 0.678917 0.067265
0.948326 0.678688 0.064376
0.952263 0.677152 0.064146
0.000000 0.716988 0.084556
0.000000 0.716997 0.084561
0.000000 0.717334 0.084706
0.000000 0.718098 0.084715
0.000000 0.718933 0.085215
0.009206 0.719628 0.088684
0.071064 0.719797 0.092951
0.139785 0.721029 0.096893
0.185952 0.723749 0.099823
0.227122 0.724956 0.102300
0.267651 0.726408 0.104539
0.307068 0.727114 0.106412
0.344213 0.727137 0.107873
0.379018 0.727496 0.108192
0.414302 0.728172 0.107205
0.451701 0.728346 0.105383
0.489659 0.727085 0.103086
0.526543 0.725022 0.100698
0.563489 0.723241 0.098011
0.600291 0.722032 0.095113
0.637262 0.720425 0.092006
0.673670 0.718670 0.088827
0.709169 0.717150 0.085301
0.743414 0.715912 0.081758
0.776021 0.714594 0.078165
0.808424 0.713277 0.074450
0.840726 0.711738 0.070630
0.872258 0.709788 0.066710
0.901818 0.708248 0.062909
0.931345 0.707830 0.058619
0.953241 0.707719 0.055367
0.958714 0.706645 0.054724
0.000000 0.751239 0.089913
0.000000 0.751219 0.089911
0.000000 0.750611 0.089832
0.000000 0.750542 0.089715
0.000000 0.751885 0.090357
0.008149 0.752826 0.093442
0.064894 0.753498 0.097666
0.134107 0.754846 0.101260
0.177704 0.756842 0.103563
0.223205 0.757862 0.105805
0.265797 0.758719 0.107540
0.305443 0.759355 0.108115
0.343715 0.759292 0.107250
0.381828 0.758869 0.105685
0.419616 0.758611 0.103304
0.457699 0.757898 0.100755
0.495429 0.757207 0.097954
0.532003 0.755941 0.095112
0.568063 0.753704 0.092248
0.604269 0.752623 0.088916
0.641431 0.751171 0.085314
0.678018 0.749104 0.081712
0.713495 0.747261 0.077987
0.748105 0.745286 0.074205
0.780574 0.744180 0.070247
0.812492 0.743347 0.066091
0.844564 0.742369 0.061763
0.876016 0.740510 0.057541
0.906450 0.738998 0.053281
0.936690 0.738112 0.048769
0.959208 0.737450 0.045261
0.965268 0.736925 0.044421
0.000000 0.783883 0.094632
0.000000 0.783854 0.094629
0.000000 0.782967 0.094548
0.000000 0.782780 0.094505
0.000000 0.784606 0.095208
0.009063 0.785143 0.098569
0.069341 0.785994 0.102215
0.133036 0.787439 0.105040
0.174978 0.789249 0.106863
0.221336 0.789811 0.108094
0.268197 0.789486 0.107583
0.310571 0.789366 0.105924
0.348508 0.789218 0.103673
0.386656 0.788376 0.101249
0.425451 0.787278 0.098578
0.464459 0.786264 0.095518
0.501974 0.785715 0.092237
0.538190 0.784742 0.089046
0.574310 0.782925 0.085790
0.609719 0.781838 0.082076
0.646322 0.780177 0.078124
0.682774 0.778270 0.074172
0.717840 0.776416 0.070220
0.751871 0.773633 0.066268
0.784324 0.772921 0.061810
0.816007 0.772217 0.057450
0.847526 0.771085 0.052960
0.879178 0.769776 0.048203
0.910496 0.767908 0.043633
0.941378 0.766658 0.038786
0.964423 0.765799 0.035013
0.971161 0.765198 0.034164
0.000000 0.813927 0.098744
0.000000 0.813920 0.098744
0.000000 0.813732 0.098755
0.000000 0.814146 0.098974
0.001096 0.815584 0.099949
0.018315 0.815585 0.103366
0.080355 0.816291 0.106038
0.135770 0.817693 0.107796
0.180485 0.819047 0.108067
0.226518 0.818606 0.106718
0.273945 0.817794 0.104320
0.318329 0.816935 0.101645
0.356613 0.816365 0.098992
0.392535 0.815660 0.096292
0.431398 0.814400 0.093293
0.471130 0.813544 0.089674
0.507938 0.812734 0.086182
0.543631 0.811454 0.082704
0.580677 0.809979 0.078849
0.616007 0.808355 0.074981
0.652029 0.806653 0.070791
0.688048 0.805183 0.066400
0.722372 0.803502 0.062132
0.755595 0.800887 0.058049
0.787853 0.800212 0.053314
0.819333 0.799161 0.048740
0.850605 0.797590 0.044216
0.881986 0.796638 0.039102
0.913482 0.794392 0.034323
0.944535 0.792858 0.029312
0.968077 0.792060 0.025284
0.976360 0.790957 0.024081
0.000000 0.843239 0.102414
0.000000 0.843239 0.102414
0.000000 0.843259 0.102454
0.000000 0.843636 0.103180
0.004022 0.844600 0.104984
0.039314 0.845571 0.107420
0.091751 0.845831 0.108513
0.145165 0.845185 0.107264
0.193818 0.845151 0.105266
0.234581 0.845119 0.102984
0.280792 0.844471 0.099907
0.326784 0.843522 0.096638
0.367012 0.842469 0.093561
0.402980 0.841551 0.090449
0.440779 0.840641 0.087030
0.478040 0.840239 0.083352
0.513002 0.839824 0.079542
0.547941 0.838697 0.075631
0.584442 0.837003 0.071598
0.620242 0.834817 0.067492
0.657636 0.833092 0.062864
0.693621 0.831809 0.058076
0.726693 0.830459 0.053525
0.759495 0.828882 0.048965
0.791604 0.827627 0.044175
0.823425 0.825762 0.039422
0.855091 0.823636 0.034698
0.886092 0.821717 0.029809
0.917196 0.820749 0.024348
0.947197 0.819130 0.019260
0.970280 0.817614 0.015515
0.981220 0.816708 0.013636
0.000000 0.872102 0.105376
0.000000 0.872108 0.105389
0.000000 0.872319 0.105826
0.000238 0.872832 0.107036
0.009440 0.873683 0.108499
0.064396 0.872580 0.107414
0.113657 0.872059 0.105962
0.160469 0.871322 0.103585
0.208845 0.870784 0.100660
0.250009 0.870559 0.097798
0.293040 0.869512 0.094677
0.335517 0.868992 0.091161
0.375298 0.868362 0.087613
0.413419 0.866421 0.084224
0.452088 0.865133 0.080305
0.488316 0.864658 0.076359
0.522335 0.864601 0.072257
0.556420 0.864055 0.068028
0.590969 0.862735 0.063800
0.626556 0.860925 0.059306
0.663706 0.859534 0.054280
0.699441 0.858084 0.049208
0.732956 0.856568 0.044263
0.765408 0.855393 0.039294
0.797583 0.853260 0.034602
0.829017 0.851248 0.029703
0.860046 0.849687 0.024560
0.890670 0.847705 0.019545
0.919229 0.846884 0.014361
0.948961 0.845401 0.008950
0.973874 0.844015 0.004570
0.986010 0.843617 0.002481
0.000000 0.899854 0.108149
0.000000 0.900231 0.108718
0.000000 0.899673 0.107999
0.003566 0.899174 0.107159
0.043936 0.898703 0.105554
0.098982 0.897538 0.103131
0.144264 0.896626 0.100698
0.185877 0.896086 0.098105
0.227951 0.895925 0.095030
0.268308 0.895100 0.091802
0.308277 0.894198 0.088495
0.346959 0.893517 0.084894
0.384941 0.892841 0.081137
0.423448 0.891441 0.077258
0.461278 0.890464 0.073021
0.496521 0.889548 0.068880
0.530628 0.889039 0.064518
0.565122 0.888542 0.059934
0.599133 0.887589 0.055331
0.633120 0.886213 0.050581
0.669719 0.884870 0.045349
0.705785 0.883296 0.040018
0.739037 0.881705 0.034913
0.770300 0.880847 0.029725
0.801740 0.878922 0.024706
0.832888 0.876867 0.019686
0.863854 0.875308 0.014274
0.894255 0.873893 0.008990
0.921729 0.872522 0.003923
0.951820 0.871023 0.001372
0.977734 0.869556 0.000406
0.990208 0.869266 0.000000
0.000000 0.925283 0.106621
0.000515 0.924505 0.105056
0.017482 0.923326 0.103635
0.043692 0.922226 0.102281
0.090157 0.921914 0.099954
0.135022 0.921653 0.097222
0.175640 0.920863 0.094450
0.213689 0.920374 0.091442
0.250214 0.920311 0.088249
0.287171 0.919037 0.085064
0.324187 0.918690 0.081497
0.360834 0.917850 0.077815
0.397690 0.916676 0.073928
0.434491 0.916395 0.069480
0.469048 0.915952 0.065075
0.503000 0.914871 0.060908
0.537896 0.913606 0.056391
0.573168 0.912789 0.051412
0.607206 0.911891 0.046429
0.639031 0.910709 0.041679
0.674653 0.909433 0.036232
0.710752 0.907842 0.030567
0.743382 0.906396 0.025381
0.773594 0.905668 0.020006
0.804481 0.904475 0.014690
0.835881 0.902588 0.009272
0.866622 0.900809 0.003914
0.896210 0.899655 0.001289
0.924966 0.898015 0.000313
0.955296 0.896100 0.000015
0.980910 0.894362 0.000000
0.993832 0.893860 0.000000
0.018929 0.949600 0.099421
0.019956 0.949414 0.099122
0.053550 0.947481 0.097570
0.097659 0.945479 0.095419
0.133569 0.944791 0.093088
0.169950 0.944323 0.090349
0.199579 0.944884 0.087707
0.232776 0.945145 0.084483
0.272569 0.944039 0.080775
0.306312 0.942542 0.077608
0.339679 0.942359 0.073932
0.375666 0.942021 0.069791
0.413692 0.941035 0.065335
0.447778 0.940192 0.061066
0.477727 0.939610 0.057105
0.510857 0.938707 0.052540
0.547103 0.937650 0.047454
0.581797 0.936659 0.042295
