gsg/03_Cinematic/GSG_LUT_Cinematic_OfficeCubicle.cube
# GSG LUTs 1.0
# Copyright (c) 2016-2020 Greyscalegorilla
# See EULA for licensing and distribution information
# Converted by Briz LUT Converter
LUT_3D_SIZE 5
DOMAIN_MIN 0.000000 0.000000 0.000000
DOMAIN_MAX 0.903226 0.903226 0.903226
0.076923 0.080830 0.080342
0.157588 0.107487 0.110583
0.283989 0.130994 0.138186
0.466572 0.148088 0.157367
0.662090 0.185419 0.184899
0.128174 0.228627 0.145654
0.209926 0.257348 0.167450
0.331599 0.289000 0.190034
0.497389 0.320223 0.206623
0.680497 0.367335 0.245810
0.167175 0.406782 0.195919
0.249361 0.435149 0.209382
0.378663 0.466105 0.236514
0.534992 0.506211 0.273969
0.725403 0.552759 0.319722
0.216157 0.601583 0.246831
0.310922 0.622845 0.274247
0.439269 0.655189 0.305684
0.606333 0.695018 0.335057
0.808909 0.737745 0.366356
0.295262 0.793619 0.328229
0.376998 0.819539 0.337978
0.507338 0.853236 0.355944
0.677632 0.891252 0.376478
0.883325 0.930434 0.393491
0.082162 0.088566 0.193580
0.169464 0.115278 0.218063
0.292976 0.143315 0.247279
0.472181 0.160075 0.279773
0.664886 0.200005 0.305447
0.135531 0.242645 0.247082
0.216043 0.268967 0.272109
0.340971 0.297303 0.296025
0.502989 0.333144 0.321263
0.684819 0.382166 0.356252
0.177408 0.419268 0.304048
0.257014 0.447091 0.320600
0.386826 0.478152 0.345070
0.543127 0.519393 0.379815
0.740003 0.564276 0.424084
0.230115 0.612208 0.357188
0.322656 0.634374 0.380247
0.451032 0.667727 0.409501
0.619051 0.707001 0.443230
0.822605 0.748603 0.478639
0.302593 0.806215 0.430882
0.385674 0.832085 0.445543
0.517082 0.865343 0.467855
0.688248 0.902533 0.492299
0.894891 0.940507 0.513393
0.082918 0.092662 0.339950
0.178543 0.116334 0.356806
0.308572 0.145953 0.373112
0.478144 0.172720 0.401926
0.668195 0.215424 0.425140
0.128661 0.255693 0.372568
0.215530 0.278205 0.398962
0.348677 0.307242 0.415973
0.509128 0.346971 0.436132
0.689527 0.397597 0.467469
0.184213 0.432975 0.415921
0.266254 0.458946 0.435028
0.396064 0.490974 0.455536
0.555191 0.532298 0.488641
0.755222 0.575866 0.534909
0.244551 0.623766 0.468408
0.334349 0.646777 0.489597
0.463094 0.680424 0.520080
0.631898 0.719017 0.557086
0.836213 0.759455 0.595830
0.309937 0.819055 0.540825
0.394308 0.844681 0.558909
0.526675 0.877470 0.584632
0.698554 0.913584 0.612376
0.905969 0.950126 0.636725
0.079767 0.093694 0.516428
0.183410 0.115347 0.521789
0.322687 0.144523 0.522364
0.487256 0.182583 0.528158
0.672212 0.231454 0.543164
0.119475 0.265774 0.523424
0.221290 0.288786 0.526689
0.356516 0.320145 0.533687
0.515814 0.361517 0.549846
0.695986 0.413074 0.579561
0.180137 0.448147 0.541112
0.277459 0.471251 0.548711
0.405928 0.504463 0.565486
0.568883 0.544905 0.601934
0.770342 0.587274 0.651021
0.259159 0.635708 0.580538
0.345392 0.659906 0.602346
0.475007 0.693118 0.635679
0.644523 0.730844 0.675586
0.849507 0.769900 0.717101
0.317043 0.831919 0.655835
0.402584 0.857289 0.676828
0.535851 0.889238 0.705415
0.708528 0.924266 0.735983
0.916602 0.959375 0.763265
0.084155 0.101934 0.662429
0.189901 0.126254 0.653433
0.328704 0.157328 0.647220
0.492497 0.197346 0.647997
0.676495 0.248092 0.659520
0.128796 0.277010 0.650500
0.230906 0.301091 0.646631
0.365023 0.333814 0.649382
0.522927 0.376585 0.662199
0.705304 0.427561 0.694542
0.193588 0.460254 0.657429
0.289526 0.484141 0.661000
0.417319 0.518291 0.676728
0.583205 0.557387 0.719265
0.785459 0.598376 0.771011
0.273166 0.648060 0.694789
0.356320 0.673005 0.719256
0.486617 0.705621 0.755209
0.656949 0.742365 0.797708
0.862564 0.780030 0.841782
0.323880 0.844760 0.774887
0.410440 0.869652 0.798463
0.544591 0.900882 0.829456
0.718043 0.934704 0.862556
0.926767 0.968089 0.892370
