gsg/03_Cinematic/GSG_LUT_Cinematic_Punchy_Cool.cube
# GSG LUTs 1.0
# Copyright (c) 2016-2020 Greyscalegorilla
# See EULA for licensing and distribution information
# Converted by Briz LUT Converter
LUT_3D_SIZE 8
DOMAIN_MIN 0.000000 0.000000 0.000000
DOMAIN_MAX 0.903226 0.903226 0.903226
0.050794 0.050794 0.050794
0.179645 0.042759 0.042790
0.325999 0.036378 0.037111
0.481366 0.033944 0.035748
0.615991 0.035543 0.038844
0.743401 0.040175 0.045461
0.860144 0.046989 0.054205
0.965867 0.054756 0.064233
0.033006 0.176273 0.038363
0.162465 0.168750 0.036236
0.311874 0.160661 0.036103
0.465780 0.133254 0.038537
0.610114 0.073733 0.040924
0.742085 0.050532 0.046260
0.859309 0.050745 0.054580
0.965353 0.055003 0.063994
0.008925 0.328134 0.036827
0.112194 0.327236 0.039026
0.282060 0.327614 0.046108
0.424158 0.326913 0.055113
0.556664 0.324786 0.065256
0.683489 0.318479 0.075388
0.803045 0.308875 0.084581
0.909237 0.305508 0.093229
0.000000 0.478286 0.048982
0.017894 0.479691 0.050748
0.243347 0.482699 0.065037
0.389715 0.486270 0.077356
0.519692 0.489249 0.088471
0.645738 0.489159 0.098052
0.764064 0.490252 0.105587
0.879319 0.489343 0.107450
0.000000 0.618347 0.068825
0.002828 0.618618 0.069392
0.207178 0.623333 0.085973
0.360837 0.628414 0.097545
0.490970 0.632489 0.105695
0.624606 0.631161 0.106734
0.763462 0.624661 0.097469
0.890764 0.620690 0.085676
0.000000 0.751239 0.089913
0.000000 0.751885 0.090357
0.177704 0.756842 0.103563
0.343715 0.759292 0.107250
0.495429 0.757207 0.097954
0.641431 0.751171 0.085314
0.780574 0.744180 0.070247
0.906450 0.738998 0.053281
0.000000 0.872102 0.105376
0.009440 0.873683 0.108499
0.208845 0.870784 0.100660
0.375298 0.868362 0.087613
0.522335 0.864601 0.072257
0.663706 0.859534 0.054280
0.797583 0.853260 0.034602
0.919229 0.846884 0.014361
0.097168 0.970271 0.090472
0.177510 0.967747 0.084599
0.293136 0.966915 0.072878
0.423645 0.965012 0.056954
0.556775 0.961363 0.038052
0.684490 0.958406 0.016803
0.812550 0.953534 0.000270
0.930791 0.948353 0.000000
0.046973 0.047005 0.185868
0.168416 0.040982 0.176037
0.325645 0.035433 0.168139
0.475500 0.033956 0.163975
0.612823 0.036189 0.152123
0.739721 0.041226 0.137972
0.859679 0.047920 0.111333
0.963253 0.054989 0.084964
0.030375 0.170724 0.171723
0.157620 0.167592 0.168174
0.313092 0.156111 0.162366
0.466076 0.127120 0.157221
0.611083 0.062039 0.144557
0.740984 0.050577 0.129390
0.858507 0.050323 0.104920
0.963485 0.055087 0.080169
0.005648 0.328419 0.162908
0.110244 0.326304 0.160462
0.281692 0.327107 0.157385
0.425003 0.324656 0.152887
0.556564 0.322435 0.142663
0.683235 0.316215 0.122985
0.801813 0.307452 0.105109
0.911745 0.302258 0.101129
0.000000 0.481707 0.143913
0.028537 0.478631 0.146160
0.242781 0.482624 0.143361
0.390578 0.486657 0.139034
0.519561 0.488020 0.123790
0.645221 0.488648 0.112644
0.765741 0.489820 0.113514
0.877809 0.488530 0.112653
0.000000 0.618599 0.131705
0.002824 0.619616 0.133130
0.204597 0.623381 0.133158
0.358347 0.628275 0.116222
0.491946 0.632069 0.114703
0.624884 0.630881 0.114079
0.762592 0.624605 0.102621
0.890184 0.620523 0.088000
0.000000 0.751442 0.111130
0.000000 0.752165 0.123642
0.181001 0.756340 0.121473
0.343761 0.759265 0.116271
0.496276 0.756659 0.104625
0.641256 0.750520 0.089593
0.778327 0.744183 0.073010
0.905615 0.738699 0.054965
0.000000 0.872354 0.136217
0.012794 0.873292 0.137117
0.215914 0.870094 0.115971
0.378273 0.867079 0.096310
0.521911 0.863825 0.078806
0.663693 0.859381 0.058310
0.796241 0.853220 0.037274
0.919633 0.846277 0.016438
0.090494 0.968987 0.160334
0.177065 0.967050 0.152960
0.296961 0.965847 0.126344
0.429234 0.963127 0.082268
0.556752 0.960611 0.049142
0.687293 0.957932 0.024038
0.812601 0.952382 0.005647
0.931430 0.947740 0.001152
0.041869 0.043034 0.349167
0.145406 0.038930 0.344245
0.314611 0.034487 0.338237
0.468314 0.034440 0.331409
0.602345 0.037875 0.325276
0.729404 0.043900 0.324316
0.845929 0.051518 0.321367
0.949812 0.059427 0.319969
0.025452 0.168648 0.337566
0.142872 0.165810 0.334373
0.304086 0.152449 0.331683
0.457270 0.123701 0.329610
0.600695 0.059418 0.325395
0.727538 0.051678 0.323997
0.844693 0.053727 0.320698
0.949222 0.059444 0.319108
0.001806 0.326490 0.330759
0.107394 0.323823 0.328536
0.275108 0.325618 0.331654
0.419523 0.322949 0.331888
0.551315 0.318982 0.332397
0.676061 0.313432 0.333508
0.795301 0.304324 0.332398
0.904072 0.300805 0.331000
0.000000 0.478801 0.331693
0.011009 0.481100 0.332208
0.239191 0.481231 0.339078
0.384448 0.484937 0.341663
0.514846 0.488116 0.342960
0.640381 0.487878 0.342783
0.762501 0.486723 0.340610
0.883375 0.483482 0.326920
0.000000 0.620166 0.338534
0.003710 0.619139 0.338055
0.203189 0.622873 0.349475
0.354492 0.628728 0.351156
0.486891 0.632448 0.349213
0.630880 0.626714 0.337142
0.769522 0.620505 0.320407
0.898739 0.615261 0.301768
0.000000 0.753351 0.346965
0.000000 0.752688 0.349819
0.180452 0.756315 0.357048
0.349800 0.755320 0.348911
0.501393 0.751818 0.329941
0.647049 0.748067 0.310928
0.784728 0.740467 0.294050
0.912470 0.734777 0.271919
0.000000 0.873985 0.359443
0.012185 0.870883 0.358582
0.223788 0.866263 0.351396
0.385999 0.862242 0.334525
0.527931 0.859580 0.313336
0.668146 0.855299 0.288092
0.800545 0.849684 0.266354
0.922859 0.842889 0.246552
0.111711 0.966871 0.351861
0.191182 0.963604 0.347257
0.302916 0.962166 0.339267
0.433076 0.959548 0.322002
0.560767 0.956997 0.299693
0.690260 0.953680 0.274133
0.815329 0.948734 0.249104
0.932648 0.943488 0.226811
0.036646 0.039765 0.513325
0.061764 0.039018 0.511974
0.303084 0.033944 0.498238
0.458545 0.035299 0.492287
0.591708 0.039773 0.487053
0.717354 0.046687 0.487373
0.833667 0.054788 0.484211
0.937020 0.062949 0.484911
0.021112 0.163203 0.497523
0.090644 0.161992 0.494808
0.294775 0.145710 0.491103
0.449379 0.112657 0.488950
0.590739 0.056176 0.488420
0.716837 0.053618 0.484983
0.832933 0.056152 0.484925
0.937003 0.063000 0.484422
0.000000 0.325352 0.488430
0.053548 0.323926 0.487925
0.265542 0.325608 0.486247
0.408778 0.323096 0.491093
0.542253 0.317333 0.492013
0.667872 0.310983 0.493688
0.786453 0.301326 0.494839
0.895581 0.297444 0.496220
0.000000 0.480857 0.486630
0.016718 0.479214 0.487117
0.234029 0.482560 0.492364
0.377151 0.486060 0.498139
0.509317 0.486920 0.501646
0.636465 0.485178 0.502328
0.761569 0.482648 0.500378
0.887362 0.477120 0.489846
0.000000 0.621075 0.493663
0.001118 0.620904 0.494526
0.198434 0.624216 0.502549
0.350272 0.627488 0.507755
0.486837 0.629562 0.504639
0.634815 0.622650 0.494700
0.774437 0.616307 0.481532
0.903316 0.609109 0.467659
0.000000 0.753482 0.504082
0.000000 0.755155 0.504369
0.181639 0.756374 0.509588
0.355644 0.751508 0.503461
0.506631 0.747988 0.491013
0.651099 0.743102 0.476182
0.789669 0.735857 0.460244
0.915978 0.729854 0.444893
0.000000 0.871981 0.512462
0.008207 0.870496 0.508338
0.230879 0.863736 0.498182
0.393003 0.858698 0.490051
0.533331 0.854790 0.475707
0.670363 0.851409 0.456982
0.801792 0.845895 0.439334
0.925290 0.839499 0.422498
0.106058 0.964226 0.498360
0.186055 0.964056 0.492981
0.301962 0.959435 0.485537
0.436645 0.955658 0.474948
0.562400 0.953545 0.459130
0.689704 0.949527 0.441286
0.813943 0.945499 0.420625
0.931583 0.940465 0.402633
0.031604 0.037355 0.661475
0.039203 0.037182 0.661020
0.285961 0.033976 0.645836
0.447012 0.036450 0.637950
0.582185 0.042042 0.633755
0.706755 0.049502 0.631551
0.821901 0.057812 0.628505
0.925151 0.066123 0.630188
0.017465 0.152349 0.646635
0.029546 0.152121 0.645787
0.280659 0.135907 0.636570
0.439799 0.098890 0.635228
0.579196 0.055963 0.633847
0.705577 0.055580 0.630260
0.821455 0.059023 0.629387
0.924980 0.066204 0.629166
0.000000 0.324053 0.630565
0.013473 0.322638 0.631358
0.250585 0.323695 0.629244
0.401120 0.321708 0.632011
0.531373 0.316860 0.634488
0.658198 0.309996 0.636631
0.776068 0.303650 0.638799
0.884127 0.298329 0.638776
0.000000 0.479386 0.628790
0.006870 0.480315 0.628653
0.221638 0.482640 0.632445
0.369672 0.486575 0.635782
0.500927 0.485692 0.642671
0.627444 0.485070 0.645357
0.758634 0.479283 0.640452
0.884519 0.472178 0.631923
0.000000 0.622192 0.632081
0.000339 0.622026 0.633141
0.189660 0.625187 0.639977
0.345769 0.628534 0.643877
0.489281 0.625915 0.640910
0.638136 0.618057 0.631383
0.777543 0.610791 0.622092
0.904553 0.603876 0.610680
0.000000 0.754951 0.641262
0.000000 0.754729 0.641531
0.179174 0.755357 0.643081
0.359280 0.750036 0.634970
0.509166 0.744159 0.627493
0.652549 0.738997 0.615467
0.790385 0.732551 0.601785
0.917814 0.725260 0.588035
0.000000 0.871451 0.642754
0.014311 0.867823 0.639635
0.231815 0.862599 0.630194
0.393265 0.857194 0.621185
0.536408 0.851126 0.611927
0.671056 0.847582 0.598662
0.801731 0.841971 0.583391
0.925771 0.834842 0.568738
0.099638 0.964410 0.628026
0.186061 0.961835 0.623508
0.304104 0.959034 0.616684
0.438811 0.954131 0.606301
0.564824 0.949426 0.596799
0.690264 0.945026 0.582462
0.811889 0.941255 0.566124
0.927753 0.937560 0.550711
0.026807 0.035582 0.800780
0.029028 0.035540 0.800620
0.267674 0.034227 0.784601
0.437975 0.038150 0.775326
0.572662 0.044421 0.770639
0.696591 0.052353 0.766797
0.810780 0.060959 0.763818
0.913364 0.069163 0.764811
0.014304 0.139405 0.786912
0.022178 0.133890 0.787422
0.268900 0.120298 0.776616
0.435978 0.073980 0.772459
0.572524 0.054804 0.769201
0.696160 0.056816 0.766062
0.809770 0.062063 0.765484
0.913356 0.069410 0.764552
0.000000 0.322503 0.768048
0.006916 0.321036 0.767521
0.239077 0.321565 0.763368
0.392754 0.321530 0.764714
0.524985 0.315994 0.767501
0.649664 0.307833 0.769821
0.766514 0.304658 0.771137
0.873038 0.303496 0.773394
0.000000 0.479193 0.761062
0.003081 0.479696 0.761016
0.211851 0.482532 0.764279
0.363753 0.485872 0.768414
0.493500 0.486256 0.772648
0.622136 0.484436 0.776355
0.755393 0.476997 0.770580
0.882546 0.469750 0.762806
0.000000 0.621560 0.763793
0.000000 0.621936 0.763765
0.181962 0.625801 0.769012
0.344155 0.628235 0.773139
0.492014 0.623340 0.767754
0.636890 0.615016 0.762639
0.773755 0.606543 0.754510
0.901677 0.599557 0.744373
0.000000 0.755717 0.769772
0.000000 0.755656 0.769502
0.180535 0.753796 0.768489
0.362798 0.747628 0.760557
0.513767 0.742094 0.752137
0.654474 0.735529 0.745373
0.792250 0.726279 0.735429
0.917769 0.719182 0.723871
0.000000 0.869566 0.765508
0.016726 0.866614 0.762594
0.235371 0.861148 0.753572
0.395741 0.855369 0.746480
0.539159 0.849063 0.737283
0.672403 0.843666 0.728927
0.800169 0.837704 0.717517
0.923690 0.831101 0.704859
0.090857 0.963187 0.749849
0.183395 0.961630 0.745467
0.309411 0.956427 0.739523
0.438472 0.952013 0.731193
0.565301 0.947074 0.722833
0.689888 0.941472 0.713748
0.809199 0.938194 0.701230
0.925678 0.933164 0.687138
0.022443 0.034487 0.929324
0.025860 0.034456 0.929033
0.268894 0.034914 0.909304
0.434126 0.040017 0.898242
0.567675 0.047023 0.893164
0.689156 0.055343 0.890512
0.801820 0.063917 0.886784
0.903378 0.071952 0.885333
0.012092 0.121389 0.916459
0.019068 0.117561 0.916518
0.270269 0.094476 0.900189
0.436951 0.055866 0.896522
0.566630 0.055617 0.893648
0.688834 0.058728 0.887993
0.802640 0.064690 0.886633
0.902221 0.071984 0.885659
0.000000 0.316719 0.891019
0.007757 0.318031 0.890928
0.238197 0.320206 0.886200
0.391749 0.319231 0.884139
0.521995 0.314457 0.887534
0.645395 0.306618 0.890015
0.759972 0.303089 0.891993
0.866224 0.304044 0.892452
0.000000 0.478829 0.881661
0.004831 0.479027 0.881723
0.213144 0.483295 0.883802
0.364819 0.486255 0.886766
0.494072 0.486908 0.891136
0.621846 0.481353 0.893248
0.755779 0.475022 0.887190
0.880381 0.468649 0.880824
0.000000 0.622084 0.882330
0.001683 0.622364 0.882710
0.189211 0.626761 0.887816
0.350077 0.626343 0.887935
0.499028 0.620391 0.882153
0.639783 0.612861 0.877871
0.774903 0.604357 0.871572
0.899705 0.596589 0.864786
0.000000 0.756001 0.886746
0.000636 0.756426 0.886765
0.201934 0.750786 0.880854
0.372755 0.744864 0.874337
0.519475 0.738900 0.867180
0.658543 0.732436 0.861594
0.789152 0.723546 0.854727
0.914092 0.715594 0.847745
0.000000 0.867392 0.877813
0.055333 0.863718 0.873487
0.253338 0.858370 0.866215
0.403852 0.852694 0.860327
0.542179 0.847143 0.853185
0.674583 0.840771 0.845384
0.801092 0.834551 0.837810
0.922224 0.826344 0.828970
0.141763 0.960269 0.861439
0.199014 0.959252 0.858641
0.316300 0.954949 0.853544
0.442934 0.950621 0.846395
0.566043 0.945881 0.838191
0.688717 0.939693 0.832334
0.807895 0.934346 0.823095
0.920531 0.930356 0.812972
0.018386 0.033967 1.000000
0.072544 0.033964 1.000000
0.287773 0.036654 0.999537
0.444055 0.042728 0.998438
0.568230 0.049998 0.997898
0.688621 0.058482 0.996616
0.796476 0.066906 0.996300
0.895065 0.074489 0.994526
0.011327 0.096224 0.999939
0.088183 0.084821 0.999919
0.295314 0.061062 0.998741
0.443549 0.054086 0.998337
0.569387 0.057135 0.997890
0.688624 0.060884 0.996424
0.796616 0.067301 0.994614
0.894716 0.074394 0.993711
0.000000 0.317221 0.997578
0.055943 0.315519 0.996665
0.262355 0.317719 0.992410
0.400400 0.318010 0.991067
0.524417 0.313838 0.993959
0.644618 0.307023 0.996494
0.757839 0.303150 0.997763
0.861229 0.304991 0.997608
0.000000 0.478214 0.988327
0.061212 0.480547 0.988019
0.236790 0.483115 0.990444
0.372556 0.487439 0.993202
0.498849 0.486344 0.996127
0.628764 0.480683 0.995255
0.759334 0.472243 0.991208
0.881197 0.467572 0.985179
0.000000 0.621498 0.987172
0.034178 0.624372 0.989272
0.214115 0.626488 0.993318
0.368547 0.623156 0.990525
0.512411 0.617810 0.984759
0.647483 0.610164 0.980817
0.778337 0.601517 0.977198
0.899898 0.594938 0.971539
0.000000 0.754841 0.988885
0.048320 0.753272 0.986459
0.232264 0.748348 0.983016
0.391751 0.742175 0.977381
0.531439 0.736238 0.971175
0.665664 0.729560 0.965532
0.792843 0.721477 0.961805
0.914149 0.712879 0.957085
0.032665 0.861793 0.976202
0.147211 0.859752 0.973046
0.276877 0.855310 0.967790
0.420179 0.849590 0.963903
0.550838 0.844597 0.958486
0.679190 0.837704 0.952570
0.801978 0.831563 0.947020
0.920038 0.822523 0.941617
0.182815 0.956420 0.962475
0.239173 0.955813 0.959737
0.331858 0.952689 0.956256
0.452436 0.948473 0.950977
0.573012 0.943102 0.945370
0.690857 0.938572 0.940006
0.807656 0.931750 0.933794
0.920835 0.926578 0.927587
