gsg/03_Cinematic/GSG_LUT_Cinematic_Blockbuster.cube
# GSG LUTs 1.0
# Copyright (c) 2016-2020 Greyscalegorilla
# See EULA for licensing and distribution information
# Converted by Briz LUT Converter
LUT_3D_SIZE 8
DOMAIN_MIN 0.000000 0.000000 0.000000
DOMAIN_MAX 0.903226 0.903226 0.903226
0.050794 0.050794 0.050794
0.072701 0.052905 0.051700
0.127016 0.058435 0.063398
0.189775 0.071787 0.087116
0.261586 0.093883 0.125787
0.345535 0.130970 0.177896
0.430052 0.174430 0.232408
0.492962 0.212281 0.277782
0.059396 0.078246 0.056221
0.100343 0.087007 0.062862
0.170901 0.103595 0.084863
0.249726 0.128764 0.125627
0.341765 0.162349 0.181847
0.434786 0.201007 0.241978
0.506768 0.239186 0.291537
0.560906 0.269650 0.330665
0.086061 0.134932 0.079523
0.113259 0.142385 0.083365
0.172206 0.158485 0.099450
0.254295 0.181557 0.142143
0.351528 0.215101 0.199894
0.454236 0.253731 0.266859
0.529269 0.287429 0.318281
0.580669 0.314569 0.355611
0.115444 0.215282 0.111316
0.135404 0.220321 0.116094
0.178613 0.232036 0.129345
0.248750 0.251870 0.163046
0.352720 0.284265 0.223702
0.462066 0.322264 0.292148
0.543644 0.353504 0.346203
0.597388 0.378176 0.383354
0.118855 0.314491 0.152869
0.129390 0.318316 0.154564
0.160152 0.328480 0.166461
0.219837 0.346623 0.189275
0.339833 0.379513 0.250345
0.461622 0.418073 0.321711
0.555681 0.446706 0.381117
0.615952 0.466586 0.419842
0.089196 0.424089 0.207728
0.088932 0.424078 0.204093
0.089467 0.426272 0.198555
0.117584 0.440506 0.213685
0.292501 0.477792 0.271304
0.444172 0.523513 0.347907
0.563306 0.555221 0.416826
0.643937 0.568285 0.456247
0.092898 0.534200 0.266517
0.092630 0.534011 0.262055
0.092103 0.536439 0.252968
0.091360 0.538495 0.241390
0.135557 0.558363 0.269823
0.377188 0.611994 0.349026
0.568525 0.658532 0.433615
0.688614 0.671690 0.477385
0.099492 0.624467 0.312316
0.099248 0.624707 0.309566
0.098696 0.624721 0.300077
0.097688 0.627263 0.286870
0.096842 0.632186 0.271512
0.153489 0.655676 0.310120
0.495553 0.720155 0.412592
0.702417 0.759226 0.483799
0.058214 0.051282 0.071952
0.162117 0.071613 0.088257
0.212763 0.087464 0.103013
0.241977 0.106241 0.118481
0.290922 0.131411 0.148628
0.357710 0.166174 0.191412
0.432080 0.204291 0.240736
0.494498 0.240196 0.285272
0.081614 0.098141 0.087966
0.131972 0.111320 0.098569
0.202308 0.131577 0.115777
0.282086 0.158268 0.149261
0.369056 0.192889 0.203863
0.454701 0.230165 0.260732
0.523594 0.263076 0.308317
0.577778 0.292361 0.347093
0.110631 0.153759 0.113325
0.135027 0.163451 0.118686
0.193633 0.179028 0.133156
0.277371 0.203458 0.160566
0.376681 0.238696 0.220179
0.473365 0.276611 0.283513
0.543071 0.307300 0.332290
0.594262 0.334072 0.368924
0.133228 0.230816 0.143320
0.151817 0.236675 0.148067
0.194617 0.249089 0.159994
0.265632 0.270189 0.182107
0.371079 0.303794 0.239473
0.476195 0.340825 0.305504
0.553563 0.370757 0.356806
0.607728 0.394833 0.393652
0.125481 0.327354 0.178672
0.139418 0.332284 0.182415
0.167625 0.342401 0.191820
0.231778 0.361586 0.212033
0.354896 0.396770 0.263518
0.473695 0.434495 0.333536
0.564922 0.462537 0.391276
0.625838 0.482809 0.429695
0.087518 0.434488 0.229975
0.087113 0.434547 0.224820
0.088343 0.438162 0.220819
0.141771 0.456154 0.238107
0.307434 0.493028 0.282795
0.456433 0.538479 0.358409
0.573208 0.568864 0.426082
0.656816 0.581280 0.462166
0.094506 0.541338 0.284526
0.094190 0.541345 0.280570
0.093619 0.543281 0.269866
0.092948 0.547509 0.258615
0.161476 0.571061 0.283644
0.392501 0.623595 0.358107
0.582965 0.668113 0.439293
0.699629 0.681472 0.481823
0.100776 0.630945 0.327228
0.100531 0.631225 0.324317
0.099980 0.631584 0.316729
0.098963 0.634006 0.300788
0.097895 0.638966 0.283636
0.173195 0.666400 0.317448
0.507988 0.729308 0.417072
0.714396 0.766267 0.488887
0.076663 0.059876 0.124968
0.186553 0.083890 0.134885
0.253629 0.104061 0.150049
0.319164 0.135360 0.170806
0.345859 0.168327 0.185947
0.394923 0.199732 0.220330
0.453776 0.234067 0.261491
0.507858 0.267757 0.300006
0.103340 0.117940 0.143715
0.157635 0.132621 0.150095
0.226847 0.153467 0.161960
0.299295 0.182369 0.182308
0.373535 0.215533 0.213659
0.451807 0.250593 0.264953
0.518756 0.285624 0.311767
0.572545 0.315492 0.350427
0.140044 0.179352 0.168267
0.162660 0.186459 0.171605
0.217200 0.202385 0.180667
0.299837 0.228539 0.201680
0.395648 0.263554 0.239532
0.486071 0.301316 0.298711
0.559539 0.331806 0.348180
0.616318 0.355034 0.387642
0.167555 0.252043 0.202244
0.181258 0.258502 0.204606
0.216067 0.273824 0.211230
0.289312 0.297018 0.228408
0.395207 0.331684 0.264010
0.495118 0.368271 0.323964
0.569723 0.397479 0.373936
0.629611 0.416788 0.412526
0.146566 0.346002 0.237265
0.149263 0.352920 0.237435
0.172600 0.364733 0.243643
0.256670 0.387864 0.259169
0.379557 0.424676 0.294458
0.494338 0.462275 0.353209
0.581529 0.490563 0.408426
0.645942 0.507296 0.447023
0.090378 0.452711 0.273150
0.090226 0.454501 0.270195
0.090628 0.459950 0.271696
0.182345 0.483167 0.286021
0.334156 0.520885 0.319401
0.480261 0.565515 0.378849
0.596634 0.593402 0.439950
0.682752 0.603334 0.473443
0.097713 0.555813 0.323210
0.097418 0.556083 0.318790
0.096751 0.557115 0.307915
0.096618 0.564119 0.302581
0.203897 0.594907 0.322404
0.422913 0.648048 0.378622
0.609685 0.685489 0.449957
0.724231 0.698935 0.491287
0.104975 0.643715 0.379899
0.104675 0.645171 0.375202
0.103625 0.645205 0.359538
0.102015 0.647593 0.335921
0.100921 0.654073 0.317919
0.208632 0.690581 0.341761
0.543112 0.747993 0.430250
0.738167 0.783032 0.496337
0.101288 0.075734 0.187798
0.210532 0.104059 0.193407
0.277645 0.128257 0.202445
0.353794 0.160712 0.220198
0.415592 0.196526 0.240291
0.443620 0.237845 0.257490
0.485812 0.272399 0.289721
0.530358 0.304656 0.324121
0.135823 0.146437 0.210073
0.186906 0.160862 0.217582
0.253450 0.181289 0.226796
0.336412 0.211434 0.242616
0.413161 0.248736 0.264820
0.472963 0.287792 0.289251
0.529806 0.321037 0.328403
0.579566 0.351753 0.365863
0.167568 0.208079 0.238981
0.190156 0.214968 0.242874
0.245737 0.232905 0.252261
0.329265 0.260231 0.267665
0.415751 0.297396 0.290213
0.493735 0.333873 0.316227
0.559972 0.365631 0.358626
0.618151 0.391558 0.398744
0.192370 0.288280 0.276055
0.206038 0.294085 0.278877
0.239795 0.306656 0.285433
0.318670 0.331923 0.300219
0.422824 0.368033 0.323996
0.518562 0.403361 0.351185
0.591946 0.430692 0.396375
0.647230 0.451909 0.432550
0.161510 0.375230 0.314738
0.167696 0.380077 0.316963
0.199107 0.393359 0.323084
0.289230 0.421717 0.336275
0.410754 0.460256 0.362246
0.520663 0.497077 0.388990
0.604916 0.524735 0.430387
0.670100 0.541020 0.465168
0.097044 0.471772 0.354614
0.097414 0.477407 0.355681
0.116011 0.490164 0.358593
0.212192 0.516703 0.371266
0.372090 0.559100 0.398958
0.513330 0.601564 0.427691
0.633528 0.624835 0.455766
0.717303 0.635590 0.487338
0.104082 0.573884 0.401319
0.103926 0.575513 0.398439
0.103269 0.577991 0.388657
0.104368 0.589589 0.393058
0.252695 0.627439 0.412012
0.474550 0.677669 0.442596
0.648713 0.710417 0.465327
0.757035 0.723905 0.502735
0.111354 0.663833 0.457428
0.111035 0.663894 0.452461
0.110323 0.665019 0.443067
0.108907 0.666524 0.421832
0.108467 0.678264 0.410203
0.254073 0.723776 0.424696
0.594957 0.775755 0.456972
0.770864 0.805958 0.507314
0.138202 0.102281 0.254488
0.236353 0.133396 0.260609
0.301282 0.158933 0.268582
0.376677 0.189688 0.283717
0.447420 0.223348 0.294541
0.499001 0.265020 0.308249
0.524345 0.313110 0.325362
0.559219 0.347848 0.352879
0.170683 0.179882 0.285830
0.219585 0.194392 0.298414
0.283686 0.215113 0.307055
0.364783 0.245818 0.320419
0.448638 0.279812 0.334564
0.514132 0.322036 0.345119
0.555983 0.365209 0.360903
0.598016 0.398805 0.389992
0.201328 0.243686 0.321558
0.224507 0.252701 0.329194
0.279666 0.271045 0.344018
0.361300 0.299664 0.357356
0.452148 0.334516 0.371515
0.525697 0.374113 0.379363
0.578292 0.412803 0.390605
0.628184 0.443096 0.419609
0.210236 0.330429 0.366806
0.224892 0.335696 0.372298
0.272029 0.349437 0.383711
0.355497 0.376993 0.402867
0.455259 0.412474 0.419165
0.538251 0.449933 0.426487
0.606649 0.479600 0.427323
0.664748 0.502028 0.455726
0.183945 0.420123 0.411084
0.208174 0.426781 0.416413
0.256750 0.441302 0.427293
0.337717 0.467021 0.446172
0.446871 0.503628 0.467783
0.549661 0.538607 0.474292
0.635011 0.563525 0.464279
0.705547 0.578699 0.480977
0.151867 0.515168 0.456613
0.160688 0.519721 0.459700
0.185400 0.530579 0.467677
0.286015 0.559452 0.485969
0.416502 0.599894 0.511066
0.559340 0.634839 0.515795
0.672865 0.657224 0.496287
0.753601 0.670607 0.501206
0.110922 0.594937 0.484783
0.111076 0.597462 0.486119
0.111711 0.604859 0.490677
0.136887 0.622195 0.500546
0.323486 0.665351 0.530599
0.532198 0.707420 0.540490
0.690129 0.736889 0.520605
0.791144 0.752010 0.514528
0.117306 0.685030 0.527099
0.117293 0.685769 0.524701
0.116779 0.686759 0.518371
0.116299 0.690220 0.510453
0.119006 0.707057 0.523618
0.365179 0.756480 0.542813
0.648376 0.805951 0.537879
0.806728 0.832761 0.519642
0.178833 0.139879 0.323660
0.266947 0.168999 0.336196
0.329617 0.196984 0.350728
0.399860 0.227124 0.364620
0.470098 0.259349 0.373110
0.531092 0.290490 0.371109
0.570739 0.338243 0.376498
0.594849 0.393482 0.393675
0.213742 0.222551 0.371636
0.262514 0.242670 0.390208
0.323399 0.262331 0.403168
0.398013 0.292101 0.420499
0.475377 0.324607 0.431899
0.545823 0.354899 0.427455
0.596338 0.397744 0.421068
0.629686 0.452559 0.432754
0.240929 0.291496 0.412839
0.265226 0.302084 0.424256
0.325355 0.324677 0.448640
0.402805 0.352561 0.468401
0.481968 0.383929 0.479654
0.557031 0.413658 0.476178
0.613965 0.453263 0.462943
0.654295 0.503871 0.464484
0.241526 0.376037 0.458411
0.265469 0.384043 0.467032
0.319506 0.403909 0.489550
0.400605 0.431637 0.513830
0.490652 0.464088 0.534961
0.570728 0.493703 0.533611
0.634194 0.527187 0.513819
0.695011 0.557444 0.488380
0.249525 0.479087 0.509512
0.266459 0.485017 0.515301
0.310588 0.498666 0.530173
0.386002 0.522440 0.556227
0.487599 0.554513 0.582723
0.589462 0.582250 0.586033
0.675272 0.606414 0.556215
0.744362 0.625132 0.510789
0.212092 0.566186 0.552928
0.236916 0.573043 0.558308
0.288306 0.587018 0.571575
0.372374 0.611780 0.595144
0.484648 0.640188 0.617997
0.609311 0.666521 0.624561
0.714783 0.688367 0.595597
0.790854 0.704432 0.538047
0.126754 0.632657 0.580472
0.128946 0.636165 0.583382
0.153591 0.646011 0.591892
0.272618 0.673318 0.614125
0.430639 0.704050 0.635803
0.593805 0.736856 0.650955
0.732850 0.764410 0.632773
0.826101 0.781147 0.567960
0.122895 0.705119 0.590777
0.123296 0.708165 0.593222
0.123738 0.712266 0.596440
0.124977 0.723423 0.606585
0.162158 0.742894 0.628186
0.481310 0.791586 0.657783
0.699033 0.837207 0.656876
0.844252 0.860699 0.594281
0.226649 0.188294 0.394186
0.307384 0.219202 0.418109
0.364449 0.245116 0.435454
0.428621 0.275259 0.455293
0.492360 0.306482 0.469425
0.552432 0.335952 0.468646
0.600733 0.363167 0.448015
0.633624 0.417346 0.445304
0.265248 0.275994 0.454538
0.320319 0.305656 0.494101
0.373566 0.325241 0.503658
0.436945 0.349619 0.518602
0.504081 0.377878 0.534057
0.568561 0.405063 0.536671
0.622934 0.428524 0.514508
0.664664 0.481681 0.495996
0.291797 0.353055 0.504400
0.326284 0.372378 0.529801
0.382383 0.393174 0.551734
0.450668 0.419949 0.575561
0.521311 0.446345 0.593228
0.584797 0.470796 0.592845
0.640848 0.493141 0.570736
0.695001 0.534753 0.536319
0.303817 0.437686 0.555382
0.330394 0.449343 0.570654
0.381927 0.468428 0.590783
0.453315 0.493666 0.616526
0.530921 0.521095 0.639829
0.607473 0.542856 0.647818
0.677343 0.560156 0.624000
0.738386 0.595645 0.576591
0.320434 0.546549 0.609749
0.337896 0.553372 0.618328
0.377292 0.564979 0.635489
0.446761 0.583013 0.658705
0.548144 0.606888 0.679812
0.641942 0.626559 0.687973
0.723290 0.642935 0.672376
0.787955 0.669788 0.620829
0.331866 0.632931 0.654936
0.347711 0.638167 0.660416
0.389204 0.648823 0.673431
0.465365 0.663780 0.690432
0.560860 0.680958 0.708580
0.663411 0.700366 0.721835
0.756950 0.719111 0.713372
0.827738 0.738451 0.664750
0.320480 0.700226 0.684715
0.340201 0.704514 0.688505
0.386754 0.713672 0.697451
0.462689 0.729458 0.712729
0.558192 0.749605 0.731676
0.666859 0.771764 0.748436
0.776340 0.793202 0.749433
0.863350 0.811066 0.705102
0.141106 0.750253 0.693948
0.144888 0.751787 0.695626
0.164632 0.757767 0.701519
0.247116 0.771420 0.713684
0.425436 0.798575 0.734073
0.597177 0.830903 0.759391
0.755600 0.864230 0.775540
0.880273 0.888609 0.744948
0.272512 0.241947 0.465257
0.350557 0.277265 0.490661
0.402269 0.302010 0.511909
0.459229 0.330651 0.534895
0.515538 0.359196 0.553490
0.571736 0.387284 0.563150
0.620647 0.412560 0.554190
0.658257 0.434132 0.519803
0.329154 0.347624 0.544901
0.387166 0.386182 0.592060
0.437062 0.405681 0.612027
0.489339 0.424897 0.623222
0.542380 0.446728 0.634147
0.596636 0.467197 0.640078
0.646633 0.486143 0.630973
0.692146 0.504648 0.590985
0.367933 0.436685 0.611582
0.398168 0.450482 0.628379
0.445853 0.469091 0.648445
0.503426 0.490946 0.671243
0.564355 0.513910 0.691954
0.629100 0.530972 0.700155
0.687074 0.543323 0.687135
0.733672 0.558975 0.642816
0.390537 0.523314 0.664726
0.410416 0.530663 0.672874
0.454522 0.546675 0.690118
0.516862 0.566262 0.712125
0.592869 0.583957 0.728256
0.664797 0.599371 0.736976
0.729549 0.611735 0.732362
0.783819 0.625709 0.697252
0.436573 0.628231 0.717958
0.449881 0.629456 0.720957
0.481419 0.632882 0.729206
0.538848 0.640225 0.742993
0.622488 0.657334 0.761074
0.699587 0.673092 0.772384
0.769136 0.686738 0.772288
0.827773 0.699401 0.745305
0.497810 0.705834 0.754122
0.508594 0.707788 0.757105
0.536016 0.711785 0.764140
0.583823 0.718508 0.775863
0.645401 0.725908 0.789797
0.723262 0.739693 0.803931
0.800319 0.754505 0.808646
0.863874 0.766978 0.788599
0.541788 0.777463 0.787996
0.551609 0.779002 0.790774
0.575534 0.783526 0.797025
0.616974 0.791137 0.806790
0.674028 0.801349 0.819734
0.743072 0.813268 0.833699
0.822085 0.826934 0.843160
0.896336 0.841216 0.830736
0.533642 0.833302 0.811737
0.541451 0.836352 0.814437
0.561976 0.840934 0.818635
0.600903 0.848280 0.827863
0.657343 0.860229 0.841226
0.731247 0.876295 0.856464
0.821103 0.895322 0.871391
0.912062 0.914216 0.871351
