gsg/03_Cinematic/GSG_LUT_Cinematic_BigDeep.cube
# GSG LUTs 1.0
# Copyright (c) 2016-2020 Greyscalegorilla
# See EULA for licensing and distribution information
# Converted by Briz LUT Converter
LUT_3D_SIZE 32
0.050794 0.061538 0.077167
0.050872 0.062287 0.077419
0.053488 0.062822 0.077671
0.057639 0.063878 0.077947
0.062838 0.065422 0.078451
0.067415 0.067187 0.078955
0.072252 0.068998 0.079554
0.077348 0.071015 0.080507
0.082957 0.073032 0.081390
0.089724 0.075048 0.082792
0.097270 0.077222 0.084399
0.105770 0.079657 0.085746
0.115664 0.082020 0.087353
0.127016 0.084336 0.089220
0.139887 0.086463 0.091457
0.154579 0.088613 0.093978
0.171090 0.090504 0.096372
0.189153 0.092134 0.098775
0.208799 0.093647 0.101154
0.229966 0.094710 0.103123
0.252590 0.095151 0.105045
0.276939 0.095238 0.106731
0.303628 0.094891 0.108070
0.332735 0.093481 0.108968
0.363992 0.091339 0.109347
0.397526 0.088085 0.109205
0.433195 0.083532 0.108543
0.471369 0.077679 0.107149
0.511922 0.071409 0.104533
0.554815 0.064650 0.100618
0.599575 0.057844 0.095167
0.646398 0.053236 0.087668
0.050794 0.066375 0.083004
0.050817 0.067376 0.082530
0.051757 0.068407 0.082262
0.055789 0.069634 0.082484
0.060531 0.070651 0.082757
0.064981 0.071858 0.083203
0.070276 0.072959 0.083509
0.075688 0.074515 0.084175
0.081807 0.076259 0.085356
0.088872 0.078089 0.086421
0.096422 0.080182 0.087678
0.105264 0.082442 0.088947
0.115174 0.084703 0.090401
0.126743 0.086967 0.092367
0.140013 0.089235 0.094632
0.154957 0.091272 0.097011
0.171476 0.093166 0.099393
0.189567 0.095040 0.101524
0.209464 0.096377 0.103536
0.230880 0.097393 0.105395
0.253446 0.098090 0.107152
0.277711 0.098268 0.108582
0.304405 0.097924 0.109670
0.333327 0.096882 0.110491
0.364331 0.095069 0.110861
0.397607 0.092090 0.110711
0.433220 0.088217 0.109843
0.471174 0.083143 0.108409
0.511473 0.076985 0.105794
0.554121 0.070478 0.101879
0.598866 0.065122 0.096428
0.645437 0.061326 0.088928
0.050794 0.072740 0.090126
0.050801 0.073464 0.090365
0.051112 0.074681 0.088732
0.052894 0.075664 0.087934
0.057996 0.075989 0.087816
0.062665 0.076750 0.087665
0.068015 0.077760 0.088153
0.073713 0.078940 0.088693
0.080027 0.080074 0.089366
0.087311 0.081719 0.090023
0.095480 0.083708 0.091184
0.104671 0.085709 0.092686
0.115095 0.087721 0.094287
0.127070 0.089843 0.096144
0.140507 0.092096 0.098250
0.155492 0.094238 0.100367
0.172271 0.096246 0.102367
0.190720 0.097871 0.104359
0.210596 0.099145 0.106210
0.231919 0.100406 0.107809
0.254648 0.101204 0.109305
0.279003 0.101559 0.110636
0.305854 0.101307 0.111718
0.334676 0.100468 0.112352
0.365611 0.099102 0.112474
0.398705 0.096844 0.112067
0.434078 0.093539 0.111150
0.471801 0.089219 0.109689
0.512086 0.083687 0.107084
0.554942 0.077944 0.103171
0.599685 0.073140 0.097719
0.646004 0.070416 0.090204
0.050794 0.080050 0.098310
0.050794 0.080049 0.099252
0.050808 0.080818 0.098742
0.051318 0.082409 0.096393
0.054736 0.082992 0.094884
0.059526 0.083261 0.094384
0.065033 0.083578 0.094572
0.071364 0.084351 0.094805
0.077916 0.085474 0.095177
0.085470 0.086951 0.095980
0.094229 0.088535 0.097042
0.103826 0.090283 0.098365
0.114707 0.092228 0.099853
0.126980 0.094389 0.101526
0.140898 0.096409 0.103281
0.156516 0.098413 0.104900
0.173580 0.100303 0.106616
0.192065 0.102068 0.108199
0.212098 0.103549 0.109687
0.233526 0.104809 0.111026
0.256418 0.105770 0.112262
0.280894 0.106369 0.113332
0.307581 0.106403 0.114299
0.336483 0.106026 0.114750
0.367311 0.104985 0.114795
0.400544 0.103374 0.114199
0.435980 0.100694 0.113218
0.473885 0.097366 0.111376
0.514383 0.093496 0.108900
0.557022 0.088735 0.105006
0.601528 0.084834 0.099532
0.647588 0.083926 0.091811
0.050794 0.087298 0.107669
0.050794 0.087061 0.108393
0.050794 0.087355 0.109020
0.050835 0.088342 0.107578
0.051643 0.089941 0.105033
0.055355 0.090514 0.103353
0.060998 0.090620 0.102766
0.067564 0.091056 0.102738
0.074718 0.092040 0.103029
0.082986 0.093181 0.103595
0.092159 0.094681 0.104387
0.102730 0.096302 0.105428
0.114445 0.098148 0.106656
0.127439 0.100235 0.107871
0.141829 0.102265 0.109176
0.157847 0.104147 0.110624
0.175416 0.106038 0.111852
0.194300 0.107803 0.112977
0.214607 0.109302 0.114204
0.236180 0.110575 0.115283
0.259259 0.111699 0.116238
0.284294 0.112430 0.117037
0.311428 0.112999 0.117610
0.340328 0.113183 0.117910
0.371368 0.112532 0.117751
0.404722 0.111406 0.117098
0.440356 0.109828 0.115879
0.478160 0.107763 0.114128
0.518409 0.105048 0.111445
0.560818 0.102280 0.107527
0.605248 0.100491 0.101809
0.650991 0.101635 0.094301
0.050794 0.094222 0.117326
0.050794 0.093986 0.117798
0.050794 0.094235 0.118479
0.050794 0.094561 0.118480
0.050873 0.096039 0.116809
0.052061 0.097672 0.114423
0.056561 0.098357 0.112538
0.062713 0.098980 0.111753
0.070127 0.099799 0.111737
0.078864 0.100890 0.112171
0.089101 0.102336 0.112647
0.100937 0.104100 0.113297
0.113951 0.105865 0.114239
0.128059 0.107732 0.115104
0.143375 0.109638 0.115912
0.159969 0.111502 0.116839
0.177968 0.113392 0.117787
0.197373 0.115154 0.118733
0.218077 0.116782 0.119660
0.240130 0.118186 0.120461
0.263647 0.119487 0.121045
0.289899 0.120622 0.121522
0.319871 0.121643 0.121958
0.350249 0.122166 0.122047
0.381999 0.122311 0.121628
0.415881 0.121865 0.120887
0.451638 0.121066 0.119304
0.489784 0.119974 0.117114
0.529891 0.118942 0.114148
0.572206 0.118154 0.110168
0.616143 0.118533 0.104242
0.661192 0.121431 0.096688
0.050794 0.101973 0.127362
0.050794 0.101737 0.127669
0.050794 0.101973 0.128202
0.050794 0.102054 0.129043
0.050794 0.103048 0.128539
0.050921 0.104951 0.126582
0.052389 0.106677 0.124207
0.057281 0.107929 0.122254
0.064662 0.108858 0.121291
0.073833 0.109981 0.121159
0.085263 0.111505 0.121407
0.098947 0.113270 0.121880
0.113752 0.115052 0.122460
0.129423 0.116968 0.123065
0.145813 0.118923 0.123520
0.163288 0.120714 0.123999
0.181962 0.122604 0.124580
0.201887 0.124379 0.125131
0.223140 0.126055 0.125586
0.245954 0.127698 0.126041
0.270265 0.129229 0.126436
0.296427 0.130608 0.126724
0.324827 0.131778 0.126769
0.354968 0.132702 0.126539
0.386994 0.133367 0.125897
0.421050 0.133772 0.124868
0.457009 0.133996 0.123187
0.495010 0.133807 0.120989
0.535047 0.134123 0.117796
0.576930 0.134883 0.113600
0.620396 0.136579 0.107661
0.665131 0.140730 0.099902
0.050794 0.110765 0.137304
0.050794 0.110528 0.137806
0.050794 0.110765 0.138269
0.050794 0.110783 0.138955
0.050794 0.111121 0.139338
0.050794 0.112568 0.138305
0.050977 0.114727 0.136204
0.052740 0.117299 0.133616
0.058294 0.119027 0.131632
0.067651 0.120280 0.130354
0.080141 0.121489 0.129989
0.095139 0.123179 0.130234
0.111617 0.125060 0.130681
0.129076 0.127213 0.131049
0.147199 0.129421 0.131301
0.166101 0.131433 0.131645
0.185755 0.133409 0.131966
0.206368 0.135318 0.132161
0.228273 0.137083 0.132356
0.251547 0.138881 0.132517
0.276230 0.140510 0.132412
0.302302 0.142059 0.132416
0.330174 0.143629 0.132247
0.360290 0.145058 0.131756
0.392367 0.146243 0.131006
0.426308 0.147213 0.129602
0.462193 0.148298 0.127669
0.500137 0.149352 0.125344
0.539990 0.150564 0.122008
0.581618 0.152662 0.117747
0.624770 0.155718 0.111804
0.668991 0.160865 0.104155
0.050794 0.120659 0.147702
0.050794 0.120546 0.148137
0.050794 0.120726 0.148462
0.050794 0.120785 0.148931
0.050794 0.120863 0.149672
0.050794 0.121676 0.149982
0.050794 0.123663 0.148364
0.050998 0.126455 0.145945
0.053186 0.129468 0.143392
0.060646 0.131915 0.140917
0.073364 0.133384 0.139284
0.089863 0.134730 0.138774
0.108155 0.136602 0.138863
0.127332 0.138871 0.139115
0.147211 0.141279 0.139339
0.167870 0.143746 0.139557
0.189248 0.146113 0.139683
0.211344 0.148313 0.139683
0.234148 0.150228 0.139646
0.257891 0.152168 0.139431
0.282721 0.153910 0.139114
0.308964 0.155611 0.138797
0.336962 0.157420 0.138307
0.367049 0.159250 0.137556
0.399110 0.160939 0.136497
0.433153 0.162581 0.134869
0.468904 0.164330 0.132847
0.506598 0.166418 0.130182
0.546361 0.168679 0.126855
0.587747 0.171641 0.122423
0.630456 0.176031 0.116468
0.674158 0.182039 0.109197
0.050794 0.132065 0.158360
0.050794 0.132241 0.158549
0.050794 0.132320 0.159042
0.050794 0.132483 0.159401
0.050794 0.132514 0.160124
0.050794 0.132889 0.160942
0.050794 0.134180 0.160447
0.050794 0.136752 0.158565
0.051151 0.140129 0.155973
0.054664 0.143754 0.152978
0.065777 0.146702 0.150170
0.083212 0.148277 0.148079
0.103540 0.149833 0.147289
0.124676 0.152001 0.147294
0.146240 0.154531 0.147395
0.168425 0.157220 0.147478
0.191442 0.159940 0.147568
0.215366 0.162787 0.147568
0.239904 0.165290 0.147426
0.264659 0.167482 0.147024
0.289937 0.169442 0.146474
0.316428 0.171280 0.145849
0.344664 0.173291 0.145076
0.374742 0.175380 0.144065
0.406720 0.177470 0.142605
0.440600 0.179674 0.140880
0.476317 0.182201 0.138646
0.513914 0.184981 0.135817
0.553371 0.188171 0.132144
0.594490 0.192167 0.127677
0.636871 0.197354 0.121722
0.680058 0.204254 0.114451
0.050794 0.145394 0.169199
0.050794 0.145478 0.169291
0.050794 0.145643 0.169719
0.050794 0.145717 0.170231
0.050794 0.145748 0.170849
0.050794 0.146027 0.171667
0.050794 0.146672 0.172111
0.050794 0.148629 0.171226
0.050794 0.152034 0.168870
0.051727 0.156113 0.165891
0.058465 0.160228 0.162614
0.075439 0.163635 0.159572
0.098123 0.165793 0.157389
0.121703 0.167761 0.156303
0.145292 0.170255 0.155993
0.169080 0.173028 0.155911
0.193389 0.175927 0.155871
0.218488 0.178952 0.155827
0.244492 0.181880 0.155650
0.271060 0.184681 0.155248
0.298074 0.187131 0.154587
0.325659 0.189445 0.153665
0.354495 0.191792 0.152601
0.384902 0.194142 0.151272
0.416871 0.196553 0.149592
0.450667 0.199315 0.147701
0.486368 0.202235 0.145225
0.523980 0.205740 0.141985
0.562983 0.209714 0.138186
0.603670 0.214579 0.133638
0.645384 0.220629 0.127677
0.687888 0.228059 0.120406
0.050794 0.160629 0.180299
0.050794 0.160789 0.180551
0.050794 0.160883 0.180818
0.050794 0.161039 0.181338
0.050794 0.161149 0.181984
0.050794 0.161401 0.182567
0.050794 0.161714 0.183515
0.050794 0.162748 0.183744
0.050794 0.165734 0.182093
0.050931 0.169845 0.179449
0.053685 0.174517 0.176234
0.066684 0.179578 0.172926
0.091590 0.184037 0.169709
0.118802 0.186668 0.167114
0.144557 0.188768 0.165577
0.170120 0.191393 0.164867
0.195946 0.194336 0.164607
0.222207 0.197361 0.164425
0.249248 0.200386 0.164134
0.277004 0.203561 0.163732
0.305743 0.206690 0.163071
0.335540 0.209838 0.162090
0.366129 0.212880 0.160881
0.397656 0.215784 0.159322
0.430131 0.218717 0.157446
0.463940 0.221796 0.155178
0.499553 0.225188 0.152411
0.536787 0.229069 0.148986
0.575360 0.233691 0.144937
0.615299 0.239173 0.140210
0.656072 0.245986 0.134323
0.697712 0.254031 0.127055
0.050794 0.178180 0.191989
0.050794 0.178187 0.192241
0.050794 0.178424 0.192502
0.050794 0.178447 0.192918
0.050794 0.178687 0.193435
0.050794 0.178857 0.194085
0.050794 0.179109 0.195014
0.050794 0.179640 0.195832
0.050794 0.181635 0.195466
0.050794 0.185348 0.193320
0.051373 0.190122 0.190350
0.058675 0.195642 0.186986
0.081613 0.201378 0.183290
0.112891 0.205864 0.179502
0.141978 0.208472 0.176387
0.168891 0.210650 0.174258
0.195952 0.213382 0.173217
0.223370 0.216361 0.172720
0.251116 0.219441 0.172358
0.279547 0.222655 0.171898
0.309209 0.226090 0.171200
0.340292 0.229747 0.170177
0.372737 0.233712 0.168947
0.406383 0.237745 0.167506
0.440444 0.241573 0.165499
0.475296 0.245414 0.163055
0.510954 0.249290 0.160045
0.547942 0.253676 0.156497
0.586255 0.258818 0.152294
0.625551 0.264880 0.147552
0.665641 0.272064 0.141817
0.706660 0.280688 0.134743
0.050794 0.197345 0.203836
0.050794 0.197452 0.203986
0.050794 0.197590 0.204245
0.050794 0.197603 0.204606
0.050794 0.197745 0.205036
0.050794 0.197857 0.205703
0.050794 0.198023 0.206487
0.050794 0.198339 0.207404
0.050794 0.199282 0.207973
0.050794 0.202006 0.206903
0.050794 0.206562 0.204397
0.053854 0.212029 0.201103
0.070482 0.218016 0.197330
0.102963 0.224106 0.193064
0.137238 0.228796 0.188819
0.166637 0.231417 0.185234
0.194451 0.233528 0.182656
0.222731 0.236236 0.181064
0.251323 0.239343 0.180425
0.280514 0.242577 0.179873
0.310794 0.246078 0.179117
0.342569 0.250113 0.178195
0.375968 0.254559 0.177014
0.410910 0.259430 0.175572
0.447150 0.264479 0.173682
0.484161 0.269742 0.171354
0.521068 0.274618 0.168324
0.558716 0.279850 0.164727
0.596782 0.285460 0.160426
0.635572 0.291893 0.155674
0.675042 0.299489 0.150038
0.715389 0.308480 0.143369
0.050794 0.217921 0.215574
0.050794 0.218165 0.215692
0.050794 0.218165 0.215953
0.050794 0.218165 0.216330
0.050794 0.218183 0.216613
0.050794 0.218299 0.217157
0.050794 0.218347 0.217913
0.050794 0.218599 0.218755
0.050794 0.219017 0.219792
0.050794 0.220549 0.219964
0.050794 0.224227 0.218268
0.051506 0.229469 0.215219
0.061499 0.235456 0.211544
0.091059 0.241917 0.207420
0.129288 0.248236 0.202786
0.163685 0.252976 0.198142
0.193329 0.255721 0.194044
0.221946 0.257959 0.190746
0.251230 0.260671 0.188861
0.281329 0.263867 0.187940
0.312412 0.267573 0.187255
0.344881 0.271889 0.186297
0.378746 0.276583 0.185080
0.414272 0.281810 0.183639
0.451533 0.287681 0.181833
0.489975 0.293904 0.179645
0.529095 0.300346 0.176854
0.568651 0.307040 0.173518
0.607485 0.313652 0.169320
0.646377 0.320851 0.164782
0.685225 0.328737 0.159297
0.724936 0.337910 0.153106
0.050794 0.239820 0.227287
0.050794 0.239946 0.227421
0.050794 0.239954 0.227673
0.050794 0.240065 0.227925
0.050794 0.240065 0.228209
0.050794 0.240065 0.228753
0.050794 0.240112 0.229509
0.050794 0.240364 0.230320
0.050794 0.240649 0.231361
0.050794 0.241355 0.232209
0.050794 0.243639 0.231685
0.050794 0.248126 0.229301
0.056191 0.253915 0.225830
0.079609 0.260247 0.221844
0.118704 0.266911 0.217281
0.158095 0.273465 0.212247
0.191861 0.278527 0.207153
0.222115 0.281466 0.202529
0.251496 0.283683 0.198837
0.281894 0.286562 0.196563
0.313834 0.290391 0.195415
0.347163 0.294877 0.194449
0.381708 0.299967 0.193265
0.417789 0.305527 0.191823
0.455375 0.311762 0.190122
0.494294 0.318478 0.187963
0.534512 0.325890 0.185384
0.575385 0.333760 0.182411
0.616100 0.342009 0.178716
0.656215 0.350531 0.174698
0.695447 0.359314 0.169704
0.734649 0.368498 0.164284
0.050794 0.262759 0.239009
0.050794 0.262906 0.239151
0.050794 0.263523 0.239647
0.050794 0.263646 0.239911
0.050794 0.263760 0.240293
0.050794 0.263760 0.240726
0.050794 0.263807 0.241483
0.050794 0.264031 0.242265
0.050794 0.264185 0.243176
0.050794 0.264506 0.244187
0.050794 0.265586 0.244736
0.050794 0.268780 0.243515
0.053068 0.273983 0.240499
0.070062 0.280108 0.236644
0.108531 0.286699 0.232211
0.151175 0.293680 0.227246
0.188779 0.300564 0.221761
0.222765 0.305958 0.216288
0.253805 0.309289 0.211319
0.284028 0.311810 0.207174
0.315806 0.315103 0.204352
0.349778 0.319540 0.202723
0.385144 0.324849 0.201547
0.421818 0.330763 0.200235
0.459730 0.337291 0.198566
0.498908 0.344369 0.196510
0.539281 0.352066 0.194166
0.580394 0.360525 0.191453
0.621825 0.369652 0.188246
0.662956 0.379439 0.184749
0.703717 0.389644 0.180763
0.743220 0.399630 0.176510
0.050794 0.287408 0.250872
0.050794 0.287696 0.251274
0.050794 0.289016 0.252008
0.050794 0.289165 0.252409
0.050794 0.289385 0.252881
0.050794 0.289385 0.253190
0.050794 0.289432 0.253834
0.050794 0.289629 0.254591
0.050794 0.289692 0.255410
0.050794 0.289944 0.256489
0.050794 0.290374 0.257564
0.050794 0.292054 0.257554
0.051263 0.296146 0.255521
0.063919 0.301846 0.251952
0.100926 0.308291 0.247708
0.145388 0.315215 0.242948
0.185232 0.322526 0.237471
0.222187 0.329725 0.231607
0.256724 0.335667 0.225693
0.288756 0.339638 0.220172
0.319991 0.342512 0.215568
0.353109 0.346137 0.212225
0.388823 0.351326 0.210159
0.426092 0.357454 0.208775
0.464432 0.364134 0.207241
0.503793 0.371442 0.205417
0.544188 0.379300 0.203222
0.585082 0.388104 0.200761
0.626253 0.397506 0.198044
0.667455 0.407759 0.195067
0.708894 0.418567 0.192090
0.749175 0.429564 0.189113
0.050794 0.313971 0.263256
0.050794 0.314244 0.263617
0.050794 0.315129 0.264083
0.050794 0.315381 0.264587
0.050794 0.315601 0.265078
0.050794 0.315624 0.265493
0.050794 0.315763 0.266017
0.050794 0.315845 0.266659
0.050794 0.315908 0.267478
0.050794 0.316161 0.268516
0.050794 0.316413 0.269643
0.050794 0.317092 0.270479
0.050794 0.319534 0.269816
0.061107 0.324317 0.267022
0.095580 0.330616 0.263107
0.140804 0.337540 0.258614
0.182267 0.344850 0.253340
0.220331 0.352490 0.247555
0.257226 0.360103 0.241203
0.292674 0.366777 0.234754
0.325868 0.371390 0.228883
0.358025 0.374605 0.223891
0.392252 0.378706 0.219970
0.429538 0.384642 0.217424
0.468399 0.391468 0.215865
0.507988 0.399012 0.214302
0.548411 0.407130 0.212393
0.589208 0.416070 0.210293
0.630137 0.425714 0.208078
0.671212 0.435992 0.205755
0.712400 0.446937 0.203794
0.752861 0.458128 0.202001
0.050794 0.341943 0.275860
0.050794 0.342198 0.276112
0.050794 0.342542 0.276380
0.050794 0.342794 0.276869
0.050794 0.343034 0.277238
0.050794 0.343204 0.277742
0.050794 0.343409 0.278275
0.050794 0.343409 0.278955
0.050794 0.343472 0.279736
0.050794 0.343724 0.280633
0.050794 0.343976 0.281672
0.050794 0.344295 0.282764
0.050794 0.345340 0.283268
0.060106 0.348593 0.281955
0.093097 0.354330 0.278727
0.139013 0.361245 0.274412
0.181650 0.368555 0.269476
0.220064 0.376179 0.263941
0.257482 0.384222 0.257750
0.294890 0.392419 0.250978
0.331444 0.399832 0.244103
0.365750 0.404991 0.237879
0.398422 0.408378 0.232487
0.433722 0.413158 0.227934
0.472446 0.419935 0.224982
0.512440 0.427618 0.223375
0.552940 0.435968 0.221938
0.593737 0.444949 0.220269
0.634574 0.454685 0.218697
0.675639 0.465113 0.217144
0.716438 0.476022 0.216208
0.756635 0.486809 0.215857
0.050794 0.372004 0.288936
0.050794 0.372256 0.289188
0.050794 0.372508 0.289446
0.050794 0.372760 0.289794
0.050794 0.373012 0.290220
0.050794 0.373239 0.290724
0.050794 0.373311 0.291245
0.050794 0.373347 0.291874
0.050794 0.373491 0.292631
0.050794 0.373626 0.293458
0.050794 0.373878 0.294517
0.050794 0.374131 0.295663
0.050794 0.374517 0.296748
0.060701 0.376194 0.296958
0.095169 0.380668 0.294893
0.142033 0.387241 0.291045
0.184930 0.394551 0.286337
0.223435 0.402206 0.281066
0.260762 0.410304 0.275219
0.298356 0.418772 0.268727
0.336246 0.427388 0.261633
0.373699 0.435221 0.254237
0.408611 0.440834 0.247541
0.441746 0.444574 0.241830
0.478055 0.449912 0.236545
0.517760 0.457459 0.233527
0.558429 0.465918 0.232053
0.599252 0.475052 0.230992
0.640088 0.484808 0.230188
0.681006 0.495177 0.229563
0.721612 0.505838 0.229814
0.761550 0.516271 0.231013
0.050794 0.404994 0.302958
0.050794 0.405081 0.303210
0.050794 0.405322 0.303462
0.050794 0.405420 0.303722
0.050794 0.405650 0.304077
0.050794 0.405719 0.304581
0.050794 0.405719 0.305085
0.050794 0.405737 0.305644
0.050794 0.405840 0.306400
0.050794 0.406034 0.307228
0.050794 0.406286 0.308261
0.050794 0.406538 0.309382
0.050794 0.406790 0.310686
0.063079 0.407478 0.311795
0.102424 0.410163 0.311287
0.150768 0.415666 0.308467
0.192852 0.422720 0.304145
0.230856 0.430336 0.299130
0.267790 0.438338 0.293507
0.304750 0.446635 0.287328
0.342250 0.455193 0.280472
0.380415 0.463903 0.272836
0.418085 0.472086 0.264985
0.453199 0.477846 0.257938
0.486294 0.481379 0.251910
0.522959 0.487286 0.246413
0.562943 0.495506 0.243125
0.603726 0.504571 0.241906
0.644712 0.514317 0.241797
0.685410 0.524450 0.242343
0.725839 0.534691 0.243890
0.765686 0.544693 0.246808
0.050794 0.439545 0.317673
0.050794 0.439553 0.317925
0.050794 0.439789 0.318177
0.050794 0.439796 0.318429
0.050794 0.439860 0.318713
0.050794 0.439860 0.319217
0.050794 0.439893 0.319721
0.050794 0.440033 0.320280
0.050794 0.440051 0.321037
0.050794 0.440175 0.321813
0.050794 0.440427 0.322755
0.050794 0.440679 0.323906
0.050794 0.440864 0.325149
0.065894 0.441142 0.326602
0.111932 0.442495 0.327445
0.163732 0.446229 0.326266
0.205182 0.452445 0.322733
0.242063 0.459844 0.317973
0.278220 0.467622 0.312675
0.314385 0.475765 0.306830
0.351124 0.484241 0.300346
0.388526 0.492860 0.293149
0.426495 0.501627 0.285100
0.464053 0.509614 0.276735
0.498653 0.514919 0.269272
0.531084 0.518539 0.263425
0.567689 0.524971 0.257786
0.607574 0.533592 0.254388
0.648564 0.543150 0.253923
0.689196 0.552868 0.255638
0.729544 0.562593 0.258653
0.769215 0.572075 0.263035
0.050794 0.475962 0.333633
0.050794 0.476145 0.333704
0.050794 0.476206 0.333956
0.050794 0.476206 0.334208
0.050794 0.476206 0.334491
0.050794 0.476177 0.334995
0.050794 0.476037 0.335500
0.050794 0.476088 0.336018
0.050794 0.476088 0.336634
0.050794 0.476106 0.337443
0.050794 0.476230 0.338427
0.050794 0.476418 0.339478
0.051144 0.476528 0.340605
0.070232 0.476768 0.342082
0.124292 0.477310 0.343696
0.180515 0.479206 0.344221
0.221950 0.483821 0.342160
0.257511 0.490609 0.337923
0.292317 0.498232 0.332927
0.327438 0.506123 0.327482
0.363210 0.514225 0.321374
0.399596 0.522545 0.314634
0.436546 0.530973 0.307133
0.473944 0.539328 0.298744
0.510812 0.546970 0.290023
0.545239 0.552702 0.282417
0.577021 0.556430 0.276941
0.613206 0.562982 0.271541
0.652813 0.571601 0.268346
0.693340 0.580940 0.269794
0.733512 0.590157 0.274273
0.772925 0.599118 0.280507
0.050794 0.513017 0.350396
0.050794 0.513262 0.350593
0.050794 0.513262 0.350845
0.050794 0.513262 0.351097
0.050794 0.513286 0.351381
0.050794 0.513442 0.351885
0.050794 0.513396 0.352389
0.050794 0.513396 0.352936
0.050794 0.513444 0.353649
0.050794 0.513585 0.354476
0.050794 0.513663 0.355546
0.050794 0.513896 0.356682
0.054267 0.514112 0.357858
0.082791 0.514444 0.359439
0.144495 0.514916 0.361289
0.202477 0.515725 0.362879
0.244138 0.518323 0.362802
0.279019 0.523790 0.359947
0.312162 0.530798 0.355382
0.345746 0.538259 0.350236
0.380087 0.546036 0.344535
0.415042 0.553944 0.338292
0.450651 0.561873 0.331491
0.486700 0.569801 0.323789
0.523130 0.577833 0.315280
0.559256 0.585283 0.306316
0.593143 0.591028 0.298555
0.624330 0.594766 0.293601
0.659904 0.600816 0.289219
0.698668 0.608986 0.287226
0.738499 0.617650 0.291477
0.777841 0.626090 0.299539
0.050794 0.551451 0.369254
0.050794 0.551696 0.369506
0.050794 0.551696 0.369759
0.050794 0.551696 0.370011
0.050794 0.551702 0.370294
0.050794 0.551775 0.370798
0.050794 0.551940 0.371341
0.050794 0.551940 0.372059
0.050794 0.552003 0.372815
0.050794 0.552241 0.373699
0.050794 0.552460 0.374863
0.052051 0.552712 0.376043
0.068140 0.553040 0.377570
0.116535 0.553515 0.379306
0.179015 0.554019 0.381270
0.231045 0.554546 0.383349
0.271646 0.555774 0.384642
0.306222 0.559176 0.383783
0.338102 0.565099 0.380354
0.369778 0.572012 0.375672
0.402150 0.579249 0.370597
0.435404 0.586657 0.364944
0.469212 0.594064 0.358702
0.503602 0.601472 0.351724
0.538403 0.608917 0.344105
0.573438 0.616297 0.335598
0.608405 0.623128 0.326709
0.641624 0.628533 0.318995
0.671991 0.631761 0.314622
0.706256 0.636953 0.312294
0.744239 0.644564 0.312029
0.783134 0.652078 0.320131
0.050794 0.590681 0.390917
0.050794 0.590727 0.391169
0.050794 0.590925 0.391421
0.050794 0.590925 0.391693
0.050794 0.590952 0.392162
0.050794 0.591136 0.392699
0.050794 0.591249 0.393422
0.050794 0.591625 0.394225
0.050794 0.591900 0.395245
0.050794 0.592304 0.396447
0.052181 0.592688 0.397761
0.064140 0.593290 0.399293
0.104109 0.593848 0.401191
0.167631 0.594564 0.403378
0.225021 0.595279 0.405601
0.269401 0.595896 0.407850
0.307514 0.596481 0.410103
0.341532 0.598172 0.411356
0.372274 0.602422 0.409812
0.401848 0.608461 0.405994
0.431927 0.615028 0.401470
0.462814 0.621842 0.396493
0.494292 0.628584 0.390838
0.526459 0.635260 0.384719
0.559028 0.641778 0.378128
0.592022 0.648242 0.370624
0.625494 0.654469 0.362489
0.659060 0.660504 0.353828
0.691730 0.665275 0.345912
0.720986 0.667555 0.342970
0.753485 0.671799 0.343420
0.790476 0.678199 0.346378
0.050794 0.631707 0.417567
0.050794 0.631708 0.417819
0.050794 0.631738 0.418071
0.050794 0.631738 0.418326
0.050794 0.631742 0.418638
0.050794 0.631770 0.419182
0.050794 0.631782 0.419938
0.050794 0.631888 0.420749
0.051178 0.632093 0.421766
0.054505 0.632211 0.422868
0.070238 0.632552 0.424276
0.112917 0.633077 0.426170
0.173924 0.633676 0.428316
0.229074 0.634254 0.430365
0.273106 0.634571 0.432510
0.311371 0.634976 0.434985
0.346313 0.635590 0.437709
0.378737 0.636434 0.440328
