gsg/03_Cinematic/GSG_LUT_Cinematic_OhBrother.cube
# GSG LUTs 1.0
# Copyright (c) 2016-2020 Greyscalegorilla
# See EULA for licensing and distribution information
# Converted by Briz LUT Converter
LUT_3D_SIZE 5
DOMAIN_MIN 0.000000 0.000000 0.000000
DOMAIN_MAX 0.903226 0.903226 0.903226
0.176313 0.128205 0.097192
0.349128 0.175808 0.121360
0.553681 0.233912 0.149490
0.609673 0.249998 0.157438
0.651715 0.262106 0.163543
0.282871 0.282036 0.133144
0.456308 0.329395 0.156989
0.659853 0.387309 0.188680
0.715357 0.403188 0.198503
0.755467 0.415589 0.208352
0.447934 0.514112 0.191768
0.595502 0.568278 0.248163
0.751806 0.637528 0.345186
0.796353 0.656075 0.370495
0.830635 0.669752 0.388885
0.493962 0.625767 0.251455
0.620938 0.685643 0.332995
0.780106 0.755138 0.421679
0.826435 0.773366 0.443483
0.862484 0.786774 0.458884
0.507062 0.694190 0.300776
0.634015 0.754610 0.379054
0.796421 0.823940 0.460191
0.844208 0.841963 0.479326
0.881342 0.855197 0.492765
0.209902 0.150553 0.285407
0.369576 0.189828 0.207357
0.573477 0.247816 0.233149
0.629469 0.263884 0.241055
0.671755 0.275959 0.247338
0.303637 0.295694 0.217853
0.476282 0.342832 0.242290
0.679282 0.401092 0.273940
0.732656 0.417430 0.287127
0.768687 0.430606 0.303568
0.466422 0.528260 0.277145
0.602926 0.584948 0.350306
0.759652 0.653529 0.449255
0.804578 0.671772 0.475024
0.839243 0.685305 0.493809
0.500477 0.642828 0.353714
0.627284 0.702588 0.436884
0.787835 0.770940 0.527140
0.834863 0.788790 0.549339
0.871377 0.801916 0.565050
0.512710 0.711434 0.404128
0.639973 0.771499 0.483788
0.804193 0.839487 0.566395
0.852873 0.857045 0.585944
0.890603 0.869907 0.599665
0.230171 0.163370 0.406625
0.455107 0.222692 0.404067
0.608973 0.272354 0.380614
0.664693 0.288196 0.388763
0.706692 0.300303 0.395625
0.345379 0.337494 0.406955
0.488812 0.350313 0.431443
0.707945 0.425859 0.434146
0.751293 0.444775 0.462750
0.784335 0.458501 0.484767
0.487825 0.555902 0.445117
0.614099 0.614050 0.533751
0.773241 0.681109 0.638216
0.819154 0.698704 0.663410
0.854565 0.711751 0.682887
0.510788 0.672843 0.537311
0.637961 0.731791 0.623784
0.801599 0.797901 0.717488
0.849901 0.814957 0.740413
0.887443 0.827453 0.756840
0.521690 0.741754 0.589741
0.650116 0.800680 0.672462
0.818315 0.866055 0.758234
0.868415 0.882721 0.778570
0.907341 0.894884 0.792813
0.230202 0.162393 0.441742
0.464471 0.221377 0.445459
0.632679 0.276805 0.453216
0.679795 0.298714 0.453108
0.721730 0.310709 0.460593
0.339580 0.334584 0.448671
0.463299 0.331838 0.462735
0.711199 0.398293 0.497211
0.757781 0.456403 0.541604
0.790983 0.470267 0.564341
0.484958 0.579507 0.536780
0.566829 0.614270 0.596957
0.770207 0.677374 0.722053
0.825464 0.709635 0.746371
0.861334 0.722785 0.766260
0.514744 0.685823 0.618045
0.641744 0.744012 0.705866
0.807317 0.809222 0.801590
0.856557 0.825731 0.825080
0.894613 0.837922 0.841634
0.525094 0.754925 0.671425
0.654370 0.812988 0.755732
0.824567 0.877089 0.843011
0.875227 0.893391 0.863739
0.914830 0.905069 0.878357
0.232455 0.162882 0.485612
0.458219 0.217898 0.489149
0.641128 0.271921 0.489102
0.687447 0.295262 0.478452
0.726415 0.313852 0.481230
0.331522 0.324130 0.489674
0.441487 0.316007 0.500605
0.703271 0.374353 0.526514
0.755573 0.421211 0.545622
0.793054 0.473948 0.589462
0.476036 0.587157 0.575564
0.538440 0.603093 0.619304
0.761904 0.664140 0.754926
0.825040 0.680101 0.764661
0.863431 0.726054 0.792859
0.507141 0.693143 0.647194
0.589622 0.732216 0.708448
0.781908 0.809294 0.829740
0.854875 0.823659 0.866507
0.896833 0.841200 0.868666
0.526133 0.758856 0.697491
0.655581 0.816816 0.782109
0.826466 0.880481 0.870073
0.877402 0.896604 0.890902
0.917165 0.908407 0.905590
