gsg/03_Cinematic/GSG_LUT_Cinematic_SiberianWinter.cube
# GSG LUTs 1.0
# Copyright (c) 2016-2020 Greyscalegorilla
# See EULA for licensing and distribution information
# Converted by Briz LUT Converter
LUT_3D_SIZE 32
0.031502 0.050794 0.057143
0.038812 0.053811 0.059404
0.046059 0.056552 0.061373
0.052338 0.058797 0.062610
0.058198 0.060688 0.063492
0.062618 0.061617 0.063413
0.066493 0.062169 0.063004
0.070889 0.062925 0.063059
0.075994 0.063681 0.063500
0.082398 0.064508 0.064579
0.090023 0.065438 0.065918
0.098948 0.066194 0.067257
0.109126 0.066950 0.068360
0.120280 0.067604 0.069313
0.132743 0.068108 0.069707
0.146528 0.068376 0.069723
0.161779 0.068376 0.069597
0.178629 0.068108 0.069195
0.197062 0.067604 0.068581
0.217212 0.066651 0.067628
0.238859 0.065391 0.066367
0.262444 0.063634 0.064445
0.287589 0.061271 0.062003
0.314861 0.058569 0.059120
0.343976 0.055229 0.055528
0.373863 0.052093 0.051944
0.403655 0.049273 0.048619
0.432550 0.047564 0.046193
0.457537 0.048478 0.045910
0.482217 0.049510 0.045910
0.507866 0.050754 0.046146
0.533578 0.052015 0.046154
0.043798 0.067636 0.067423
0.050825 0.070132 0.068927
0.057356 0.072347 0.070385
0.063359 0.073890 0.071141
0.068787 0.075521 0.071803
0.073293 0.076239 0.071766
0.077586 0.076796 0.071527
0.081988 0.077488 0.071327
0.087093 0.078050 0.071373
0.093568 0.078879 0.071820
0.101369 0.079972 0.072727
0.110300 0.081151 0.073381
0.120572 0.082176 0.073963
0.131985 0.083194 0.074399
0.144712 0.084099 0.074501
0.158876 0.084631 0.074387
0.174513 0.084895 0.073870
0.191627 0.084891 0.072956
0.210319 0.084648 0.071821
0.230732 0.083955 0.070339
0.252642 0.082954 0.068240
0.276653 0.081453 0.065619
0.302315 0.079353 0.062475
0.329926 0.076732 0.058630
0.359688 0.073583 0.054188
0.389140 0.071106 0.050425
0.416885 0.069905 0.047958
0.443877 0.069370 0.046561
0.469084 0.070416 0.046413
0.494048 0.071684 0.046414
0.519957 0.073181 0.046650
0.545929 0.074457 0.046658
0.054260 0.083091 0.076009
0.060838 0.085092 0.077253
0.067611 0.087091 0.078465
0.073622 0.088801 0.079189
0.079296 0.090206 0.079822
0.084068 0.090974 0.079856
0.088648 0.091667 0.079984
0.093257 0.092103 0.079661
0.098373 0.092481 0.079203
0.104853 0.093379 0.079077
0.112737 0.094639 0.079308
0.121822 0.095981 0.079446
0.132104 0.097483 0.079512
0.143716 0.098797 0.079524
0.156824 0.099925 0.079352
0.171239 0.100839 0.078845
0.187128 0.101477 0.077939
0.204625 0.101840 0.076740
0.223547 0.101847 0.075046
0.244265 0.101408 0.072790
0.266537 0.100668 0.070073
0.290814 0.099277 0.066750
0.316916 0.097534 0.062832
0.345012 0.095254 0.058234
0.375220 0.092235 0.052885
0.404350 0.090208 0.048747
0.430184 0.090325 0.047443
0.455372 0.091287 0.046717
0.480592 0.092535 0.046847
0.505816 0.094040 0.046871
0.531986 0.095553 0.047107
0.558218 0.097081 0.047131
0.062807 0.099752 0.084832
0.069668 0.101500 0.085816
0.076647 0.103446 0.086753
0.082441 0.104704 0.086978
0.088110 0.105909 0.087147
0.093261 0.106818 0.087042
0.098508 0.107275 0.086713
0.103397 0.107522 0.086116
0.108715 0.107875 0.085417
0.115271 0.108756 0.085023
0.123234 0.110009 0.084903
0.132254 0.111261 0.084627
0.142677 0.112622 0.084247
0.154293 0.114018 0.083694
0.167398 0.115278 0.083030
0.181937 0.116314 0.081989
0.197956 0.117082 0.080668
0.215589 0.117584 0.078811
0.234761 0.117718 0.076480
0.255739 0.117443 0.073554
0.278435 0.116948 0.070213
0.303077 0.115980 0.066052
0.329625 0.114578 0.061432
0.357663 0.112780 0.056505
0.387197 0.110861 0.051311
0.415521 0.109927 0.047641
0.440821 0.110682 0.046666
0.465737 0.112127 0.046403
0.491134 0.113682 0.046574
0.516638 0.115428 0.046617
0.543069 0.116979 0.046855
0.569562 0.118760 0.047107
0.070936 0.116799 0.093434
0.078240 0.118349 0.094125
0.085252 0.120050 0.094767
0.091035 0.121254 0.094646
0.096428 0.122198 0.094246
0.102296 0.122888 0.093524
0.108097 0.123345 0.092911
0.113481 0.123542 0.092001
0.119091 0.123660 0.091229
0.125804 0.124344 0.090576
0.133704 0.125513 0.090094
0.142805 0.126716 0.089568
0.153180 0.128134 0.088834
0.164833 0.129395 0.087786
0.177927 0.130655 0.086584
0.192587 0.131797 0.085007
0.208720 0.132696 0.083019
0.226478 0.133316 0.080503
0.245791 0.133682 0.077509
0.267017 0.133648 0.073950
0.290094 0.133239 0.069894
0.315192 0.132569 0.065090
0.342218 0.131466 0.059582
0.370019 0.130411 0.054386
0.398569 0.129508 0.049639
0.425882 0.129538 0.046504
0.450972 0.131025 0.045996
0.475911 0.132605 0.045996
0.501340 0.134534 0.045996
0.527260 0.136348 0.046225
0.553963 0.138115 0.046477
0.580716 0.140124 0.046729
0.077703 0.135066 0.100414
0.085013 0.136784 0.100545
0.092245 0.138262 0.100650
0.098255 0.139210 0.099748
0.103976 0.139935 0.098660
0.110412 0.140432 0.097876
0.117026 0.140849 0.097200
0.123134 0.141014 0.096603
0.129265 0.141087 0.095792
0.136436 0.141570 0.095411
0.144556 0.142629 0.095148
0.153760 0.143962 0.094470
0.164204 0.145370 0.093380
0.175840 0.146654 0.091983
0.189058 0.147914 0.090120
0.203718 0.149057 0.087879
0.219851 0.150065 0.085130
0.237725 0.150693 0.081853
0.257158 0.151082 0.078202
0.278530 0.151121 0.073928
0.301690 0.150711 0.068938
0.326787 0.150015 0.063278
0.353964 0.148899 0.056838
0.381395 0.148030 0.051489
0.408489 0.147882 0.047598
0.434951 0.148348 0.045107
0.459783 0.149859 0.044697
0.484879 0.151617 0.044662
0.510564 0.153381 0.044693
0.536545 0.155338 0.044888
0.563495 0.157153 0.045138
0.590508 0.159163 0.045350
0.083973 0.154209 0.106542
0.091284 0.155768 0.105900
0.098524 0.157233 0.105428
0.104716 0.157981 0.103848
0.110964 0.158614 0.102178
0.118027 0.159037 0.101249
0.125554 0.159242 0.100744
0.132407 0.159242 0.100240
0.139132 0.159356 0.099811
0.146810 0.159896 0.099736
0.155350 0.160779 0.099831
0.164773 0.161992 0.099179
0.175346 0.163378 0.097746
0.187136 0.164788 0.095915
0.200354 0.166070 0.093439
0.215037 0.167238 0.090466
0.231195 0.168246 0.087067
0.249094 0.168987 0.083108
0.268668 0.169349 0.078649
0.290126 0.169302 0.073449
0.313285 0.168923 0.067599
0.338383 0.168104 0.061191
0.365493 0.166923 0.054053
0.392218 0.166276 0.048430
0.418101 0.166437 0.045413
0.443541 0.167301 0.043629
0.468408 0.168719 0.043286
0.493586 0.170403 0.043066
0.519461 0.172161 0.043212
0.545698 0.173926 0.043231
0.572862 0.175881 0.043422
0.600134 0.177896 0.043476
0.088905 0.174540 0.110497
0.096158 0.176356 0.109072
0.103394 0.177924 0.107806
0.110358 0.178581 0.106099
0.117308 0.178826 0.104485
0.125111 0.179021 0.103604
0.133208 0.179180 0.103100
0.140886 0.179168 0.102596
0.148493 0.179174 0.102189
0.156659 0.179511 0.102162
0.165523 0.180228 0.102235
0.175359 0.181224 0.101839
0.186249 0.182680 0.100942
0.198228 0.184079 0.099123
0.211471 0.185482 0.096151
0.226252 0.186785 0.092661
0.242511 0.187821 0.088583
0.260546 0.188562 0.083843
0.280208 0.188988 0.078489
0.301700 0.188987 0.072426
0.324881 0.188735 0.065760
0.349941 0.188062 0.058760
0.376636 0.186955 0.051376
0.402825 0.186657 0.046127
0.427730 0.187281 0.043840
0.452561 0.188291 0.042748
0.477506 0.189720 0.042365
0.502887 0.191232 0.042113
0.528838 0.192916 0.042081
0.555264 0.194623 0.042030
0.582495 0.196384 0.042026
0.610020 0.198338 0.042215
0.093001 0.195904 0.112891
0.100124 0.197922 0.110682
0.107291 0.199901 0.108575
0.115137 0.200317 0.107068
0.123259 0.200481 0.105707
0.131747 0.200470 0.104980
0.140400 0.200405 0.104423
0.148822 0.200299 0.103905
0.157242 0.200110 0.103368
0.166032 0.200215 0.103034
0.175266 0.200689 0.102989
0.185495 0.201575 0.103012
0.196881 0.202836 0.102888
0.209183 0.204172 0.101375
0.222585 0.205648 0.098265
0.237409 0.207042 0.094375
0.253700 0.208209 0.089549
0.271826 0.209015 0.084059
0.291525 0.209689 0.077924
0.313159 0.209885 0.071042
0.336454 0.209658 0.063449
0.361280 0.209283 0.056028
0.387362 0.208587 0.048917
0.412928 0.208586 0.044310
0.437345 0.209470 0.042738
0.461924 0.210690 0.042006
0.486886 0.212102 0.041672
0.512277 0.213604 0.041420
0.538455 0.215117 0.041331
0.564965 0.216629 0.041097
0.592383 0.218378 0.041020
0.620103 0.220080 0.041018
0.095207 0.219229 0.113585
0.102739 0.221249 0.110744
0.110420 0.223254 0.108154
0.119307 0.223483 0.106731
0.128405 0.223464 0.105525
0.137402 0.223290 0.104707
0.146530 0.222978 0.103984
0.155611 0.222710 0.103368
0.164869 0.222448 0.102719
0.174317 0.222375 0.102394
0.184172 0.222459 0.102147
0.194969 0.223150 0.102161
0.206833 0.224337 0.102206
0.219558 0.225554 0.101254
0.233275 0.226925 0.099062
0.248265 0.228319 0.095272
0.264687 0.229616 0.089868
0.282847 0.230643 0.083715
0.302651 0.231399 0.076768
0.324404 0.231750 0.068994
0.347844 0.231666 0.060505
0.372270 0.231535 0.053105
0.397622 0.231429 0.047010
0.422524 0.231814 0.043184
0.446697 0.232904 0.042042
0.471251 0.234164 0.041538
0.496424 0.235425 0.041179
0.521918 0.236836 0.040915
0.548269 0.238339 0.040599
0.574966 0.239852 0.040340
0.602532 0.241601 0.040157
0.630257 0.243121 0.040080
0.095648 0.244500 0.112435
0.104124 0.246430 0.109328
0.112770 0.248094 0.106337
0.122698 0.248242 0.105085
0.132771 0.248107 0.103917
0.142248 0.247578 0.102866
0.151718 0.246974 0.102029
0.161495 0.246603 0.101209
0.171485 0.246141 0.100496
0.181683 0.245831 0.099910
0.192047 0.245686 0.099403
0.203511 0.246063 0.099157
0.216013 0.246990 0.099106
0.229324 0.248052 0.098828
0.243507 0.249387 0.098035
0.258812 0.250739 0.094897
0.275363 0.252125 0.089347
0.293607 0.253279 0.082682
0.313457 0.254116 0.074911
0.335302 0.254655 0.066405
0.358828 0.254830 0.057104
0.382888 0.255077 0.050085
0.407269 0.255466 0.045512
0.431664 0.256127 0.042737
0.455906 0.257261 0.041790
0.480563 0.258521 0.041222
0.505896 0.259782 0.040769
0.531637 0.261111 0.040421
0.557879 0.262531 0.040152
0.584413 0.263962 0.039973
0.611923 0.265629 0.040191
0.639411 0.267226 0.040191
0.094702 0.271243 0.109465
0.104558 0.272919 0.106274
0.114247 0.274483 0.103118
0.125127 0.274379 0.101792
0.136097 0.274073 0.100674
0.146054 0.273339 0.099439
0.155833 0.272392 0.098341
0.166225 0.271748 0.097298
0.177058 0.271221 0.096452
0.187875 0.270698 0.095632
0.199028 0.270385 0.094927
0.211129 0.270418 0.094420
0.224292 0.271029 0.094139
0.238283 0.271900 0.093997
0.253133 0.273071 0.093797
0.268877 0.274284 0.091595
0.285649 0.275626 0.087241
0.303982 0.276876 0.080798
0.323967 0.277924 0.072361
0.345727 0.278686 0.063388
0.369206 0.279122 0.053891
0.392899 0.279629 0.047499
0.416678 0.280395 0.044202
0.440781 0.281241 0.042376
0.465048 0.282331 0.041557
0.489858 0.283572 0.040837
0.515296 0.284905 0.040417
0.541044 0.286316 0.040089
0.566360 0.287519 0.040661
0.591836 0.288690 0.041294
0.617306 0.290097 0.042713
0.643019 0.291677 0.044027
0.092528 0.299665 0.104675
0.103848 0.301077 0.101645
0.114964 0.302296 0.098564
0.126712 0.302035 0.096978
0.138419 0.301603 0.095620
0.148773 0.300564 0.094247
0.158861 0.299397 0.092809
0.169809 0.298478 0.091506
0.181309 0.297838 0.090401
0.192808 0.297125 0.089338
0.204786 0.296602 0.088417
0.217612 0.296426 0.087650
0.231454 0.296675 0.087048
0.246226 0.297286 0.086509
0.261785 0.298154 0.085995
0.278102 0.299177 0.084859
0.295312 0.300388 0.083042
0.313952 0.301603 0.077652
0.334050 0.302777 0.068896
0.355655 0.303733 0.059976
0.378814 0.304429 0.051061
0.402277 0.305196 0.045535
0.425826 0.306156 0.043248
0.449786 0.307165 0.042136
0.474077 0.308246 0.041487
0.498901 0.309396 0.040850
0.524313 0.310764 0.040475
0.549452 0.312049 0.040592
0.573027 0.313003 0.042366
0.596352 0.313914 0.044595
0.618637 0.315061 0.047976
0.641002 0.316129 0.051526
0.090716 0.329017 0.099476
0.103340 0.330058 0.096659
0.115821 0.330789 0.093806
0.128288 0.330523 0.091949
0.140604 0.330035 0.090199
0.151096 0.328875 0.088241
0.161282 0.327543 0.086206
0.172539 0.326590 0.084409
0.184440 0.325834 0.082752
0.196599 0.325048 0.081234
0.209253 0.324265 0.079913
0.222859 0.323828 0.078817
0.237482 0.323817 0.077915
0.253034 0.324168 0.076990
0.269420 0.324709 0.076128
0.286451 0.325461 0.075335
0.304288 0.326490 0.074620
0.323409 0.327527 0.070651
0.343681 0.328741 0.063588
0.365237 0.329789 0.056250
0.388012 0.330666 0.048867
0.411296 0.331624 0.044323
0.434739 0.332632 0.042745
0.458317 0.333641 0.042175
0.481978 0.334600 0.042194
0.505909 0.335512 0.042415
0.530032 0.336447 0.043146
0.553545 0.337390 0.044418
0.575637 0.338078 0.047382
0.597278 0.338824 0.050711
0.617909 0.339717 0.055273
0.638576 0.340581 0.060160
0.089314 0.359266 0.093789
0.103354 0.359790 0.091488
0.117215 0.360140 0.088961
0.130059 0.359877 0.086717
0.142731 0.359414 0.084410
0.153200 0.358267 0.081626
0.163268 0.357147 0.078718
0.174524 0.356169 0.076108
0.186555 0.355327 0.073589
0.199308 0.354500 0.071487
0.212707 0.353535 0.069746
0.227019 0.352838 0.068180
0.242379 0.352567 0.066934
0.258644 0.352611 0.065684
0.275875 0.352877 0.064448
0.293750 0.353430 0.063212
0.312424 0.354199 0.062033
0.332118 0.354975 0.059749
0.352650 0.356011 0.056361
0.374244 0.356926 0.052194
0.396723 0.357840 0.047377
0.419792 0.358923 0.044094
0.443278 0.359967 0.042814
0.466327 0.360812 0.042847
0.488731 0.361214 0.043926
0.510612 0.361687 0.045823
0.532019 0.361919 0.048587
0.553086 0.362273 0.051844
0.573842 0.362664 0.055866
0.594562 0.363283 0.060092
0.614999 0.364138 0.064954
0.635441 0.365032 0.069991
0.091599 0.388334 0.091197
0.106467 0.388586 0.089172
0.121123 0.388814 0.086888
0.134452 0.388660 0.084367
0.147260 0.388200 0.081768
0.157832 0.387172 0.078581
0.167877 0.386065 0.075222
0.179038 0.385083 0.072102
0.191107 0.384199 0.069173
0.204088 0.383318 0.066637
0.217896 0.382470 0.064415
0.232571 0.381795 0.062408
0.248218 0.381386 0.060700
0.264865 0.381286 0.059071
0.282579 0.381411 0.057436
0.300991 0.381835 0.055859
0.320332 0.382465 0.054411
0.340407 0.383103 0.052895
0.361146 0.384001 0.051329
0.382547 0.384715 0.049421
0.404445 0.385385 0.047084
0.426568 0.386074 0.045725
0.449046 0.386635 0.045627
0.471001 0.386969 0.046759
0.492039 0.386942 0.049009
0.512551 0.387017 0.052111
0.532357 0.386837 0.056199
0.552128 0.386907 0.060586
0.572141 0.387251 0.065214
0.592296 0.387632 0.069991
0.612584 0.388601 0.075245
0.632754 0.389484 0.080413
0.097775 0.416188 0.091953
0.112777 0.416444 0.089933
0.127701 0.416794 0.087770
0.141408 0.416665 0.085237
0.154461 0.416432 0.082524
0.165142 0.415405 0.079337
0.175162 0.414298 0.075954
0.186165 0.413316 0.072704
0.198007 0.412432 0.069612
0.210894 0.411588 0.066780
0.224743 0.410910 0.064167
0.239458 0.410451 0.061680
0.255073 0.410122 0.059371
0.271850 0.410075 0.057326
0.289694 0.410274 0.055375
0.308297 0.410698 0.053529
0.327898 0.411328 0.051952
0.348234 0.411966 0.050305
0.369233 0.412791 0.048683
0.390199 0.413220 0.048010
0.411105 0.413255 0.048080
0.431589 0.412994 0.049238
0.451848 0.412603 0.051433
0.471928 0.412213 0.054309
0.491665 0.411731 0.057730
0.511413 0.411518 0.061568
0.530990 0.411288 0.065989
0.550632 0.411249 0.070636
0.570515 0.411690 0.075524
0.590422 0.411966 0.080444
0.610572 0.412927 0.086073
0.630738 0.413809 0.091504
0.103824 0.444704 0.092843
0.119087 0.445094 0.090693
0.134272 0.445430 0.088645
0.148250 0.445327 0.086113
0.161654 0.445218 0.083413
0.172496 0.444326 0.080192
0.182715 0.443318 0.076710
0.193526 0.442310 0.073403
0.205012 0.441364 0.070051
0.217701 0.440608 0.066998
0.231549 0.439974 0.064225
0.246312 0.439647 0.061452
0.262058 0.439395 0.058816
0.278908 0.439348 0.056568
0.296866 0.439600 0.054501
0.315535 0.439894 0.052802
0.334920 0.440109 0.051716
0.354816 0.440259 0.050990
0.375161 0.440463 0.050533
0.395221 0.440217 0.051228
0.415086 0.439608 0.053061
0.434471 0.438800 0.055863
0.453527 0.437906 0.059381
0.472546 0.437111 0.063328
0.491566 0.436354 0.067471
0.510783 0.435884 0.071840
0.530167 0.435718 0.076468
0.549673 0.435701 0.081357
0.569417 0.436021 0.086505
0.589090 0.436409 0.091685
0.609095 0.437249 0.097573
0.629123 0.438143 0.103265
0.109874 0.473835 0.093710
0.125397 0.474336 0.091586
0.140842 0.474710 0.089401
0.155081 0.474723 0.086880
0.168763 0.474757 0.084265
0.180029 0.473961 0.080971
0.190622 0.472953 0.077581
0.201109 0.471913 0.074134
0.212087 0.470857 0.070632
0.224548 0.470142 0.067391
0.238497 0.469644 0.064573
0.253299 0.469392 0.061754
0.269171 0.469195 0.059167
0.286108 0.469235 0.056792
0.304116 0.469487 0.054693
0.322601 0.469415 0.053610
0.341393 0.468923 0.053712
0.360146 0.468067 0.054708
0.379013 0.467019 0.056548
0.397793 0.465847 0.058980
0.416563 0.464612 0.061952
0.435344 0.463443 0.065527
0.454003 0.462389 0.069422
0.472827 0.461562 0.073607
0.491623 0.460806 0.078002
0.510694 0.460247 0.082630
0.529937 0.460152 0.087519
0.549201 0.460029 0.092668
0.568685 0.460359 0.098076
0.588334 0.460720 0.103649
0.608095 0.461589 0.109670
0.628004 0.462452 0.115617
0.115924 0.503675 0.094616
0.131708 0.504184 0.092442
0.147412 0.504811 0.090157
0.161911 0.504960 0.087636
0.175886 0.504970 0.085040
0.187649 0.504329 0.081870
0.198519 0.503446 0.078420
0.208787 0.502383 0.074857
0.219230 0.501210 0.071212
0.231490 0.500414 0.067852
0.245357 0.499940 0.064991
0.260111 0.499480 0.062501
0.276004 0.498956 0.060560
0.292694 0.498532 0.059040
0.310393 0.498098 0.058030
0.328325 0.497250 0.058214
0.346389 0.496030 0.059539
0.364348 0.494439 0.061769
0.382244 0.492575 0.064950
0.400215 0.490937 0.068433
0.418368 0.489328 0.072080
0.436679 0.487928 0.076095
0.455063 0.486841 0.080283
0.473605 0.485903 0.084652
0.492245 0.485224 0.089280
0.511172 0.484698 0.094169
0.530301 0.484478 0.099318
0.549328 0.484372 0.104727
0.568687 0.484665 0.110396
0.588186 0.485067 0.116184
0.607838 0.485892 0.122508
0.627595 0.486801 0.128717
0.121974 0.534239 0.095467
0.138018 0.534751 0.093355
0.153982 0.535476 0.091071
0.168742 0.535720 0.088550
0.183010 0.535799 0.085946
0.195277 0.535281 0.082731
0.206491 0.534609 0.079303
0.216609 0.533510 0.075556
0.226434 0.532191 0.071716
0.238363 0.531325 0.068283
0.252133 0.530770 0.065355
0.266800 0.529904 0.063536
0.282518 0.528660 0.062875
0.298719 0.527152 0.063066
0.315663 0.525289 0.064337
0.332734 0.523384 0.066247
0.350018 0.521384 0.068743
0.367466 0.519375 0.071779
0.384949 0.517358 0.075360
0.402582 0.515544 0.079202
0.420474 0.513915 0.083145
0.438461 0.512537 0.087313
0.456621 0.511338 0.091711
0.474977 0.510284 0.096457
0.493446 0.509654 0.101386
0.512134 0.509150 0.106408
0.531082 0.508850 0.111787
0.550002 0.508811 0.117456
0.569207 0.509031 0.123385
0.588454 0.509365 0.129345
0.608090 0.510247 0.136014
0.627595 0.511095 0.142487
0.128024 0.565489 0.096388
0.144328 0.566166 0.094198
0.160553 0.566891 0.091914
0.175572 0.567159 0.089393
0.190112 0.567466 0.086799
0.202782 0.566989 0.083639
0.214525 0.566465 0.080193
0.224414 0.565005 0.076736
0.233822 0.563234 0.073384
0.245452 0.561807 0.070753
0.259051 0.560488 0.068986
0.273516 0.558735 0.068430
0.288975 0.556646 0.069019
0.304703 0.554249 0.070623
0.320828 0.551519 0.073358
0.337231 0.548898 0.076295
0.353990 0.546458 0.079450
0.371015 0.544153 0.083005
0.388237 0.542062 0.086825
0.405610 0.540195 0.090857
0.423242 0.538481 0.095061
0.440969 0.537075 0.099431
0.458869 0.535815 0.104060
0.477029 0.534858 0.109008
0.495388 0.534143 0.114177
0.513853 0.533601 0.119390
0.532541 0.533302 0.125012
0.551420 0.533118 0.130941
0.570397 0.533467 0.137130
0.589384 0.533735 0.143351
0.608844 0.534536 0.150120
0.628256 0.535460 0.157013
0.134074 0.597345 0.097397
0.150632 0.598107 0.095128
0.166950 0.599000 0.092843
0.182230 0.599275 0.090306
0.197051 0.599676 0.087565
0.210186 0.599362 0.084490
0.222403 0.598840 0.081254
0.232211 0.596921 0.078553
0.241493 0.594207 0.076314
0.252862 0.591518 0.075480
0.266201 0.588708 0.075960
0.280345 0.585833 0.077136
0.295364 0.582933 0.078976
0.310588 0.579919 0.081484
0.326189 0.576935 0.084509
0.342245 0.574062 0.087736
0.358614 0.571452 0.091192
0.375256 0.569065 0.094955
0.392118 0.566838 0.098947
0.409264 0.564898 0.103206
0.426591 0.563134 0.107558
0.444114 0.561700 0.112244
0.461809 0.560440 0.117066
0.479709 0.559413 0.122166
0.497869 0.558612 0.127575
0.516231 0.557913 0.133048
0.534693 0.557725 0.138930
0.553380 0.557501 0.145119
0.572107 0.557754 0.151569
0.590996 0.558175 0.158049
0.610207 0.558911 0.165003
0.629438 0.559738 0.172059
0.139942 0.629903 0.098224
0.156765 0.630848 0.095961
0.173449 0.631797 0.093863
0.189007 0.631869 0.091541
0.204285 0.631881 0.089345
0.217911 0.631038 0.087245
0.230469 0.629755 0.085196
0.240569 0.627048 0.083707
0.249833 0.623556 0.082892
0.261076 0.619764 0.083619
0.274096 0.615926 0.085732
0.287768 0.612239 0.087979
0.302266 0.608745 0.090676
0.317046 0.605273 0.093623
0.332264 0.602143 0.096730
0.347873 0.599236 0.100178
0.363852 0.596496 0.103894
0.380199 0.594021 0.107779
0.396760 0.591752 0.111917
0.413548 0.589672 0.116326
0.430643 0.587837 0.120940
0.447993 0.586281 0.125850
0.465451 0.584962 0.130847
0.483091 0.583883 0.136185
0.500990 0.583064 0.141715
0.519150 0.582453 0.147553
0.537516 0.582195 0.153730
0.555973 0.581953 0.160022
0.574603 0.582142 0.166708
0.593316 0.582622 0.173449
0.612271 0.583363 0.180663
0.631423 0.584119 0.187908
0.145929 0.663240 0.099169
0.163014 0.664248 0.096902
0.180019 0.665169 0.094748
0.195862 0.664761 0.093478
0.211660 0.663976 0.092542
0.225827 0.661696 0.092430
0.239011 0.658737 0.092797
0.249603 0.654976 0.093123
0.259159 0.650540 0.093804
0.270275 0.646312 0.095577
0.282880 0.642144 0.098080
0.296160 0.638217 0.100717
0.310138 0.634472 0.103633
0.324423 0.630816 0.106621
0.339157 0.627454 0.109866
0.354246 0.624444 0.113471
0.369834 0.621573 0.117350
0.385818 0.618977 0.121369
0.402143 0.616708 0.125739
0.418711 0.614589 0.130253
0.435441 0.612608 0.135070
0.452485 0.611070 0.140092
0.469818 0.609657 0.145402
0.487252 0.608523 0.150916
0.504891 0.607704 0.156754
0.522791 0.606992 0.162779
0.540950 0.606656 0.169192
0.559156 0.606569 0.175689
0.577754 0.606782 0.182628
0.596231 0.607086 0.189629
0.615109 0.607814 0.197103
0.634070 0.608760 0.204608
0.152176 0.696569 0.100965
0.169527 0.696968 0.099509
0.186996 0.697259 0.098145
0.203288 0.695918 0.098177
0.219429 0.694128 0.098640
0.234126 0.690676 0.100573
0.247915 0.686529 0.102753
0.259185 0.682007 0.104685
0.269132 0.677089 0.106557
0.280101 0.672512 0.108827
0.292204 0.668242 0.111411
0.305070 0.664162 0.114308
0.318731 0.660380 0.117442
0.332617 0.656619 0.120540
0.346742 0.652997 0.123906
0.361297 0.649753 0.127551
0.376495 0.646753 0.131458
0.392093 0.644021 0.135710
0.408165 0.641664 0.140226
0.424496 0.639545 0.145005
0.440930 0.637528 0.150010
0.457695 0.635874 0.155185
0.474806 0.634517 0.160636
0.491996 0.633278 0.166474
0.509528 0.632408 0.172500
0.527211 0.631652 0.178709
0.545110 0.631305 0.185371
0.563057 0.631266 0.192129
0.581444 0.631486 0.199327
0.599850 0.631738 0.206589
0.618534 0.632463 0.214323
0.637237 0.633266 0.222088
0.158478 0.729434 0.103801
0.176712 0.727790 0.105071
0.194715 0.726280 0.106178
0.211714 0.723687 0.107933
0.228306 0.720750 0.110006
0.243345 0.716958 0.112770
0.257663 0.712797 0.115798
0.269539 0.708195 0.118223
0.280088 0.703428 0.120567
0.291062 0.698873 0.123211
0.302645 0.694442 0.125876
0.315080 0.690258 0.128961
0.328401 0.686344 0.132223
0.341709 0.682477 0.135476
0.355266 0.678595 0.138863
0.369411 0.675190 0.142610
0.384218 0.672165 0.146623
0.399421 0.669408 0.151036
0.415021 0.666910 0.155666
0.431006 0.664580 0.160628
0.447312 0.662484 0.165749
0.463750 0.660798 0.171233
0.480535 0.659459 0.176978
0.497617 0.658198 0.182945
0.514819 0.657158 0.189154
0.532207 0.656520 0.195612
0.550018 0.656042 0.202363
0.567915 0.655969 0.209348
0.586069 0.656190 0.216806
0.604259 0.656442 0.224328
0.622686 0.657166 0.232322
0.641333 0.657923 0.240348
0.165631 0.760715 0.109378
0.184471 0.757375 0.112685
0.203188 0.753860 0.116164
0.220546 0.750405 0.119501
0.237654 0.746709 0.122876
0.253144 0.742923 0.126317
0.267805 0.738974 0.129713
0.280258 0.734429 0.132618
0.291457 0.729867 0.135342
0.302472 0.725330 0.138106
0.313603 0.720803 0.141004
0.325675 0.716460 0.144259
0.338666 0.712439 0.147619
0.351609 0.708425 0.151026
0.364517 0.704406 0.154413
0.378163 0.700863 0.158282
0.392470 0.697728 0.162534
0.407288 0.694751 0.167072
