gsg/03_Cinematic/GSG_LUT_Cinematic_Ill_Be_Back.cube
# GSG LUTs 1.0
# Copyright (c) 2016-2020 Greyscalegorilla
# See EULA for licensing and distribution information
# Converted by Briz LUT Converter
LUT_3D_SIZE 32
0.000000 0.000000 0.000000
0.009571 0.001520 0.002277
0.018914 0.003285 0.004813
0.028493 0.005073 0.007586
0.038103 0.007090 0.010390
0.047934 0.009106 0.013455
0.057765 0.011170 0.016779
0.067651 0.013494 0.020363
0.077797 0.016015 0.024207
0.088204 0.018606 0.028382
0.098791 0.021458 0.032999
0.109551 0.024570 0.037875
0.120737 0.028036 0.043200
0.132183 0.031817 0.049305
0.143999 0.035819 0.056079
0.156572 0.040458 0.063610
0.170436 0.046004 0.072559
0.185726 0.052590 0.083461
0.201891 0.060073 0.096160
0.218425 0.068486 0.110268
0.234747 0.077624 0.125519
0.250219 0.087116 0.141644
0.264823 0.096695 0.157856
0.278105 0.106093 0.173989
0.289826 0.114853 0.189176
0.300185 0.123227 0.203458
0.309654 0.131136 0.216960
0.318343 0.138737 0.230108
0.326693 0.146300 0.243216
0.335240 0.154090 0.256780
0.343810 0.162377 0.270865
0.352869 0.171184 0.286203
0.002781 0.011099 0.004561
0.012115 0.012864 0.007327
0.021663 0.014621 0.009894
0.031013 0.016394 0.012920
0.040585 0.018227 0.015984
0.050163 0.020451 0.019309
0.059788 0.022522 0.022893
0.069666 0.024845 0.026736
0.079743 0.027429 0.030836
0.089895 0.030202 0.035207
0.100301 0.033056 0.039988
0.110969 0.036173 0.045377
0.121900 0.039636 0.051120
0.133192 0.043515 0.057386
0.144894 0.047662 0.064283
0.157206 0.052306 0.072193
0.170814 0.057852 0.081658
0.185982 0.064442 0.092947
0.201996 0.072071 0.106050
0.218276 0.080586 0.120676
0.234341 0.089724 0.136447
0.249722 0.099216 0.152927
0.264148 0.108801 0.169575
0.277356 0.118201 0.186039
0.289078 0.127150 0.201676
0.299437 0.135381 0.216083
0.308899 0.143243 0.229997
0.317593 0.150852 0.243230
0.326165 0.158629 0.256560
0.334514 0.166442 0.270156
0.343306 0.174501 0.284478
0.352617 0.183536 0.300067
0.005821 0.022443 0.009886
0.015125 0.024200 0.012683
0.024214 0.025759 0.015709
0.033526 0.027776 0.018773
0.042883 0.029792 0.022098
0.052445 0.031848 0.025683
0.062011 0.034117 0.029528
0.071642 0.036445 0.033581
0.081519 0.039036 0.037827
0.091591 0.041802 0.042626
0.101753 0.044739 0.047674
0.112250 0.048011 0.053312
0.123069 0.051398 0.059321
0.134209 0.055142 0.065956
0.145795 0.059396 0.073251
0.157864 0.064170 0.081428
0.171334 0.069715 0.091284
0.186348 0.076435 0.103086
0.202111 0.084170 0.116573
0.218282 0.092695 0.131610
0.234188 0.101839 0.147895
0.249475 0.111342 0.164885
0.263728 0.121089 0.181881
0.276856 0.130564 0.198621
0.288574 0.139517 0.214510
0.298933 0.147749 0.229364
0.308210 0.155611 0.243373
0.317074 0.163425 0.256826
0.325676 0.171019 0.270202
0.334247 0.178810 0.284021
0.343069 0.187097 0.298373
0.352381 0.195904 0.313978
0.009075 0.033810 0.015731
0.018149 0.035574 0.018781
0.027201 0.037355 0.021846
0.036297 0.039371 0.025171
0.045602 0.041391 0.028756
0.054929 0.043468 0.032601
0.064299 0.045736 0.036701
0.073859 0.048115 0.041047
0.083495 0.050831 0.045678
0.093372 0.053511 0.050644
0.103510 0.056536 0.056032
0.113837 0.059735 0.061791
0.124368 0.063358 0.068149
0.135387 0.067242 0.075184
0.146817 0.071496 0.082750
0.158861 0.076281 0.091311
0.172082 0.081839 0.101544
0.186737 0.088558 0.113744
0.202387 0.096307 0.127752
0.218388 0.104982 0.143170
0.234188 0.114215 0.159872
0.249321 0.123873 0.177219
0.263483 0.133547 0.194661
0.276452 0.143115 0.211887
0.288099 0.152121 0.227931
0.298471 0.160372 0.242979
0.307944 0.168238 0.257052
0.316846 0.176032 0.270728
0.325448 0.183644 0.284344
0.334041 0.191437 0.298206
0.343086 0.199701 0.312781
0.352428 0.208531 0.328623
0.012163 0.045437 0.022128
0.021198 0.047202 0.025407
0.030035 0.048982 0.028763
0.039080 0.051002 0.032348
0.048178 0.053074 0.036189
0.057450 0.055320 0.040267
0.066771 0.057616 0.044591
0.076127 0.059994 0.049044
0.085706 0.062767 0.053984
0.095347 0.065611 0.059296
0.105235 0.068646 0.064871
0.115469 0.071866 0.071029
0.126015 0.075489 0.077668
0.136794 0.079373 0.084963
0.147977 0.083641 0.092889
0.159778 0.088535 0.101831
0.172870 0.094207 0.112357
0.187387 0.100959 0.124969
0.202904 0.108832 0.139465
0.218622 0.117586 0.155389
0.234231 0.126839 0.172470
0.249331 0.136508 0.190238
0.263349 0.146339 0.208168
0.276403 0.155831 0.225577
0.287928 0.164788 0.241979
0.298428 0.173217 0.257153
0.307944 0.181126 0.271443
0.316846 0.188727 0.285352
0.325476 0.196510 0.299024
0.334279 0.204325 0.313096
0.343368 0.212375 0.327716
0.352964 0.221387 0.343558
0.015692 0.057324 0.029265
0.024475 0.059090 0.032636
0.033295 0.060908 0.036420
0.042101 0.062945 0.040265
0.051114 0.065151 0.044344
0.060037 0.067275 0.048525
0.069250 0.069723 0.053117
0.078427 0.072134 0.058003
0.087975 0.074906 0.063148
0.097554 0.077762 0.068624
0.107265 0.080893 0.074554
0.117295 0.084257 0.080917
0.127567 0.087881 0.087927
0.138240 0.091781 0.095500
0.149277 0.096150 0.103726
0.160956 0.101055 0.112950
0.173898 0.106747 0.123956
0.188257 0.113719 0.137034
0.203514 0.121587 0.151835
0.219126 0.130269 0.168184
0.234572 0.139659 0.185769
0.249439 0.149403 0.203887
0.263539 0.159262 0.222105
0.276498 0.168894 0.239915
0.287998 0.177926 0.256457
0.298475 0.186364 0.271842
0.308017 0.194273 0.286393
0.316925 0.201875 0.300343
0.325783 0.209658 0.314207
0.334609 0.217472 0.328300
0.343943 0.225523 0.343125
0.353799 0.234322 0.358974
0.019221 0.069471 0.037016
0.027798 0.071243 0.040846
0.036559 0.073260 0.044689
0.045153 0.075281 0.048750
0.054002 0.077372 0.053116
0.062996 0.079641 0.057710
0.071857 0.081957 0.062421
0.080938 0.084533 0.067528
0.090279 0.087318 0.072946
0.099823 0.090254 0.078717
0.109402 0.093497 0.084958
0.119137 0.096878 0.091632
0.129361 0.100532 0.098801
0.139919 0.104518 0.106720
0.150816 0.108935 0.115418
0.162347 0.113852 0.125037
0.175028 0.119675 0.136328
0.189153 0.126643 0.149691
0.204171 0.134637 0.165012
0.219649 0.143424 0.181822
0.234944 0.152845 0.199818
0.249738 0.162606 0.218300
0.263839 0.172610 0.236939
0.276797 0.182150 0.254917
0.288456 0.191288 0.271666
0.298853 0.199772 0.287312
0.308496 0.207680 0.302044
0.317511 0.215323 0.316060
0.326524 0.223070 0.329973
0.335454 0.230880 0.344070
0.344992 0.238976 0.358896
0.355107 0.247777 0.374745
0.022860 0.081878 0.045752
0.031376 0.083704 0.049787
0.039943 0.085671 0.053881
0.048480 0.087762 0.058070
0.057246 0.090031 0.062696
0.066021 0.092309 0.067573
0.074843 0.094671 0.072635
0.083709 0.097247 0.077889
0.092790 0.100083 0.083617
0.102131 0.103108 0.089795
0.111670 0.106229 0.096233
0.121336 0.109697 0.103104
0.131335 0.113464 0.110660
0.141715 0.117484 0.118838
0.152466 0.121990 0.127822
0.163764 0.127016 0.137827
0.176242 0.132939 0.149479
0.190241 0.139925 0.163241
0.205088 0.147970 0.178968
0.220340 0.156873 0.196216
0.235559 0.166442 0.214569
0.250315 0.176273 0.233446
0.264398 0.186278 0.252408
0.277356 0.195858 0.270646
0.289015 0.205010 0.287655
0.299571 0.213494 0.303517
0.309179 0.221403 0.318168
0.318476 0.229217 0.332333
0.327454 0.236811 0.346399
0.336744 0.244602 0.360562
0.346361 0.252889 0.375391
0.356729 0.261696 0.391185
0.026894 0.094608 0.055331
0.035218 0.096556 0.059437
0.043712 0.098413 0.063803
0.052048 0.100681 0.068423
0.060562 0.102950 0.073252
0.069162 0.105258 0.078369
0.077919 0.107791 0.083623
0.086691 0.110418 0.089289
0.095577 0.113254 0.095262
0.104704 0.116297 0.101653
0.114045 0.119524 0.108371
0.123645 0.123053 0.115545
0.133506 0.126771 0.123361
0.143653 0.130934 0.131826
0.154209 0.135476 0.141163
0.165372 0.140532 0.151498
0.177785 0.146489 0.163443
0.191615 0.153578 0.177634
0.206239 0.161708 0.193845
0.221372 0.170727 0.211548
0.236567 0.180369 0.230275
0.251195 0.190243 0.249434
0.265217 0.200268 0.268657
0.278176 0.209989 0.287155
0.289883 0.219189 0.304376
0.300453 0.227673 0.320280
0.310379 0.235635 0.335143
0.319681 0.243405 0.349348
0.328993 0.251048 0.363301
0.338379 0.258844 0.377569
0.348243 0.267131 0.392406
0.358872 0.275938 0.408011
0.030998 0.107787 0.065950
0.039314 0.109630 0.070316
0.047559 0.111663 0.074938
0.055812 0.113931 0.079741
0.064152 0.116209 0.084731
0.072650 0.118579 0.090126
0.081161 0.121147 0.095732
0.089787 0.123920 0.101658
0.098654 0.126756 0.107863
0.107656 0.129852 0.114432
0.116759 0.133207 0.121469
0.126148 0.136762 0.129026
0.135775 0.140525 0.137103
0.145781 0.144763 0.145904
0.156264 0.149443 0.155525
0.167301 0.154626 0.166054
0.179490 0.160676 0.178426
0.193099 0.167804 0.193060
0.207600 0.175966 0.209622
0.222592 0.185029 0.227658
0.237671 0.194698 0.246790
0.252323 0.204695 0.266274
0.266317 0.214778 0.285706
0.279307 0.224551 0.304444
0.291173 0.233771 0.321785
0.301841 0.242255 0.337705
0.311840 0.250368 0.352720
0.321470 0.258009 0.366954
0.330892 0.265792 0.381071
0.340521 0.273607 0.395187
0.350646 0.281825 0.409944
0.361605 0.290630 0.425546
0.035441 0.121305 0.077608
0.043594 0.123324 0.082235
0.051660 0.125432 0.087111
0.059743 0.127701 0.092095
0.067980 0.130001 0.097430
0.076230 0.132535 0.103070
0.084580 0.135169 0.108842
0.093125 0.137942 0.114983
0.101887 0.140798 0.121533
0.110709 0.143952 0.128433
0.119639 0.147308 0.135730
0.128859 0.150924 0.143575
0.138375 0.154830 0.151962
0.148275 0.159116 0.161024
0.158498 0.163874 0.170940
0.169396 0.169152 0.181819
0.181455 0.175243 0.194589
0.194899 0.182504 0.209559
0.209310 0.190790 0.226475
0.224214 0.199944 0.244950
0.239151 0.209701 0.264359
0.253805 0.219778 0.284127
0.267762 0.229887 0.303723
0.280912 0.239789 0.322612
0.292843 0.249053 0.340132
0.303715 0.257537 0.356155
0.313908 0.265650 0.371118
0.323634 0.273360 0.385340
0.333294 0.281082 0.399456
0.343183 0.288889 0.413499
0.353644 0.297016 0.428083
0.365040 0.305817 0.443602
0.040230 0.135429 0.090393
0.048050 0.137453 0.095364
0.056032 0.139722 0.100427
0.064090 0.141999 0.105818
0.072078 0.144377 0.111332
0.080170 0.146924 0.117183
0.088416 0.149641 0.123339
0.096770 0.152503 0.129694
0.105315 0.155447 0.136545
0.114048 0.158684 0.143646
0.122809 0.162102 0.151204
0.131805 0.165748 0.159337
0.141254 0.169774 0.168069
0.150979 0.174162 0.177444
0.161030 0.178920 0.187695
0.171796 0.184240 0.198886
0.183725 0.190460 0.211877
0.196951 0.197802 0.227240
0.211293 0.206234 0.244577
0.226129 0.215446 0.263348
0.241002 0.225279 0.282967
0.255602 0.235527 0.303021
0.269652 0.245689 0.322902
0.282973 0.255591 0.341865
0.295014 0.264922 0.359384
0.306108 0.273425 0.375541
0.316422 0.281539 0.390397
0.326382 0.289393 0.404593
0.336303 0.296987 0.418631
0.346533 0.304778 0.432510
0.357420 0.313065 0.447000
0.369168 0.321872 0.462263
0.045303 0.150238 0.104667
0.053020 0.152357 0.109959
0.060752 0.154626 0.115221
0.068707 0.156918 0.120879
0.076541 0.159439 0.126701
0.084510 0.161975 0.132743
0.092526 0.164670 0.139110
0.100768 0.167695 0.145817
0.109125 0.170744 0.152846
0.117626 0.173981 0.160325
0.126275 0.177540 0.168173
0.135204 0.181273 0.176575
0.144409 0.185340 0.185526
0.153941 0.189767 0.195218
0.163950 0.194580 0.205718
0.174542 0.199976 0.217297
0.186341 0.206327 0.230629
0.199480 0.213766 0.246218
0.213605 0.222333 0.263823
0.228335 0.231707 0.282939
0.243208 0.241662 0.302895
0.257915 0.251944 0.323125
0.272083 0.262173 0.343149
0.285501 0.272102 0.362157
0.297761 0.281555 0.379676
0.309116 0.290094 0.395833
0.319690 0.298208 0.410690
0.329910 0.306062 0.424802
0.340176 0.313741 0.438601
0.350735 0.321541 0.452367
0.361977 0.329736 0.466607
0.374241 0.338540 0.481610
0.050849 0.165773 0.120659
0.058411 0.168041 0.126066
0.065983 0.170317 0.131733
0.073691 0.172705 0.137636
0.081413 0.175225 0.143603
0.089211 0.177802 0.150027
0.096987 0.180688 0.156595
0.105085 0.183654 0.163503
0.113298 0.186821 0.170846
0.121582 0.190169 0.178538
0.130159 0.193777 0.186734
0.138981 0.197594 0.195428
0.147954 0.201670 0.204640
0.157380 0.206223 0.214572
0.167261 0.211169 0.225326
0.177649 0.216621 0.237192
0.189265 0.223049 0.250836
0.202355 0.230643 0.266817
0.216393 0.239336 0.284663
0.231061 0.248816 0.304006
0.245999 0.258907 0.324143
0.260743 0.269243 0.344581
0.275089 0.279650 0.364685
0.288692 0.289653 0.383694
0.301265 0.299106 0.401134
0.312903 0.307728 0.417185
0.323738 0.315861 0.431936
0.334307 0.323715 0.445902
0.344982 0.331437 0.459453
0.355771 0.339337 0.472959
0.367515 0.347395 0.486939
0.380299 0.356194 0.501579
0.056725 0.182236 0.138430
0.064174 0.184615 0.144204
0.071629 0.186900 0.150025
0.079181 0.189431 0.156199
0.086661 0.192052 0.162511
0.094340 0.194651 0.169123
0.101976 0.197650 0.176064
0.109928 0.200622 0.183213
0.117909 0.203928 0.190832
0.126047 0.207358 0.198771
0.134452 0.210965 0.207204
0.143125 0.214872 0.216101
0.152042 0.219166 0.225602
0.161276 0.223806 0.235786
0.170961 0.228816 0.246818
0.181274 0.234399 0.258866
0.192743 0.240941 0.272844
0.205711 0.248648 0.289154
0.219749 0.257410 0.307260
0.234416 0.267057 0.326776
0.249447 0.277317 0.347048
0.264315 0.287766 0.367557
0.278876 0.298232 0.387672
0.292634 0.308326 0.406680
0.305540 0.317807 0.424010
0.317470 0.326543 0.439737
0.328750 0.334704 0.454299
0.339739 0.342558 0.468050
0.350692 0.350251 0.481345
0.361977 0.358178 0.494488
0.374242 0.366344 0.508093
0.387656 0.375147 0.522329
0.063382 0.199953 0.158754
0.070574 0.202469 0.164803
0.077885 0.204868 0.170861
0.085202 0.207413 0.177198
0.092529 0.210169 0.183890
0.099988 0.212872 0.190728
0.107575 0.215897 0.197857
0.115294 0.219003 0.205344
0.123141 0.222435 0.213154
0.131156 0.225964 0.221414
0.139391 0.229610 0.230012
0.147841 0.233644 0.239216
0.156636 0.238024 0.249012
0.165741 0.242714 0.259374
0.175289 0.247846 0.270667
0.185535 0.253559 0.282975
0.196944 0.260239 0.297152
0.209782 0.268149 0.313665
0.223835 0.277015 0.332031
0.238552 0.286811 0.351735
0.253658 0.297255 0.372059
0.268740 0.307842 0.392477
0.283561 0.318340 0.412465
0.297666 0.328616 0.431263
0.310864 0.338162 0.448441
0.323149 0.346898 0.463925
0.334937 0.355158 0.478237
0.346332 0.363031 0.491511
0.357774 0.370846 0.504407
0.369688 0.378660 0.517153
0.382481 0.386947 0.530245
0.397849 0.395518 0.541613
0.071070 0.220245 0.183079
0.078006 0.222644 0.189267
0.085179 0.225287 0.195699
0.092248 0.227843 0.202178
0.099445 0.230730 0.209146
0.106754 0.233562 0.216334
0.114105 0.236717 0.223617
0.121694 0.239926 0.231365
0.129378 0.243390 0.239435
0.137170 0.247049 0.247955
0.145274 0.250825 0.256813
0.153594 0.254990 0.266233
0.162210 0.259500 0.276257
0.171161 0.264319 0.286904
0.180651 0.269581 0.298383
0.190768 0.275424 0.310952
0.202111 0.282234 0.325324
0.214880 0.290275 0.341967
0.228950 0.299418 0.360463
0.243797 0.309449 0.380143
0.259115 0.319942 0.400418
0.274456 0.330700 0.420750
0.289627 0.341368 0.440429
0.304216 0.351774 0.458838
0.317934 0.361451 0.475625
0.330740 0.370215 0.490820
0.343048 0.378581 0.504555
0.354964 0.386474 0.517398
0.367040 0.394289 0.529789
0.380902 0.401985 0.539657
0.397240 0.409898 0.546821
0.416503 0.417953 0.551570
0.080058 0.243515 0.212210
0.086864 0.245933 0.218788
0.093663 0.248699 0.225359
0.100708 0.251392 0.232224
0.107659 0.254403 0.239434
0.114814 0.257371 0.246788
0.121940 0.260648 0.254443
0.129364 0.263956 0.262451
0.136823 0.267462 0.270747
0.144488 0.271282 0.279428
0.152417 0.275281 0.288546
0.160518 0.279578 0.298185
0.169054 0.284262 0.308386
0.177958 0.289292 0.319234
0.187317 0.294692 0.330844
0.197304 0.300666 0.343535
0.208579 0.307667 0.358029
0.221421 0.315903 0.374729
0.235629 0.325321 0.393225
0.250687 0.335590 0.412750
0.266265 0.346221 0.432841
0.282048 0.357186 0.452774
0.297744 0.368121 0.472023
0.312953 0.378605 0.489938
0.327318 0.388373 0.506097
0.340779 0.397272 0.520634
0.353732 0.405664 0.533611
0.368753 0.413324 0.541447
0.384391 0.420741 0.547700
0.401778 0.428163 0.551563
0.421697 0.435587 0.552819
0.443617 0.443523 0.553539
0.090204 0.269101 0.245878
0.096861 0.271771 0.252686
0.103428 0.274553 0.259545
0.110197 0.277482 0.266641
0.117017 0.280526 0.274098
0.123928 0.283736 0.281610
0.130888 0.287160 0.289499
0.138083 0.290638 0.297735
0.145457 0.294340 0.306153
0.153049 0.298233 0.315012
0.160763 0.302446 0.324345
0.168750 0.306868 0.334148
0.177203 0.311686 0.344511
0.186041 0.316890 0.355406
0.195337 0.322550 0.367080
0.205270 0.328731 0.379771
0.216561 0.335935 0.394265
0.229532 0.344509 0.410888
0.243854 0.354169 0.429155
0.259199 0.364638 0.448320
0.275275 0.375530 0.467913
0.291665 0.386681 0.487239
0.308018 0.397919 0.505809
0.324081 0.408613 0.522861
0.340275 0.418308 0.536117
0.357556 0.426921 0.544119
0.374473 0.434895 0.550205
0.392900 0.442294 0.552302
0.411856 0.449512 0.553194
0.431528 0.456812 0.553787
0.452453 0.464259 0.553983
0.475411 0.472165 0.553665
0.101241 0.296467 0.283067
0.107640 0.299394 0.290031
0.114049 0.302328 0.297099
0.120613 0.305367 0.304344
0.127264 0.308578 0.311926
0.133940 0.312025 0.319682
0.140793 0.315583 0.327717
0.147873 0.319288 0.336069
0.155092 0.323146 0.344630
0.162543 0.327291 0.353594
0.170184 0.331625 0.363000
0.178119 0.336238 0.372786
0.186435 0.341277 0.383119
0.195211 0.346677 0.394013
0.204506 0.352531 0.405688
0.214512 0.358962 0.418306
0.225932 0.366504 0.432568
0.239118 0.375312 0.448826
0.253748 0.385238 0.466619
0.269528 0.395988 0.485263
0.286191 0.407236 0.504076
0.303340 0.418700 0.522436
0.322082 0.429879 0.536902
0.342763 0.440259 0.545768
0.363608 0.449554 0.551033
0.384578 0.457949 0.552930
0.404795 0.465760 0.553541
0.424611 0.473134 0.553865
0.444472 0.480444 0.553802
0.465031 0.487755 0.553459
0.487132 0.495301 0.552766
0.511135 0.503407 0.551412
0.112742 0.325078 0.322329
0.119039 0.328260 0.329392
0.125194 0.331306 0.336628
0.131600 0.334649 0.344110
0.138154 0.337978 0.351703
0.144722 0.341644 0.359557
0.151413 0.345251 0.367671
0.158344 0.349195 0.376045
0.165465 0.353264 0.384678
0.172801 0.357712 0.393597
0.180330 0.362239 0.402891
0.188287 0.367057 0.412643
0.196644 0.372254 0.422854
0.205420 0.377915 0.433586
0.214715 0.384057 0.445027
0.224843 0.390752 0.457350
0.236475 0.398522 0.471223
0.249927 0.407625 0.486959
0.265098 0.417894 0.504049
0.281465 0.428944 0.521751
0.300375 0.440310 0.536588
0.322432 0.451529 0.546032
0.346417 0.462340 0.551291
0.371148 0.472526 0.553159
0.394863 0.481764 0.553733
0.417089 0.490355 0.553913
0.438317 0.498295 0.553536
0.459035 0.505821 0.552911
0.479832 0.513151 0.551820
0.501334 0.520609 0.550436
0.524409 0.528318 0.548793
0.549766 0.536618 0.546560
0.124503 0.354398 0.362488
0.130631 0.357677 0.369554
0.136686 0.361054 0.376869
0.142857 0.364575 0.384277
0.149390 0.368065 0.391870
0.155800 0.371860 0.399698
0.162401 0.375761 0.407673
0.169262 0.379832 0.416009
0.176341 0.384119 0.424515
0.183576 0.388753 0.433360
0.191162 0.393657 0.442475
0.199091 0.398704 0.452110
0.207461 0.404105 0.462010
0.216338 0.410026 0.472482
0.225783 0.416393 0.483548
0.236134 0.423343 0.495313
0.248026 0.431414 0.508539
0.261909 0.440916 0.523494
0.278956 0.451367 0.537028
0.300095 0.462234 0.545983
0.324234 0.473342 0.551166
0.350428 0.484408 0.553229
0.377185 0.495245 0.553818
0.403311 0.505641 0.553681
0.428068 0.515139 0.553082
0.451264 0.523857 0.552068
0.473377 0.531952 0.550830
0.495035 0.539724 0.549205
0.516711 0.547237 0.547222
0.539238 0.554791 0.544969
0.563270 0.562750 0.542296
0.589673 0.571058 0.538942
0.136004 0.383717 0.401780
0.142054 0.387176 0.408841
0.148104 0.390716 0.415983
0.154184 0.394424 0.423317
0.160550 0.398163 0.430889
0.166891 0.402163 0.438552
0.173492 0.406375 0.446428
0.180315 0.410642 0.454567
0.187283 0.415169 0.462788
0.194612 0.419977 0.471354
0.202253 0.425075 0.480301
0.210215 0.430382 0.489522
0.218677 0.436043 0.498999
0.227675 0.442225 0.509066
0.237370 0.448894 0.519557
0.247986 0.456195 0.530679
0.261749 0.464387 0.540173
0.280144 0.473645 0.546690
0.301975 0.483786 0.551217
0.326838 0.494663 0.553240
0.353577 0.505906 0.553823
0.381139 0.517293 0.553692
0.408850 0.528446 0.552955
0.435994 0.539102 0.551646
0.461657 0.548994 0.549851
0.485716 0.557948 0.547834
0.508770 0.566143 0.545494
0.531154 0.574148 0.542964
0.553755 0.581920 0.540190
0.577153 0.589662 0.536994
0.602047 0.597708 0.533453
0.629406 0.606192 0.529158
0.146985 0.412415 0.438607
0.153029 0.415950 0.445665
0.158903 0.419682 0.452728
0.164977 0.423650 0.459875
0.171279 0.427626 0.467250
0.177620 0.431728 0.474665
0.184222 0.436200 0.482304
0.191069 0.440728 0.490037
0.198141 0.445515 0.497980
0.205522 0.450563 0.506201
0.213163 0.455870 0.514728
0.221215 0.461437 0.523493
0.229910 0.467359 0.532524
0.239960 0.473649 0.540377
0.252463 0.480236 0.545234
0.266870 0.487374 0.548992
0.284170 0.495380 0.551916
0.305145 0.504685 0.553286
0.329001 0.515063 0.553832
0.355062 0.526260 0.553819
0.382626 0.537908 0.553144
0.410995 0.549668 0.551835
0.439665 0.561232 0.549855
0.467716 0.572201 0.547297
0.494178 0.582268 0.544360
0.519017 0.591457 0.541343
0.542911 0.600005 0.538221
0.566025 0.608130 0.534916
0.589299 0.616139 0.531198
0.613467 0.624141 0.527307
0.639316 0.632203 0.522817
0.667714 0.640939 0.517736
0.157257 0.439576 0.472008
0.163110 0.443308 0.478682
0.168924 0.447288 0.485545
0.174997 0.451340 0.492431
0.181299 0.455568 0.499546
0.187640 0.459875 0.506701
0.194242 0.464571 0.514068
0.201103 0.469207 0.521448
0.208224 0.474254 0.528983
0.215660 0.479562 0.536871
0.224350 0.485007 0.543353
0.235352 0.490445 0.546473
0.247112 0.496236 0.549267
0.259927 0.502422 0.551578
0.274321 0.508945 0.552747
0.290320 0.516170 0.553422
0.308790 0.524501 0.553873
0.330446 0.534162 0.553937
0.354807 0.544865 0.553462
0.381489 0.556349 0.552382
0.409713 0.568419 0.550503
0.438923 0.580657 0.547936
0.468345 0.592588 0.544810
0.497140 0.603835 0.541286
0.524383 0.614259 0.537487
0.550002 0.623737 0.533472
0.574519 0.632439 0.529573
0.598218 0.640749 0.525498
0.622191 0.649011 0.521113
0.647133 0.657096 0.516512
0.673642 0.665528 0.511368
0.702690 0.674528 0.505510
0.166356 0.465115 0.501572
0.172160 0.469107 0.507930
0.178164 0.473344 0.514533
0.184237 0.477585 0.521140
0.190539 0.481896 0.527817
0.196912 0.486431 0.534680
0.203869 0.491211 0.541240
0.212103 0.495973 0.545692
0.221918 0.500875 0.547944
0.232216 0.506036 0.550213
0.243232 0.511363 0.551969
0.255291 0.516813 0.552800
0.268129 0.522751 0.553326
0.281850 0.529107 0.553705
0.296632 0.535922 0.553944
0.312813 0.543416 0.553946
0.331646 0.551963 0.553690
0.353718 0.562018 0.552934
0.378617 0.573185 0.551443
0.405792 0.585132 0.549202
0.434609 0.597575 0.546297
0.464484 0.610130 0.542702
0.494602 0.622338 0.538517
0.524161 0.633992 0.534140
0.552032 0.644618 0.529560
0.578229 0.654483 0.524878
0.603277 0.663437 0.520226
0.627668 0.671998 0.515370
0.652236 0.680342 0.510432
0.677572 0.688616 0.505260
0.704782 0.697359 0.499401
0.734554 0.706424 0.492962
0.174973 0.489708 0.527851
0.180772 0.493954 0.533949
0.186651 0.498253 0.540265
0.193325 0.502710 0.545789
0.201979 0.506842 0.547511
0.210897 0.511385 0.549422
0.220278 0.515963 0.551085
0.230043 0.520634 0.552281
0.240663 0.525645 0.552866
0.251644 0.530817 0.553381
0.263212 0.536388 0.553714
0.275531 0.542205 0.554033
0.288550 0.548324 0.554152
0.302406 0.554814 0.553982
0.317427 0.561911 0.553701
0.333941 0.569669 0.553060
0.353058 0.578556 0.551942
0.375426 0.588885 0.550303
0.400733 0.600388 0.547983
0.428460 0.612729 0.544883
0.457888 0.625582 0.541029
0.488300 0.638470 0.536549
0.518972 0.651084 0.531389
0.548949 0.663093 0.526006
0.577458 0.674113 0.520751
0.604222 0.684147 0.515374
0.629789 0.693330 0.510122
0.654564 0.702152 0.504697
0.679633 0.710713 0.499232
0.705636 0.719243 0.493539
0.733423 0.728048 0.487114
0.763764 0.737319 0.480153
0.185033 0.513734 0.547820
0.193253 0.517800 0.549260
0.201691 0.521882 0.550714
0.210272 0.526193 0.551861
0.219406 0.530509 0.552594
0.228963 0.535232 0.553124
0.238697 0.539852 0.553441
0.248989 0.544842 0.553751
0.259529 0.549939 0.554035
0.270730 0.555342 0.554187
0.282461 0.561117 0.554000
0.294821 0.567077 0.553813
0.307948 0.573441 0.553520
0.321950 0.580256 0.552870
0.337204 0.587640 0.551945
0.354012 0.595645 0.550765
0.373279 0.604813 0.548956
0.396027 0.615530 0.546517
