gsg/03_Cinematic/GSG_LUT_Cinematic_OfficeCubicle.cube
# GSG LUTs 1.0
# Copyright (c) 2016-2020 Greyscalegorilla
# See EULA for licensing and distribution information
# Converted by Briz LUT Converter
LUT_3D_SIZE 8
DOMAIN_MIN 0.000000 0.000000 0.000000
DOMAIN_MAX 0.903226 0.903226 0.903226
0.076923 0.080830 0.080342
0.118272 0.096443 0.097515
0.172650 0.111017 0.114869
0.242688 0.124794 0.130844
0.330041 0.136673 0.144740
0.437008 0.145984 0.155264
0.552940 0.159605 0.166340
0.662090 0.185419 0.184899
0.107842 0.161227 0.119327
0.148458 0.177116 0.133349
0.203080 0.194076 0.148387
0.271125 0.210383 0.161330
0.355814 0.225256 0.171893
0.458894 0.238506 0.179783
0.562929 0.260475 0.196322
0.670987 0.288062 0.217705
0.134602 0.252448 0.153909
0.174879 0.268337 0.164378
0.231982 0.285265 0.178101
0.300170 0.303928 0.192698
0.380976 0.322274 0.201829
0.476953 0.340755 0.210961
0.577683 0.365379 0.231204
0.684170 0.394232 0.255932
0.157296 0.353177 0.183260
0.197731 0.369065 0.190932
0.255717 0.385506 0.202166
0.326703 0.403532 0.216159
0.407673 0.423812 0.230933
0.498938 0.446089 0.247071
0.597298 0.472551 0.271435
0.704393 0.501218 0.301648
0.176013 0.462956 0.207413
0.217561 0.478167 0.214008
0.279776 0.492724 0.227817
0.353437 0.509734 0.245100
0.435431 0.530113 0.265942
0.526201 0.553725 0.289285
0.631232 0.578762 0.312559
0.749443 0.604553 0.334389
0.204734 0.574698 0.236583
0.255067 0.585501 0.250920
0.317082 0.599615 0.268110
0.388934 0.617494 0.287240
0.472365 0.638547 0.305558
0.569120 0.661634 0.323212
0.677573 0.685986 0.341825
0.797401 0.710772 0.360612
0.252432 0.682689 0.280137
0.299136 0.693631 0.296864
0.357068 0.709488 0.310013
0.428816 0.728688 0.322035
0.514144 0.749955 0.335969
0.612064 0.772472 0.351148
0.721557 0.795841 0.366543
0.842465 0.819570 0.380923
0.295262 0.793619 0.328229
0.335161 0.807282 0.332380
0.392873 0.824058 0.340139
0.465752 0.843129 0.350364
0.552129 0.863689 0.361783
0.651006 0.885548 0.373603
0.761558 0.908002 0.384460
0.883325 0.930434 0.393491
0.080649 0.085840 0.140817
0.124109 0.100992 0.156367
0.178944 0.117839 0.172256
0.247911 0.131983 0.191232
0.334696 0.143487 0.209043
0.440640 0.152641 0.223980
0.554713 0.167176 0.237283
0.663618 0.193730 0.253784
0.111875 0.169022 0.175182
0.152739 0.183879 0.190764
0.208094 0.199575 0.206065
0.277461 0.215330 0.220849
0.363228 0.229163 0.234383
0.463339 0.244383 0.246915
0.565249 0.268284 0.263392
0.672835 0.296352 0.283143
0.140880 0.260176 0.210863
0.180755 0.275639 0.223241
0.234856 0.292073 0.235692
0.304242 0.309494 0.248584
0.387286 0.326465 0.259747
0.480809 0.347563 0.275089
0.580708 0.373146 0.294794
0.686676 0.402545 0.318045
0.163346 0.360384 0.243310
0.203203 0.376041 0.252409
0.257173 0.393086 0.261665
0.328297 0.410662 0.273753
0.411671 0.430375 0.289569
0.502761 0.453507 0.309085
0.600747 0.480364 0.332237
0.710835 0.508344 0.360893
0.181558 0.469770 0.270338
0.223634 0.484352 0.278273
0.285351 0.499169 0.290835
0.358800 0.516411 0.307042
0.440228 0.537114 0.326379
0.532533 0.560826 0.348038
0.639072 0.585576 0.371134
0.757974 0.611105 0.394310
0.212470 0.580672 0.300240
0.262114 0.591660 0.312927
0.323581 0.606156 0.328661
0.395223 0.624441 0.345901
0.479310 0.645563 0.364150
0.576434 0.668616 0.383066
0.685339 0.692571 0.403153
0.805302 0.717077 0.423447
0.260578 0.688605 0.342401
0.305375 0.700359 0.356064
0.362929 0.716547 0.368286
0.435015 0.735862 0.381733
0.520689 0.756915 0.397237
0.618831 0.779282 0.413947
0.728670 0.802379 0.430762
0.849673 0.825625 0.446526
0.299539 0.800681 0.385936
0.339766 0.814371 0.391846
0.397939 0.831116 0.401182
0.471291 0.849967 0.412941
0.557840 0.870527 0.425792
0.657080 0.892178 0.438863
0.767828 0.914280 0.451174
0.890071 0.936261 0.461714
0.082603 0.089322 0.212423
0.128670 0.103651 0.226137
0.186491 0.119816 0.239300
0.254598 0.137533 0.253745
0.339383 0.150633 0.273591
0.444271 0.159455 0.292940
0.556540 0.174950 0.307968
0.665391 0.202097 0.322589
0.110985 0.175840 0.240726
0.153932 0.189216 0.256889
0.211698 0.203821 0.272346
0.282855 0.220868 0.285287
0.367639 0.235902 0.300784
0.466461 0.251615 0.315498
0.567789 0.276309 0.330403
0.675106 0.304911 0.348637
0.143173 0.268274 0.271038
0.183568 0.282996 0.284614
0.238250 0.298649 0.298884
0.307525 0.314823 0.312521
0.391515 0.332683 0.325566
0.484384 0.355115 0.340478
0.583758 0.381261 0.358726
0.689334 0.411106 0.380739
0.169469 0.367750 0.303911
0.208784 0.383087 0.314717
0.262086 0.399842 0.326041
0.332866 0.417346 0.338350
0.416100 0.437466 0.353224
0.506828 0.461190 0.371497
0.604910 0.488248 0.393807
0.718357 0.515237 0.421580
0.187254 0.476703 0.334058
0.229851 0.490782 0.342952
0.291504 0.505716 0.354682
0.364347 0.523290 0.369411
0.445518 0.544433 0.387367
0.539636 0.567895 0.408788
0.647189 0.592431 0.432267
0.766315 0.617645 0.456632
0.220292 0.586838 0.364416
0.269395 0.598137 0.375433
0.330289 0.612918 0.389774
0.401778 0.631523 0.406556
0.486428 0.652784 0.425063
0.583928 0.675537 0.445313
0.693002 0.699274 0.466677
0.813316 0.723267 0.488020
0.269005 0.694899 0.405883
0.311607 0.707192 0.416944
0.368838 0.723849 0.429024
0.441309 0.742934 0.443717
0.527135 0.763973 0.460515
0.625548 0.786048 0.478478
0.735728 0.808809 0.496470
0.857012 0.831680 0.513491
0.303620 0.807986 0.446234
0.344517 0.821655 0.453679
0.403053 0.838240 0.464321
0.476600 0.857025 0.477211
0.563606 0.877417 0.491462
0.663030 0.898714 0.505748
0.774138 0.920401 0.519221
0.896461 0.941849 0.530836
0.083272 0.091764 0.294821
0.131636 0.105053 0.306656
0.192691 0.120311 0.316577
0.263991 0.137382 0.327583
0.345658 0.155986 0.340418
0.448243 0.166513 0.362058
0.558767 0.183089 0.378043
0.667187 0.210901 0.391092
0.108893 0.181406 0.316117
0.153839 0.193617 0.332534
0.214200 0.206787 0.347840
0.288385 0.223060 0.357962
0.372894 0.241245 0.369339
0.469580 0.259184 0.383808
0.570568 0.284564 0.397228
0.677602 0.313774 0.414110
0.138855 0.276466 0.340139
0.181417 0.289938 0.354152
0.238080 0.304338 0.369213
0.310860 0.320187 0.381656
0.395699 0.339792 0.392309
0.488062 0.362911 0.405777
0.587057 0.389576 0.422649
0.692469 0.419848 0.443933
0.171273 0.376118 0.367338
0.211145 0.390634 0.379222
0.265253 0.406791 0.392136
0.338002 0.424255 0.403592
0.420820 0.444908 0.417114
0.511083 0.469085 0.434060
0.610913 0.495763 0.456314
0.726647 0.521988 0.483958
0.192965 0.484005 0.398654
0.236374 0.497498 0.407794
0.297827 0.512497 0.418525
0.370212 0.530500 0.431943
0.452004 0.551861 0.448649
0.547222 0.575105 0.470951
0.655456 0.599316 0.495336
0.774758 0.624056 0.520886
0.228516 0.593344 0.428455
0.276910 0.604774 0.438235
0.336981 0.620072 0.451514
0.408592 0.638839 0.468680
0.493663 0.660012 0.488125
0.591324 0.682595 0.509458
0.700630 0.705947 0.531927
0.821253 0.729539 0.554341
0.275540 0.701855 0.468458
0.317250 0.714629 0.478792
0.374785 0.731246 0.491894
0.447422 0.750244 0.507737
0.533625 0.770814 0.525626
0.632321 0.792806 0.544653
0.742597 0.815134 0.563723
0.864288 0.837560 0.581743
0.307906 0.815306 0.508857
0.349089 0.828964 0.517366
0.408114 0.845496 0.529207
0.481943 0.864050 0.543294
0.569209 0.884220 0.558487
0.668896 0.905105 0.573980
0.780212 0.926453 0.588422
0.902943 0.947438 0.601191
0.082414 0.093166 0.387554
0.133152 0.105447 0.397259
0.197315 0.119901 0.403512
0.272285 0.136035 0.410863
0.356983 0.154214 0.419715
0.453451 0.172342 0.432592
0.561062 0.191398 0.447461
0.669203 0.219961 0.459057
0.105565 0.185915 0.401079
0.152589 0.196959 0.417163
0.215677 0.209356 0.430521
0.292815 0.225533 0.436017
0.379056 0.244524 0.442834
0.472982 0.266892 0.451767
0.573492 0.292984 0.463670
0.680165 0.322633 0.479254
0.133340 0.283707 0.418275
0.177763 0.296100 0.432143
0.239295 0.309994 0.443205
0.315458 0.327024 0.449814
0.400007 0.347277 0.458623
0.491970 0.370964 0.470698
0.590457 0.398144 0.486556
0.695687 0.428523 0.507890
0.164487 0.385474 0.439589
0.206743 0.398899 0.451193
0.269122 0.413748 0.459390
0.343375 0.431485 0.468496
0.425747 0.452558 0.480688
0.515551 0.477152 0.496613
0.618146 0.503133 0.519882
0.735385 0.528763 0.548069
0.196028 0.491849 0.465148
0.242222 0.504476 0.473069
0.304407 0.519509 0.482145
0.376161 0.537847 0.494393
0.458921 0.559350 0.511515
0.555128 0.582205 0.534881
0.663667 0.606192 0.560274
0.783251 0.630564 0.586774
0.236740 0.600158 0.492408
0.284638 0.611832 0.500977
0.343567 0.627399 0.514680
0.415440 0.646319 0.532500
0.500778 0.667187 0.552852
0.598677 0.689523 0.575205
0.708298 0.712484 0.598665
0.829084 0.735685 0.622066
0.281892 0.708858 0.531947
0.322748 0.722087 0.542423
0.380560 0.738674 0.556410
0.453592 0.757452 0.573409
0.540039 0.777872 0.592285
0.638946 0.799422 0.612260
0.749466 0.821416 0.632305
0.871401 0.843377 0.651424
0.311966 0.822722 0.573190
0.353652 0.836268 0.582728
0.412935 0.852558 0.595628
0.487146 0.871070 0.610733
0.574656 0.890848 0.626937
0.674596 0.911483 0.643294
0.786230 0.932335 0.658890
0.909016 0.952774 0.672587
0.080271 0.093529 0.490291
0.133365 0.104770 0.497534
0.200677 0.118557 0.499710
0.278835 0.134600 0.501276
0.366135 0.153219 0.504158
0.461634 0.174634 0.509277
0.563500 0.199949 0.516255
0.671622 0.229036 0.526369
0.101067 0.189260 0.495134
0.152227 0.200656 0.504205
0.219383 0.214989 0.505583
0.296964 0.232001 0.507678
0.383016 0.251875 0.512021
0.476482 0.275031 0.519021
0.576549 0.301639 0.529553
0.682855 0.331921 0.544210
0.126954 0.289913 0.504987
0.178242 0.301989 0.509534
0.244389 0.316720 0.512212
0.320322 0.334248 0.516932
0.404536 0.354941 0.524378
0.496034 0.379085 0.535326
0.594110 0.406807 0.550151
0.700651 0.436754 0.572775
0.159624 0.393692 0.516687
0.210934 0.405805 0.520273
0.275164 0.420796 0.525220
0.348974 0.438933 0.532947
0.430901 0.460406 0.544064
0.521218 0.485205 0.559577
0.626044 0.510297 0.584666
0.744259 0.535382 0.613579
0.199228 0.499563 0.533102
0.249236 0.511481 0.537803
0.311087 0.526722 0.545581
0.382599 0.545494 0.556929
0.466161 0.566781 0.576126
0.563134 0.589507 0.600356
0.671819 0.613016 0.626682
0.791674 0.636929 0.654138
0.245209 0.606972 0.556304
0.292072 0.618853 0.564733
0.350192 0.634822 0.579203
0.422244 0.653656 0.597837
0.507881 0.674474 0.619157
0.606050 0.696396 0.642494
0.715890 0.719056 0.666883
0.836877 0.741746 0.691128
0.287881 0.716227 0.596459
0.328110 0.729519 0.607562
0.386380 0.746027 0.622527
0.459697 0.764631 0.640372
0.546264 0.784833 0.660178
0.645492 0.806026 0.681138
0.756295 0.827666 0.702130
0.878447 0.849066 0.722066
0.316026 0.830155 0.639206
0.358186 0.843570 0.649581
0.417776 0.859798 0.663486
0.492364 0.877932 0.679414
0.580062 0.897474 0.696564
0.680245 0.917704 0.713868
0.792060 0.938145 0.730366
0.915089 0.957980 0.745045
0.080366 0.095884 0.585198
0.135862 0.108779 0.581802
0.204150 0.123496 0.578755
0.282671 0.140415 0.576814
0.369880 0.159986 0.576633
0.464689 0.182583 0.578877
0.566273 0.208760 0.584198
0.673987 0.238502 0.593170
0.101880 0.194029 0.580283
0.156629 0.206869 0.577882
0.224036 0.221722 0.576643
0.301286 0.239234 0.577130
0.386992 0.259617 0.579928
0.480074 0.283359 0.585596
0.579825 0.310553 0.595061
0.685880 0.341247 0.608738
0.130379 0.296166 0.580122
0.184032 0.308657 0.579179
0.249915 0.323794 0.580204
0.325407 0.341723 0.583474
0.409184 0.362946 0.589638
0.500270 0.387521 0.599412
0.598131 0.415663 0.613503
0.707349 0.444430 0.638257
0.165843 0.400410 0.585679
0.217594 0.412652 0.586902
0.281444 0.428090 0.590490
0.354768 0.446561 0.597043
0.436147 0.468516 0.607192
0.527959 0.492912 0.623875
0.634314 0.517316 0.650798
0.753177 0.541938 0.680627
0.207176 0.506503 0.598677
0.256734 0.518641 0.602116
0.317971 0.534171 0.608773
0.389532 0.553174 0.620774
0.473743 0.574164 0.642124
0.571074 0.596502 0.667242
0.679948 0.619673 0.694442
0.800164 0.643234 0.722816
0.253763 0.614030 0.620158
0.298910 0.626221 0.629435
0.356792 0.642274 0.644897
0.429065 0.661078 0.664489
0.514940 0.681547 0.686704
0.613296 0.703210 0.710970
0.723333 0.725495 0.736134
0.844634 0.747804 0.761410
0.292820 0.723652 0.662066
0.333463 0.737018 0.674137
0.392008 0.753344 0.689993
0.465580 0.771846 0.708735
0.552542 0.791696 0.729455
0.651912 0.812584 0.751220
0.762948 0.833771 0.773028
0.885325 0.854636 0.793778
0.320068 0.837457 0.706400
0.362513 0.850872 0.717793
0.422436 0.866856 0.732496
0.497219 0.884850 0.749239
0.585214 0.904030 0.767275
0.685705 0.923845 0.785456
0.797836 0.943724 0.802737
0.921139 0.963045 0.818333
0.084155 0.101934 0.662429
0.139864 0.115073 0.657162
0.207931 0.130269 0.652241
0.286289 0.147568 0.648588
0.373284 0.167781 0.646595
0.467801 0.191036 0.647328
0.569097 0.217779 0.651395
0.676495 0.248092 0.659520
0.106960 0.200351 0.653790
0.161656 0.213439 0.649631
0.228863 0.228742 0.646777
0.305838 0.246657 0.645591
0.391144 0.267580 0.646944
0.483866 0.291855 0.651523
0.583323 0.319627 0.660101
0.688915 0.350979 0.672989
0.136793 0.302785 0.650146
0.190108 0.315474 0.647822
0.255550 0.330961 0.647363
0.330702 0.349355 0.649315
0.414037 0.371004 0.654429
0.504600 0.396114 0.663341
0.602346 0.424557 0.677268
0.715208 0.451594 0.704844
0.173231 0.407318 0.653061
0.224502 0.419862 0.652827
0.287930 0.435423 0.655244
0.360702 0.454362 0.660701
0.441592 0.476734 0.670078
0.535458 0.500511 0.689977
0.642907 0.524353 0.718214
0.762007 0.548472 0.748828
0.215369 0.513561 0.663733
0.264376 0.525947 0.665882
0.325023 0.541787 0.671582
0.396598 0.560807 0.686416
0.481303 0.581401 0.709315
0.578896 0.603542 0.735421
0.688024 0.626356 0.763434
0.808412 0.649417 0.792591
0.262539 0.621175 0.684825
0.305477 0.633668 0.695463
0.363162 0.649834 0.712089
0.435763 0.668448 0.732467
0.521840 0.688643 0.755500
0.620441 0.709932 0.780572
0.730655 0.731829 0.806546
0.852293 0.753482 0.832612
0.297672 0.731199 0.729158
0.338761 0.744392 0.741873
0.397454 0.760597 0.758646
0.471407 0.778838 0.778141
0.558604 0.798488 0.799746
0.658232 0.818951 0.822329
0.769494 0.839674 0.844960
0.891986 0.860003 0.866489
0.323880 0.844760 0.774887
0.366610 0.857952 0.787050
0.426995 0.873932 0.802576
0.502106 0.891463 0.820125
0.590393 0.910452 0.838938
0.691015 0.929828 0.857901
0.803253 0.949127 0.876054
0.926767 0.968089 0.892370
