gsg/03_Cinematic/GSG_LUT_Cinematic_SheetMetal.cube
# GSG LUTs 1.0
# Copyright (c) 2016-2020 Greyscalegorilla
# See EULA for licensing and distribution information
# Converted by Briz LUT Converter
LUT_3D_SIZE 5
DOMAIN_MIN 0.000000 0.000000 0.000000
DOMAIN_MAX 0.903226 0.903226 0.903226
0.032234 0.028571 0.018803
0.095088 0.050234 0.045760
0.193604 0.068880 0.069699
0.334066 0.079617 0.085730
0.523124 0.078727 0.089889
0.072299 0.159345 0.078766
0.138951 0.183749 0.099275
0.234998 0.208452 0.119398
0.366318 0.227404 0.125621
0.540418 0.237924 0.122394
0.094411 0.314042 0.120666
0.164025 0.338146 0.131900
0.269923 0.360676 0.150790
0.397917 0.384911 0.167104
0.567860 0.407255 0.160195
0.096120 0.491937 0.141242
0.167628 0.516224 0.143871
0.288715 0.537276 0.159514
0.445429 0.560991 0.181884
0.625539 0.586648 0.206168
0.106928 0.678664 0.163512
0.205603 0.696903 0.182654
0.340423 0.718193 0.204238
0.502123 0.742006 0.227421
0.686195 0.767907 0.251581
0.037418 0.034054 0.123219
0.105487 0.056737 0.147366
0.201778 0.079163 0.174744
0.340189 0.088274 0.205236
0.526706 0.085809 0.225785
0.077996 0.171153 0.176789
0.142446 0.193604 0.201714
0.242667 0.214302 0.223735
0.381418 0.227600 0.239834
0.545126 0.244437 0.254746
0.102006 0.324115 0.230243
0.165386 0.348923 0.244907
0.265414 0.371790 0.256314
0.404244 0.391736 0.271477
0.578686 0.416218 0.293078
0.101572 0.500516 0.265144
0.169985 0.525393 0.272029
0.297626 0.546225 0.291230
0.455938 0.569892 0.314349
0.636960 0.595827 0.338758
0.114506 0.686699 0.296396
0.214670 0.705424 0.315299
0.350495 0.727042 0.336597
0.513004 0.751107 0.359764
0.697864 0.777029 0.383652
0.037008 0.035653 0.261121
0.112899 0.055472 0.281421
0.217196 0.077073 0.301233
0.346859 0.097117 0.325125
0.530080 0.093576 0.362293
0.067705 0.182039 0.299980
0.138126 0.200343 0.330382
0.246697 0.216620 0.355927
0.386152 0.234404 0.372903
0.548216 0.252327 0.390652
0.104599 0.335484 0.343503
0.168333 0.358336 0.366824
0.267383 0.379348 0.388524
0.412464 0.400134 0.406016
0.606793 0.423805 0.425400
0.106980 0.509339 0.391874
0.176686 0.533477 0.407100
0.307507 0.555122 0.426929
0.466801 0.579120 0.449160
0.661150 0.606767 0.464549
0.122242 0.694844 0.431856
0.223842 0.714042 0.450139
0.354219 0.745824 0.462789
0.522446 0.768180 0.482269
0.716321 0.792013 0.502266
0.031817 0.033369 0.432187
0.115384 0.050439 0.448659
0.230186 0.068242 0.462693
0.368453 0.087075 0.477120
0.533831 0.100964 0.499816
0.052353 0.189098 0.455475
0.129646 0.203501 0.489312
0.249258 0.219835 0.502391
0.391910 0.238790 0.513435
0.552058 0.260686 0.527885
0.080149 0.350573 0.486049
0.152257 0.369120 0.512546
0.270763 0.386691 0.525912
0.422289 0.409094 0.543842
0.618258 0.432133 0.569454
0.108134 0.519436 0.523388
0.184985 0.542233 0.544785
0.317598 0.564105 0.563783
0.480948 0.591514 0.586222
0.686308 0.616048 0.605282
0.130025 0.703399 0.568482
0.233087 0.722670 0.585915
0.362866 0.754508 0.604458
0.529057 0.785200 0.618754
0.733654 0.805857 0.635327
0.025129 0.031187 0.616401
0.115478 0.048265 0.621718
0.236452 0.065577 0.626767
0.379519 0.084509 0.633148
0.540076 0.106046 0.642215
0.039631 0.193611 0.626652
0.131746 0.209694 0.633293
0.253264 0.226949 0.641340
0.395562 0.246561 0.651595
0.557993 0.269313 0.666184
0.064309 0.360920 0.643413
0.155863 0.376471 0.652401
0.278136 0.395746 0.679604
0.440162 0.416913 0.696203
0.629776 0.440333 0.715721
0.097397 0.532199 0.668526
0.194106 0.550995 0.683041
0.324039 0.577875 0.712407
0.493405 0.602570 0.741511
0.696829 0.622970 0.759324
0.137821 0.711778 0.705573
0.242330 0.731497 0.722052
0.371196 0.763241 0.748017
0.536824 0.792700 0.771395
0.746897 0.816338 0.789247
