gsg/03_Cinematic/GSG_LUT_Cinematic_CoolasIce.cube
# GSG LUTs 1.0
# Copyright (c) 2016-2020 Greyscalegorilla
# See EULA for licensing and distribution information
# Converted by Briz LUT Converter
LUT_3D_SIZE 5
DOMAIN_MIN 0.000000 0.000000 0.000000
DOMAIN_MAX 0.903226 0.903226 0.903226
0.000000 0.000000 0.000000
0.178384 0.036622 0.093576
0.369640 0.076041 0.193942
0.551404 0.113931 0.290157
0.684541 0.142085 0.361369
0.108724 0.176376 0.158486
0.217332 0.223903 0.226753
0.397116 0.255945 0.319934
0.575942 0.287004 0.409366
0.706881 0.311355 0.477427
0.225460 0.365757 0.329111
0.325691 0.408760 0.390382
0.449160 0.464658 0.470605
0.607110 0.498960 0.567226
0.746686 0.524750 0.585069
0.336658 0.545866 0.493017
0.431210 0.586506 0.551223
0.556017 0.643263 0.598472
0.681825 0.709451 0.591455
0.815652 0.742495 0.569333
0.424845 0.681539 0.589641
0.521273 0.723943 0.616072
0.642736 0.781719 0.645004
0.757667 0.854551 0.614833
0.878457 0.895697 0.573882
0.024948 0.026468 0.104707
0.171656 0.059708 0.227517
0.374989 0.086085 0.340052
0.556227 0.123315 0.427634
0.689102 0.151257 0.493930
0.125881 0.193777 0.237946
0.232151 0.240199 0.303841
0.391540 0.273347 0.435845
0.580222 0.295222 0.538924
0.711187 0.319389 0.603849
0.242318 0.380283 0.398990
0.340052 0.423628 0.459010
0.461954 0.479079 0.538876
0.602964 0.516924 0.657208
0.756299 0.534364 0.681301
0.353852 0.558707 0.557645
0.447180 0.599886 0.612525
0.573970 0.656771 0.651761
0.697326 0.717811 0.676215
0.827177 0.751816 0.658305
0.444415 0.695272 0.642890
0.540006 0.737320 0.670109
0.662487 0.793026 0.703549
0.774641 0.861899 0.699612
0.889911 0.905157 0.660845
0.051581 0.054756 0.217070
0.176436 0.092813 0.338372
0.355291 0.123983 0.471595
0.550376 0.145614 0.591059
0.694661 0.164423 0.667583
0.147166 0.216472 0.340021
0.252306 0.261722 0.403197
0.391754 0.302507 0.538273
0.561939 0.327900 0.664380
0.701925 0.342049 0.752434
0.260751 0.401512 0.493245
0.357996 0.443903 0.551969
0.479835 0.498484 0.630184
0.612325 0.541951 0.739153
0.759902 0.555509 0.796036
0.371082 0.579015 0.646221
0.467453 0.620869 0.687802
0.594926 0.677510 0.723880
0.720316 0.734753 0.759784
0.844764 0.763685 0.780739
0.471009 0.714375 0.713540
0.565901 0.755769 0.741103
0.687275 0.811146 0.776344
0.806821 0.869135 0.806640
0.906200 0.918567 0.776831
0.076876 0.081925 0.324117
0.192652 0.120654 0.442066
0.353760 0.157745 0.578270
0.529141 0.186246 0.703716
0.667942 0.204365 0.792665
0.169115 0.239190 0.440949
0.272785 0.283530 0.502181
0.404482 0.327133 0.635513
0.557862 0.359013 0.766477
0.683405 0.379037 0.858233
0.280539 0.422900 0.588751
0.376990 0.464552 0.646180
0.498143 0.518666 0.722864
0.630127 0.565324 0.816699
0.758970 0.586647 0.881109
0.390704 0.600004 0.733478
0.490169 0.642710 0.762984
0.616886 0.698921 0.798787
0.742113 0.755711 0.834669
0.851583 0.785090 0.891281
0.494159 0.736319 0.787569
0.589137 0.777031 0.814038
0.711883 0.831253 0.848249
0.833573 0.886857 0.882784
0.923994 0.932460 0.894151
0.095758 0.101863 0.403056
0.207205 0.140909 0.517770
0.359865 0.179970 0.655702
0.525031 0.212375 0.782425
0.655796 0.233225 0.873840
0.185744 0.256258 0.516397
0.288314 0.300242 0.576427
0.416705 0.344832 0.708022
0.561957 0.379970 0.839628
0.681123 0.402637 0.932665
0.295782 0.439096 0.660963
0.391550 0.480358 0.717451
0.513132 0.534482 0.789996
0.645367 0.582775 0.875494
0.766224 0.607337 0.942555
0.408870 0.616992 0.792626
0.508044 0.659459 0.820438
0.634054 0.715341 0.855919
0.759170 0.771921 0.891471
0.860671 0.804396 0.951548
0.512230 0.753192 0.844242
0.606428 0.793811 0.870363
0.728578 0.847852 0.904124
0.850287 0.903116 0.937729
0.941705 0.945445 0.963306
