gsg/03_Cinematic/GSG_LUT_Cinematic_MoonlightBay.cube
# GSG LUTs 1.0
# Copyright (c) 2016-2020 Greyscalegorilla
# See EULA for licensing and distribution information
# Converted by Briz LUT Converter
LUT_3D_SIZE 32
0.011477 0.045665 0.055922
0.019788 0.048690 0.058198
0.027744 0.051668 0.060672
0.033999 0.053913 0.062436
0.039545 0.055804 0.064043
0.043247 0.056773 0.064508
0.046619 0.057529 0.064855
0.050510 0.058395 0.065611
0.055110 0.059719 0.066493
0.061011 0.061373 0.067825
0.067896 0.063468 0.069416
0.075300 0.065910 0.071267
0.083556 0.068589 0.073284
0.092434 0.071110 0.075608
0.101871 0.073630 0.078270
0.112159 0.076151 0.081027
0.123250 0.078798 0.083926
0.135145 0.081437 0.086833
0.147749 0.083958 0.089716
0.161251 0.086478 0.092489
0.175682 0.088999 0.095419
0.191130 0.091355 0.098279
0.207358 0.093797 0.100878
0.224648 0.095955 0.103580
0.243239 0.098161 0.105975
0.262736 0.100232 0.108441
0.283627 0.102044 0.110552
0.305439 0.103809 0.112568
0.329135 0.105132 0.114364
0.353539 0.106621 0.115901
0.380590 0.107424 0.117177
0.407814 0.108425 0.118193
0.018536 0.057513 0.061215
0.026586 0.060522 0.063492
0.034290 0.063248 0.065942
0.040307 0.065264 0.067477
0.045839 0.067116 0.069077
0.049502 0.067871 0.069503
0.052621 0.068620 0.069596
0.056312 0.069430 0.070093
0.060774 0.070495 0.070722
0.066237 0.071964 0.071863
0.072858 0.073967 0.073370
0.080095 0.076064 0.075053
0.088248 0.078425 0.077062
0.096971 0.080835 0.079173
0.106405 0.083206 0.081544
0.116566 0.085604 0.084056
0.127402 0.087995 0.086569
0.139044 0.090378 0.089211
0.151533 0.092784 0.091835
0.165032 0.095151 0.094351
0.179301 0.097568 0.096864
0.194494 0.099917 0.099371
0.210810 0.102013 0.101881
0.227994 0.104205 0.104213
0.246329 0.106093 0.106284
0.265959 0.108048 0.108489
0.286896 0.109654 0.110340
0.308503 0.111365 0.112097
0.332381 0.112473 0.113626
0.356580 0.113703 0.114901
0.383615 0.114483 0.115688
0.410595 0.115231 0.116673
0.025625 0.069440 0.066556
0.033423 0.072212 0.068809
0.041080 0.074921 0.071030
0.046816 0.076899 0.072527
0.051918 0.078538 0.073912
0.055567 0.079255 0.074324
0.058684 0.079803 0.074368
0.062255 0.080543 0.074659
0.066343 0.081409 0.075214
0.071645 0.082729 0.076107
0.077926 0.084320 0.077430
0.085063 0.086247 0.079013
0.092962 0.088489 0.080767
0.101533 0.090652 0.082628
0.110844 0.092781 0.084738
0.120753 0.095041 0.086991
0.131458 0.097302 0.089243
0.143093 0.099563 0.091496
0.155436 0.101832 0.093881
0.168819 0.104091 0.096229
0.182930 0.106206 0.098481
0.198028 0.108383 0.100579
0.214160 0.110473 0.102758
0.231435 0.112478 0.104829
0.249644 0.114301 0.106640
0.269030 0.116066 0.108586
0.289908 0.117613 0.110176
0.311704 0.118923 0.111672
0.335397 0.120172 0.112728
0.359573 0.121202 0.113734
0.386593 0.121738 0.114476
0.413573 0.122242 0.114987
0.033188 0.082571 0.072583
0.040695 0.085313 0.074630
0.047893 0.087785 0.076813
0.053393 0.089525 0.078095
0.058463 0.091142 0.079428
0.061893 0.091859 0.079637
0.064961 0.092363 0.079617
0.068323 0.092862 0.079667
0.072269 0.093474 0.080021
0.077208 0.094617 0.080823
0.083391 0.096184 0.081886
0.090275 0.097932 0.083217
0.098008 0.099782 0.084806
0.106456 0.101877 0.086541
0.115530 0.104021 0.088395
0.125303 0.106145 0.090386
0.135878 0.108287 0.092390
0.147376 0.110436 0.094382
0.159565 0.112681 0.096374
0.172698 0.114804 0.098367
0.186711 0.116972 0.100374
0.201638 0.119067 0.102359
0.217527 0.121067 0.104343
0.234549 0.122913 0.106154
0.252692 0.124684 0.107724
0.272040 0.126429 0.109395
0.292717 0.127800 0.110741
0.314257 0.129256 0.111981
0.337897 0.130324 0.112776
0.362070 0.131310 0.113736
0.388846 0.131844 0.114011
0.415818 0.132349 0.114483
0.040655 0.096026 0.078475
0.047719 0.098515 0.080673
0.054843 0.100973 0.082640
0.060133 0.102485 0.083868
0.065150 0.103899 0.084974
0.068410 0.104589 0.085147
0.071409 0.105087 0.084936
0.074530 0.105510 0.084904
0.078199 0.105943 0.084997
0.082901 0.106999 0.085549
0.088834 0.108328 0.086374
0.095558 0.109906 0.087512
0.103100 0.111658 0.088889
0.111263 0.113506 0.090341
0.120320 0.115522 0.091977
0.129985 0.117539 0.093695
0.140430 0.119665 0.095553
0.151672 0.121785 0.097300
0.163643 0.123802 0.099051
0.176608 0.125949 0.100796
0.190503 0.128048 0.102665
0.205270 0.130064 0.104329
0.221066 0.131930 0.105992
0.237891 0.133861 0.107543
0.255945 0.135656 0.109023
0.274930 0.137242 0.110306
0.295495 0.138734 0.111534
0.316838 0.140029 0.112549
0.340221 0.141069 0.113112
0.364341 0.141849 0.113786
0.390932 0.142369 0.113829
0.417866 0.142873 0.114010
0.047422 0.110182 0.085029
0.054432 0.112458 0.086800
0.061105 0.114913 0.088713
0.066375 0.116389 0.089681
0.071223 0.117775 0.090554
0.074599 0.118273 0.090693
0.077419 0.118697 0.090433
0.080444 0.118949 0.090140
0.083774 0.119317 0.089974
0.088385 0.120174 0.090327
0.094141 0.121407 0.091055
0.100737 0.122827 0.091884
0.108141 0.124471 0.092946
0.116216 0.126189 0.094268
0.125149 0.128187 0.095758
0.134795 0.130182 0.097270
0.145090 0.132199 0.098868
0.156188 0.134216 0.100461
0.168018 0.136232 0.102069
0.180739 0.138249 0.103651
0.194374 0.140265 0.105138
0.209051 0.142255 0.106610
0.224668 0.144259 0.108082
0.241262 0.146066 0.109372
0.259066 0.147661 0.110592
0.277963 0.149348 0.111647
0.298309 0.150695 0.112589
0.319611 0.151956 0.113338
0.342802 0.152995 0.113833
0.366665 0.153775 0.114105
0.393408 0.154295 0.114044
0.420135 0.154799 0.113797
0.053929 0.124739 0.091536
0.060680 0.127014 0.093251
0.067152 0.129410 0.094907
0.072378 0.130690 0.095659
0.077199 0.132034 0.096272
0.080397 0.132498 0.096184
0.083208 0.132750 0.095845
0.086195 0.132992 0.095341
0.089460 0.133270 0.094950
0.093869 0.133916 0.095043
0.099476 0.134988 0.095577
0.105809 0.136286 0.096285
0.113183 0.137768 0.097105
0.121257 0.139466 0.098196
0.130169 0.141345 0.099518
0.139690 0.143227 0.100982
0.149774 0.145244 0.102368
0.160660 0.147235 0.103759
0.172370 0.149230 0.105109
0.184917 0.151247 0.106461
0.198292 0.153263 0.107779
0.212848 0.155114 0.109007
0.228270 0.157019 0.110219
0.244791 0.158694 0.111249
0.262400 0.160371 0.112209
0.281074 0.161928 0.113168
0.301170 0.163276 0.113758
0.322390 0.164503 0.114221
0.345575 0.165536 0.114456
0.369247 0.166316 0.114615
0.395732 0.166836 0.114152
0.422451 0.167340 0.113845
0.060121 0.140281 0.097893
0.066675 0.142495 0.099347
0.073134 0.144700 0.100701
0.078176 0.145961 0.101382
0.082997 0.147120 0.101785
0.086195 0.147536 0.101446
0.088968 0.147778 0.100931
0.091771 0.147930 0.100370
0.094899 0.148042 0.099872
0.099106 0.148631 0.099704
0.104618 0.149600 0.099978
0.110977 0.150695 0.100445
0.118203 0.152029 0.101117
0.126244 0.153610 0.102091
0.135066 0.155349 0.103185
0.144480 0.157202 0.104415
0.154563 0.159190 0.105773
0.165419 0.161076 0.107125
0.176990 0.163008 0.108386
0.189334 0.164990 0.109496
0.202469 0.166986 0.110591
0.216765 0.168837 0.111647
0.231927 0.170601 0.112616
0.248334 0.172366 0.113386
0.265777 0.173941 0.114085
0.284362 0.175454 0.114785
0.304281 0.176920 0.115279
0.325250 0.178046 0.115514
0.348353 0.179062 0.115488
0.371968 0.179842 0.115255
0.398312 0.180362 0.114660
0.424971 0.180811 0.114097
0.065918 0.156540 0.104321
0.072472 0.158565 0.105447
0.078932 0.160766 0.106420
0.083967 0.161968 0.106859
0.088731 0.163102 0.107180
0.091930 0.163354 0.106666
0.094690 0.163547 0.106062
0.097357 0.163496 0.105291
0.100193 0.163559 0.104549
0.104363 0.163935 0.104169
0.109725 0.164725 0.104182
0.115956 0.165797 0.104478
0.123108 0.167017 0.105028
0.131033 0.168456 0.105810
0.139827 0.170074 0.106789
0.149206 0.171792 0.107881
0.159289 0.173650 0.109142
0.170042 0.175514 0.110368
0.181491 0.177502 0.111600
0.193808 0.179369 0.112710
0.206822 0.181291 0.113561
0.220880 0.183142 0.114440
0.235827 0.184907 0.115210
0.251992 0.186671 0.115720
0.269320 0.188247 0.116208
0.287688 0.189759 0.116610
0.307506 0.191067 0.116832
0.328300 0.192327 0.116862
0.351150 0.193367 0.116584
0.374564 0.194147 0.116208
0.401018 0.194667 0.115239
0.427429 0.194927 0.114412
0.071645 0.173461 0.110229
0.078128 0.175483 0.110991
0.084588 0.177609 0.111879
0.089613 0.178700 0.112057
0.094268 0.179771 0.112151
0.097404 0.180011 0.111596
0.100116 0.180109 0.110767
0.102580 0.179897 0.109898
0.105397 0.179905 0.108997
0.109410 0.180228 0.108512
0.114491 0.180866 0.108315
0.120674 0.181827 0.108416
0.127827 0.182902 0.108779
0.135752 0.184192 0.109309
0.144464 0.185663 0.110166
0.153744 0.187259 0.111124
0.163827 0.188951 0.112311
0.174580 0.190681 0.113442
0.185923 0.192587 0.114583
0.198121 0.194454 0.115664
0.211107 0.196376 0.116561
0.224994 0.198228 0.117294
0.239809 0.199992 0.117854
0.255767 0.201757 0.118125
0.272890 0.203332 0.118493
0.291014 0.204845 0.118530
0.310631 0.206152 0.118516
0.331334 0.207413 0.118392
0.354012 0.208452 0.117869
0.377341 0.209232 0.117129
0.403547 0.209752 0.116000
0.429769 0.210083 0.114916
0.077112 0.191264 0.115775
0.083422 0.193281 0.116449
0.089881 0.195245 0.117077
0.094915 0.196408 0.116996
0.099644 0.197322 0.116851
0.102685 0.197534 0.116200
0.105298 0.197487 0.115192
0.107604 0.197217 0.114166
0.110315 0.197030 0.113159
0.114199 0.197330 0.112499
0.119199 0.197857 0.112135
0.125212 0.198672 0.112056
0.132364 0.199630 0.112278
0.140256 0.200707 0.112687
0.148958 0.201997 0.113407
0.158243 0.203466 0.114200
0.168285 0.204979 0.115168
0.179038 0.206582 0.116267
0.190427 0.208407 0.117396
0.202552 0.210241 0.118437
0.215420 0.212163 0.119445
0.229162 0.214014 0.120123
0.243743 0.215778 0.120571
0.259498 0.217543 0.120749
0.276454 0.219119 0.120836
0.294403 0.220631 0.120659
0.313920 0.222005 0.120479
0.334460 0.223278 0.120028
0.357044 0.224318 0.119304
0.380130 0.225245 0.118621
0.406076 0.225851 0.117237
0.432132 0.226515 0.116050
0.082232 0.209847 0.121060
0.088629 0.211861 0.121475
0.095088 0.213736 0.121848
0.100106 0.214817 0.121596
0.104696 0.215652 0.121270
0.107779 0.215851 0.120385
0.110252 0.215731 0.119304
0.112521 0.215444 0.118240
0.115083 0.215151 0.117061
0.118877 0.215299 0.116176
0.123762 0.215743 0.115550
0.129632 0.216409 0.115412
0.136729 0.217171 0.115570
0.144551 0.218126 0.115841
0.153232 0.219245 0.116436
0.162527 0.220581 0.117017
0.172484 0.222004 0.117809
0.183237 0.223475 0.118776
0.194722 0.225079 0.119876
0.206916 0.226807 0.120950
0.219678 0.228673 0.122014
0.233361 0.230494 0.122781
0.247824 0.232258 0.123201
0.263467 0.234023 0.123479
0.280145 0.235665 0.123286
0.297949 0.237197 0.122944
0.317311 0.238637 0.122398
0.337673 0.239998 0.121880
0.360007 0.241362 0.121390
0.382833 0.242795 0.121130
0.408351 0.244013 0.120437
0.433802 0.245374 0.119871
0.087022 0.229446 0.125850
0.093576 0.231363 0.126004
0.100035 0.233182 0.126127
0.105053 0.234306 0.125778
0.109622 0.234999 0.125346
0.112553 0.235173 0.124298
0.114947 0.234902 0.123067
0.117195 0.234553 0.121905
0.119642 0.234252 0.120572
0.123246 0.234255 0.119453
0.127953 0.234662 0.118745
0.133767 0.235102 0.118404
0.140762 0.235701 0.118500
0.148584 0.236519 0.118665
0.157222 0.237541 0.119115
0.166512 0.238703 0.119619
0.176517 0.239915 0.120200
0.187270 0.241257 0.121045
0.198700 0.242727 0.121998
0.210913 0.244331 0.122967
0.223772 0.246059 0.124132
0.237425 0.247824 0.125062
0.251857 0.249588 0.125779
0.267384 0.251353 0.126157
0.283947 0.253117 0.125915
0.301603 0.254761 0.125432
0.320855 0.256167 0.124723
0.340845 0.257820 0.124262
0.362899 0.259968 0.124467
0.385464 0.262040 0.124900
0.410143 0.264334 0.125622
0.434810 0.266738 0.126267
0.091607 0.249974 0.130332
0.098157 0.251744 0.130226
0.104518 0.253598 0.130089
0.109536 0.254593 0.129479
0.114105 0.255365 0.128820
0.117028 0.255449 0.127755
0.119363 0.255150 0.126409
0.121494 0.254646 0.125094
0.123799 0.254241 0.123644
0.127283 0.254206 0.122496
0.131884 0.254386 0.121667
0.137697 0.254724 0.121171
0.144653 0.255284 0.121131
0.152412 0.255977 0.121171
0.160983 0.256797 0.121487
0.170213 0.257749 0.121885
0.180243 0.258831 0.122336
0.190996 0.260042 0.123052
0.202399 0.261384 0.123873
0.214684 0.262854 0.124778
0.227697 0.264458 0.125878
0.241371 0.266117 0.126771
0.255788 0.267848 0.127701
0.271314 0.269689 0.128394
0.287921 0.271638 0.128823
0.305589 0.273614 0.129008
0.324715 0.275557 0.128847
0.344551 0.277829 0.128867
0.366265 0.280419 0.129721
0.388465 0.283141 0.130593
0.412244 0.285911 0.131966
0.436126 0.288928 0.133333
0.095782 0.271511 0.134255
0.102331 0.273276 0.133889
0.108661 0.274986 0.133499
0.113679 0.275891 0.132732
0.118248 0.276773 0.131830
0.121176 0.276734 0.130665
0.123510 0.276435 0.129271
0.125502 0.275906 0.127841
0.127685 0.275379 0.126307
0.131065 0.275198 0.125117
0.135629 0.275241 0.124188
0.141368 0.275466 0.123652
0.148269 0.275856 0.123487
0.155895 0.276395 0.123393
0.164402 0.277102 0.123531
0.173617 0.277916 0.123776
0.183574 0.278867 0.124154
0.194334 0.279956 0.124679
0.205869 0.281152 0.125385
0.218213 0.282448 0.126223
0.231226 0.283918 0.127189
0.245071 0.285431 0.128032
0.259647 0.287038 0.129040
0.275288 0.289034 0.130325
0.292142 0.291439 0.132035
0.309963 0.294024 0.133668
0.329019 0.296931 0.134836
0.348836 0.299928 0.135909
0.370095 0.302929 0.137146
0.391671 0.305951 0.138384
0.414785 0.308953 0.139643
0.438001 0.311978 0.141037
0.099460 0.294135 0.137564
0.106014 0.295900 0.136941
0.112474 0.297601 0.136414
0.117492 0.298370 0.135512
0.122061 0.299145 0.134365
0.124968 0.299106 0.133086
0.127189 0.298807 0.131679
0.129124 0.298247 0.130111
0.131081 0.297587 0.128473
0.134373 0.297283 0.127249
0.138895 0.297200 0.126236
0.144543 0.297286 0.125611
0.151398 0.297538 0.125283
0.158945 0.297896 0.125133
0.167389 0.298405 0.125133
0.176604 0.299088 0.125312
0.186561 0.299909 0.125629
0.197330 0.300869 0.125950
0.208925 0.301934 0.126474
0.221414 0.303164 0.127326
0.234671 0.304628 0.128560
0.248931 0.306301 0.129929
0.264011 0.308057 0.131558
0.280068 0.310269 0.133668
0.297110 0.313038 0.136305
0.314970 0.316035 0.138968
0.333916 0.319469 0.141292
0.353506 0.322785 0.143339
0.374279 0.326062 0.144799
0.395210 0.329222 0.146189
0.417795 0.332376 0.147458
0.440372 0.335523 0.148600
0.102737 0.317831 0.140336
0.109291 0.319591 0.139458
0.115751 0.321179 0.138792
0.120769 0.322053 0.137642
0.125338 0.322698 0.136366
0.128265 0.322549 0.134956
0.130568 0.322250 0.133419
0.132372 0.321662 0.131750
0.134167 0.320871 0.130111
0.137272 0.320438 0.128851
0.141794 0.320265 0.127748
0.147397 0.320307 0.127079
0.154122 0.320429 0.126620
0.161592 0.320603 0.126393
0.169979 0.320966 0.126336
0.179125 0.321527 0.126385
0.189147 0.322153 0.126572
0.199907 0.322982 0.126764
0.211519 0.323918 0.127084
0.224292 0.325172 0.128216
0.238103 0.326766 0.130019
0.253013 0.328825 0.132421
0.268833 0.331191 0.135262
0.285484 0.333773 0.138356
0.302851 0.336705 0.141708
0.320666 0.339730 0.145022
0.339482 0.343164 0.148314
0.358723 0.346481 0.151072
0.378878 0.349758 0.152728
0.399276 0.353035 0.154012
0.421340 0.356075 0.155272
0.443145 0.359345 0.156288
0.105479 0.342731 0.142440
0.112037 0.344488 0.141301
0.118626 0.345969 0.140375
0.123644 0.346953 0.138976
0.128213 0.347584 0.137564
0.131138 0.347332 0.136051
0.133404 0.347006 0.134491
0.135083 0.346314 0.132727
0.136744 0.345501 0.131088
0.139761 0.344968 0.129828
0.144240 0.344752 0.128725
0.149711 0.344614 0.128055
0.156359 0.344527 0.127551
0.163723 0.344630 0.127196
0.172025 0.344931 0.127008
0.181373 0.345362 0.127122
0.191664 0.345935 0.127593
0.202849 0.346772 0.128289
0.215011 0.347716 0.129232
0.228239 0.349060 0.130977
0.242601 0.350868 0.133356
0.257891 0.353086 0.136343
0.274135 0.355642 0.139793
0.291003 0.358276 0.143322
0.308488 0.361100 0.146936
0.326330 0.364095 0.150598
0.344935 0.367305 0.154358
0.364032 0.370578 0.157618
0.383730 0.373855 0.159700
0.403735 0.377007 0.161524
0.425158 0.380168 0.162819
0.446453 0.383442 0.164103
0.107747 0.368837 0.143810
0.114309 0.370456 0.142549
0.121005 0.372065 0.141234
0.126023 0.372917 0.139708
0.130592 0.373566 0.138068
0.133522 0.373414 0.136532
0.135787 0.372976 0.134854
0.137295 0.372302 0.133121
0.138761 0.371436 0.131556
0.141737 0.370781 0.130231
0.146125 0.370382 0.129183
0.151567 0.370034 0.128418
0.158069 0.369877 0.127914
0.165359 0.369920 0.127452
0.173665 0.370025 0.127118
0.183240 0.370386 0.127544
0.194140 0.371090 0.128667
0.206189 0.372058 0.130428
0.219314 0.373295 0.132737
0.233227 0.374871 0.135406
0.248018 0.376702 0.138340
0.263533 0.378833 0.141590
0.279800 0.381175 0.145086
0.296682 0.383654 0.148510
0.314175 0.386254 0.152113
0.332018 0.389078 0.155756
0.350411 0.391956 0.159391
0.369344 0.395048 0.162848
0.388924 0.398306 0.165773
0.408682 0.401355 0.168627
0.429357 0.404616 0.170261
0.450234 0.407893 0.171775
0.109417 0.396250 0.144322
0.115979 0.397916 0.142900
0.122675 0.399482 0.141233
0.127693 0.400378 0.139571
0.132262 0.401021 0.137954
0.135208 0.400836 0.136272
0.137540 0.400428 0.134507
0.138942 0.399693 0.132764
0.140290 0.398709 0.131174
0.143125 0.397912 0.129915
0.147425 0.397408 0.128955
0.152905 0.396938 0.128327
0.159668 0.396626 0.128132
0.167402 0.396597 0.128125
0.176252 0.396684 0.128504
0.186344 0.396966 0.129634
0.197870 0.397645 0.131484
0.210512 0.398669 0.133971
0.224168 0.399984 0.137028
0.238534 0.401492 0.140226
0.253527 0.403198 0.143442
0.269148 0.405192 0.146750
0.285376 0.407306 0.150124
0.302304 0.409602 0.153540
0.319708 0.411968 0.157118
0.337516 0.414531 0.160668
0.355949 0.417275 0.164197
0.374670 0.420130 0.167726
0.394083 0.423086 0.171440
0.413730 0.426106 0.175181
0.433957 0.429367 0.177793
0.454465 0.432494 0.180385
0.110520 0.424956 0.144165
0.117082 0.426560 0.142329
0.123778 0.428183 0.140555
0.128811 0.429020 0.138651
0.133522 0.429671 0.136965
0.136469 0.429531 0.135200
0.138770 0.429052 0.133436
0.140045 0.428241 0.131707
0.141368 0.427232 0.130150
0.144088 0.426320 0.128843
0.148296 0.425653 0.127964
0.153997 0.425098 0.127743
0.161379 0.424729 0.128292
0.169960 0.424585 0.129381
0.179867 0.424727 0.131224
0.190841 0.424964 0.133452
0.202807 0.425512 0.136001
0.215755 0.426374 0.138824
0.229580 0.427472 0.141899
0.244043 0.428816 0.145110
0.259073 0.430384 0.148387
0.274800 0.432045 0.151664
0.290967 0.433848 0.155053
0.307850 0.435883 0.158440
0.325180 0.438111 0.161928
0.342967 0.440450 0.165330
0.361347 0.443013 0.168829
0.379976 0.445623 0.172495
0.399291 0.448375 0.176770
0.418929 0.451082 0.181276
0.438912 0.454170 0.185462
0.459002 0.457356 0.189712
0.110701 0.455268 0.142920
0.117429 0.456788 0.140906
0.124125 0.458490 0.138966
0.129166 0.459246 0.136957
0.133956 0.459908 0.135021
0.136902 0.459829 0.133113
0.139250 0.459246 0.131412
0.140760 0.458263 0.130044
0.142297 0.457127 0.128959
0.145428 0.456094 0.128271
0.150233 0.455103 0.128157
0.156508 0.454402 0.128822
0.164443 0.453842 0.130185
0.173740 0.453507 0.132149
0.184407 0.453456 0.134869
0.195873 0.453612 0.137770
0.208144 0.454031 0.140713
0.221352 0.454622 0.143791
0.235387 0.455385 0.147082
0.250021 0.456420 0.150497
0.265222 0.457591 0.153945
0.281067 0.458874 0.157505
0.297434 0.460389 0.161179
0.314265 0.462164 0.164821
0.331681 0.464199 0.168500
0.349506 0.466297 0.172137
0.367813 0.468461 0.175960
0.386427 0.470928 0.180043
0.405593 0.473520 0.184828
0.424906 0.476049 0.189780
0.444623 0.479042 0.194901
0.464366 0.482146 0.200197
0.110276 0.486793 0.140809
0.117082 0.488482 0.138613
0.123789 0.490027 0.136418
0.128993 0.490928 0.134239
0.133782 0.491433 0.132223
0.136729 0.491382 0.130217
0.139175 0.490929 0.128469
0.141187 0.489787 0.127700
0.143317 0.488232 0.127578
0.147552 0.486896 0.128261
0.153495 0.485681 0.129761
0.160640 0.484629 0.131610
0.169140 0.483788 0.133798
0.178739 0.483207 0.136258
0.189578 0.482809 0.139163
0.201210 0.482653 0.142177
0.213741 0.482852 0.145291
0.227209 0.483082 0.148640
0.241504 0.483370 0.152417
0.256505 0.484025 0.156304
0.272033 0.484742 0.160191
0.288085 0.485676 0.164243
0.304743 0.486930 0.168382
0.321740 0.488317 0.172649
0.339241 0.489912 0.176967
0.357084 0.491711 0.181285
0.375391 0.493694 0.185808
0.393854 0.495985 0.190439
0.412927 0.498327 0.195588
0.431923 0.500831 0.200646
0.451207 0.503824 0.206092
0.470511 0.506676 0.211635
0.110134 0.519461 0.138359
0.117496 0.520855 0.136277
0.124593 0.522301 0.134219
0.130406 0.522754 0.132518
0.135640 0.523148 0.130922
0.139492 0.522706 0.129683
0.142714 0.521786 0.128837
0.145620 0.520320 0.129141
0.148607 0.518525 0.130125
0.153581 0.516762 0.132065
0.160300 0.515314 0.134643
0.168145 0.513954 0.137265
0.177067 0.512783 0.140019
0.186855 0.511831 0.142928
0.197671 0.511140 0.146006
0.209437 0.510685 0.149214
0.222041 0.510530 0.152459
0.235582 0.510473 0.156072
0.250056 0.510510 0.160077
0.265138 0.510763 0.164333
0.280813 0.511221 0.168623
0.297003 0.511934 0.173009
0.313606 0.512800 0.177481
0.330758 0.513955 0.182135
0.348184 0.515264 0.186859
0.365985 0.516933 0.191729
0.384140 0.518750 0.196694
0.402355 0.520792 0.201828
0.421068 0.523038 0.207105
0.439793 0.525365 0.212340
0.458748 0.528172 0.217866
0.477538 0.530946 0.223412
0.110512 0.553051 0.135649
0.118854 0.553928 0.134212
0.127061 0.554972 0.132654
0.134058 0.554821 0.132135
0.140641 0.554418 0.131930
0.146205 0.553085 0.132718
0.151138 0.551397 0.133844
0.155238 0.549286 0.135587
0.159184 0.547166 0.137677
0.164709 0.545181 0.140242
0.171578 0.543340 0.143210
0.179574 0.541719 0.146245
0.188586 0.540263 0.149356
0.198504 0.538933 0.152540
0.209421 0.537872 0.155894
0.221222 0.537157 0.159354
0.233923 0.536710 0.162924
0.247452 0.536396 0.166798
0.261767 0.536201 0.170917
0.276642 0.536272 0.175249
0.292138 0.536681 0.179629
0.308155 0.537223 0.184080
0.324518 0.537918 0.188751
0.341363 0.538896 0.193525
0.358513 0.540108 0.198314
0.375953 0.541610 0.203301
0.393823 0.543338 0.208342
0.411778 0.545150 0.213596
0.430173 0.547363 0.218890
0.448455 0.549632 0.224361
0.466955 0.552373 0.229903
0.485604 0.555146 0.235448
0.113577 0.586041 0.135043
0.123361 0.586189 0.134600
0.132869 0.586318 0.134374
0.141172 0.585433 0.135162
0.149121 0.584193 0.136336
0.156140 0.582063 0.138715
0.162640 0.579835 0.141631
0.167781 0.577363 0.144472
0.172448 0.574903 0.147362
0.178243 0.572594 0.150317
0.185112 0.570593 0.153406
0.193107 0.568642 0.156651
0.202043 0.566799 0.159909
0.211863 0.565268 0.163260
0.222813 0.564029 0.166767
0.234613 0.563054 0.170484
0.247242 0.562347 0.174342
0.260672 0.561773 0.178369
0.274701 0.561432 0.182512
0.289354 0.561359 0.186845
0.304539 0.561565 0.191225
0.320226 0.561999 0.195809
0.336329 0.562677 0.200583
0.352873 0.563614 0.205372
0.369748 0.564659 0.210162
0.386883 0.566072 0.215148
0.404483 0.567624 0.220355
0.422005 0.569357 0.225641
0.439937 0.571562 0.230935
0.457888 0.573647 0.236273
0.475880 0.576376 0.242758
0.493726 0.578952 0.249321
0.121864 0.617378 0.137910
0.133009 0.616314 0.139562
0.144202 0.615022 0.141290
0.153595 0.613356 0.143571
0.162606 0.611414 0.145966
0.170445 0.609113 0.148962
0.177431 0.606625 0.152232
0.182968 0.604104 0.155422
0.187969 0.601583 0.158447
0.193950 0.599145 0.161531
0.200753 0.596917 0.164780
0.208537 0.594762 0.168057
0.217243 0.592760 0.171334
0.226823 0.590989 0.174799
0.237562 0.589610 0.178447
0.249151 0.588487 0.182213
0.261543 0.587519 0.186120
0.274739 0.586797 0.190169
0.288621 0.586316 0.194431
0.302983 0.586128 0.198724
0.317949 0.586153 0.203157
0.333292 0.586498 0.207846
0.349214 0.587030 0.212490
0.365406 0.587756 0.217372
0.381968 0.588870 0.222373
0.398842 0.590153 0.227406
0.416010 0.591626 0.232480
0.433198 0.593173 0.238098
0.450451 0.595167 0.244369
0.467715 0.597188 0.250911
0.484978 0.599715 0.257900
0.502407 0.602237 0.264713
0.132467 0.647320 0.142928
0.144916 0.644967 0.146475
0.157470 0.642781 0.149813
0.167903 0.640375 0.153212
0.177868 0.638107 0.156619
0.186070 0.635614 0.160054
0.193495 0.633052 0.163331
0.199292 0.630312 0.166600
0.204498 0.627626 0.169790
0.210508 0.625115 0.172886
0.217230 0.622695 0.176232
0.224754 0.620437 0.179653
0.233200 0.618284 0.182930
0.242609 0.616383 0.186411
0.253210 0.614761 0.190082
0.264539 0.613399 0.193848
0.276672 0.612281 0.197865
0.289491 0.611540 0.202017
