gsg/03_Cinematic/GSG_LUT_Cinematic_FeelingBlue.cube
# GSG LUTs 1.0
# Copyright (c) 2016-2020 Greyscalegorilla
# See EULA for licensing and distribution information
# Converted by Briz LUT Converter
LUT_3D_SIZE 8
DOMAIN_MIN 0.000000 0.000000 0.000000
DOMAIN_MAX 0.903226 0.903226 0.903226
0.000000 0.000000 0.000000
0.000307 0.000307 0.002395
0.002686 0.002324 0.015912
0.008925 0.010635 0.055095
0.019875 0.025515 0.087825
0.048021 0.048887 0.118626
0.080153 0.062610 0.143243
0.121407 0.084375 0.169719
0.057127 0.108007 0.139927
0.068206 0.121887 0.154455
0.084999 0.139343 0.175651
0.111811 0.160657 0.198103
0.132230 0.168258 0.211032
0.142696 0.155516 0.212870
0.174474 0.158949 0.225031
0.228007 0.186937 0.254219
0.133767 0.243665 0.275639
0.136325 0.244577 0.278741
0.143940 0.252832 0.286848
0.157546 0.254707 0.291946
0.175740 0.252804 0.294943
0.200836 0.244205 0.291654
0.246132 0.247689 0.301362
0.291058 0.261653 0.321300
0.181835 0.358092 0.376746
0.181835 0.358104 0.377231
0.181533 0.357308 0.377854
0.187122 0.364849 0.381797
0.214825 0.367319 0.385801
0.280883 0.365261 0.389070
0.326788 0.352581 0.387029
0.370261 0.354853 0.394122
0.256009 0.512041 0.490606
0.256836 0.513577 0.491685
0.256516 0.512868 0.491934
0.257138 0.511870 0.492152
0.300795 0.520637 0.501162
0.377383 0.511723 0.502483
0.429060 0.485026 0.486690
0.463721 0.469075 0.481185
0.338422 0.684139 0.618110
0.337847 0.682733 0.617535
0.336719 0.680182 0.616802
0.333113 0.672650 0.611852
0.398790 0.684096 0.624269
0.498361 0.686177 0.631599
0.546615 0.644931 0.605901
0.573850 0.608471 0.587149
0.520304 0.845043 0.754193
0.534914 0.849716 0.761387
0.570853 0.860947 0.776362
0.591216 0.866520 0.781778
0.618566 0.872442 0.785891
0.663949 0.879794 0.789071
0.694267 0.845953 0.758526
0.706219 0.782050 0.717489
0.869786 0.957084 0.924046
0.875014 0.958873 0.927786
0.890289 0.964002 0.938257
0.917140 0.973171 0.956685
0.930454 0.977773 0.966488
0.923358 0.975172 0.959246
0.904216 0.967261 0.933600
0.877821 0.954097 0.880390
0.014873 0.014873 0.105447
0.016338 0.016338 0.114979
0.018085 0.018643 0.125233
0.023634 0.028933 0.139604
0.031044 0.043923 0.153877
0.040247 0.052112 0.161658
0.072331 0.066660 0.177960
0.129107 0.104033 0.212582
0.072527 0.132939 0.203686
0.079165 0.145201 0.217780
0.086882 0.156073 0.230738
0.096766 0.164584 0.242614
0.109163 0.162172 0.245627
0.131240 0.157882 0.245572
0.165385 0.165586 0.257285
0.228575 0.196908 0.283426
0.135665 0.244956 0.302570
0.137226 0.248279 0.305821
0.143660 0.252723 0.310037
0.155586 0.254809 0.313478
0.170895 0.251315 0.314154
0.192452 0.244059 0.312499
0.236709 0.247479 0.320450
0.293017 0.266092 0.337927
0.186306 0.364782 0.400050
0.186590 0.365267 0.400345
0.186715 0.365520 0.400858
0.187904 0.368055 0.402063
0.204319 0.363011 0.398938
0.270889 0.359546 0.400304
0.322348 0.352026 0.398755
0.367419 0.354998 0.406285
0.260079 0.518481 0.511533
0.260401 0.519112 0.512179
0.260244 0.518496 0.512399
0.257853 0.513577 0.509415
0.283874 0.512586 0.508392
0.369777 0.505095 0.508565
0.422184 0.480730 0.494625
0.458815 0.467340 0.491296
0.340346 0.686065 0.631688
0.339761 0.684636 0.631073
0.338581 0.682263 0.629203
0.335114 0.674924 0.623568
0.381795 0.675837 0.627674
0.488290 0.676163 0.634605
0.537290 0.636919 0.611114
0.567849 0.605084 0.594621
0.537215 0.851610 0.773812
0.552339 0.856341 0.779826
0.569547 0.861686 0.786454
0.584423 0.865126 0.788703
0.610489 0.870492 0.791787
0.648478 0.871044 0.789839
0.681666 0.835014 0.759519
0.698434 0.776375 0.722838
0.883172 0.962028 0.937771
0.888513 0.963993 0.942420
0.903331 0.969009 0.952386
0.926980 0.977001 0.967820
0.926410 0.976723 0.967939
0.919617 0.974309 0.961555
0.901816 0.966985 0.936403
0.873971 0.953022 0.882412
0.021009 0.021072 0.148655
0.023404 0.024830 0.157274
0.028674 0.035592 0.167640
0.034360 0.047373 0.176195
0.038498 0.056080 0.182467
0.043374 0.058758 0.186992
0.079235 0.081379 0.207216
0.145246 0.126805 0.243562
0.087485 0.159247 0.249420
0.090981 0.165920 0.257959
0.093378 0.169455 0.265917
0.095811 0.168319 0.270933
0.104725 0.162500 0.267940
0.133709 0.165710 0.271217
0.174704 0.180564 0.285934
0.231472 0.208181 0.309247
0.138942 0.254417 0.329471
0.141062 0.256372 0.331914
0.144116 0.257603 0.335127
0.152584 0.257325 0.337849
0.167925 0.253595 0.338604
0.192098 0.249955 0.335364
0.238735 0.253853 0.342109
0.297297 0.266196 0.354673
0.188575 0.366170 0.421514
0.189831 0.368707 0.423756
0.192116 0.373492 0.426343
0.191153 0.370987 0.423163
0.208144 0.361807 0.415816
0.266960 0.356814 0.416100
0.316566 0.351942 0.417001
0.366622 0.349997 0.419280
0.264892 0.523928 0.538356
0.266322 0.527187 0.540147
0.265722 0.525906 0.538688
0.261869 0.517927 0.531971
0.274318 0.503041 0.520679
0.358966 0.493014 0.518976
0.410566 0.473578 0.508458
0.453442 0.461476 0.503996
0.344063 0.688806 0.653998
0.343679 0.688047 0.653039
0.341688 0.683729 0.650237
0.336762 0.673285 0.642488
0.361362 0.660376 0.635238
0.468549 0.656807 0.640194
0.520348 0.623761 0.620712
0.560910 0.598953 0.606668
0.546293 0.856474 0.797075
0.547997 0.856962 0.797513
0.552983 0.857922 0.798541
0.564511 0.860103 0.799436
0.584159 0.862005 0.798996
0.618539 0.850431 0.789160
0.661523 0.816461 0.762779
0.694605 0.770202 0.730692
0.912333 0.972828 0.966353
0.916929 0.974338 0.969465
0.923246 0.976609 0.974090
0.924062 0.976908 0.975077
0.918427 0.975092 0.971474
0.910598 0.971968 0.963162
0.891530 0.964054 0.935404
0.870752 0.952239 0.887532
0.029107 0.033022 0.186805
0.037464 0.049945 0.199834
0.041227 0.058111 0.205415
0.042850 0.061800 0.205993
0.044838 0.066093 0.207917
0.054797 0.074983 0.214502
0.102689 0.109636 0.244251
0.160783 0.148461 0.277575
0.100225 0.181425 0.292768
0.101346 0.182815 0.298535
0.100383 0.180160 0.300121
0.100537 0.174153 0.294681
0.115135 0.173800 0.293908
0.147344 0.182090 0.301427
0.185583 0.198428 0.318037
0.232663 0.218972 0.338837
0.145609 0.268430 0.360271
0.147385 0.269169 0.362330
0.148969 0.268732 0.364469
0.154158 0.264822 0.364886
0.174968 0.262503 0.363964
0.196618 0.257716 0.361157
0.236213 0.264688 0.371119
0.288498 0.272406 0.383283
0.198732 0.384268 0.452438
0.198817 0.384521 0.452523
0.197606 0.382013 0.450682
0.194041 0.371651 0.442805
0.204694 0.358010 0.434234
0.260180 0.352342 0.434574
0.308177 0.350235 0.438195
0.359009 0.350709 0.442911
0.266256 0.523295 0.561136
0.265895 0.522478 0.559924
0.264145 0.518998 0.557183
0.258451 0.507050 0.547023
0.286779 0.490470 0.535634
0.352728 0.478799 0.531634
0.400714 0.467746 0.526766
0.449367 0.461533 0.524138
0.340211 0.677130 0.674249
0.341015 0.678664 0.675488
0.340295 0.677553 0.673912
0.332056 0.660445 0.660599
0.346023 0.636978 0.643633
0.454895 0.634271 0.647987
0.512752 0.614076 0.635086
0.559256 0.595865 0.622411
0.534455 0.854458 0.815371
0.535343 0.854381 0.815126
0.537786 0.854211 0.813840
0.542125 0.853051 0.810549
0.560878 0.845641 0.803231
0.603061 0.827674 0.790103
0.649844 0.797818 0.768021
0.688725 0.760151 0.741534
0.920871 0.976092 0.975831
0.919961 0.975803 0.975521
0.917548 0.975172 0.974790
0.913426 0.973873 0.973341
0.906681 0.971814 0.970852
0.893761 0.967320 0.961670
0.870874 0.958102 0.931826
0.856791 0.947926 0.892453
0.050156 0.073930 0.233408
0.052810 0.079570 0.236039
0.053023 0.080397 0.235874
0.051611 0.077525 0.232772
0.054097 0.082552 0.235750
0.075978 0.103236 0.252222
0.124718 0.137181 0.283018
0.172109 0.167688 0.311751
0.110173 0.197445 0.330410
0.108548 0.193884 0.328841
0.106603 0.189801 0.324648
0.111482 0.188004 0.322808
0.131265 0.190789 0.325619
0.161359 0.200140 0.334989
0.195974 0.215143 0.351052
0.238114 0.230637 0.369202
0.155464 0.284369 0.395741
0.155326 0.283092 0.396975
0.155912 0.278300 0.396251
0.160516 0.272829 0.391525
0.182251 0.269383 0.389734
0.204376 0.269032 0.390942
0.241509 0.276876 0.401273
0.294044 0.287827 0.414939
0.203030 0.389567 0.477338
0.201949 0.387309 0.475938
0.198484 0.380042 0.471457
0.193645 0.367042 0.463382
0.209158 0.354922 0.454679
0.264692 0.357295 0.459940
0.311807 0.357990 0.465113
0.365688 0.361874 0.470455
0.264697 0.517009 0.575558
0.263019 0.513740 0.572800
0.258599 0.504276 0.565340
0.262316 0.490676 0.554975
0.304751 0.481273 0.550595
0.359447 0.475761 0.549756
0.404113 0.470435 0.548984
0.452623 0.467541 0.548841
0.335077 0.661048 0.683585
0.333266 0.657490 0.680532
0.328993 0.648722 0.673077
0.328724 0.634103 0.661057
0.406442 0.632092 0.663904
0.472371 0.623296 0.660421
0.516661 0.609866 0.651491
0.558037 0.594953 0.642119
0.515346 0.846899 0.823695
0.520094 0.848251 0.824400
0.522844 0.846740 0.822243
0.524994 0.836418 0.813199
0.555673 0.823428 0.805081
0.597160 0.803910 0.792641
0.642507 0.781179 0.777336
0.680770 0.748567 0.754061
0.904628 0.971259 0.971259
0.904227 0.971157 0.971157
0.901495 0.970292 0.970292
0.895676 0.968557 0.968539
0.884603 0.965217 0.964571
0.863296 0.958338 0.954042
0.847450 0.951563 0.930055
0.837727 0.936488 0.895586
0.064666 0.101509 0.268148
0.063988 0.100225 0.265761
0.065133 0.102781 0.267348
0.066239 0.105023 0.269611
0.073740 0.113230 0.276353
0.106859 0.138133 0.297641
0.151984 0.167341 0.324197
0.193546 0.191066 0.348922
0.118963 0.212568 0.359098
0.120012 0.211906 0.359344
0.122954 0.210451 0.357588
0.131087 0.210422 0.357191
0.149353 0.214702 0.360975
0.179145 0.224907 0.371815
0.211888 0.236930 0.385546
0.255288 0.251212 0.404447
0.164805 0.296442 0.425814
0.165677 0.294212 0.424362
0.167442 0.288926 0.421058
0.173618 0.282857 0.416344
0.194677 0.284394 0.418000
0.218034 0.287211 0.422892
0.258051 0.294591 0.434605
0.309683 0.309804 0.450370
0.203413 0.387012 0.494693
0.202122 0.384155 0.493206
0.199624 0.375687 0.487672
0.204839 0.365918 0.480291
0.240901 0.365739 0.482942
0.282895 0.370265 0.489567
0.324349 0.373241 0.497963
0.378345 0.381176 0.505669
0.258500 0.498224 0.577276
0.259138 0.495258 0.575459
0.265512 0.490034 0.572774
0.287346 0.483611 0.570500
0.330839 0.482077 0.572198
0.373968 0.481156 0.574936
0.411259 0.476238 0.576634
0.461831 0.479256 0.578476
0.327183 0.634167 0.679509
0.329972 0.631895 0.677753
0.347869 0.629221 0.676898
0.402563 0.630319 0.681582
0.449737 0.627028 0.682127
0.486387 0.619242 0.678237
0.521423 0.607467 0.671280
0.560567 0.597893 0.665718
0.484451 0.819129 0.818290
0.491755 0.819235 0.818910
0.513119 0.819122 0.820289
0.544298 0.813084 0.818085
0.579225 0.800490 0.810889
0.614579 0.786867 0.802283
0.648680 0.765737 0.786886
0.679886 0.740123 0.768096
0.879193 0.963603 0.963603
0.877166 0.962972 0.962972
0.872619 0.961673 0.961673
0.863868 0.958995 0.958995
0.846837 0.953778 0.953411
0.829022 0.948203 0.945886
0.823895 0.943810 0.929816
0.822799 0.916628 0.897628
0.077884 0.126953 0.299114
0.080578 0.132578 0.302172
0.083018 0.137549 0.306358
0.093288 0.147883 0.315199
0.116094 0.162538 0.329049
0.147489 0.179278 0.346060
0.183008 0.199031 0.366397
0.218344 0.217248 0.389350
0.140624 0.238483 0.390544
0.146743 0.237058 0.393853
0.152776 0.237037 0.392513
0.164841 0.241723 0.396447
0.179547 0.247153 0.402496
0.200204 0.251241 0.409977
0.231310 0.260076 0.423706
0.279904 0.278840 0.443745
0.179311 0.307374 0.447766
0.181062 0.304136 0.448240
0.183851 0.301495 0.447066
0.191102 0.300039 0.447232
0.208992 0.301039 0.450549
0.238085 0.306728 0.458371
0.279893 0.316257 0.473627
0.334052 0.337931 0.490865
0.208402 0.382771 0.508179
0.212917 0.381770 0.509612
0.224551 0.381398 0.510813
0.244569 0.381852 0.513343
0.273246 0.383090 0.518224
0.304888 0.383720 0.524020
0.345166 0.390577 0.534551
0.401598 0.411137 0.547827
0.282123 0.490568 0.592603
0.289659 0.491466 0.594384
0.305193 0.492015 0.596899
0.329563 0.492658 0.599545
0.362245 0.492581 0.602973
0.393178 0.490386 0.605862
0.431087 0.490112 0.608928
0.482093 0.500813 0.614969
0.399869 0.629873 0.699072
0.408996 0.631277 0.701336
0.427649 0.632692 0.704187
0.453386 0.632035 0.705737
0.479496 0.627182 0.703696
0.505996 0.619665 0.699795
0.535514 0.611227 0.695902
0.574529 0.609257 0.694801
0.572124 0.804356 0.831600
0.576789 0.804423 0.831219
0.586019 0.801997 0.830293
0.601704 0.797929 0.828437
0.618970 0.788774 0.822676
0.637086 0.773053 0.811967
0.658534 0.754343 0.798331
0.684277 0.737086 0.786553
0.842179 0.952486 0.952486
0.838856 0.951470 0.951470
0.830062 0.948858 0.948858
0.818386 0.945307 0.945307
0.807921 0.942107 0.942101
0.802478 0.939198 0.939443
0.803738 0.930597 0.929339
0.813667 0.894960 0.901385
0.097554 0.166072 0.338233
0.105833 0.171991 0.344138
0.118659 0.181746 0.353078
0.139890 0.195938 0.366169
0.160653 0.207226 0.378659
0.183686 0.217386 0.392201
0.210826 0.229033 0.409085
0.248804 0.249110 0.432050
0.172564 0.265266 0.425961
0.183200 0.269345 0.436097
0.190198 0.270805 0.437973
0.197278 0.271175 0.439486
0.208558 0.274232 0.443257
0.224396 0.277252 0.450836
0.260712 0.288594 0.469311
0.315175 0.316729 0.489247
0.194295 0.322313 0.477328
0.198975 0.323818 0.480759
0.202839 0.322517 0.481321
0.212584 0.322634 0.483973
0.240641 0.326781 0.492804
0.274596 0.332317 0.505168
0.316755 0.346080 0.519443
0.371975 0.374856 0.536111
0.262096 0.405431 0.549045
0.266936 0.406505 0.550475
0.275471 0.406355 0.551975
0.288274 0.405827 0.554295
0.311575 0.407119 0.560457
0.340515 0.409764 0.569220
0.385352 0.422427 0.578129
0.438742 0.444020 0.591211
0.345004 0.509980 0.631875
0.349802 0.511059 0.633159
0.359854 0.509857 0.634588
0.377530 0.509978 0.638021
0.398561 0.508844 0.640983
0.428555 0.510615 0.644463
0.467735 0.517765 0.648531
0.513479 0.530113 0.655581
0.474342 0.642893 0.732230
0.476982 0.641505 0.731768
0.485528 0.640157 0.731490
0.498905 0.636714 0.729965
0.515378 0.632096 0.728537
0.535216 0.627470 0.727489
0.561327 0.624755 0.727029
0.598848 0.627949 0.728053
0.619999 0.795391 0.845555
0.621822 0.793957 0.844073
0.628017 0.790047 0.841760
0.637626 0.783371 0.837190
0.647950 0.773829 0.830297
0.660385 0.762740 0.823071
0.675759 0.751497 0.816142
0.698495 0.741631 0.811187
0.804951 0.941227 0.941227
0.803282 0.940780 0.940783
0.800543 0.939602 0.939773
0.796567 0.937768 0.938431
0.793866 0.935562 0.937044
0.795872 0.924759 0.933461
0.805669 0.904245 0.926409
0.821903 0.880284 0.909319
