gsg/03_Cinematic/GSG_LUT_Cinematic_Blockbuster.cube
# GSG LUTs 1.0
# Copyright (c) 2016-2020 Greyscalegorilla
# See EULA for licensing and distribution information
# Converted by Briz LUT Converter
LUT_3D_SIZE 5
DOMAIN_MIN 0.000000 0.000000 0.000000
DOMAIN_MAX 0.903226 0.903226 0.903226
0.050794 0.050794 0.050794
0.114979 0.057174 0.061570
0.222616 0.081476 0.103336
0.367600 0.142321 0.191595
0.492962 0.212281 0.277782
0.078120 0.120627 0.073851
0.154312 0.139459 0.088391
0.299199 0.182779 0.164528
0.472202 0.249297 0.275936
0.577605 0.301677 0.349921
0.121391 0.260916 0.129466
0.166792 0.274266 0.143244
0.291188 0.309523 0.201851
0.489090 0.374158 0.322675
0.605882 0.416820 0.399761
0.087124 0.456261 0.224270
0.086354 0.456202 0.214521
0.190448 0.485436 0.243733
0.472843 0.563565 0.374328
0.656623 0.597061 0.463365
0.099492 0.624467 0.312316
0.098778 0.624556 0.303126
0.097404 0.629466 0.279496
0.250457 0.674817 0.335944
0.702417 0.759226 0.483799
0.072000 0.058175 0.111292
0.231074 0.094677 0.133493
0.311746 0.145128 0.162365
0.400825 0.199962 0.223471
0.504561 0.259648 0.296275
0.124482 0.156051 0.145732
0.195368 0.177083 0.157674
0.340826 0.225316 0.201471
0.498703 0.290056 0.302160
0.606934 0.337217 0.376503
0.151852 0.289479 0.202804
0.183032 0.307498 0.208814
0.325465 0.349513 0.246373
0.514652 0.412435 0.348310
0.630717 0.451778 0.423459
0.091538 0.478217 0.274966
0.090858 0.479503 0.265646
0.213454 0.516291 0.291429
0.501523 0.595804 0.398590
0.687343 0.624671 0.476299
0.103633 0.639592 0.363045
0.102561 0.641355 0.346679
0.100299 0.644574 0.313876
0.296855 0.702127 0.353184
0.730860 0.778563 0.493653
0.119099 0.086675 0.221371
0.270681 0.135909 0.231829
0.401599 0.190910 0.256904
0.477810 0.264598 0.286636
0.543879 0.325887 0.337766
0.176299 0.209045 0.271598
0.245382 0.229715 0.285209
0.390835 0.280939 0.309743
0.518235 0.350888 0.341030
0.611680 0.404120 0.399208
0.195670 0.354022 0.341481
0.232276 0.367995 0.350863
0.380164 0.415595 0.379075
0.556450 0.478218 0.406951
0.668539 0.517618 0.461025
0.107168 0.515330 0.415487
0.117012 0.526128 0.419008
0.293352 0.577003 0.447041
0.570852 0.647912 0.474433
0.746886 0.676640 0.498837
0.114404 0.674531 0.492497
0.113775 0.675334 0.484201
0.112631 0.682767 0.464313
0.409292 0.757198 0.484349
0.787573 0.818844 0.513058
0.192170 0.152775 0.342069
0.322604 0.200087 0.368945
0.441562 0.254007 0.394297
0.550660 0.310274 0.392187
0.605562 0.403772 0.407822
0.247792 0.286743 0.424075
0.322954 0.318249 0.461808
0.449581 0.365835 0.490087
0.576966 0.417517 0.488297
0.656487 0.503959 0.474875
0.261947 0.439563 0.507303
0.312479 0.455909 0.529079
0.454605 0.503889 0.575071
0.608098 0.553641 0.586408
0.729388 0.601256 0.520483
0.236649 0.602380 0.588598
0.289087 0.617019 0.602741
0.443426 0.656255 0.639496
0.654895 0.700092 0.657766
0.811113 0.732216 0.572974
0.125322 0.715995 0.615747
0.125958 0.721136 0.622069
0.134009 0.740738 0.642243
0.571050 0.812532 0.690950
0.853385 0.867879 0.630874
0.272512 0.241947 0.465257
0.388280 0.295373 0.505513
0.487164 0.344832 0.545262
0.585184 0.393975 0.563244
0.658257 0.434132 0.519803
0.359462 0.414722 0.595672
0.430379 0.447878 0.634097
0.531139 0.486582 0.673020
0.635674 0.519529 0.687060
0.722211 0.544311 0.629850
0.407830 0.578588 0.693070
0.446125 0.585522 0.706328
0.568678 0.613149 0.737479
0.701747 0.641316 0.756324
0.806489 0.663969 0.722128
0.511675 0.725754 0.763858
0.540342 0.730141 0.770662
0.623935 0.742968 0.791111
0.749090 0.761349 0.814910
0.873411 0.786285 0.800116
0.533642 0.833302 0.811737
0.555174 0.838457 0.817370
0.626777 0.853511 0.833992
0.754243 0.881114 0.860711
0.912062 0.914216 0.871351
