gsg/03_Cinematic/GSG_LUT_Cinematic_FeelingBlue.cube
# GSG LUTs 1.0
# Copyright (c) 2016-2020 Greyscalegorilla
# See EULA for licensing and distribution information
# Converted by Briz LUT Converter
LUT_3D_SIZE 5
DOMAIN_MIN 0.000000 0.000000 0.000000
DOMAIN_MAX 0.903226 0.903226 0.903226
0.000000 0.000000 0.000000
0.003253 0.002009 0.012005
0.012226 0.015329 0.069463
0.056914 0.052944 0.125842
0.121407 0.084375 0.169719
0.115743 0.211840 0.246965
0.131171 0.225224 0.260229
0.156746 0.232557 0.272870
0.197001 0.219782 0.272967
0.273774 0.241672 0.304116
0.215842 0.429414 0.430155
0.215952 0.429494 0.430566
0.223731 0.436375 0.435264
0.339546 0.429266 0.441692
0.414210 0.407900 0.434636
0.359683 0.728174 0.650888
0.358848 0.726053 0.650256
0.371686 0.716055 0.644685
0.547966 0.727779 0.663828
0.606451 0.650526 0.618678
0.869786 0.957084 0.924046
0.885601 0.962351 0.934772
0.929843 0.977578 0.966042
0.919815 0.973792 0.956073
0.877821 0.954097 0.880390
0.019623 0.019812 0.139202
0.024325 0.027686 0.155083
0.034833 0.049420 0.172371
0.046493 0.058653 0.182685
0.141676 0.121510 0.236053
0.126401 0.229079 0.302103
0.133014 0.233618 0.308661
0.144359 0.230577 0.314182
0.188120 0.226224 0.313965
0.281153 0.249011 0.336198
0.224806 0.441177 0.475436
0.227096 0.446210 0.477931
0.222739 0.436056 0.467003
0.330239 0.419303 0.459210
0.407258 0.403517 0.455662
0.363762 0.732292 0.678784
0.361949 0.728356 0.676145
0.357495 0.710323 0.663534
0.523548 0.703464 0.670172
0.592799 0.641100 0.633873
0.903704 0.969748 0.958460
0.917687 0.974394 0.967699
0.923183 0.976391 0.972353
0.910806 0.971658 0.959360
0.871138 0.952258 0.885772
0.039277 0.052314 0.211021
0.047930 0.070756 0.221625
0.047598 0.070385 0.219171
0.073925 0.094398 0.237843
0.166485 0.158122 0.294724
0.138718 0.252406 0.358294
0.141720 0.251119 0.363254
0.156902 0.245486 0.360084
0.194242 0.244444 0.361750
0.272745 0.263415 0.387275
0.232736 0.452724 0.516274
0.229829 0.446707 0.511800
0.230506 0.422249 0.494074
0.315940 0.408089 0.489843
0.402981 0.405968 0.493189
0.357676 0.711803 0.710333
0.358174 0.712811 0.710214
0.350054 0.679773 0.683674
0.508482 0.668160 0.683676
0.589895 0.633680 0.659724
0.913544 0.973963 0.973963
0.910917 0.973138 0.973109
0.902353 0.970550 0.970118
0.872605 0.960588 0.951257
0.847470 0.943828 0.894529
0.067431 0.106613 0.275868
0.068069 0.108189 0.275716
0.074504 0.118382 0.283332
0.130332 0.158210 0.318083
0.200251 0.198424 0.358840
0.156753 0.278916 0.414514
0.160480 0.273219 0.412410
0.186756 0.272802 0.412579
0.219969 0.277263 0.420364
0.299850 0.299689 0.447935
0.227402 0.436012 0.535460
0.230794 0.428914 0.531949
0.270997 0.422804 0.531021
0.340054 0.424801 0.539376
0.422349 0.432118 0.549244
0.369533 0.673007 0.714368
0.399064 0.673175 0.716656
0.471081 0.670327 0.719389
0.531892 0.655642 0.710891
0.591776 0.633858 0.697264
0.869002 0.960509 0.960509
0.863831 0.958996 0.958996
0.844733 0.953208 0.953183
0.819722 0.945131 0.941675
0.819263 0.910852 0.898508
0.097554 0.166072 0.338233
0.115515 0.179868 0.350763
0.150551 0.201700 0.372592
0.190507 0.220755 0.396494
0.248804 0.249110 0.432050
0.188056 0.306692 0.463679
0.194559 0.307636 0.468427
0.216329 0.308869 0.474654
0.269570 0.318934 0.494652
0.357604 0.359715 0.523937
0.286035 0.450349 0.584393
0.302672 0.452144 0.588201
0.340087 0.454526 0.596160
0.393292 0.460183 0.606808
0.474685 0.485298 0.622389
0.512698 0.680440 0.760238
0.520771 0.678424 0.759039
0.541614 0.670300 0.755065
0.571615 0.659523 0.750241
0.623228 0.655585 0.748335
0.804951 0.941227 0.941227
0.802189 0.940316 0.940366
0.795091 0.936598 0.937629
0.797590 0.919892 0.931696
0.821903 0.880284 0.909319
