gsg/03_Cinematic/GSG_LUT_Cinematic_Mr_Anderson.cube
# GSG LUTs 1.0
# Copyright (c) 2016-2020 Greyscalegorilla
# See EULA for licensing and distribution information
# Converted by Briz LUT Converter
LUT_3D_SIZE 5
DOMAIN_MIN 0.000000 0.000000 0.000000
DOMAIN_MAX 0.903226 0.903226 0.903226
0.063492 0.021734 0.014652
0.320509 0.021734 0.014652
0.459419 0.021734 0.014652
0.601426 0.021734 0.014652
0.756288 0.021734 0.014652
0.063492 0.198677 0.014652
0.320509 0.198677 0.014652
0.459419 0.198677 0.014652
0.601426 0.198677 0.014652
0.756288 0.198677 0.014652
0.063492 0.313923 0.014652
0.320509 0.313923 0.014652
0.459419 0.313923 0.014652
0.601426 0.313923 0.014652
0.756288 0.313923 0.014652
0.063492 0.441223 0.014652
0.320509 0.441223 0.014652
0.459419 0.441223 0.014652
0.601426 0.441223 0.014652
0.756288 0.441223 0.014652
0.063492 0.608657 0.014652
0.320509 0.608657 0.014652
0.459419 0.608657 0.014652
0.601426 0.608657 0.014652
0.756288 0.608657 0.014652
0.063492 0.021734 0.087676
0.320509 0.021734 0.087676
0.459419 0.021734 0.087676
0.601426 0.021734 0.087676
0.756288 0.021734 0.087676
0.063492 0.198677 0.087676
0.320509 0.198677 0.087676
0.459419 0.198677 0.087676
0.601426 0.198677 0.087676
0.756288 0.198677 0.087676
0.063492 0.313923 0.087676
0.320509 0.313923 0.087676
0.459419 0.313923 0.087676
0.601426 0.313923 0.087676
0.756288 0.313923 0.087676
0.063492 0.441223 0.087676
0.320509 0.441223 0.087676
0.459419 0.441223 0.087676
0.601426 0.441223 0.087676
0.756288 0.441223 0.087676
0.063492 0.608657 0.087676
0.320509 0.608657 0.087676
0.459419 0.608657 0.087676
0.601426 0.608657 0.087676
0.756288 0.608657 0.087676
0.063492 0.021734 0.187963
0.320509 0.021734 0.187963
0.459419 0.021734 0.187963
0.601426 0.021734 0.187963
0.756288 0.021734 0.187963
0.063492 0.198677 0.187963
0.320509 0.198677 0.187963
0.459419 0.198677 0.187963
0.601426 0.198677 0.187963
0.756288 0.198677 0.187963
0.063492 0.313923 0.187963
0.320509 0.313923 0.187963
0.459419 0.313923 0.187963
0.601426 0.313923 0.187963
0.756288 0.313923 0.187963
0.063492 0.441223 0.187963
0.320509 0.441223 0.187963
0.459419 0.441223 0.187963
0.601426 0.441223 0.187963
0.756288 0.441223 0.187963
0.063492 0.608657 0.187963
0.320509 0.608657 0.187963
0.459419 0.608657 0.187963
0.601426 0.608657 0.187963
0.756288 0.608657 0.187963
0.063492 0.021734 0.300366
0.320509 0.021734 0.300366
0.459419 0.021734 0.300366
0.601426 0.021734 0.300366
0.756288 0.021734 0.300366
0.063492 0.198677 0.300366
0.320509 0.198677 0.300366
0.459419 0.198677 0.300366
0.601426 0.198677 0.300366
0.756288 0.198677 0.300366
0.063492 0.313923 0.300366
0.320509 0.313923 0.300366
0.459419 0.313923 0.300366
0.601426 0.313923 0.300366
0.756288 0.313923 0.300366
0.063492 0.441223 0.300366
0.320509 0.441223 0.300366
0.459419 0.441223 0.300366
0.601426 0.441223 0.300366
0.756288 0.441223 0.300366
0.063492 0.608657 0.300366
0.320509 0.608657 0.300366
0.459419 0.608657 0.300366
0.601426 0.608657 0.300366
0.756288 0.608657 0.300366
0.063492 0.021734 0.732546
0.320509 0.021734 0.732546
0.459419 0.021734 0.732546
0.601426 0.021734 0.732546
0.756288 0.021734 0.732546
0.063492 0.198677 0.732546
0.320509 0.198677 0.732546
0.459419 0.198677 0.732546
0.601426 0.198677 0.732546
0.756288 0.198677 0.732546
0.063492 0.313923 0.732546
0.320509 0.313923 0.732546
0.459419 0.313923 0.732546
0.601426 0.313923 0.732546
0.756288 0.313923 0.732546
0.063492 0.441223 0.732546
0.320509 0.441223 0.732546
0.459419 0.441223 0.732546
0.601426 0.441223 0.732546
0.756288 0.441223 0.732546
0.063492 0.608657 0.732546
0.320509 0.608657 0.732546
0.459419 0.608657 0.732546
0.601426 0.608657 0.732546
0.756288 0.608657 0.732546
