gsg/03_Cinematic/GSG_LUT_Cinematic_SciFi_Horror.cube
# GSG LUTs 1.0
# Copyright (c) 2016-2020 Greyscalegorilla
# See EULA for licensing and distribution information
# Converted by Briz LUT Converter
LUT_3D_SIZE 5
DOMAIN_MIN 0.000000 0.000000 0.000000
DOMAIN_MAX 0.903226 0.903226 0.903226
0.027839 0.053236 0.061050
0.112151 0.052448 0.065068
0.270322 0.050439 0.068108
0.476443 0.048186 0.070251
0.715546 0.045933 0.071551
0.009406 0.205790 0.067320
0.103738 0.205302 0.071094
0.267612 0.204025 0.073750
0.478948 0.202353 0.075306
0.721843 0.201321 0.075219
0.000000 0.406972 0.071527
0.095790 0.409091 0.074647
0.265661 0.410404 0.076057
0.482760 0.411749 0.075352
0.731185 0.414631 0.069356
0.000000 0.642948 0.071629
0.094805 0.648572 0.072805
0.273130 0.653023 0.068892
0.498554 0.657371 0.061177
0.748608 0.663295 0.065359
0.000000 0.906054 0.060774
0.116373 0.911836 0.061762
0.298670 0.916862 0.066947
0.523494 0.922392 0.081114
0.771287 0.930550 0.109871
0.024066 0.052503 0.220198
0.110442 0.051660 0.226224
0.269803 0.049707 0.230999
0.476852 0.047515 0.234802
0.716578 0.045445 0.237134
0.005919 0.205302 0.230052
0.102041 0.204837 0.235633
0.267119 0.203533 0.239797
0.479506 0.202095 0.242386
0.723247 0.201371 0.242648
0.000000 0.407570 0.237000
0.094789 0.409579 0.241621
0.265843 0.410983 0.243875
0.484312 0.412700 0.243029
0.734564 0.416251 0.236294
0.000000 0.644712 0.237865
0.095717 0.650337 0.239482
0.276257 0.654709 0.235620
0.501839 0.659405 0.232725
0.752129 0.666217 0.239867
0.000000 0.907818 0.227831
0.120712 0.913650 0.232496
0.303451 0.918997 0.240993
0.528670 0.925228 0.258059
0.776087 0.934505 0.289668
0.020292 0.051660 0.417898
0.108488 0.050739 0.425170
0.268967 0.048924 0.431147
0.477096 0.046764 0.435677
0.717487 0.045190 0.438263
0.002347 0.204703 0.430060
0.100440 0.204116 0.436808
0.266543 0.202920 0.441701
0.480044 0.201676 0.444297
0.724498 0.201448 0.443683
0.000000 0.407814 0.438179
0.093902 0.410027 0.443247
0.266296 0.411540 0.445235
0.486516 0.413760 0.443636
0.738309 0.418352 0.437258
0.000000 0.646398 0.437296
0.097926 0.651857 0.438800
0.280354 0.656339 0.436319
0.505534 0.661629 0.439123
0.755831 0.669440 0.448780
0.000000 0.909339 0.429356
0.126286 0.915341 0.437716
0.309535 0.921116 0.449433
0.534618 0.928292 0.469329
0.781394 0.938970 0.503410
0.016519 0.050794 0.636315
0.106595 0.049779 0.645187
0.268144 0.047997 0.652227
0.477208 0.046067 0.657489
0.718382 0.044933 0.659845
0.000000 0.203915 0.651195
0.098811 0.203388 0.658927
0.266002 0.202396 0.664414
0.480659 0.201437 0.666755
0.725929 0.201946 0.664798
0.000000 0.408169 0.659931
0.093414 0.410371 0.665402
0.267130 0.412139 0.666859
0.489420 0.415233 0.665899
0.741699 0.420674 0.661848
0.000000 0.648084 0.656158
0.101699 0.653318 0.659433
0.284574 0.658104 0.660885
0.509829 0.664191 0.667488
0.759941 0.673349 0.679253
0.004568 0.910686 0.652763
0.133066 0.917106 0.664651
0.316539 0.923472 0.679158
0.541620 0.931782 0.701329
0.787388 0.944252 0.737603
0.012525 0.049596 0.870290
0.104715 0.048790 0.880799
0.267247 0.047044 0.888999
0.477262 0.045500 0.894750
0.719185 0.044933 0.896417
0.000000 0.203159 0.887728
0.097183 0.202687 0.896729
0.265715 0.201817 0.902656
0.481431 0.201408 0.904210
0.727853 0.202776 0.901254
0.000000 0.408400 0.896837
0.093325 0.410744 0.902477
0.268828 0.413076 0.904011
0.493081 0.416893 0.904368
0.744712 0.423540 0.904575
0.000000 0.649604 0.889425
0.106708 0.654819 0.895904
0.289109 0.660187 0.903261
0.514586 0.667217 0.911839
0.764369 0.677986 0.925055
0.012234 0.912157 0.892208
0.141006 0.918926 0.907254
0.324747 0.926291 0.924114
0.549371 0.935972 0.948103
0.793901 0.950516 0.985507
