gsg/03_Cinematic/GSG_LUT_Cinematic_Mailroom_Ick.cube
# GSG LUTs 1.0
# Copyright (c) 2016-2020 Greyscalegorilla
# See EULA for licensing and distribution information
# Converted by Briz LUT Converter
LUT_3D_SIZE 8
DOMAIN_MIN 0.000000 0.000000 0.000000
DOMAIN_MAX 0.903226 0.903226 0.903226
0.000000 0.000000 0.000000
0.083792 0.000000 0.000000
0.169837 0.000000 0.000000
0.278601 0.002686 0.000000
0.405018 0.007933 0.002442
0.556895 0.018236 0.008287
0.715389 0.039568 0.019709
0.833172 0.067368 0.034149
0.023057 0.061436 0.000000
0.099681 0.066655 0.000000
0.183631 0.071882 0.000323
0.301877 0.080685 0.002759
0.434005 0.093369 0.005432
0.601544 0.114051 0.012960
0.751256 0.145481 0.026066
0.861149 0.189380 0.037815
0.061869 0.166529 0.002686
0.118033 0.170042 0.002686
0.196455 0.178022 0.003660
0.319560 0.190184 0.006448
0.450754 0.208112 0.010845
0.622950 0.234817 0.022073
0.768475 0.265411 0.035132
0.876737 0.302741 0.044172
0.066493 0.321454 0.005372
0.115745 0.324654 0.005458
0.209258 0.331927 0.008153
0.336788 0.344047 0.010436
0.475631 0.359488 0.015528
0.649297 0.381673 0.027957
0.787674 0.407842 0.040202
0.891125 0.434548 0.048028
0.052479 0.480318 0.009445
0.117150 0.483207 0.010112
0.229442 0.488771 0.012284
0.355916 0.496218 0.014874
0.512905 0.507993 0.020446
0.677354 0.522397 0.031983
0.805965 0.538892 0.041266
0.905347 0.556893 0.046130
0.095230 0.618528 0.015353
0.165246 0.620741 0.015431
0.268249 0.623702 0.017616
0.403462 0.630041 0.021626
0.566075 0.639584 0.026847
0.708916 0.649094 0.034548
0.825271 0.659254 0.039667
0.919415 0.668770 0.042934
0.199701 0.735602 0.020639
0.264074 0.735413 0.020727
0.362491 0.738707 0.022832
0.495718 0.744615 0.025036
0.626740 0.751190 0.029325
0.744418 0.757431 0.030525
0.845947 0.763209 0.034647
0.934134 0.768984 0.035669
0.354587 0.838103 0.023199
0.410971 0.838316 0.022528
0.489522 0.841194 0.020679
0.585659 0.843956 0.024300
0.684041 0.847516 0.023040
0.779255 0.852311 0.021041
0.869676 0.855123 0.022012
0.948621 0.857868 0.022031
0.000000 0.000000 0.041837
0.080296 0.000000 0.044774
0.167537 0.002528 0.047028
0.283608 0.003861 0.050401
0.414626 0.010009 0.055002
0.580133 0.019708 0.062945
0.735441 0.041806 0.073284
0.846968 0.070018 0.083855
0.019379 0.067406 0.047001
0.093517 0.072308 0.047331
0.178577 0.078128 0.049687
0.299190 0.087406 0.053323
0.432393 0.099851 0.058635
0.604444 0.120701 0.068997
0.757959 0.151675 0.081672
0.872176 0.196086 0.088470
0.059002 0.174932 0.049881
0.115249 0.178071 0.050584
0.191646 0.185763 0.052465
0.316216 0.198387 0.056093
0.450989 0.216127 0.062666
0.625546 0.241776 0.074598
0.773770 0.271898 0.086335
0.883796 0.310249 0.093436
0.059170 0.330167 0.052464
0.107719 0.332234 0.052877
0.201050 0.339726 0.055349
0.332802 0.351119 0.058777
0.475421 0.366977 0.064813
0.651281 0.388715 0.077552
0.790559 0.413080 0.088120
0.896242 0.438913 0.094466
0.035516 0.486281 0.056110
0.101339 0.488992 0.057313
0.220582 0.493849 0.060114
0.351879 0.501526 0.063258
0.511857 0.513172 0.069170
0.678554 0.527450 0.079861
0.807973 0.543438 0.087581
0.908726 0.561306 0.091793
0.078542 0.624165 0.062307
0.151535 0.625270 0.063318
0.260244 0.628777 0.065425
0.399700 0.634594 0.069548
0.565217 0.644201 0.074766
0.709999 0.653438 0.080838
0.826304 0.662960 0.084666
0.921212 0.673610 0.087345
0.189046 0.738964 0.068339
0.255142 0.741173 0.068382
0.356744 0.743779 0.070227
0.492018 0.749154 0.072613
0.625496 0.755510 0.075223
0.744370 0.761205 0.076705
0.847418 0.766700 0.079403
0.935075 0.772396 0.078835
0.348844 0.841636 0.068189
0.405432 0.843595 0.067963
0.485802 0.844821 0.066137
0.582917 0.848805 0.069497
0.683016 0.852238 0.066064
0.778722 0.855419 0.063318
0.870318 0.858143 0.065724
0.948963 0.860796 0.063490
0.000000 0.000000 0.094624
0.074859 0.000637 0.102272
0.163584 0.002784 0.103947
0.279862 0.006349 0.108581
0.413242 0.013789 0.114529
0.578378 0.027853 0.124259
0.740242 0.046179 0.132049
0.857868 0.070081 0.136530
0.016472 0.074537 0.105047
0.085658 0.078515 0.106724
0.172516 0.084096 0.109070
0.294582 0.093511 0.114206
0.432541 0.105803 0.119518
0.611298 0.124778 0.128387
0.765674 0.155971 0.138236
0.878162 0.201119 0.143128
0.056253 0.183583 0.112105
0.111868 0.188081 0.112833
0.185551 0.195207 0.114702
0.310856 0.208139 0.119555
0.448815 0.225008 0.124375
0.627619 0.250142 0.134494
0.779881 0.279459 0.143815
0.894142 0.318442 0.147137
0.044687 0.340503 0.117396
0.090726 0.343789 0.118535
0.183416 0.351065 0.120529
0.324509 0.362580 0.124459
0.471937 0.377578 0.128674
0.652390 0.398010 0.138595
0.794847 0.421375 0.146009
0.905252 0.446834 0.147378
0.013686 0.497617 0.123764
0.064868 0.500163 0.124113
0.196818 0.504511 0.127138
0.341039 0.511765 0.129554
0.507317 0.523044 0.133651
0.678677 0.536640 0.140634
0.810216 0.551914 0.144719
0.915010 0.569231 0.145051
0.037102 0.635666 0.130952
0.114943 0.636473 0.131250
0.236961 0.639098 0.132720
0.387691 0.644676 0.135305
0.559913 0.653431 0.138766
0.708380 0.662140 0.140914
0.827957 0.671008 0.141612
0.925956 0.681121 0.139735
0.152821 0.752587 0.136213
0.225338 0.753489 0.136321
0.336675 0.755774 0.138226
0.480972 0.760482 0.139556
0.619817 0.765960 0.141044
0.741964 0.771374 0.138243
0.848049 0.776194 0.134760
0.938823 0.780843 0.130524
0.326663 0.858084 0.147007
0.387327 0.858465 0.149367
0.471752 0.860528 0.152846
0.573732 0.862883 0.158228
0.677092 0.865592 0.162504
0.776768 0.868136 0.159001
0.870003 0.869357 0.149888
0.951336 0.870004 0.127568
0.000000 0.002686 0.165016
0.066998 0.003397 0.176566
0.156306 0.005616 0.178814
0.273559 0.010493 0.182381
0.410792 0.019548 0.186845
0.580169 0.035502 0.194153
0.740053 0.057119 0.201612
0.863193 0.076986 0.199890
0.011668 0.083464 0.188310
0.077284 0.087919 0.191545
0.161830 0.092993 0.194017
0.284957 0.103016 0.197030
0.426427 0.115893 0.200203
0.609708 0.135129 0.204821
0.770335 0.162936 0.208632
0.886225 0.202687 0.205994
0.048127 0.198470 0.206229
0.103096 0.202536 0.208104
0.175710 0.210433 0.209362
0.297951 0.222221 0.211763
0.442230 0.238232 0.212399
0.627686 0.260258 0.215827
0.783840 0.286490 0.217315
0.898504 0.324978 0.213443
0.018591 0.359303 0.221401
0.062132 0.362261 0.222177
0.144398 0.368346 0.224239
0.304966 0.379066 0.226894
0.461053 0.393311 0.227232
0.649818 0.411787 0.228591
0.798378 0.432703 0.225592
0.910042 0.457074 0.218228
0.000000 0.516590 0.230545
0.040165 0.517092 0.232211
0.140849 0.521409 0.234778
0.313870 0.528578 0.237140
0.492440 0.539126 0.240169
0.672844 0.552461 0.243768
0.811224 0.566409 0.239000
0.918927 0.582198 0.224858
0.000676 0.655197 0.248050
0.048464 0.657165 0.248606
0.168054 0.659367 0.250706
0.355561 0.663098 0.256611
0.543243 0.670241 0.263649
0.700514 0.679036 0.265804
0.825465 0.687448 0.261706
0.928206 0.696489 0.246888
0.028176 0.777213 0.278492
0.126304 0.777551 0.279242
0.279027 0.779320 0.283653
0.451264 0.781600 0.290710
0.603699 0.785480 0.295636
0.732916 0.789246 0.295459
0.843700 0.793662 0.289578
0.938656 0.798118 0.274497
0.274328 0.880688 0.329458
0.340826 0.881356 0.331483
0.436790 0.883338 0.334424
0.550185 0.885809 0.335039
0.662178 0.887921 0.331894
0.768484 0.889004 0.325802
0.867092 0.889697 0.314990
0.951438 0.889031 0.299119
0.000000 0.008224 0.266226
0.053960 0.009847 0.286271
0.143567 0.014156 0.288226
0.260606 0.019789 0.291811
0.403474 0.030563 0.293297
0.577040 0.048320 0.294581
0.739996 0.069611 0.294330
0.860534 0.091897 0.286758
0.007216 0.099273 0.304972
0.068142 0.104124 0.311498
0.143767 0.108529 0.317473
0.266801 0.118106 0.321319
0.414150 0.131408 0.324320
0.598893 0.152996 0.327559
0.765992 0.182010 0.324199
0.892798 0.215060 0.305722
0.035026 0.219295 0.332301
0.086978 0.222691 0.335161
0.155954 0.230585 0.340413
0.272725 0.241897 0.345173
0.425062 0.257664 0.347382
0.617348 0.278648 0.349429
0.781791 0.304131 0.345441
0.904249 0.335444 0.328081
0.004379 0.379917 0.364799
0.043690 0.383677 0.366914
0.092184 0.390435 0.370717
0.265329 0.400816 0.376392
0.436727 0.413937 0.377430
0.635645 0.431468 0.377996
0.794745 0.448956 0.370165
0.915112 0.469554 0.350471
0.000000 0.536636 0.409638
0.038804 0.539289 0.411022
0.081257 0.543977 0.414536
0.252320 0.551935 0.417886
0.459223 0.561564 0.418849
0.656075 0.573614 0.417045
0.803297 0.586469 0.405527
0.918147 0.601324 0.383079
0.000000 0.675905 0.462326
0.038804 0.677962 0.462611
0.079571 0.682205 0.464456
0.278231 0.688103 0.466407
0.504624 0.695465 0.467614
0.679076 0.702662 0.465449
0.813168 0.709557 0.453240
0.923370 0.717336 0.425768
0.000000 0.796971 0.508000
0.040203 0.797818 0.508154
0.159994 0.800543 0.509468
0.389723 0.804878 0.511720
0.566422 0.809753 0.513922
0.708549 0.814586 0.511006
0.828992 0.819185 0.499690
0.929427 0.822272 0.477311
0.186470 0.899567 0.551384
0.264250 0.900232 0.551427
0.375200 0.902390 0.553186
0.504752 0.905149 0.555062
0.628108 0.907898 0.556178
0.741044 0.910753 0.552490
0.846242 0.912573 0.541408
0.938627 0.914132 0.516774
0.000000 0.020804 0.386986
0.045472 0.023583 0.419851
0.123323 0.028188 0.427654
0.240529 0.036709 0.432197
0.388297 0.048126 0.436890
0.567192 0.064344 0.437196
0.735196 0.089188 0.435886
0.858157 0.113965 0.426364
0.003080 0.123371 0.462434
0.056813 0.128830 0.477986
0.128464 0.133632 0.491362
0.234177 0.141919 0.500728
0.390367 0.156179 0.503751
0.581084 0.178485 0.503232
0.754322 0.210118 0.494348
0.887771 0.239917 0.471411
0.017038 0.250148 0.517772
0.065451 0.254678 0.524507
0.126771 0.261993 0.536040
0.224575 0.271422 0.546372
0.392211 0.286584 0.551326
0.591577 0.307764 0.552913
0.765056 0.333939 0.544545
0.894919 0.364697 0.518637
0.000000 0.409068 0.562804
0.038804 0.412344 0.566534
0.077427 0.419351 0.576065
0.199000 0.429647 0.585138
0.391284 0.442205 0.592652
0.605502 0.459816 0.595061
0.774061 0.478026 0.588821
0.901669 0.495730 0.568020
0.000197 0.558998 0.605461
0.039001 0.561362 0.607810
0.077613 0.566999 0.613715
0.159256 0.575651 0.622058
0.405072 0.586720 0.629017
0.622864 0.599970 0.634399
0.781828 0.612805 0.629387
0.904483 0.626284 0.608707
0.000559 0.692600 0.639461
0.039364 0.694591 0.641351
0.078062 0.698583 0.645230
0.182240 0.705856 0.651382
0.453886 0.715669 0.659650
0.647145 0.724511 0.664475
0.790661 0.733122 0.663002
0.905227 0.742034 0.650383
0.000000 0.810965 0.674366
0.038804 0.812311 0.676005
0.078335 0.815746 0.679349
0.316930 0.821021 0.684615
0.524274 0.826873 0.690463
0.678904 0.832834 0.692972
0.805104 0.838514 0.690488
0.910080 0.843976 0.680922
0.071086 0.912600 0.709589
0.166906 0.913821 0.710477
0.313067 0.915565 0.713090
0.461123 0.918727 0.716621
0.594685 0.922308 0.719370
0.715138 0.925992 0.720823
0.824058 0.928930 0.718285
0.918316 0.931532 0.707665
0.000000 0.053117 0.562267
0.041265 0.054714 0.598654
0.103405 0.058819 0.614942
0.204892 0.063089 0.631063
0.361577 0.076506 0.637555
0.544783 0.094025 0.643951
0.722989 0.116631 0.642462
0.849678 0.146292 0.632679
0.000315 0.158453 0.639235
0.047820 0.162131 0.660154
0.114466 0.165897 0.671163
0.208261 0.173525 0.684246
0.357515 0.188442 0.697342
0.552561 0.213671 0.704919
0.735528 0.245588 0.706955
0.867070 0.277535 0.696290
0.006284 0.283515 0.677790
0.047456 0.287668 0.687115
0.096294 0.293954 0.697185
0.171348 0.300435 0.712237
0.350940 0.313345 0.728481
0.561283 0.337844 0.734628
0.743619 0.368281 0.736312
0.876112 0.400185 0.730585
0.000000 0.437105 0.712026
0.038804 0.439509 0.717744
0.077427 0.445754 0.725456
0.134564 0.455511 0.737086
0.335565 0.466178 0.753953
0.571547 0.482704 0.764087
0.751787 0.503468 0.766058
0.880770 0.523799 0.759959
0.000000 0.579307 0.743737
0.038804 0.581513 0.747088
0.077427 0.586891 0.754192
0.117403 0.596336 0.764791
0.338133 0.607473 0.777469
0.587243 0.620083 0.789421
0.758678 0.634259 0.792780
0.884930 0.648497 0.787464
0.000477 0.707031 0.769870
0.039281 0.709377 0.772564
0.077968 0.714119 0.778304
0.120037 0.721447 0.786873
0.391250 0.731362 0.798359
0.614005 0.741109 0.808228
0.768524 0.750331 0.812692
0.887685 0.759921 0.811088
0.000574 0.819977 0.793506
0.039202 0.821148 0.795500
0.077809 0.825535 0.800265
0.216668 0.832446 0.808347
0.479751 0.839254 0.817396
0.650248 0.845949 0.824791
0.784760 0.852694 0.828589
0.894233 0.858923 0.827963
0.003626 0.921398 0.820024
0.055964 0.922968 0.820559
0.224159 0.924513 0.824153
0.413708 0.928177 0.829996
0.563385 0.931928 0.835567
0.692104 0.936200 0.840583
0.806774 0.939901 0.842836
0.904174 0.943137 0.842520
0.000000 0.081996 0.701044
0.039088 0.084187 0.728960
0.095348 0.085023 0.749372
0.183387 0.090106 0.769136
0.336449 0.102160 0.784710
0.520474 0.122154 0.795466
0.708577 0.146660 0.805194
0.840941 0.177470 0.802613
0.000000 0.190106 0.757389
0.041615 0.195003 0.782455
0.094513 0.198639 0.798860
0.170946 0.201023 0.814743
0.321897 0.214680 0.836573
0.524489 0.243438 0.844477
0.719293 0.276516 0.851107
0.854555 0.307955 0.849474
0.001848 0.315956 0.797513
0.040844 0.318581 0.805438
0.082600 0.324799 0.815117
0.131915 0.330753 0.829073
0.300337 0.339218 0.854207
0.526765 0.361047 0.868767
0.726786 0.392661 0.876574
0.862316 0.428177 0.874625
0.000000 0.461600 0.820546
0.038804 0.464070 0.824130
0.077427 0.469265 0.831256
0.116168 0.478349 0.844209
0.258561 0.487239 0.865814
0.531503 0.503585 0.879671
0.731417 0.523061 0.889106
0.868000 0.544911 0.891477
0.000000 0.596875 0.840090
0.038804 0.599436 0.842210
0.077427 0.604035 0.847888
0.116168 0.613627 0.861238
0.242036 0.624318 0.877322
0.546606 0.636066 0.891557
0.737465 0.650564 0.900230
0.869847 0.666045 0.902969
0.000898 0.719831 0.859482
0.039617 0.721436 0.861302
0.078266 0.726348 0.868410
0.116841 0.734599 0.879159
0.297829 0.743717 0.891390
0.578050 0.753408 0.903243
0.747642 0.762334 0.911947
0.874079 0.772540 0.915452
0.000000 0.831313 0.881831
0.038804 0.831800 0.884545
0.077464 0.836551 0.889597
0.122775 0.841944 0.897167
0.419752 0.848618 0.906820
0.619733 0.855748 0.916668
0.765012 0.862472 0.923468
0.881862 0.869620 0.926595
0.000066 0.928483 0.904037
0.038850 0.928963 0.904540
0.093796 0.931216 0.908148
0.343180 0.934620 0.914780
0.524371 0.938722 0.922315
0.667413 0.943045 0.928816
0.789403 0.947755 0.934658
0.892849 0.951017 0.937440
