gsg/03_Cinematic/GSG_LUT_Cinematic_Napalm_in_the_Morning.cube
# GSG LUTs 1.0
# Copyright (c) 2016-2020 Greyscalegorilla
# See EULA for licensing and distribution information
# Converted by Briz LUT Converter
LUT_3D_SIZE 8
DOMAIN_MIN 0.000000 0.000000 0.000000
DOMAIN_MAX 0.903226 0.903226 0.903226
0.045421 0.060806 0.018315
0.214211 0.060806 0.018315
0.347072 0.060806 0.018315
0.463390 0.060806 0.018315
0.532483 0.060806 0.018315
0.591453 0.060806 0.018315
0.650494 0.060806 0.018315
0.735752 0.060806 0.018315
0.045421 0.131915 0.018315
0.214211 0.131915 0.018315
0.347072 0.131915 0.018315
0.463390 0.131915 0.018315
0.532483 0.131915 0.018315
0.591453 0.131915 0.018315
0.650494 0.131915 0.018315
0.735752 0.131915 0.018315
0.045421 0.222317 0.018315
0.214211 0.222317 0.018315
0.347072 0.222317 0.018315
0.463390 0.222317 0.018315
0.532483 0.222317 0.018315
0.591453 0.222317 0.018315
0.650494 0.222317 0.018315
0.735752 0.222317 0.018315
0.045421 0.308961 0.018315
0.214211 0.308961 0.018315
0.347072 0.308961 0.018315
0.463390 0.308961 0.018315
0.532483 0.308961 0.018315
0.591453 0.308961 0.018315
0.650494 0.308961 0.018315
0.735752 0.308961 0.018315
0.045421 0.381811 0.018315
0.214211 0.381811 0.018315
0.347072 0.381811 0.018315
0.463390 0.381811 0.018315
0.532483 0.381811 0.018315
0.591453 0.381811 0.018315
0.650494 0.381811 0.018315
0.735752 0.381811 0.018315
0.045421 0.458687 0.018315
0.214211 0.458687 0.018315
0.347072 0.458687 0.018315
0.463390 0.458687 0.018315
0.532483 0.458687 0.018315
0.591453 0.458687 0.018315
0.650494 0.458687 0.018315
0.735752 0.458687 0.018315
0.045421 0.538406 0.018315
0.214211 0.538406 0.018315
0.347072 0.538406 0.018315
0.463390 0.538406 0.018315
0.532483 0.538406 0.018315
0.591453 0.538406 0.018315
0.650494 0.538406 0.018315
0.735752 0.538406 0.018315
0.045421 0.608634 0.018315
0.214211 0.608634 0.018315
0.347072 0.608634 0.018315
0.463390 0.608634 0.018315
0.532483 0.608634 0.018315
0.591453 0.608634 0.018315
0.650494 0.608634 0.018315
0.735752 0.608634 0.018315
0.045421 0.060806 0.041514
0.214211 0.060806 0.041514
0.347072 0.060806 0.041514
0.463390 0.060806 0.041514
0.532483 0.060806 0.041514
0.591453 0.060806 0.041514
0.650494 0.060806 0.041514
0.735752 0.060806 0.041514
0.045421 0.131915 0.041514
0.214211 0.131915 0.041514
0.347072 0.131915 0.041514
0.463390 0.131915 0.041514
0.532483 0.131915 0.041514
0.591453 0.131915 0.041514
0.650494 0.131915 0.041514
0.735752 0.131915 0.041514
0.045421 0.222317 0.041514
0.214211 0.222317 0.041514
0.347072 0.222317 0.041514
0.463390 0.222317 0.041514
0.532483 0.222317 0.041514
0.591453 0.222317 0.041514
0.650494 0.222317 0.041514
0.735752 0.222317 0.041514
0.045421 0.308961 0.041514
0.214211 0.308961 0.041514
0.347072 0.308961 0.041514
0.463390 0.308961 0.041514
0.532483 0.308961 0.041514
0.591453 0.308961 0.041514
0.650494 0.308961 0.041514
0.735752 0.308961 0.041514
0.045421 0.381811 0.041514
0.214211 0.381811 0.041514
0.347072 0.381811 0.041514
0.463390 0.381811 0.041514
0.532483 0.381811 0.041514
0.591453 0.381811 0.041514
0.650494 0.381811 0.041514
0.735752 0.381811 0.041514
0.045421 0.458687 0.041514
0.214211 0.458687 0.041514
0.347072 0.458687 0.041514
0.463390 0.458687 0.041514
0.532483 0.458687 0.041514
0.591453 0.458687 0.041514
0.650494 0.458687 0.041514
0.735752 0.458687 0.041514
0.045421 0.538406 0.041514
0.214211 0.538406 0.041514
0.347072 0.538406 0.041514
0.463390 0.538406 0.041514
0.532483 0.538406 0.041514
0.591453 0.538406 0.041514
0.650494 0.538406 0.041514
0.735752 0.538406 0.041514
0.045421 0.608634 0.041514
0.214211 0.608634 0.041514
0.347072 0.608634 0.041514
0.463390 0.608634 0.041514
0.532483 0.608634 0.041514
0.591453 0.608634 0.041514
0.650494 0.608634 0.041514
0.735752 0.608634 0.041514
0.045421 0.060806 0.103541
0.214211 0.060806 0.103541
0.347072 0.060806 0.103541
0.463390 0.060806 0.103541
0.532483 0.060806 0.103541
0.591453 0.060806 0.103541
0.650494 0.060806 0.103541
0.735752 0.060806 0.103541
0.045421 0.131915 0.103541
0.214211 0.131915 0.103541
0.347072 0.131915 0.103541
0.463390 0.131915 0.103541
0.532483 0.131915 0.103541
0.591453 0.131915 0.103541
0.650494 0.131915 0.103541
0.735752 0.131915 0.103541
0.045421 0.222317 0.103541
0.214211 0.222317 0.103541
0.347072 0.222317 0.103541
0.463390 0.222317 0.103541
0.532483 0.222317 0.103541
0.591453 0.222317 0.103541
0.650494 0.222317 0.103541
0.735752 0.222317 0.103541
0.045421 0.308961 0.103541
0.214211 0.308961 0.103541
0.347072 0.308961 0.103541
0.463390 0.308961 0.103541
0.532483 0.308961 0.103541
0.591453 0.308961 0.103541
0.650494 0.308961 0.103541
0.735752 0.308961 0.103541
0.045421 0.381811 0.103541
0.214211 0.381811 0.103541
0.347072 0.381811 0.103541
0.463390 0.381811 0.103541
0.532483 0.381811 0.103541
0.591453 0.381811 0.103541
0.650494 0.381811 0.103541
0.735752 0.381811 0.103541
0.045421 0.458687 0.103541
0.214211 0.458687 0.103541
0.347072 0.458687 0.103541
0.463390 0.458687 0.103541
0.532483 0.458687 0.103541
0.591453 0.458687 0.103541
0.650494 0.458687 0.103541
0.735752 0.458687 0.103541
0.045421 0.538406 0.103541
0.214211 0.538406 0.103541
0.347072 0.538406 0.103541
0.463390 0.538406 0.103541
0.532483 0.538406 0.103541
0.591453 0.538406 0.103541
0.650494 0.538406 0.103541
0.735752 0.538406 0.103541
0.045421 0.608634 0.103541
0.214211 0.608634 0.103541
0.347072 0.608634 0.103541
0.463390 0.608634 0.103541
0.532483 0.608634 0.103541
0.591453 0.608634 0.103541
0.650494 0.608634 0.103541
0.735752 0.608634 0.103541
0.045421 0.060806 0.149695
0.214211 0.060806 0.149695
0.347072 0.060806 0.149695
0.463390 0.060806 0.149695
0.532483 0.060806 0.149695
0.591453 0.060806 0.149695
0.650494 0.060806 0.149695
0.735752 0.060806 0.149695
0.045421 0.131915 0.149695
0.214211 0.131915 0.149695
0.347072 0.131915 0.149695
0.463390 0.131915 0.149695
0.532483 0.131915 0.149695
0.591453 0.131915 0.149695
0.650494 0.131915 0.149695
0.735752 0.131915 0.149695
0.045421 0.222317 0.149695
0.214211 0.222317 0.149695
0.347072 0.222317 0.149695
0.463390 0.222317 0.149695
0.532483 0.222317 0.149695
0.591453 0.222317 0.149695
0.650494 0.222317 0.149695
0.735752 0.222317 0.149695
0.045421 0.308961 0.149695
0.214211 0.308961 0.149695
0.347072 0.308961 0.149695
0.463390 0.308961 0.149695
0.532483 0.308961 0.149695
0.591453 0.308961 0.149695
0.650494 0.308961 0.149695
0.735752 0.308961 0.149695
0.045421 0.381811 0.149695
0.214211 0.381811 0.149695
0.347072 0.381811 0.149695
0.463390 0.381811 0.149695
0.532483 0.381811 0.149695
0.591453 0.381811 0.149695
0.650494 0.381811 0.149695
0.735752 0.381811 0.149695
0.045421 0.458687 0.149695
0.214211 0.458687 0.149695
0.347072 0.458687 0.149695
0.463390 0.458687 0.149695
0.532483 0.458687 0.149695
0.591453 0.458687 0.149695
0.650494 0.458687 0.149695
0.735752 0.458687 0.149695
0.045421 0.538406 0.149695
0.214211 0.538406 0.149695
0.347072 0.538406 0.149695
0.463390 0.538406 0.149695
0.532483 0.538406 0.149695
0.591453 0.538406 0.149695
0.650494 0.538406 0.149695
0.735752 0.538406 0.149695
0.045421 0.608634 0.149695
0.214211 0.608634 0.149695
0.347072 0.608634 0.149695
0.463390 0.608634 0.149695
0.532483 0.608634 0.149695
0.591453 0.608634 0.149695
0.650494 0.608634 0.149695
0.735752 0.608634 0.149695
0.045421 0.060806 0.200000
0.214211 0.060806 0.200000
0.347072 0.060806 0.200000
0.463390 0.060806 0.200000
0.532483 0.060806 0.200000
0.591453 0.060806 0.200000
0.650494 0.060806 0.200000
0.735752 0.060806 0.200000
0.045421 0.131915 0.200000
0.214211 0.131915 0.200000
0.347072 0.131915 0.200000
0.463390 0.131915 0.200000
0.532483 0.131915 0.200000
0.591453 0.131915 0.200000
0.650494 0.131915 0.200000
0.735752 0.131915 0.200000
0.045421 0.222317 0.200000
0.214211 0.222317 0.200000
0.347072 0.222317 0.200000
0.463390 0.222317 0.200000
0.532483 0.222317 0.200000
0.591453 0.222317 0.200000
0.650494 0.222317 0.200000
0.735752 0.222317 0.200000
0.045421 0.308961 0.200000
0.214211 0.308961 0.200000
0.347072 0.308961 0.200000
0.463390 0.308961 0.200000
0.532483 0.308961 0.200000
0.591453 0.308961 0.200000
0.650494 0.308961 0.200000
0.735752 0.308961 0.200000
0.045421 0.381811 0.200000
0.214211 0.381811 0.200000
0.347072 0.381811 0.200000
0.463390 0.381811 0.200000
0.532483 0.381811 0.200000
0.591453 0.381811 0.200000
0.650494 0.381811 0.200000
0.735752 0.381811 0.200000
0.045421 0.458687 0.200000
0.214211 0.458687 0.200000
0.347072 0.458687 0.200000
0.463390 0.458687 0.200000
0.532483 0.458687 0.200000
0.591453 0.458687 0.200000
0.650494 0.458687 0.200000
0.735752 0.458687 0.200000
0.045421 0.538406 0.200000
0.214211 0.538406 0.200000
0.347072 0.538406 0.200000
0.463390 0.538406 0.200000
0.532483 0.538406 0.200000
0.591453 0.538406 0.200000
0.650494 0.538406 0.200000
0.735752 0.538406 0.200000
0.045421 0.608634 0.200000
0.214211 0.608634 0.200000
0.347072 0.608634 0.200000
0.463390 0.608634 0.200000
0.532483 0.608634 0.200000
0.591453 0.608634 0.200000
0.650494 0.608634 0.200000
0.735752 0.608634 0.200000
0.045421 0.060806 0.277411
0.214211 0.060806 0.277411
0.347072 0.060806 0.277411
0.463390 0.060806 0.277411
0.532483 0.060806 0.277411
0.591453 0.060806 0.277411
0.650494 0.060806 0.277411
0.735752 0.060806 0.277411
0.045421 0.131915 0.277411
0.214211 0.131915 0.277411
0.347072 0.131915 0.277411
0.463390 0.131915 0.277411
0.532483 0.131915 0.277411
0.591453 0.131915 0.277411
0.650494 0.131915 0.277411
0.735752 0.131915 0.277411
0.045421 0.222317 0.277411
0.214211 0.222317 0.277411
0.347072 0.222317 0.277411
0.463390 0.222317 0.277411
0.532483 0.222317 0.277411
0.591453 0.222317 0.277411
0.650494 0.222317 0.277411
0.735752 0.222317 0.277411
0.045421 0.308961 0.277411
0.214211 0.308961 0.277411
0.347072 0.308961 0.277411
0.463390 0.308961 0.277411
0.532483 0.308961 0.277411
0.591453 0.308961 0.277411
0.650494 0.308961 0.277411
0.735752 0.308961 0.277411
0.045421 0.381811 0.277411
0.214211 0.381811 0.277411
0.347072 0.381811 0.277411
0.463390 0.381811 0.277411
0.532483 0.381811 0.277411
0.591453 0.381811 0.277411
0.650494 0.381811 0.277411
0.735752 0.381811 0.277411
0.045421 0.458687 0.277411
0.214211 0.458687 0.277411
0.347072 0.458687 0.277411
0.463390 0.458687 0.277411
0.532483 0.458687 0.277411
0.591453 0.458687 0.277411
0.650494 0.458687 0.277411
0.735752 0.458687 0.277411
0.045421 0.538406 0.277411
0.214211 0.538406 0.277411
0.347072 0.538406 0.277411
0.463390 0.538406 0.277411
0.532483 0.538406 0.277411
0.591453 0.538406 0.277411
0.650494 0.538406 0.277411
0.735752 0.538406 0.277411
0.045421 0.608634 0.277411
0.214211 0.608634 0.277411
0.347072 0.608634 0.277411
0.463390 0.608634 0.277411
0.532483 0.608634 0.277411
0.591453 0.608634 0.277411
0.650494 0.608634 0.277411
0.735752 0.608634 0.277411
0.045421 0.060806 0.377778
0.214211 0.060806 0.377778
0.347072 0.060806 0.377778
0.463390 0.060806 0.377778
0.532483 0.060806 0.377778
0.591453 0.060806 0.377778
0.650494 0.060806 0.377778
0.735752 0.060806 0.377778
0.045421 0.131915 0.377778
0.214211 0.131915 0.377778
0.347072 0.131915 0.377778
0.463390 0.131915 0.377778
0.532483 0.131915 0.377778
0.591453 0.131915 0.377778
0.650494 0.131915 0.377778
0.735752 0.131915 0.377778
0.045421 0.222317 0.377778
0.214211 0.222317 0.377778
0.347072 0.222317 0.377778
0.463390 0.222317 0.377778
0.532483 0.222317 0.377778
0.591453 0.222317 0.377778
0.650494 0.222317 0.377778
0.735752 0.222317 0.377778
0.045421 0.308961 0.377778
0.214211 0.308961 0.377778
0.347072 0.308961 0.377778
0.463390 0.308961 0.377778
0.532483 0.308961 0.377778
0.591453 0.308961 0.377778
0.650494 0.308961 0.377778
0.735752 0.308961 0.377778
0.045421 0.381811 0.377778
0.214211 0.381811 0.377778
0.347072 0.381811 0.377778
0.463390 0.381811 0.377778
0.532483 0.381811 0.377778
0.591453 0.381811 0.377778
0.650494 0.381811 0.377778
0.735752 0.381811 0.377778
0.045421 0.458687 0.377778
0.214211 0.458687 0.377778
0.347072 0.458687 0.377778
0.463390 0.458687 0.377778
0.532483 0.458687 0.377778
0.591453 0.458687 0.377778
0.650494 0.458687 0.377778
0.735752 0.458687 0.377778
0.045421 0.538406 0.377778
0.214211 0.538406 0.377778
0.347072 0.538406 0.377778
0.463390 0.538406 0.377778
0.532483 0.538406 0.377778
0.591453 0.538406 0.377778
0.650494 0.538406 0.377778
0.735752 0.538406 0.377778
0.045421 0.608634 0.377778
0.214211 0.608634 0.377778
0.347072 0.608634 0.377778
0.463390 0.608634 0.377778
0.532483 0.608634 0.377778
0.591453 0.608634 0.377778
0.650494 0.608634 0.377778
0.735752 0.608634 0.377778
0.045421 0.060806 0.756532
0.214211 0.060806 0.756532
0.347072 0.060806 0.756532
0.463390 0.060806 0.756532
0.532483 0.060806 0.756532
0.591453 0.060806 0.756532
0.650494 0.060806 0.756532
0.735752 0.060806 0.756532
0.045421 0.131915 0.756532
0.214211 0.131915 0.756532
0.347072 0.131915 0.756532
0.463390 0.131915 0.756532
0.532483 0.131915 0.756532
0.591453 0.131915 0.756532
0.650494 0.131915 0.756532
0.735752 0.131915 0.756532
0.045421 0.222317 0.756532
0.214211 0.222317 0.756532
0.347072 0.222317 0.756532
0.463390 0.222317 0.756532
0.532483 0.222317 0.756532
0.591453 0.222317 0.756532
0.650494 0.222317 0.756532
0.735752 0.222317 0.756532
0.045421 0.308961 0.756532
0.214211 0.308961 0.756532
0.347072 0.308961 0.756532
0.463390 0.308961 0.756532
0.532483 0.308961 0.756532
0.591453 0.308961 0.756532
0.650494 0.308961 0.756532
0.735752 0.308961 0.756532
0.045421 0.381811 0.756532
0.214211 0.381811 0.756532
0.347072 0.381811 0.756532
0.463390 0.381811 0.756532
0.532483 0.381811 0.756532
0.591453 0.381811 0.756532
0.650494 0.381811 0.756532
0.735752 0.381811 0.756532
0.045421 0.458687 0.756532
0.214211 0.458687 0.756532
0.347072 0.458687 0.756532
0.463390 0.458687 0.756532
0.532483 0.458687 0.756532
0.591453 0.458687 0.756532
0.650494 0.458687 0.756532
0.735752 0.458687 0.756532
0.045421 0.538406 0.756532
0.214211 0.538406 0.756532
0.347072 0.538406 0.756532
0.463390 0.538406 0.756532
0.532483 0.538406 0.756532
0.591453 0.538406 0.756532
0.650494 0.538406 0.756532
0.735752 0.538406 0.756532
0.045421 0.608634 0.756532
0.214211 0.608634 0.756532
0.347072 0.608634 0.756532
0.463390 0.608634 0.756532
0.532483 0.608634 0.756532
0.591453 0.608634 0.756532
0.650494 0.608634 0.756532
0.735752 0.608634 0.756532
