gsg/03_Cinematic/GSG_LUT_Cinematic_ArcticSplendor.cube
# GSG LUTs 1.0
# Copyright (c) 2016-2020 Greyscalegorilla
# See EULA for licensing and distribution information
# Converted by Briz LUT Converter
LUT_3D_SIZE 32
0.000000 0.000000 0.003175
0.000000 0.000000 0.008980
0.000000 0.000583 0.015345
0.003498 0.010217 0.026508
0.041404 0.022348 0.037883
0.082555 0.030935 0.045673
0.117610 0.038009 0.051786
0.147591 0.043838 0.056859
0.174438 0.048816 0.061082
0.199653 0.053464 0.064973
0.223443 0.057671 0.068423
0.246453 0.061704 0.071700
0.268636 0.065643 0.074977
0.290512 0.069424 0.078152
0.311938 0.073095 0.081177
0.333129 0.076387 0.084084
0.354051 0.079412 0.086857
0.374839 0.082303 0.089629
0.395652 0.085076 0.092260
0.416574 0.087699 0.094931
0.437497 0.090063 0.097546
0.458419 0.092166 0.100067
0.479688 0.094183 0.102761
0.501115 0.096018 0.105353
0.522919 0.097593 0.108063
0.544850 0.099106 0.110638
0.567395 0.100618 0.113364
0.589870 0.102131 0.115924
0.613187 0.103423 0.118445
0.636402 0.104683 0.121194
0.660538 0.105707 0.123731
0.684737 0.106960 0.126496
0.000000 0.000213 0.002678
0.000000 0.001764 0.008216
0.000000 0.008299 0.014216
0.001766 0.018616 0.023595
0.023735 0.029147 0.033623
0.067283 0.037903 0.041843
0.107210 0.045872 0.049111
0.139133 0.051847 0.054592
0.166428 0.056566 0.058821
0.191833 0.060882 0.062712
0.215629 0.064732 0.066241
0.238725 0.068575 0.069681
0.261066 0.071997 0.072858
0.282945 0.075262 0.075883
0.304376 0.078527 0.078908
0.325688 0.081559 0.081815
0.346745 0.084324 0.084588
0.367805 0.087089 0.087365
0.388847 0.089716 0.090141
0.409930 0.092237 0.093064
0.431271 0.094605 0.095936
0.452711 0.097042 0.098717
0.474321 0.099227 0.101498
0.496195 0.101436 0.104279
0.518520 0.103529 0.107060
0.540971 0.105562 0.110032
0.563832 0.107589 0.112852
0.586993 0.109408 0.115632
0.610648 0.111195 0.118192
0.634589 0.113198 0.120942
0.659261 0.115002 0.123486
0.684225 0.116791 0.126244
0.000000 0.007570 0.002537
0.000000 0.013107 0.007570
0.000000 0.019012 0.013016
0.000133 0.027310 0.021027
0.007036 0.036079 0.029351
0.052544 0.045193 0.038182
0.096955 0.054000 0.046574
0.130714 0.060113 0.052503
0.158274 0.064583 0.056914
0.183946 0.068644 0.060810
0.207914 0.072168 0.064346
0.231021 0.075507 0.067696
0.253368 0.078522 0.070731
0.275355 0.081438 0.073756
0.296931 0.084298 0.076781
0.318359 0.087062 0.079688
0.339659 0.089574 0.082469
0.360850 0.092086 0.085383
0.382173 0.094591 0.088267
0.403610 0.097095 0.091189
0.425200 0.099600 0.094204
0.447055 0.102104 0.097223
0.469013 0.104620 0.100248
0.491315 0.107129 0.103261
0.514140 0.109634 0.106270
0.537096 0.112138 0.109291
0.560461 0.114438 0.112098
0.583934 0.116704 0.115068
0.608263 0.119179 0.117870
0.632730 0.121470 0.120628
0.657922 0.123960 0.123385
0.683390 0.126480 0.125913
0.000000 0.023246 0.004073
0.000000 0.028484 0.008868
0.000000 0.033637 0.013970
0.000000 0.040825 0.020746
0.004551 0.048246 0.028141
0.042813 0.057344 0.037106
0.088918 0.066170 0.046138
0.123723 0.072283 0.052256
0.151633 0.076695 0.056692
0.177651 0.080579 0.060665
0.201717 0.084005 0.064280
0.224995 0.087084 0.067573
0.247430 0.089927 0.070764
0.269568 0.092723 0.073794
0.291260 0.095230 0.076805
0.312714 0.097621 0.079723
0.334027 0.099992 0.082634
0.355466 0.102354 0.085646
0.376903 0.104599 0.088532
0.398494 0.106843 0.091450
0.420197 0.109087 0.094309
0.442215 0.111331 0.097231
0.464571 0.113732 0.100248
0.487041 0.116041 0.103092
0.510056 0.118285 0.105846
0.533266 0.120529 0.108773
0.556891 0.122569 0.111379
0.580803 0.124774 0.114092
0.605234 0.127018 0.116840
0.629941 0.129284 0.119382
0.655614 0.131530 0.121880
0.681350 0.133995 0.124400
0.000000 0.039726 0.006026
0.000000 0.044482 0.010745
0.000000 0.049283 0.015373
0.000000 0.055235 0.021357
0.003412 0.061538 0.027720
0.034183 0.070419 0.036853
0.081421 0.079398 0.046050
0.116923 0.085486 0.052243
0.145418 0.089889 0.056915
0.171570 0.093677 0.061011
0.195864 0.096853 0.064550
0.219303 0.099705 0.068003
0.241770 0.102308 0.071259
0.264007 0.104856 0.074345
0.285823 0.107207 0.077246
0.307401 0.109457 0.080271
0.328844 0.111583 0.083280
0.350419 0.113703 0.086173
0.371975 0.115701 0.089083
0.393714 0.117705 0.091926
0.415665 0.119701 0.094687
0.437794 0.121685 0.097438
0.460160 0.123669 0.100352
0.482981 0.125653 0.103163
0.506117 0.127637 0.105739
0.529530 0.129621 0.108234
0.553416 0.131453 0.110722
0.577423 0.133408 0.113238
0.602289 0.135392 0.115730
0.627277 0.137605 0.118219
0.653211 0.139605 0.120501
0.679208 0.141620 0.122982
0.000000 0.058789 0.009343
0.000000 0.063239 0.013635
0.000000 0.067541 0.018192
0.000000 0.072717 0.023656
0.002755 0.078302 0.029499
0.028905 0.086663 0.038152
0.075190 0.095349 0.047178
0.110783 0.101233 0.053552
0.139874 0.105591 0.058309
0.166552 0.109178 0.062574
0.190902 0.112175 0.066210
0.214416 0.115012 0.069745
0.237103 0.117492 0.072890
0.259397 0.119887 0.076064
0.281208 0.122045 0.079089
0.302922 0.124043 0.082095
0.324495 0.126039 0.084974
0.346195 0.128012 0.087859
0.367892 0.129852 0.090724
0.389744 0.131742 0.093348
0.411848 0.133585 0.096000
0.434223 0.135323 0.098594
0.456698 0.137075 0.101232
0.479688 0.138810 0.103772
0.502910 0.140565 0.106252
0.526535 0.142298 0.108567
0.550681 0.144226 0.110835
0.575134 0.145990 0.113248
0.600252 0.147749 0.115538
0.625534 0.149705 0.117770
0.651730 0.151483 0.119998
0.677987 0.153452 0.122266
0.000000 0.079034 0.013061
0.000000 0.083017 0.017299
0.000000 0.086987 0.021625
0.000000 0.091490 0.026574
0.002252 0.096480 0.031933
0.024653 0.104078 0.040042
0.069013 0.112182 0.048738
0.104637 0.117912 0.055190
0.134659 0.122360 0.060227
0.161804 0.126053 0.064587
0.186427 0.128922 0.068368
0.209990 0.131655 0.071976
0.232707 0.133906 0.075253
0.255087 0.136126 0.078428
0.277018 0.138257 0.081431
0.298830 0.140132 0.084312
0.320533 0.141974 0.087085
0.342369 0.143726 0.089832
0.364185 0.145374 0.092556
0.386183 0.147090 0.095159
0.408396 0.148806 0.097650
0.430927 0.150388 0.100122
0.453647 0.152040 0.102420
0.476745 0.153610 0.104675
0.500174 0.155275 0.106907
0.524060 0.156832 0.109127
0.548426 0.158549 0.111347
0.573132 0.160101 0.113396
0.598368 0.161791 0.115590
0.624042 0.163551 0.117626
0.650554 0.165270 0.119642
0.677073 0.167033 0.121856
0.000000 0.100933 0.017708
0.000000 0.104652 0.021748
0.000000 0.108217 0.025996
0.000000 0.112324 0.030551
0.001837 0.116661 0.035578
0.020695 0.123244 0.042800
0.061171 0.130235 0.050557
0.097122 0.136014 0.057180
0.129518 0.140800 0.062897
0.157785 0.144574 0.067525
0.182370 0.147463 0.071289
0.206137 0.150026 0.074859
0.228981 0.152200 0.078136
0.251361 0.154193 0.081288
0.273292 0.156153 0.084170
0.295131 0.157930 0.086943
0.316964 0.159568 0.089688
0.338895 0.161276 0.092270
0.360826 0.162874 0.094733
0.382940 0.164352 0.097197
0.405302 0.165843 0.099504
0.427939 0.167356 0.101715
0.450856 0.168829 0.103793
0.474215 0.170326 0.105950
0.497904 0.171838 0.108015
0.522006 0.173306 0.109987
0.546502 0.174967 0.111993
0.571445 0.176510 0.113962
0.597119 0.178022 0.115971
0.622888 0.179763 0.117937
0.649785 0.181291 0.119950
0.676624 0.182993 0.121966
0.000000 0.123936 0.022876
0.000000 0.127398 0.026909
0.000000 0.130805 0.030970
0.000000 0.134369 0.035442
0.001511 0.138413 0.040119
0.017321 0.143565 0.046294
0.053246 0.149344 0.052877
0.089452 0.155105 0.059605
0.124678 0.160573 0.066005
0.154140 0.164433 0.071073
0.178904 0.167127 0.074820
0.202670 0.169539 0.078240
0.225515 0.171648 0.081452
0.247895 0.173524 0.084485
0.269854 0.175289 0.087258
0.291789 0.177023 0.089970
0.313687 0.178596 0.092519
0.335652 0.180078 0.094876
0.357648 0.181554 0.097108
0.379905 0.182929 0.099311
0.402380 0.184331 0.101398
0.425168 0.185778 0.103372
0.448325 0.187097 0.105324
0.471897 0.188538 0.107322
0.495830 0.190002 0.109290
0.520040 0.191354 0.111095
0.544919 0.192779 0.113012
0.570152 0.194281 0.114806
0.596087 0.195793 0.116734
0.622116 0.197475 0.118516
0.649151 0.199000 0.120517
0.676372 0.200512 0.122470
0.000000 0.148308 0.028634
0.000000 0.151436 0.032597
0.000000 0.154483 0.036641
0.000000 0.157873 0.040860
0.001455 0.161405 0.045285
0.016205 0.165577 0.050712
0.048462 0.170462 0.056460
0.084328 0.176044 0.063067
0.120834 0.181617 0.069747
0.150805 0.185509 0.074846
0.175721 0.188129 0.078672
0.199535 0.190429 0.082002
0.222352 0.192351 0.084982
0.244718 0.194086 0.087845
0.266769 0.195777 0.090503
0.288711 0.197385 0.092967
0.310552 0.198771 0.095199
0.332616 0.200127 0.097429
0.354799 0.201465 0.099482
0.377175 0.202832 0.101426
0.399795 0.204159 0.103369
0.422696 0.205420 0.105195
0.446004 0.206680 0.106960
0.469681 0.208069 0.108853
0.493828 0.209374 0.110607
0.518297 0.210831 0.112356
0.543437 0.212139 0.114120
0.568868 0.213612 0.115823
0.595054 0.215061 0.117578
0.621410 0.216566 0.119343
0.648816 0.218079 0.121275
0.676190 0.219591 0.123116
0.000000 0.173847 0.035015
0.000000 0.176625 0.038804
0.000000 0.179569 0.042837
0.000000 0.182528 0.046887
0.001615 0.185684 0.051165
0.016959 0.189173 0.055975
0.046440 0.193148 0.061090
0.081348 0.198425 0.067413
0.117818 0.203887 0.074032
0.147882 0.207799 0.079059
0.172910 0.210241 0.082705
0.196813 0.212395 0.085946
0.219543 0.214236 0.088732
0.241891 0.215849 0.091402
0.263917 0.217362 0.093710
0.285848 0.218836 0.095908
0.307779 0.220182 0.097969
0.329844 0.221399 0.099984
0.352072 0.222624 0.101824
0.374587 0.223836 0.103588
0.397325 0.225066 0.105302
0.420371 0.226326 0.106985
0.443791 0.227531 0.108724
0.467678 0.228768 0.110430
0.492024 0.230029 0.111986
0.516736 0.231423 0.113631
0.542069 0.232781 0.115381
0.567666 0.234198 0.117001
0.594029 0.235551 0.118815
0.620726 0.237121 0.120661
0.648155 0.238715 0.122660
0.675797 0.240309 0.124755
0.000000 0.200079 0.041829
0.000000 0.202762 0.045615
0.000000 0.205451 0.049559
0.000000 0.208216 0.053511
0.001932 0.210951 0.057554
0.019066 0.214024 0.061700
0.046431 0.217256 0.066294
0.079906 0.222018 0.072134
0.115534 0.227258 0.078446
0.145331 0.230919 0.083296
0.170475 0.233333 0.086769
0.194320 0.235370 0.089834
0.216974 0.237040 0.092382
0.239300 0.238516 0.094808
0.261231 0.239939 0.096916
0.283162 0.241286 0.098891
0.305093 0.242501 0.100737
0.327205 0.243633 0.102454
0.349518 0.244772 0.104129
0.372120 0.245847 0.105804
0.394998 0.247012 0.107377
0.418161 0.248214 0.108890
0.441727 0.249273 0.110514
0.465784 0.250463 0.112008
0.490240 0.251723 0.113498
0.515175 0.252984 0.115010
0.540630 0.254376 0.116655
0.566529 0.255737 0.118481
0.592856 0.257386 0.120869
0.619382 0.259306 0.123333
0.646548 0.261333 0.126437
0.673670 0.263453 0.129426
0.000000 0.227492 0.049234
0.000000 0.229915 0.052921
0.000000 0.232348 0.056696
0.000000 0.234921 0.060403
0.002432 0.237449 0.064307
0.022713 0.240026 0.068015
0.048560 0.242859 0.072089
0.080150 0.247006 0.077387
0.113802 0.251604 0.083105
0.142995 0.254961 0.087554
0.168237 0.257324 0.090858
0.192113 0.259220 0.093643
0.214644 0.260829 0.095947
0.236874 0.262200 0.098074
0.258805 0.263405 0.099993
0.280690 0.264620 0.101794
0.302572 0.265706 0.103461
0.324771 0.266796 0.105045
0.347119 0.267872 0.106503
0.369732 0.268880 0.107976
0.392696 0.269985 0.109427
0.415999 0.271111 0.110842
0.439683 0.272149 0.112324
0.463838 0.273269 0.113726
0.488513 0.274505 0.115199
0.513632 0.275765 0.116788
0.539329 0.277105 0.118398
0.565268 0.278675 0.120516
0.591368 0.280812 0.124001
0.617398 0.283164 0.127757
0.643708 0.286041 0.132559
0.669983 0.289102 0.137524
0.000000 0.255630 0.056899
0.000000 0.257797 0.060432
0.000000 0.260059 0.064092
0.000129 0.262245 0.067529
0.004178 0.264629 0.071081
0.027105 0.266792 0.074504
0.051702 0.269199 0.078104
0.080744 0.272750 0.082613
0.111745 0.276476 0.087457
0.140184 0.279600 0.091518
0.166116 0.282069 0.094756
0.190211 0.283945 0.097365
0.212541 0.285352 0.099437
0.234708 0.286597 0.101395
0.256592 0.287669 0.103054
0.278398 0.288755 0.104594
0.300203 0.289763 0.106054
0.322352 0.290715 0.107510
0.344787 0.291677 0.108835
0.367434 0.292686 0.110182
0.390410 0.293628 0.111497
0.413800 0.294696 0.112757
0.437623 0.295750 0.114119
0.462008 0.296834 0.115753
0.486864 0.298137 0.117636
0.512017 0.299586 0.119933
0.537753 0.301349 0.122504
0.563522 0.303302 0.125574
0.589368 0.305847 0.129995
0.615093 0.308569 0.134826
0.640904 0.312049 0.140763
0.666761 0.315680 0.146812
0.000000 0.284478 0.064713
0.000000 0.286388 0.068128
0.000000 0.288534 0.071535
0.000553 0.290553 0.074801
0.008676 0.292591 0.077964
0.032317 0.294590 0.081092
0.055998 0.296618 0.084122
0.082045 0.299243 0.087647
0.109412 0.302087 0.091442
0.136998 0.304959 0.095088
0.164091 0.307574 0.098417
0.188649 0.309496 0.100965
0.210789 0.310714 0.102825
0.232755 0.311804 0.104502
0.254462 0.312813 0.105965
0.276198 0.313768 0.107298
0.298003 0.314662 0.108628
0.320084 0.315483 0.109893
0.342454 0.316381 0.111103
0.365210 0.317322 0.112296
0.388263 0.318201 0.113514
0.411737 0.319162 0.114774
0.435684 0.320170 0.116035
0.460207 0.321360 0.118002
0.485100 0.322980 0.120881
0.510252 0.324828 0.124561
0.535777 0.327209 0.129002
0.561259 0.329705 0.133697
0.586840 0.332642 0.139096
0.612438 0.335768 0.144719
0.638272 0.339380 0.150979
0.663988 0.343156 0.157257
0.000000 0.313939 0.072527
0.000000 0.315708 0.075683
0.000000 0.317602 0.078830
0.001137 0.319485 0.081851
0.014660 0.321250 0.084739
0.037903 0.323003 0.087479
0.060889 0.324693 0.090048
0.084639 0.326616 0.092858
0.108999 0.328736 0.095799
0.135463 0.331246 0.098903
0.162783 0.333823 0.102069
0.187331 0.335623 0.104539
0.209297 0.336713 0.106133
0.231003 0.337672 0.107546
0.252503 0.338558 0.108811
0.274052 0.339383 0.110014
0.295734 0.340078 0.111153
0.317815 0.340778 0.112222
0.340108 0.341607 0.113303
0.362962 0.342488 0.114654
0.386351 0.343524 0.116308
0.410117 0.344654 0.118216
0.434319 0.345869 0.120376
0.459003 0.347390 0.123343
0.483926 0.349309 0.127266
0.509079 0.351516 0.132004
0.534491 0.354193 0.137529
0.559848 0.357069 0.143196
0.585400 0.360298 0.149305
0.610871 0.363685 0.155477
0.636567 0.367557 0.162000
0.662279 0.371460 0.168671
0.000000 0.343936 0.080342
0.000000 0.345571 0.083233
0.000000 0.347213 0.085990
0.001747 0.348966 0.088632
0.020914 0.350569 0.091244
0.043806 0.351971 0.093634
0.066394 0.353482 0.095976
0.088412 0.354958 0.098107
0.110593 0.356460 0.100333
0.135621 0.358523 0.102953
0.162202 0.360840 0.105769
0.186233 0.362425 0.107978
0.207939 0.363384 0.109361
0.229385 0.364213 0.110591
0.250682 0.364912 0.111596
0.272039 0.365538 0.112600
0.293592 0.366168 0.113543
0.315603 0.366798 0.114491
0.337839 0.367498 0.115426
0.360848 0.368481 0.117212
0.384660 0.369696 0.119857
0.408946 0.371127 0.123233
0.433579 0.372821 0.127353
0.458466 0.374862 0.131934
0.483422 0.377106 0.136898
0.508575 0.379574 0.142344
0.533987 0.382405 0.148307
0.559234 0.385521 0.154255
0.584769 0.388896 0.160624
0.610359 0.392414 0.167056
0.636063 0.396538 0.173961
0.661775 0.400575 0.180897
0.000000 0.374335 0.087755
0.000000 0.375843 0.090386
0.000156 0.377233 0.092898
0.004547 0.378849 0.095280
0.027319 0.380330 0.097614
0.049963 0.381587 0.099628
0.072111 0.382801 0.101664
0.092902 0.383868 0.103260
0.113558 0.384893 0.104909
0.137055 0.386523 0.107142
0.162343 0.388401 0.109516
0.185576 0.389767 0.111284
0.206849 0.390543 0.112406
0.227979 0.391161 0.113426
0.248937 0.391729 0.114307
0.270351 0.392298 0.115449
0.292180 0.392997 0.116815
0.314485 0.393766 0.118479
0.337221 0.394611 0.120390
0.360690 0.395805 0.123122
0.384804 0.397203 0.126763
0.409335 0.398933 0.131329
0.434212 0.401009 0.136611
0.459167 0.403246 0.142142
0.484123 0.405807 0.147798
0.509276 0.408466 0.153678
0.534576 0.411535 0.159912
0.559918 0.414794 0.166234
0.585364 0.418412 0.172881
0.610927 0.422080 0.179698
0.636630 0.426326 0.186872
0.662342 0.430501 0.194068
0.000000 0.405089 0.094813
0.000000 0.406456 0.097187
0.000521 0.407860 0.099546
0.010304 0.409227 0.101668
0.033855 0.410561 0.103746
0.056339 0.411659 0.105504
0.078156 0.412639 0.107161
0.098135 0.413414 0.108472
0.117742 0.414004 0.109702
0.139668 0.415154 0.111391
0.163151 0.416648 0.113210
0.185266 0.417658 0.114522
0.206027 0.418228 0.115475
0.226736 0.418673 0.116235
0.247389 0.419031 0.116955
0.268884 0.419644 0.118515
0.291306 0.420473 0.120865
0.314423 0.421519 0.124061
0.338200 0.422820 0.128005
0.362315 0.424334 0.132287
0.386752 0.425992 0.137024
0.411383 0.427982 0.142364
0.436159 0.430218 0.148023
0.461074 0.432697 0.153896
0.486029 0.435417 0.159840
0.511182 0.438304 0.165981
0.536271 0.441514 0.172501
0.561668 0.444915 0.179185
0.587128 0.448651 0.186106
0.612588 0.452565 0.193155
0.638284 0.456965 0.200723
0.663854 0.461397 0.208185
0.000000 0.436142 0.101572
0.000000 0.437405 0.103686
0.000954 0.438747 0.105784
0.016993 0.439868 0.107646
0.040395 0.441077 0.109477
0.062767 0.441955 0.111072
0.084399 0.442887 0.112508
0.103970 0.443413 0.113559
0.122703 0.443752 0.114437
0.143065 0.444436 0.115530
0.164522 0.445318 0.116925
0.185630 0.446051 0.118205
0.206360 0.446556 0.119485
0.227223 0.447020 0.120854
0.248401 0.447494 0.122550
0.270356 0.448265 0.125115
0.293352 0.449225 0.128583
0.316988 0.450537 0.132954
0.341187 0.452204 0.138052
0.365628 0.453929 0.143301
0.390198 0.455887 0.148809
0.414748 0.458088 0.154641
0.439403 0.460463 0.160593
0.464288 0.463138 0.166615
0.489243 0.466026 0.172897
0.514275 0.469030 0.179332
0.539375 0.472385 0.186198
0.564650 0.476029 0.193159
0.589955 0.479934 0.200340
0.615400 0.484098 0.207693
0.641097 0.488613 0.215624
0.666714 0.493300 0.223349
0.000000 0.467557 0.107968
0.000020 0.468655 0.109827
0.001972 0.469747 0.111818
0.023632 0.470763 0.113435
0.046929 0.471819 0.115148
0.069173 0.472589 0.116497
0.090828 0.473370 0.117753
0.110229 0.473784 0.118543
0.128490 0.473896 0.119137
0.147259 0.474120 0.119781
0.166618 0.474490 0.120655
0.186734 0.474946 0.122119
0.207745 0.475450 0.124343
0.229379 0.476086 0.127174
0.251740 0.476955 0.130854
0.274665 0.478068 0.135038
0.298181 0.479320 0.139677
0.321974 0.480807 0.144771
0.346103 0.482571 0.150227
0.370408 0.484529 0.155930
0.394832 0.486730 0.161755
0.419284 0.489106 0.167825
0.443909 0.491599 0.174038
0.468677 0.494418 0.180367
0.493470 0.497420 0.186998
0.518390 0.500572 0.193715
0.543550 0.504169 0.200841
0.568758 0.507937 0.208062
0.593966 0.512081 0.215646
0.619402 0.516357 0.223215
0.645098 0.521184 0.231402
0.670810 0.525976 0.239545
0.000000 0.499067 0.114105
0.000165 0.500075 0.115706
0.006588 0.501072 0.117531
0.030170 0.501926 0.119051
0.053328 0.502903 0.120582
0.075628 0.503632 0.121698
0.097264 0.504171 0.122896
0.116936 0.504468 0.123843
0.135385 0.504596 0.124859
0.153632 0.504619 0.125924
0.171928 0.504754 0.127322
0.191527 0.505151 0.129645
0.212746 0.505762 0.132944
0.234823 0.506541 0.137014
0.257887 0.507720 0.142018
0.281191 0.509055 0.147224
0.304801 0.510612 0.152607
0.328631 0.512301 0.158167
0.352624 0.514161 0.163884
0.376652 0.516294 0.169798
0.400945 0.518563 0.175904
0.425285 0.521109 0.182262
0.449739 0.523801 0.188735
0.474394 0.526732 0.195388
0.499098 0.529885 0.202302
0.523999 0.533278 0.209279
0.549020 0.536996 0.216666
0.574201 0.540922 0.224147
0.599409 0.545315 0.232069
0.624845 0.549771 0.239980
0.650381 0.554936 0.248913
0.676088 0.559904 0.257749
0.000000 0.530750 0.119808
0.000374 0.531752 0.121323
0.013057 0.532577 0.122904
0.036560 0.533340 0.124399
0.059813 0.534138 0.125692
0.082169 0.534704 0.126712
0.103836 0.535194 0.127847
0.124147 0.535586 0.129346
0.143498 0.535820 0.131456
0.162065 0.535999 0.134090
0.180378 0.536257 0.137214
0.200077 0.536799 0.140984
0.221458 0.537528 0.145323
0.243456 0.538446 0.150216
0.266368 0.539706 0.155611
0.289498 0.541169 0.161106
0.312889 0.542897 0.166831
0.336539 0.544756 0.172689
0.360307 0.546741 0.178666
0.384182 0.548907 0.184792
0.408333 0.551288 0.191179
0.432557 0.554066 0.197708
0.456930 0.556895 0.204385
0.481434 0.559977 0.211427
0.506093 0.563370 0.218646
0.530854 0.567023 0.225883
0.555776 0.570936 0.233530
0.580794 0.574958 0.241422
0.606135 0.579432 0.249627
0.631426 0.584132 0.258034
0.656875 0.589725 0.267808
0.682406 0.595132 0.277774
0.000000 0.562511 0.125353
0.000574 0.563331 0.126685
0.019268 0.564087 0.128197
0.043085 0.564843 0.129739
0.066800 0.565615 0.131552
0.089746 0.566464 0.133338
0.112189 0.567155 0.135411
0.133483 0.567791 0.138170
0.153986 0.568230 0.141516
0.173083 0.568669 0.145483
0.191469 0.569128 0.149988
0.211113 0.569719 0.154756
0.232305 0.570546 0.159879
0.254092 0.571618 0.165198
0.276515 0.572960 0.170715
0.299374 0.574556 0.176432
0.322504 0.576320 0.182323
0.345806 0.578219 0.188354
0.369420 0.580341 0.194591
0.393154 0.582694 0.200978
0.417072 0.585307 0.207624
0.441207 0.588101 0.214365
0.465451 0.591151 0.221408
0.489850 0.594391 0.228682
0.514491 0.597998 0.236273
0.539194 0.601765 0.244103
0.564103 0.605902 0.252232
0.589058 0.610123 0.260475
0.614291 0.614784 0.269277
0.639505 0.619737 0.278215
0.664949 0.625483 0.288753
0.690228 0.631399 0.299460
0.000000 0.594273 0.130521
0.001860 0.595029 0.131783
0.025186 0.595786 0.133162
0.049895 0.596560 0.135484
0.074431 0.597543 0.138256
0.098949 0.598768 0.142264
0.122981 0.600073 0.146516
0.145635 0.601165 0.150975
0.167115 0.602010 0.155703
0.186632 0.602710 0.160565
0.205018 0.603348 0.165550
0.224416 0.603939 0.170641
0.244942 0.604789 0.175934
0.266249 0.605979 0.181410
0.288347 0.607375 0.187151
0.310849 0.608993 0.193036
0.333622 0.610855 0.199058
0.356737 0.612857 0.205319
0.380103 0.615101 0.211816
0.403639 0.617635 0.218462
0.427370 0.620387 0.225247
0.451288 0.623288 0.232309
0.475426 0.626468 0.239584
0.499807 0.630026 0.247315
0.524448 0.633778 0.255443
0.549151 0.637712 0.263997
0.574060 0.642098 0.272853
0.599015 0.646578 0.281758
0.624192 0.651500 0.291323
0.649399 0.656713 0.300984
0.674660 0.662659 0.311749
0.699870 0.668707 0.322778
0.000000 0.626429 0.136153
0.007964 0.627191 0.138227
0.033215 0.628164 0.140405
0.058979 0.629331 0.144169
0.084680 0.630599 0.148357
0.110269 0.632306 0.154013
0.135668 0.634139 0.160188
0.159452 0.635593 0.166163
0.181893 0.636894 0.171967
0.201930 0.637796 0.177504
0.220252 0.638537 0.182685
0.239318 0.639331 0.187884
0.259267 0.640233 0.193304
0.280125 0.641325 0.198885
0.301785 0.642816 0.204797
0.323880 0.644444 0.210904
0.346567 0.646334 0.217259
0.369440 0.648462 0.223888
0.392564 0.650845 0.230734
0.416054 0.653496 0.237641
0.439622 0.656268 0.244904
0.463413 0.659340 0.252384
0.487394 0.662742 0.260038
0.511718 0.666438 0.268152
0.536358 0.670372 0.276916
0.561062 0.674553 0.286079
0.585805 0.679034 0.295513
0.610729 0.683915 0.305166
0.635727 0.689122 0.315335
0.660732 0.694595 0.325572
0.685927 0.700611 0.336755
0.711135 0.706857 0.347851
0.000000 0.658695 0.142770
0.017396 0.660298 0.147576
0.044949 0.661956 0.152426
0.072162 0.663851 0.157963
0.099099 0.665756 0.163812
0.125385 0.667771 0.170296
0.151097 0.669905 0.177054
0.175453 0.671628 0.183677
0.198288 0.673279 0.189875
0.218702 0.674580 0.195802
0.237366 0.675482 0.201374
0.256359 0.676252 0.206727
0.275708 0.677113 0.212258
0.296027 0.678216 0.218070
0.317476 0.679609 0.224314
0.339394 0.681240 0.230889
0.361976 0.683130 0.237739
0.384797 0.685281 0.244754
0.407877 0.687692 0.252119
0.431242 0.690487 0.259709
0.454833 0.693472 0.267585
0.478541 0.696648 0.275709
0.502422 0.700244 0.283933
0.526580 0.704014 0.292685
0.551009 0.708142 0.301888
0.575501 0.712584 0.311371
0.600165 0.717285 0.321286
0.624903 0.722460 0.331322
0.649648 0.727933 0.341990
0.674583 0.733667 0.352557
0.699577 0.739897 0.364049
0.724574 0.746197 0.375564
0.000638 0.692024 0.152342
0.029202 0.694447 0.159398
0.058647 0.696873 0.166658
0.086978 0.699328 0.173797
0.114959 0.701757 0.181145
0.142007 0.703998 0.188363
0.168352 0.706254 0.195567
0.193219 0.708362 0.202578
0.216589 0.710118 0.209421
0.237713 0.711709 0.215777
0.256899 0.712858 0.221706
0.275665 0.713758 0.227450
0.294341 0.714609 0.233215
0.314220 0.715719 0.239287
0.335331 0.716994 0.245809
0.356997 0.718611 0.252685
0.379448 0.720611 0.259946
0.402166 0.722762 0.267459
