gsg/03_Cinematic/GSG_LUT_Cinematic_Mailroom_Ick.cube
# GSG LUTs 1.0
# Copyright (c) 2016-2020 Greyscalegorilla
# See EULA for licensing and distribution information
# Converted by Briz LUT Converter
LUT_3D_SIZE 5
DOMAIN_MIN 0.000000 0.000000 0.000000
DOMAIN_MAX 0.903226 0.903226 0.903226
0.000000 0.000000 0.000000
0.148033 0.000000 0.000000
0.340990 0.004703 0.002576
0.602678 0.021190 0.010201
0.833172 0.067368 0.034149
0.052858 0.135901 0.002686
0.170532 0.143609 0.002686
0.377398 0.164361 0.007791
0.660904 0.209557 0.023312
0.872519 0.272656 0.042044
0.029194 0.405751 0.007389
0.186118 0.412520 0.009051
0.412170 0.429194 0.014223
0.701454 0.457482 0.033633
0.898993 0.494206 0.047866
0.118453 0.650140 0.015873
0.258919 0.653267 0.018097
0.504337 0.665765 0.025684
0.749133 0.680687 0.035308
0.923495 0.696042 0.041137
0.354587 0.838103 0.023199
0.468128 0.839169 0.021051
0.634696 0.846145 0.025301
0.803309 0.852449 0.021355
0.948621 0.857868 0.022031
0.000000 0.000000 0.079877
0.142251 0.002686 0.087570
0.346363 0.009186 0.095771
0.625078 0.029682 0.111105
0.855095 0.070038 0.122669
0.045918 0.147975 0.093122
0.160028 0.156777 0.095913
0.374188 0.178226 0.103660
0.666047 0.222878 0.119939
0.888674 0.284546 0.131669
0.009550 0.419536 0.100952
0.164085 0.426351 0.103569
0.405503 0.441755 0.110154
0.704328 0.469357 0.125476
0.907991 0.505575 0.132515
0.078044 0.663366 0.112627
0.233309 0.666186 0.113924
0.496930 0.676277 0.118856
0.749585 0.691003 0.123823
0.927822 0.705653 0.123243
0.334394 0.852886 0.114265
0.453820 0.855391 0.115107
0.628595 0.860007 0.120929
0.802187 0.864002 0.112978
0.951006 0.866728 0.099824
0.000000 0.003899 0.209248
0.127810 0.008349 0.226823
0.338060 0.018362 0.231077
0.625455 0.046721 0.239293
0.860887 0.084118 0.239087
0.034266 0.171927 0.263153
0.144527 0.181319 0.267505
0.355701 0.203484 0.272609
0.665970 0.243256 0.273134
0.897601 0.293412 0.255689
0.000000 0.449877 0.293643
0.093991 0.455791 0.296810
0.371811 0.469465 0.303256
0.697758 0.495261 0.308003
0.915150 0.528035 0.290998
0.000000 0.699492 0.359791
0.080854 0.702830 0.360073
0.448316 0.710563 0.362637
0.734919 0.720791 0.361808
0.928984 0.733156 0.335516
0.231045 0.891110 0.445925
0.378439 0.892166 0.448756
0.587396 0.897122 0.453172
0.782793 0.901446 0.441331
0.949084 0.902174 0.397603
0.000000 0.028335 0.428697
0.092559 0.032815 0.476626
0.307030 0.048580 0.487361
0.612996 0.077881 0.489105
0.856937 0.120366 0.470119
0.010374 0.222647 0.551582
0.105250 0.233209 0.569972
0.299190 0.252266 0.588522
0.632892 0.289904 0.594263
0.888127 0.338790 0.569880
0.000036 0.491036 0.627732
0.067829 0.497865 0.635993
0.267180 0.514580 0.651831
0.653507 0.540465 0.664118
0.897295 0.568713 0.647001
0.000850 0.727815 0.684707
0.068612 0.731915 0.689177
0.334063 0.744999 0.701899
0.687188 0.760462 0.712278
0.901763 0.774122 0.701891
0.042513 0.915469 0.744515
0.251991 0.917969 0.747497
0.519364 0.923781 0.754995
0.737967 0.930181 0.759514
0.913468 0.935788 0.750915
0.000000 0.081996 0.701044
0.078654 0.084084 0.745528
0.252785 0.093717 0.780815
0.574373 0.127994 0.799434
0.840941 0.177470 0.802613
0.000776 0.283879 0.789967
0.074546 0.291633 0.808342
0.200970 0.300231 0.838310
0.585429 0.334033 0.867778
0.860112 0.398231 0.868985
0.000000 0.529862 0.830873
0.067785 0.534985 0.837336
0.144652 0.552067 0.861626
0.597098 0.575065 0.888688
0.868481 0.606739 0.897298
0.001693 0.748836 0.865099
0.069350 0.754288 0.871393
0.154719 0.767393 0.889896
0.635276 0.783358 0.909289
0.875708 0.798836 0.918258
0.000066 0.928483 0.904037
0.070140 0.929746 0.907287
0.440637 0.936684 0.918832
0.700601 0.944663 0.930942
0.892849 0.951017 0.937440
