gsg/03_Cinematic/GSG_LUT_Cinematic_Mr_Anderson.cube
# GSG LUTs 1.0
# Copyright (c) 2016-2020 Greyscalegorilla
# See EULA for licensing and distribution information
# Converted by Briz LUT Converter
LUT_3D_SIZE 8
DOMAIN_MIN 0.000000 0.000000 0.000000
DOMAIN_MAX 0.903226 0.903226 0.903226
0.063492 0.021734 0.014652
0.252858 0.021734 0.014652
0.341353 0.021734 0.014652
0.420119 0.021734 0.014652
0.497081 0.021734 0.014652
0.579385 0.021734 0.014652
0.666934 0.021734 0.014652
0.756288 0.021734 0.014652
0.063492 0.140124 0.014652
0.252858 0.140124 0.014652
0.341353 0.140124 0.014652
0.420119 0.140124 0.014652
0.497081 0.140124 0.014652
0.579385 0.140124 0.014652
0.666934 0.140124 0.014652
0.756288 0.140124 0.014652
0.063492 0.215093 0.014652
0.252858 0.215093 0.014652
0.341353 0.215093 0.014652
0.420119 0.215093 0.014652
0.497081 0.215093 0.014652
0.579385 0.215093 0.014652
0.666934 0.215093 0.014652
0.756288 0.215093 0.014652
0.063492 0.280948 0.014652
0.252858 0.280948 0.014652
0.341353 0.280948 0.014652
0.420119 0.280948 0.014652
0.497081 0.280948 0.014652
0.579385 0.280948 0.014652
0.666934 0.280948 0.014652
0.756288 0.280948 0.014652
0.063492 0.346032 0.014652
0.252858 0.346032 0.014652
0.341353 0.346032 0.014652
0.420119 0.346032 0.014652
0.497081 0.346032 0.014652
0.579385 0.346032 0.014652
0.666934 0.346032 0.014652
0.756288 0.346032 0.014652
0.063492 0.419386 0.014652
0.252858 0.419386 0.014652
0.341353 0.419386 0.014652
0.420119 0.419386 0.014652
0.497081 0.419386 0.014652
0.579385 0.419386 0.014652
0.666934 0.419386 0.014652
0.756288 0.419386 0.014652
0.063492 0.510828 0.014652
0.252858 0.510828 0.014652
0.341353 0.510828 0.014652
0.420119 0.510828 0.014652
0.497081 0.510828 0.014652
0.579385 0.510828 0.014652
0.666934 0.510828 0.014652
0.756288 0.510828 0.014652
0.063492 0.608657 0.014652
0.252858 0.608657 0.014652
0.341353 0.608657 0.014652
0.420119 0.608657 0.014652
0.497081 0.608657 0.014652
0.579385 0.608657 0.014652
0.666934 0.608657 0.014652
0.756288 0.608657 0.014652
0.063492 0.021734 0.033589
0.252858 0.021734 0.033589
0.341353 0.021734 0.033589
0.420119 0.021734 0.033589
0.497081 0.021734 0.033589
0.579385 0.021734 0.033589
0.666934 0.021734 0.033589
0.756288 0.021734 0.033589
0.063492 0.140124 0.033589
0.252858 0.140124 0.033589
0.341353 0.140124 0.033589
0.420119 0.140124 0.033589
0.497081 0.140124 0.033589
0.579385 0.140124 0.033589
0.666934 0.140124 0.033589
0.756288 0.140124 0.033589
0.063492 0.215093 0.033589
0.252858 0.215093 0.033589
0.341353 0.215093 0.033589
0.420119 0.215093 0.033589
0.497081 0.215093 0.033589
0.579385 0.215093 0.033589
0.666934 0.215093 0.033589
0.756288 0.215093 0.033589
0.063492 0.280948 0.033589
0.252858 0.280948 0.033589
0.341353 0.280948 0.033589
0.420119 0.280948 0.033589
0.497081 0.280948 0.033589
0.579385 0.280948 0.033589
0.666934 0.280948 0.033589
0.756288 0.280948 0.033589
0.063492 0.346032 0.033589
0.252858 0.346032 0.033589
0.341353 0.346032 0.033589
0.420119 0.346032 0.033589
0.497081 0.346032 0.033589
0.579385 0.346032 0.033589
0.666934 0.346032 0.033589
0.756288 0.346032 0.033589
0.063492 0.419386 0.033589
0.252858 0.419386 0.033589
0.341353 0.419386 0.033589
0.420119 0.419386 0.033589
0.497081 0.419386 0.033589
0.579385 0.419386 0.033589
0.666934 0.419386 0.033589
0.756288 0.419386 0.033589
0.063492 0.510828 0.033589
0.252858 0.510828 0.033589
0.341353 0.510828 0.033589
0.420119 0.510828 0.033589
0.497081 0.510828 0.033589
0.579385 0.510828 0.033589
0.666934 0.510828 0.033589
0.756288 0.510828 0.033589
0.063492 0.608657 0.033589
0.252858 0.608657 0.033589
0.341353 0.608657 0.033589
0.420119 0.608657 0.033589
0.497081 0.608657 0.033589
0.579385 0.608657 0.033589
0.666934 0.608657 0.033589
0.756288 0.608657 0.033589
0.063492 0.021734 0.102107
0.252858 0.021734 0.102107
0.341353 0.021734 0.102107
0.420119 0.021734 0.102107
0.497081 0.021734 0.102107
0.579385 0.021734 0.102107
0.666934 0.021734 0.102107
0.756288 0.021734 0.102107
0.063492 0.140124 0.102107
0.252858 0.140124 0.102107
0.341353 0.140124 0.102107
0.420119 0.140124 0.102107
0.497081 0.140124 0.102107
0.579385 0.140124 0.102107
0.666934 0.140124 0.102107
0.756288 0.140124 0.102107
0.063492 0.215093 0.102107
0.252858 0.215093 0.102107
0.341353 0.215093 0.102107
0.420119 0.215093 0.102107
0.497081 0.215093 0.102107
0.579385 0.215093 0.102107
0.666934 0.215093 0.102107
0.756288 0.215093 0.102107
0.063492 0.280948 0.102107
0.252858 0.280948 0.102107
0.341353 0.280948 0.102107
0.420119 0.280948 0.102107
0.497081 0.280948 0.102107
0.579385 0.280948 0.102107
0.666934 0.280948 0.102107
0.756288 0.280948 0.102107
0.063492 0.346032 0.102107
0.252858 0.346032 0.102107
0.341353 0.346032 0.102107
0.420119 0.346032 0.102107
0.497081 0.346032 0.102107
0.579385 0.346032 0.102107
0.666934 0.346032 0.102107
0.756288 0.346032 0.102107
0.063492 0.419386 0.102107
0.252858 0.419386 0.102107
0.341353 0.419386 0.102107
0.420119 0.419386 0.102107
0.497081 0.419386 0.102107
0.579385 0.419386 0.102107
0.666934 0.419386 0.102107
0.756288 0.419386 0.102107
0.063492 0.510828 0.102107
0.252858 0.510828 0.102107
0.341353 0.510828 0.102107
0.420119 0.510828 0.102107
0.497081 0.510828 0.102107
0.579385 0.510828 0.102107
0.666934 0.510828 0.102107
0.756288 0.510828 0.102107
0.063492 0.608657 0.102107
0.252858 0.608657 0.102107
0.341353 0.608657 0.102107
0.420119 0.608657 0.102107
0.497081 0.608657 0.102107
0.579385 0.608657 0.102107
0.666934 0.608657 0.102107
0.756288 0.608657 0.102107
0.063492 0.021734 0.161164
0.252858 0.021734 0.161164
0.341353 0.021734 0.161164
0.420119 0.021734 0.161164
0.497081 0.021734 0.161164
0.579385 0.021734 0.161164
0.666934 0.021734 0.161164
0.756288 0.021734 0.161164
0.063492 0.140124 0.161164
0.252858 0.140124 0.161164
0.341353 0.140124 0.161164
0.420119 0.140124 0.161164
0.497081 0.140124 0.161164
0.579385 0.140124 0.161164
0.666934 0.140124 0.161164
0.756288 0.140124 0.161164
0.063492 0.215093 0.161164
0.252858 0.215093 0.161164
0.341353 0.215093 0.161164
0.420119 0.215093 0.161164
0.497081 0.215093 0.161164
0.579385 0.215093 0.161164
0.666934 0.215093 0.161164
0.756288 0.215093 0.161164
0.063492 0.280948 0.161164
0.252858 0.280948 0.161164
0.341353 0.280948 0.161164
0.420119 0.280948 0.161164
0.497081 0.280948 0.161164
0.579385 0.280948 0.161164
0.666934 0.280948 0.161164
0.756288 0.280948 0.161164
0.063492 0.346032 0.161164
0.252858 0.346032 0.161164
0.341353 0.346032 0.161164
0.420119 0.346032 0.161164
0.497081 0.346032 0.161164
0.579385 0.346032 0.161164
0.666934 0.346032 0.161164
0.756288 0.346032 0.161164
0.063492 0.419386 0.161164
0.252858 0.419386 0.161164
0.341353 0.419386 0.161164
0.420119 0.419386 0.161164
0.497081 0.419386 0.161164
0.579385 0.419386 0.161164
0.666934 0.419386 0.161164
0.756288 0.419386 0.161164
0.063492 0.510828 0.161164
0.252858 0.510828 0.161164
0.341353 0.510828 0.161164
0.420119 0.510828 0.161164
0.497081 0.510828 0.161164
0.579385 0.510828 0.161164
0.666934 0.510828 0.161164
0.756288 0.510828 0.161164
0.063492 0.608657 0.161164
0.252858 0.608657 0.161164
0.341353 0.608657 0.161164
0.420119 0.608657 0.161164
0.497081 0.608657 0.161164
0.579385 0.608657 0.161164
0.666934 0.608657 0.161164
0.756288 0.608657 0.161164
0.063492 0.021734 0.220710
0.252858 0.021734 0.220710
0.341353 0.021734 0.220710
0.420119 0.021734 0.220710
0.497081 0.021734 0.220710
0.579385 0.021734 0.220710
0.666934 0.021734 0.220710
0.756288 0.021734 0.220710
0.063492 0.140124 0.220710
0.252858 0.140124 0.220710
0.341353 0.140124 0.220710
0.420119 0.140124 0.220710
0.497081 0.140124 0.220710
0.579385 0.140124 0.220710
0.666934 0.140124 0.220710
0.756288 0.140124 0.220710
0.063492 0.215093 0.220710
0.252858 0.215093 0.220710
0.341353 0.215093 0.220710
0.420119 0.215093 0.220710
0.497081 0.215093 0.220710
0.579385 0.215093 0.220710
0.666934 0.215093 0.220710
0.756288 0.215093 0.220710
0.063492 0.280948 0.220710
0.252858 0.280948 0.220710
0.341353 0.280948 0.220710
0.420119 0.280948 0.220710
0.497081 0.280948 0.220710
0.579385 0.280948 0.220710
0.666934 0.280948 0.220710
0.756288 0.280948 0.220710
0.063492 0.346032 0.220710
0.252858 0.346032 0.220710
0.341353 0.346032 0.220710
0.420119 0.346032 0.220710
0.497081 0.346032 0.220710
0.579385 0.346032 0.220710
0.666934 0.346032 0.220710
0.756288 0.346032 0.220710
0.063492 0.419386 0.220710
0.252858 0.419386 0.220710
0.341353 0.419386 0.220710
0.420119 0.419386 0.220710
0.497081 0.419386 0.220710
0.579385 0.419386 0.220710
0.666934 0.419386 0.220710
0.756288 0.419386 0.220710
0.063492 0.510828 0.220710
0.252858 0.510828 0.220710
0.341353 0.510828 0.220710
0.420119 0.510828 0.220710
0.497081 0.510828 0.220710
0.579385 0.510828 0.220710
0.666934 0.510828 0.220710
0.756288 0.510828 0.220710
0.063492 0.608657 0.220710
0.252858 0.608657 0.220710
0.341353 0.608657 0.220710
0.420119 0.608657 0.220710
0.497081 0.608657 0.220710
0.579385 0.608657 0.220710
0.666934 0.608657 0.220710
0.756288 0.608657 0.220710
0.063492 0.021734 0.288708
0.252858 0.021734 0.288708
0.341353 0.021734 0.288708
0.420119 0.021734 0.288708
0.497081 0.021734 0.288708
0.579385 0.021734 0.288708
0.666934 0.021734 0.288708
0.756288 0.021734 0.288708
0.063492 0.140124 0.288708
0.252858 0.140124 0.288708
0.341353 0.140124 0.288708
0.420119 0.140124 0.288708
0.497081 0.140124 0.288708
0.579385 0.140124 0.288708
0.666934 0.140124 0.288708
0.756288 0.140124 0.288708
0.063492 0.215093 0.288708
0.252858 0.215093 0.288708
0.341353 0.215093 0.288708
0.420119 0.215093 0.288708
0.497081 0.215093 0.288708
0.579385 0.215093 0.288708
0.666934 0.215093 0.288708
0.756288 0.215093 0.288708
0.063492 0.280948 0.288708
0.252858 0.280948 0.288708
0.341353 0.280948 0.288708
0.420119 0.280948 0.288708
0.497081 0.280948 0.288708
0.579385 0.280948 0.288708
0.666934 0.280948 0.288708
0.756288 0.280948 0.288708
0.063492 0.346032 0.288708
0.252858 0.346032 0.288708
0.341353 0.346032 0.288708
0.420119 0.346032 0.288708
0.497081 0.346032 0.288708
0.579385 0.346032 0.288708
0.666934 0.346032 0.288708
0.756288 0.346032 0.288708
0.063492 0.419386 0.288708
0.252858 0.419386 0.288708
0.341353 0.419386 0.288708
0.420119 0.419386 0.288708
0.497081 0.419386 0.288708
0.579385 0.419386 0.288708
0.666934 0.419386 0.288708
0.756288 0.419386 0.288708
0.063492 0.510828 0.288708
0.252858 0.510828 0.288708
0.341353 0.510828 0.288708
0.420119 0.510828 0.288708
0.497081 0.510828 0.288708
0.579385 0.510828 0.288708
0.666934 0.510828 0.288708
0.756288 0.510828 0.288708
0.063492 0.608657 0.288708
0.252858 0.608657 0.288708
0.341353 0.608657 0.288708
0.420119 0.608657 0.288708
0.497081 0.608657 0.288708
0.579385 0.608657 0.288708
0.666934 0.608657 0.288708
0.756288 0.608657 0.288708
0.063492 0.021734 0.392493
0.252858 0.021734 0.392493
0.341353 0.021734 0.392493
0.420119 0.021734 0.392493
0.497081 0.021734 0.392493
0.579385 0.021734 0.392493
0.666934 0.021734 0.392493
0.756288 0.021734 0.392493
0.063492 0.140124 0.392493
0.252858 0.140124 0.392493
0.341353 0.140124 0.392493
0.420119 0.140124 0.392493
0.497081 0.140124 0.392493
0.579385 0.140124 0.392493
0.666934 0.140124 0.392493
0.756288 0.140124 0.392493
0.063492 0.215093 0.392493
0.252858 0.215093 0.392493
0.341353 0.215093 0.392493
0.420119 0.215093 0.392493
0.497081 0.215093 0.392493
0.579385 0.215093 0.392493
0.666934 0.215093 0.392493
0.756288 0.215093 0.392493
0.063492 0.280948 0.392493
0.252858 0.280948 0.392493
0.341353 0.280948 0.392493
0.420119 0.280948 0.392493
0.497081 0.280948 0.392493
0.579385 0.280948 0.392493
0.666934 0.280948 0.392493
0.756288 0.280948 0.392493
0.063492 0.346032 0.392493
0.252858 0.346032 0.392493
0.341353 0.346032 0.392493
0.420119 0.346032 0.392493
0.497081 0.346032 0.392493
0.579385 0.346032 0.392493
0.666934 0.346032 0.392493
0.756288 0.346032 0.392493
0.063492 0.419386 0.392493
0.252858 0.419386 0.392493
0.341353 0.419386 0.392493
0.420119 0.419386 0.392493
0.497081 0.419386 0.392493
0.579385 0.419386 0.392493
0.666934 0.419386 0.392493
0.756288 0.419386 0.392493
0.063492 0.510828 0.392493
0.252858 0.510828 0.392493
0.341353 0.510828 0.392493
0.420119 0.510828 0.392493
0.497081 0.510828 0.392493
0.579385 0.510828 0.392493
0.666934 0.510828 0.392493
0.756288 0.510828 0.392493
0.063492 0.608657 0.392493
0.252858 0.608657 0.392493
0.341353 0.608657 0.392493
0.420119 0.608657 0.392493
0.497081 0.608657 0.392493
0.579385 0.608657 0.392493
0.666934 0.608657 0.392493
0.756288 0.608657 0.392493
0.063492 0.021734 0.732546
0.252858 0.021734 0.732546
0.341353 0.021734 0.732546
0.420119 0.021734 0.732546
0.497081 0.021734 0.732546
0.579385 0.021734 0.732546
0.666934 0.021734 0.732546
0.756288 0.021734 0.732546
0.063492 0.140124 0.732546
0.252858 0.140124 0.732546
0.341353 0.140124 0.732546
0.420119 0.140124 0.732546
0.497081 0.140124 0.732546
0.579385 0.140124 0.732546
0.666934 0.140124 0.732546
0.756288 0.140124 0.732546
0.063492 0.215093 0.732546
0.252858 0.215093 0.732546
0.341353 0.215093 0.732546
0.420119 0.215093 0.732546
0.497081 0.215093 0.732546
0.579385 0.215093 0.732546
0.666934 0.215093 0.732546
0.756288 0.215093 0.732546
0.063492 0.280948 0.732546
0.252858 0.280948 0.732546
0.341353 0.280948 0.732546
0.420119 0.280948 0.732546
0.497081 0.280948 0.732546
0.579385 0.280948 0.732546
0.666934 0.280948 0.732546
0.756288 0.280948 0.732546
0.063492 0.346032 0.732546
0.252858 0.346032 0.732546
0.341353 0.346032 0.732546
0.420119 0.346032 0.732546
0.497081 0.346032 0.732546
0.579385 0.346032 0.732546
0.666934 0.346032 0.732546
0.756288 0.346032 0.732546
0.063492 0.419386 0.732546
0.252858 0.419386 0.732546
0.341353 0.419386 0.732546
0.420119 0.419386 0.732546
0.497081 0.419386 0.732546
0.579385 0.419386 0.732546
0.666934 0.419386 0.732546
0.756288 0.419386 0.732546
0.063492 0.510828 0.732546
0.252858 0.510828 0.732546
0.341353 0.510828 0.732546
0.420119 0.510828 0.732546
0.497081 0.510828 0.732546
0.579385 0.510828 0.732546
0.666934 0.510828 0.732546
0.756288 0.510828 0.732546
0.063492 0.608657 0.732546
0.252858 0.608657 0.732546
0.341353 0.608657 0.732546
0.420119 0.608657 0.732546
0.497081 0.608657 0.732546
0.579385 0.608657 0.732546
0.666934 0.608657 0.732546
0.756288 0.608657 0.732546
