gsg/03_Cinematic/GSG_LUT_Cinematic_Mr_Anderson.cube
# GSG LUTs 1.0
# Copyright (c) 2016-2020 Greyscalegorilla
# See EULA for licensing and distribution information
# Converted by Briz LUT Converter
LUT_3D_SIZE 32
0.063492 0.021734 0.014652
0.134428 0.021734 0.014652
0.186215 0.021734 0.014652
0.223837 0.021734 0.014652
0.252858 0.021734 0.014652
0.277317 0.021734 0.014652
0.300106 0.021734 0.014652
0.320509 0.021734 0.014652
0.341353 0.021734 0.014652
0.359581 0.021734 0.014652
0.379810 0.021734 0.014652
0.399575 0.021734 0.014652
0.420119 0.021734 0.014652
0.440159 0.021734 0.014652
0.459419 0.021734 0.014652
0.478822 0.021734 0.014652
0.497081 0.021734 0.014652
0.518248 0.021734 0.014652
0.538146 0.021734 0.014652
0.559179 0.021734 0.014652
0.579385 0.021734 0.014652
0.601426 0.021734 0.014652
0.621994 0.021734 0.014652
0.645571 0.021734 0.014652
0.666934 0.021734 0.014652
0.687676 0.021734 0.014652
0.708716 0.021734 0.014652
0.729725 0.021734 0.014652
0.756288 0.021734 0.014652
0.796172 0.021734 0.014652
0.849061 0.021734 0.014652
0.954579 0.021734 0.014652
0.063492 0.059876 0.014652
0.134428 0.059876 0.014652
0.186215 0.059876 0.014652
0.223837 0.059876 0.014652
0.252858 0.059876 0.014652
0.277317 0.059876 0.014652
0.300106 0.059876 0.014652
0.320509 0.059876 0.014652
0.341353 0.059876 0.014652
0.359581 0.059876 0.014652
0.379810 0.059876 0.014652
0.399575 0.059876 0.014652
0.420119 0.059876 0.014652
0.440159 0.059876 0.014652
0.459419 0.059876 0.014652
0.478822 0.059876 0.014652
0.497081 0.059876 0.014652
0.518248 0.059876 0.014652
0.538146 0.059876 0.014652
0.559179 0.059876 0.014652
0.579385 0.059876 0.014652
0.601426 0.059876 0.014652
0.621994 0.059876 0.014652
0.645571 0.059876 0.014652
0.666934 0.059876 0.014652
0.687676 0.059876 0.014652
0.708716 0.059876 0.014652
0.729725 0.059876 0.014652
0.756288 0.059876 0.014652
0.796172 0.059876 0.014652
0.849061 0.059876 0.014652
0.954579 0.059876 0.014652
0.063492 0.092103 0.014652
0.134428 0.092103 0.014652
0.186215 0.092103 0.014652
0.223837 0.092103 0.014652
0.252858 0.092103 0.014652
0.277317 0.092103 0.014652
0.300106 0.092103 0.014652
0.320509 0.092103 0.014652
0.341353 0.092103 0.014652
0.359581 0.092103 0.014652
0.379810 0.092103 0.014652
0.399575 0.092103 0.014652
0.420119 0.092103 0.014652
0.440159 0.092103 0.014652
0.459419 0.092103 0.014652
0.478822 0.092103 0.014652
0.497081 0.092103 0.014652
0.518248 0.092103 0.014652
0.538146 0.092103 0.014652
0.559179 0.092103 0.014652
0.579385 0.092103 0.014652
0.601426 0.092103 0.014652
0.621994 0.092103 0.014652
0.645571 0.092103 0.014652
0.666934 0.092103 0.014652
0.687676 0.092103 0.014652
0.708716 0.092103 0.014652
0.729725 0.092103 0.014652
0.756288 0.092103 0.014652
0.796172 0.092103 0.014652
0.849061 0.092103 0.014652
0.954579 0.092103 0.014652
0.063492 0.116736 0.014652
0.134428 0.116736 0.014652
0.186215 0.116736 0.014652
0.223837 0.116736 0.014652
0.252858 0.116736 0.014652
0.277317 0.116736 0.014652
0.300106 0.116736 0.014652
0.320509 0.116736 0.014652
0.341353 0.116736 0.014652
0.359581 0.116736 0.014652
0.379810 0.116736 0.014652
0.399575 0.116736 0.014652
0.420119 0.116736 0.014652
0.440159 0.116736 0.014652
0.459419 0.116736 0.014652
0.478822 0.116736 0.014652
0.497081 0.116736 0.014652
0.518248 0.116736 0.014652
0.538146 0.116736 0.014652
0.559179 0.116736 0.014652
0.579385 0.116736 0.014652
0.601426 0.116736 0.014652
0.621994 0.116736 0.014652
0.645571 0.116736 0.014652
0.666934 0.116736 0.014652
0.687676 0.116736 0.014652
0.708716 0.116736 0.014652
0.729725 0.116736 0.014652
0.756288 0.116736 0.014652
0.796172 0.116736 0.014652
0.849061 0.116736 0.014652
0.954579 0.116736 0.014652
0.063492 0.140124 0.014652
0.134428 0.140124 0.014652
0.186215 0.140124 0.014652
0.223837 0.140124 0.014652
0.252858 0.140124 0.014652
0.277317 0.140124 0.014652
0.300106 0.140124 0.014652
0.320509 0.140124 0.014652
0.341353 0.140124 0.014652
0.359581 0.140124 0.014652
0.379810 0.140124 0.014652
0.399575 0.140124 0.014652
0.420119 0.140124 0.014652
0.440159 0.140124 0.014652
0.459419 0.140124 0.014652
0.478822 0.140124 0.014652
0.497081 0.140124 0.014652
0.518248 0.140124 0.014652
0.538146 0.140124 0.014652
0.559179 0.140124 0.014652
0.579385 0.140124 0.014652
0.601426 0.140124 0.014652
0.621994 0.140124 0.014652
0.645571 0.140124 0.014652
0.666934 0.140124 0.014652
0.687676 0.140124 0.014652
0.708716 0.140124 0.014652
0.729725 0.140124 0.014652
0.756288 0.140124 0.014652
0.796172 0.140124 0.014652
0.849061 0.140124 0.014652
0.954579 0.140124 0.014652
0.063492 0.160054 0.014652
0.134428 0.160054 0.014652
0.186215 0.160054 0.014652
0.223837 0.160054 0.014652
0.252858 0.160054 0.014652
0.277317 0.160054 0.014652
0.300106 0.160054 0.014652
0.320509 0.160054 0.014652
0.341353 0.160054 0.014652
0.359581 0.160054 0.014652
0.379810 0.160054 0.014652
0.399575 0.160054 0.014652
0.420119 0.160054 0.014652
0.440159 0.160054 0.014652
0.459419 0.160054 0.014652
0.478822 0.160054 0.014652
0.497081 0.160054 0.014652
0.518248 0.160054 0.014652
0.538146 0.160054 0.014652
0.559179 0.160054 0.014652
0.579385 0.160054 0.014652
0.601426 0.160054 0.014652
0.621994 0.160054 0.014652
0.645571 0.160054 0.014652
0.666934 0.160054 0.014652
0.687676 0.160054 0.014652
0.708716 0.160054 0.014652
0.729725 0.160054 0.014652
0.756288 0.160054 0.014652
0.796172 0.160054 0.014652
0.849061 0.160054 0.014652
0.954579 0.160054 0.014652
0.063492 0.180212 0.014652
0.134428 0.180212 0.014652
0.186215 0.180212 0.014652
0.223837 0.180212 0.014652
0.252858 0.180212 0.014652
0.277317 0.180212 0.014652
0.300106 0.180212 0.014652
0.320509 0.180212 0.014652
0.341353 0.180212 0.014652
0.359581 0.180212 0.014652
0.379810 0.180212 0.014652
0.399575 0.180212 0.014652
0.420119 0.180212 0.014652
0.440159 0.180212 0.014652
0.459419 0.180212 0.014652
0.478822 0.180212 0.014652
0.497081 0.180212 0.014652
0.518248 0.180212 0.014652
0.538146 0.180212 0.014652
0.559179 0.180212 0.014652
0.579385 0.180212 0.014652
0.601426 0.180212 0.014652
0.621994 0.180212 0.014652
0.645571 0.180212 0.014652
0.666934 0.180212 0.014652
0.687676 0.180212 0.014652
0.708716 0.180212 0.014652
0.729725 0.180212 0.014652
0.756288 0.180212 0.014652
0.796172 0.180212 0.014652
0.849061 0.180212 0.014652
0.954579 0.180212 0.014652
0.063492 0.198677 0.014652
0.134428 0.198677 0.014652
0.186215 0.198677 0.014652
0.223837 0.198677 0.014652
0.252858 0.198677 0.014652
0.277317 0.198677 0.014652
0.300106 0.198677 0.014652
0.320509 0.198677 0.014652
0.341353 0.198677 0.014652
0.359581 0.198677 0.014652
0.379810 0.198677 0.014652
0.399575 0.198677 0.014652
0.420119 0.198677 0.014652
0.440159 0.198677 0.014652
0.459419 0.198677 0.014652
0.478822 0.198677 0.014652
0.497081 0.198677 0.014652
0.518248 0.198677 0.014652
0.538146 0.198677 0.014652
0.559179 0.198677 0.014652
0.579385 0.198677 0.014652
0.601426 0.198677 0.014652
0.621994 0.198677 0.014652
0.645571 0.198677 0.014652
0.666934 0.198677 0.014652
0.687676 0.198677 0.014652
0.708716 0.198677 0.014652
0.729725 0.198677 0.014652
0.756288 0.198677 0.014652
0.796172 0.198677 0.014652
0.849061 0.198677 0.014652
0.954579 0.198677 0.014652
0.063492 0.215093 0.014652
0.134428 0.215093 0.014652
0.186215 0.215093 0.014652
0.223837 0.215093 0.014652
0.252858 0.215093 0.014652
0.277317 0.215093 0.014652
0.300106 0.215093 0.014652
0.320509 0.215093 0.014652
0.341353 0.215093 0.014652
0.359581 0.215093 0.014652
0.379810 0.215093 0.014652
0.399575 0.215093 0.014652
0.420119 0.215093 0.014652
0.440159 0.215093 0.014652
0.459419 0.215093 0.014652
0.478822 0.215093 0.014652
0.497081 0.215093 0.014652
0.518248 0.215093 0.014652
0.538146 0.215093 0.014652
0.559179 0.215093 0.014652
0.579385 0.215093 0.014652
0.601426 0.215093 0.014652
0.621994 0.215093 0.014652
0.645571 0.215093 0.014652
0.666934 0.215093 0.014652
0.687676 0.215093 0.014652
0.708716 0.215093 0.014652
0.729725 0.215093 0.014652
0.756288 0.215093 0.014652
0.796172 0.215093 0.014652
0.849061 0.215093 0.014652
0.954579 0.215093 0.014652
0.063492 0.231825 0.014652
0.134428 0.231825 0.014652
0.186215 0.231825 0.014652
0.223837 0.231825 0.014652
0.252858 0.231825 0.014652
0.277317 0.231825 0.014652
0.300106 0.231825 0.014652
0.320509 0.231825 0.014652
0.341353 0.231825 0.014652
0.359581 0.231825 0.014652
0.379810 0.231825 0.014652
0.399575 0.231825 0.014652
0.420119 0.231825 0.014652
0.440159 0.231825 0.014652
0.459419 0.231825 0.014652
0.478822 0.231825 0.014652
0.497081 0.231825 0.014652
0.518248 0.231825 0.014652
0.538146 0.231825 0.014652
0.559179 0.231825 0.014652
0.579385 0.231825 0.014652
0.601426 0.231825 0.014652
0.621994 0.231825 0.014652
0.645571 0.231825 0.014652
0.666934 0.231825 0.014652
0.687676 0.231825 0.014652
0.708716 0.231825 0.014652
0.729725 0.231825 0.014652
0.756288 0.231825 0.014652
0.796172 0.231825 0.014652
0.849061 0.231825 0.014652
0.954579 0.231825 0.014652
0.063492 0.248816 0.014652
0.134428 0.248816 0.014652
0.186215 0.248816 0.014652
0.223837 0.248816 0.014652
0.252858 0.248816 0.014652
0.277317 0.248816 0.014652
0.300106 0.248816 0.014652
0.320509 0.248816 0.014652
0.341353 0.248816 0.014652
0.359581 0.248816 0.014652
0.379810 0.248816 0.014652
0.399575 0.248816 0.014652
0.420119 0.248816 0.014652
0.440159 0.248816 0.014652
0.459419 0.248816 0.014652
0.478822 0.248816 0.014652
0.497081 0.248816 0.014652
0.518248 0.248816 0.014652
0.538146 0.248816 0.014652
0.559179 0.248816 0.014652
0.579385 0.248816 0.014652
0.601426 0.248816 0.014652
0.621994 0.248816 0.014652
0.645571 0.248816 0.014652
0.666934 0.248816 0.014652
0.687676 0.248816 0.014652
0.708716 0.248816 0.014652
0.729725 0.248816 0.014652
0.756288 0.248816 0.014652
0.796172 0.248816 0.014652
0.849061 0.248816 0.014652
0.954579 0.248816 0.014652
0.063492 0.265115 0.014652
0.134428 0.265115 0.014652
0.186215 0.265115 0.014652
0.223837 0.265115 0.014652
0.252858 0.265115 0.014652
0.277317 0.265115 0.014652
0.300106 0.265115 0.014652
0.320509 0.265115 0.014652
0.341353 0.265115 0.014652
0.359581 0.265115 0.014652
0.379810 0.265115 0.014652
0.399575 0.265115 0.014652
0.420119 0.265115 0.014652
0.440159 0.265115 0.014652
0.459419 0.265115 0.014652
0.478822 0.265115 0.014652
0.497081 0.265115 0.014652
0.518248 0.265115 0.014652
0.538146 0.265115 0.014652
0.559179 0.265115 0.014652
0.579385 0.265115 0.014652
0.601426 0.265115 0.014652
0.621994 0.265115 0.014652
0.645571 0.265115 0.014652
0.666934 0.265115 0.014652
0.687676 0.265115 0.014652
0.708716 0.265115 0.014652
0.729725 0.265115 0.014652
0.756288 0.265115 0.014652
0.796172 0.265115 0.014652
0.849061 0.265115 0.014652
0.954579 0.265115 0.014652
0.063492 0.280948 0.014652
0.134428 0.280948 0.014652
0.186215 0.280948 0.014652
0.223837 0.280948 0.014652
0.252858 0.280948 0.014652
0.277317 0.280948 0.014652
0.300106 0.280948 0.014652
0.320509 0.280948 0.014652
0.341353 0.280948 0.014652
0.359581 0.280948 0.014652
0.379810 0.280948 0.014652
0.399575 0.280948 0.014652
0.420119 0.280948 0.014652
0.440159 0.280948 0.014652
0.459419 0.280948 0.014652
0.478822 0.280948 0.014652
0.497081 0.280948 0.014652
0.518248 0.280948 0.014652
0.538146 0.280948 0.014652
0.559179 0.280948 0.014652
0.579385 0.280948 0.014652
0.601426 0.280948 0.014652
0.621994 0.280948 0.014652
0.645571 0.280948 0.014652
0.666934 0.280948 0.014652
0.687676 0.280948 0.014652
0.708716 0.280948 0.014652
0.729725 0.280948 0.014652
0.756288 0.280948 0.014652
0.796172 0.280948 0.014652
0.849061 0.280948 0.014652
0.954579 0.280948 0.014652
0.063492 0.297578 0.014652
0.134428 0.297578 0.014652
0.186215 0.297578 0.014652
0.223837 0.297578 0.014652
0.252858 0.297578 0.014652
0.277317 0.297578 0.014652
0.300106 0.297578 0.014652
0.320509 0.297578 0.014652
0.341353 0.297578 0.014652
0.359581 0.297578 0.014652
0.379810 0.297578 0.014652
0.399575 0.297578 0.014652
0.420119 0.297578 0.014652
0.440159 0.297578 0.014652
0.459419 0.297578 0.014652
0.478822 0.297578 0.014652
0.497081 0.297578 0.014652
0.518248 0.297578 0.014652
0.538146 0.297578 0.014652
0.559179 0.297578 0.014652
0.579385 0.297578 0.014652
0.601426 0.297578 0.014652
0.621994 0.297578 0.014652
0.645571 0.297578 0.014652
0.666934 0.297578 0.014652
0.687676 0.297578 0.014652
0.708716 0.297578 0.014652
0.729725 0.297578 0.014652
0.756288 0.297578 0.014652
0.796172 0.297578 0.014652
0.849061 0.297578 0.014652
0.954579 0.297578 0.014652
0.063492 0.313923 0.014652
0.134428 0.313923 0.014652
0.186215 0.313923 0.014652
0.223837 0.313923 0.014652
0.252858 0.313923 0.014652
0.277317 0.313923 0.014652
0.300106 0.313923 0.014652
0.320509 0.313923 0.014652
0.341353 0.313923 0.014652
0.359581 0.313923 0.014652
0.379810 0.313923 0.014652
0.399575 0.313923 0.014652
0.420119 0.313923 0.014652
0.440159 0.313923 0.014652
0.459419 0.313923 0.014652
0.478822 0.313923 0.014652
0.497081 0.313923 0.014652
0.518248 0.313923 0.014652
0.538146 0.313923 0.014652
0.559179 0.313923 0.014652
0.579385 0.313923 0.014652
0.601426 0.313923 0.014652
0.621994 0.313923 0.014652
0.645571 0.313923 0.014652
0.666934 0.313923 0.014652
0.687676 0.313923 0.014652
0.708716 0.313923 0.014652
0.729725 0.313923 0.014652
0.756288 0.313923 0.014652
0.796172 0.313923 0.014652
0.849061 0.313923 0.014652
0.954579 0.313923 0.014652
0.063492 0.330647 0.014652
0.134428 0.330647 0.014652
0.186215 0.330647 0.014652
0.223837 0.330647 0.014652
0.252858 0.330647 0.014652
0.277317 0.330647 0.014652
0.300106 0.330647 0.014652
0.320509 0.330647 0.014652
0.341353 0.330647 0.014652
0.359581 0.330647 0.014652
0.379810 0.330647 0.014652
0.399575 0.330647 0.014652
0.420119 0.330647 0.014652
0.440159 0.330647 0.014652
0.459419 0.330647 0.014652
0.478822 0.330647 0.014652
0.497081 0.330647 0.014652
0.518248 0.330647 0.014652
0.538146 0.330647 0.014652
0.559179 0.330647 0.014652
0.579385 0.330647 0.014652
0.601426 0.330647 0.014652
0.621994 0.330647 0.014652
0.645571 0.330647 0.014652
0.666934 0.330647 0.014652
0.687676 0.330647 0.014652
0.708716 0.330647 0.014652
0.729725 0.330647 0.014652
0.756288 0.330647 0.014652
0.796172 0.330647 0.014652
0.849061 0.330647 0.014652
0.954579 0.330647 0.014652
0.063492 0.346032 0.014652
0.134428 0.346032 0.014652
0.186215 0.346032 0.014652
0.223837 0.346032 0.014652
0.252858 0.346032 0.014652
0.277317 0.346032 0.014652
0.300106 0.346032 0.014652
0.320509 0.346032 0.014652
0.341353 0.346032 0.014652
0.359581 0.346032 0.014652
0.379810 0.346032 0.014652
0.399575 0.346032 0.014652
0.420119 0.346032 0.014652
0.440159 0.346032 0.014652
0.459419 0.346032 0.014652
0.478822 0.346032 0.014652
0.497081 0.346032 0.014652
0.518248 0.346032 0.014652
0.538146 0.346032 0.014652
0.559179 0.346032 0.014652
0.579385 0.346032 0.014652
0.601426 0.346032 0.014652
0.621994 0.346032 0.014652
0.645571 0.346032 0.014652
0.666934 0.346032 0.014652
0.687676 0.346032 0.014652
0.708716 0.346032 0.014652
0.729725 0.346032 0.014652
0.756288 0.346032 0.014652
0.796172 0.346032 0.014652
0.849061 0.346032 0.014652
0.954579 0.346032 0.014652
0.063492 0.364347 0.014652
0.134428 0.364347 0.014652
0.186215 0.364347 0.014652
0.223837 0.364347 0.014652
0.252858 0.364347 0.014652
0.277317 0.364347 0.014652
0.300106 0.364347 0.014652
0.320509 0.364347 0.014652
0.341353 0.364347 0.014652
0.359581 0.364347 0.014652
0.379810 0.364347 0.014652
0.399575 0.364347 0.014652
0.420119 0.364347 0.014652
0.440159 0.364347 0.014652
0.459419 0.364347 0.014652
0.478822 0.364347 0.014652
0.497081 0.364347 0.014652
0.518248 0.364347 0.014652
0.538146 0.364347 0.014652
0.559179 0.364347 0.014652
0.579385 0.364347 0.014652
0.601426 0.364347 0.014652
0.621994 0.364347 0.014652
0.645571 0.364347 0.014652
0.666934 0.364347 0.014652
0.687676 0.364347 0.014652
0.708716 0.364347 0.014652
0.729725 0.364347 0.014652
0.756288 0.364347 0.014652
0.796172 0.364347 0.014652
0.849061 0.364347 0.014652
0.954579 0.364347 0.014652
0.063492 0.381677 0.014652
0.134428 0.381677 0.014652
0.186215 0.381677 0.014652
0.223837 0.381677 0.014652
0.252858 0.381677 0.014652
0.277317 0.381677 0.014652
0.300106 0.381677 0.014652
0.320509 0.381677 0.014652
0.341353 0.381677 0.014652
0.359581 0.381677 0.014652
0.379810 0.381677 0.014652
0.399575 0.381677 0.014652
0.420119 0.381677 0.014652
0.440159 0.381677 0.014652
0.459419 0.381677 0.014652
0.478822 0.381677 0.014652
0.497081 0.381677 0.014652
0.518248 0.381677 0.014652
0.538146 0.381677 0.014652
0.559179 0.381677 0.014652
0.579385 0.381677 0.014652
0.601426 0.381677 0.014652
0.621994 0.381677 0.014652
0.645571 0.381677 0.014652
0.666934 0.381677 0.014652
0.687676 0.381677 0.014652
0.708716 0.381677 0.014652
0.729725 0.381677 0.014652
0.756288 0.381677 0.014652
0.796172 0.381677 0.014652
0.849061 0.381677 0.014652
0.954579 0.381677 0.014652
0.063492 0.400481 0.014652
0.134428 0.400481 0.014652
0.186215 0.400481 0.014652
0.223837 0.400481 0.014652
0.252858 0.400481 0.014652
0.277317 0.400481 0.014652
0.300106 0.400481 0.014652
0.320509 0.400481 0.014652
0.341353 0.400481 0.014652
0.359581 0.400481 0.014652
0.379810 0.400481 0.014652
0.399575 0.400481 0.014652
0.420119 0.400481 0.014652
0.440159 0.400481 0.014652
0.459419 0.400481 0.014652
0.478822 0.400481 0.014652
0.497081 0.400481 0.014652
0.518248 0.400481 0.014652
0.538146 0.400481 0.014652
0.559179 0.400481 0.014652
0.579385 0.400481 0.014652
0.601426 0.400481 0.014652
0.621994 0.400481 0.014652
0.645571 0.400481 0.014652
0.666934 0.400481 0.014652
0.687676 0.400481 0.014652
0.708716 0.400481 0.014652
0.729725 0.400481 0.014652
0.756288 0.400481 0.014652
0.796172 0.400481 0.014652
0.849061 0.400481 0.014652
0.954579 0.400481 0.014652
0.063492 0.419386 0.014652
0.134428 0.419386 0.014652
0.186215 0.419386 0.014652
0.223837 0.419386 0.014652
0.252858 0.419386 0.014652
0.277317 0.419386 0.014652
0.300106 0.419386 0.014652
0.320509 0.419386 0.014652
0.341353 0.419386 0.014652
0.359581 0.419386 0.014652
0.379810 0.419386 0.014652
0.399575 0.419386 0.014652
0.420119 0.419386 0.014652
0.440159 0.419386 0.014652
0.459419 0.419386 0.014652
0.478822 0.419386 0.014652
0.497081 0.419386 0.014652
0.518248 0.419386 0.014652
0.538146 0.419386 0.014652
0.559179 0.419386 0.014652
0.579385 0.419386 0.014652
0.601426 0.419386 0.014652
0.621994 0.419386 0.014652
0.645571 0.419386 0.014652
0.666934 0.419386 0.014652
0.687676 0.419386 0.014652
0.708716 0.419386 0.014652
0.729725 0.419386 0.014652
0.756288 0.419386 0.014652
0.796172 0.419386 0.014652
0.849061 0.419386 0.014652
0.954579 0.419386 0.014652
0.063492 0.441223 0.014652
0.134428 0.441223 0.014652
0.186215 0.441223 0.014652
0.223837 0.441223 0.014652
0.252858 0.441223 0.014652
0.277317 0.441223 0.014652
0.300106 0.441223 0.014652
0.320509 0.441223 0.014652
0.341353 0.441223 0.014652
0.359581 0.441223 0.014652
0.379810 0.441223 0.014652
0.399575 0.441223 0.014652
0.420119 0.441223 0.014652
0.440159 0.441223 0.014652
0.459419 0.441223 0.014652
0.478822 0.441223 0.014652
0.497081 0.441223 0.014652
0.518248 0.441223 0.014652
0.538146 0.441223 0.014652
0.559179 0.441223 0.014652
0.579385 0.441223 0.014652
0.601426 0.441223 0.014652
0.621994 0.441223 0.014652
0.645571 0.441223 0.014652
0.666934 0.441223 0.014652
0.687676 0.441223 0.014652
0.708716 0.441223 0.014652
0.729725 0.441223 0.014652
0.756288 0.441223 0.014652
0.796172 0.441223 0.014652
0.849061 0.441223 0.014652
0.954579 0.441223 0.014652
0.063492 0.463232 0.014652
0.134428 0.463232 0.014652
0.186215 0.463232 0.014652
0.223837 0.463232 0.014652
0.252858 0.463232 0.014652
0.277317 0.463232 0.014652
0.300106 0.463232 0.014652
0.320509 0.463232 0.014652
0.341353 0.463232 0.014652
0.359581 0.463232 0.014652
0.379810 0.463232 0.014652
0.399575 0.463232 0.014652
0.420119 0.463232 0.014652
0.440159 0.463232 0.014652
0.459419 0.463232 0.014652
0.478822 0.463232 0.014652
0.497081 0.463232 0.014652
0.518248 0.463232 0.014652
0.538146 0.463232 0.014652
0.559179 0.463232 0.014652
0.579385 0.463232 0.014652
0.601426 0.463232 0.014652
0.621994 0.463232 0.014652
0.645571 0.463232 0.014652
0.666934 0.463232 0.014652
0.687676 0.463232 0.014652
0.708716 0.463232 0.014652
0.729725 0.463232 0.014652
0.756288 0.463232 0.014652
0.796172 0.463232 0.014652
0.849061 0.463232 0.014652
0.954579 0.463232 0.014652
0.063492 0.485565 0.014652
0.134428 0.485565 0.014652
0.186215 0.485565 0.014652
0.223837 0.485565 0.014652
0.252858 0.485565 0.014652
0.277317 0.485565 0.014652
0.300106 0.485565 0.014652
0.320509 0.485565 0.014652
0.341353 0.485565 0.014652
0.359581 0.485565 0.014652
0.379810 0.485565 0.014652
0.399575 0.485565 0.014652
0.420119 0.485565 0.014652
0.440159 0.485565 0.014652
0.459419 0.485565 0.014652
0.478822 0.485565 0.014652
0.497081 0.485565 0.014652
0.518248 0.485565 0.014652
0.538146 0.485565 0.014652
0.559179 0.485565 0.014652
0.579385 0.485565 0.014652
0.601426 0.485565 0.014652
0.621994 0.485565 0.014652
0.645571 0.485565 0.014652
0.666934 0.485565 0.014652
0.687676 0.485565 0.014652
0.708716 0.485565 0.014652
0.729725 0.485565 0.014652
0.756288 0.485565 0.014652
0.796172 0.485565 0.014652
0.849061 0.485565 0.014652
0.954579 0.485565 0.014652
0.063492 0.510828 0.014652
0.134428 0.510828 0.014652
0.186215 0.510828 0.014652
0.223837 0.510828 0.014652
0.252858 0.510828 0.014652
0.277317 0.510828 0.014652
0.300106 0.510828 0.014652
0.320509 0.510828 0.014652
0.341353 0.510828 0.014652
0.359581 0.510828 0.014652
0.379810 0.510828 0.014652
0.399575 0.510828 0.014652
0.420119 0.510828 0.014652
0.440159 0.510828 0.014652
0.459419 0.510828 0.014652
0.478822 0.510828 0.014652
0.497081 0.510828 0.014652
0.518248 0.510828 0.014652
0.538146 0.510828 0.014652
0.559179 0.510828 0.014652
0.579385 0.510828 0.014652
0.601426 0.510828 0.014652
0.621994 0.510828 0.014652
0.645571 0.510828 0.014652
0.666934 0.510828 0.014652
0.687676 0.510828 0.014652
0.708716 0.510828 0.014652
0.729725 0.510828 0.014652
0.756288 0.510828 0.014652
0.796172 0.510828 0.014652
0.849061 0.510828 0.014652
0.954579 0.510828 0.014652
0.063492 0.538698 0.014652
0.134428 0.538698 0.014652
0.186215 0.538698 0.014652
0.223837 0.538698 0.014652
0.252858 0.538698 0.014652
0.277317 0.538698 0.014652
0.300106 0.538698 0.014652
0.320509 0.538698 0.014652
0.341353 0.538698 0.014652
0.359581 0.538698 0.014652
0.379810 0.538698 0.014652
0.399575 0.538698 0.014652
0.420119 0.538698 0.014652
0.440159 0.538698 0.014652
0.459419 0.538698 0.014652
0.478822 0.538698 0.014652
0.497081 0.538698 0.014652
0.518248 0.538698 0.014652
0.538146 0.538698 0.014652
0.559179 0.538698 0.014652
0.579385 0.538698 0.014652
0.601426 0.538698 0.014652
0.621994 0.538698 0.014652
0.645571 0.538698 0.014652
0.666934 0.538698 0.014652
0.687676 0.538698 0.014652
0.708716 0.538698 0.014652
0.729725 0.538698 0.014652
0.756288 0.538698 0.014652
0.796172 0.538698 0.014652
0.849061 0.538698 0.014652
0.954579 0.538698 0.014652
0.063492 0.564749 0.014652
0.134428 0.564749 0.014652
0.186215 0.564749 0.014652
0.223837 0.564749 0.014652
0.252858 0.564749 0.014652
0.277317 0.564749 0.014652
0.300106 0.564749 0.014652
0.320509 0.564749 0.014652
0.341353 0.564749 0.014652
0.359581 0.564749 0.014652
0.379810 0.564749 0.014652
0.399575 0.564749 0.014652
0.420119 0.564749 0.014652
0.440159 0.564749 0.014652
0.459419 0.564749 0.014652
0.478822 0.564749 0.014652
0.497081 0.564749 0.014652
0.518248 0.564749 0.014652
0.538146 0.564749 0.014652
0.559179 0.564749 0.014652
0.579385 0.564749 0.014652
0.601426 0.564749 0.014652
0.621994 0.564749 0.014652
0.645571 0.564749 0.014652
0.666934 0.564749 0.014652
0.687676 0.564749 0.014652
0.708716 0.564749 0.014652
0.729725 0.564749 0.014652
0.756288 0.564749 0.014652
0.796172 0.564749 0.014652
0.849061 0.564749 0.014652
0.954579 0.564749 0.014652
0.063492 0.588263 0.014652
0.134428 0.588263 0.014652
0.186215 0.588263 0.014652
0.223837 0.588263 0.014652
0.252858 0.588263 0.014652
0.277317 0.588263 0.014652
0.300106 0.588263 0.014652
0.320509 0.588263 0.014652
0.341353 0.588263 0.014652
0.359581 0.588263 0.014652
0.379810 0.588263 0.014652
0.399575 0.588263 0.014652
0.420119 0.588263 0.014652
0.440159 0.588263 0.014652
0.459419 0.588263 0.014652
0.478822 0.588263 0.014652
0.497081 0.588263 0.014652
0.518248 0.588263 0.014652
