gsg/03_Cinematic/GSG_LUT_Cinematic_Punchy_Cool.cube
# GSG LUTs 1.0
# Copyright (c) 2016-2020 Greyscalegorilla
# See EULA for licensing and distribution information
# Converted by Briz LUT Converter
LUT_3D_SIZE 5
DOMAIN_MIN 0.000000 0.000000 0.000000
DOMAIN_MAX 0.903226 0.903226 0.903226
0.050794 0.050794 0.050794
0.285100 0.037764 0.038308
0.551995 0.034298 0.036961
0.774430 0.041774 0.047477
0.965867 0.054756 0.064233
0.015227 0.289566 0.035819
0.254608 0.287497 0.040968
0.503662 0.280145 0.054678
0.727933 0.261666 0.070603
0.924132 0.242119 0.085567
0.000000 0.550349 0.058482
0.179853 0.552686 0.072086
0.441055 0.560056 0.093308
0.662937 0.562582 0.107338
0.884206 0.556921 0.098163
0.000000 0.783883 0.094632
0.133036 0.787439 0.105040
0.425451 0.787278 0.098578
0.682774 0.778270 0.074172
0.910496 0.767908 0.043633
0.097168 0.970271 0.090472
0.260539 0.967322 0.076432
0.490563 0.963338 0.047751
0.717784 0.957076 0.010934
0.930791 0.948353 0.000000
0.043192 0.043980 0.307511
0.280318 0.035390 0.296756
0.539465 0.035447 0.286390
0.764685 0.045035 0.280057
0.952707 0.058419 0.274390
0.008693 0.286119 0.290697
0.247457 0.285016 0.289419
0.498925 0.275925 0.288768
0.721877 0.256574 0.287240
0.917199 0.239292 0.281488
0.000000 0.550324 0.292708
0.182535 0.551964 0.303199
0.435554 0.560921 0.305024
0.662288 0.561276 0.299285
0.889275 0.552842 0.265530
0.000000 0.784753 0.306313
0.137080 0.787618 0.316718
0.431515 0.784104 0.289753
0.687791 0.775256 0.249073
0.913642 0.765017 0.205524
0.098815 0.967469 0.315568
0.271294 0.963611 0.302517
0.497068 0.959389 0.266898
0.721174 0.954645 0.214663
0.931461 0.944844 0.170004
0.034125 0.038363 0.587286
0.247796 0.034133 0.575832
0.520913 0.038135 0.564867
0.742842 0.050097 0.558608
0.931634 0.064611 0.558632
0.000897 0.285398 0.562397
0.223451 0.283249 0.559375
0.481494 0.274062 0.562508
0.704878 0.254182 0.564368
0.900215 0.232674 0.565567
0.000000 0.550934 0.560326
0.166684 0.554105 0.566345
0.426093 0.560126 0.574943
0.666157 0.554667 0.570459
0.895022 0.543182 0.551806
0.000000 0.788475 0.575170
0.135925 0.786671 0.577419
0.441917 0.776188 0.563109
0.692381 0.768593 0.538289
0.919717 0.756753 0.511802
0.097548 0.965200 0.564228
0.274827 0.959714 0.554451
0.501534 0.952741 0.536762
0.722135 0.945641 0.509551
0.929736 0.938813 0.478100
0.025712 0.035244 0.835267
0.214606 0.033999 0.821565
0.504569 0.041530 0.807247
0.725261 0.055465 0.799155
0.910504 0.069912 0.798305
0.000000 0.281427 0.805006
0.195057 0.279433 0.799111
0.468309 0.269938 0.798275
0.688662 0.251706 0.800880
0.881095 0.237814 0.802934
0.000000 0.552597 0.793663
0.148101 0.554443 0.796943
0.418638 0.559760 0.805306
0.664634 0.548673 0.800434
0.891024 0.536527 0.786367
0.000000 0.788141 0.803203
0.141125 0.783964 0.797272
0.448595 0.773236 0.783477
0.695313 0.762249 0.770025
0.919291 0.748383 0.751038
0.095211 0.962889 0.780243
0.279805 0.957263 0.771604
0.502218 0.949611 0.757794
0.721225 0.939057 0.743034
0.924556 0.932486 0.719952
0.018386 0.033967 1.000000
0.250626 0.035601 0.999841
0.507409 0.046122 0.998058
0.718352 0.060759 0.996044
0.895065 0.074489 0.994526
0.000000 0.272211 0.998173
0.228838 0.271203 0.995138
0.471529 0.265966 0.993046
0.684607 0.245445 0.995805
0.867703 0.245586 0.997371
0.000000 0.551631 0.987467
0.186747 0.555891 0.990595
0.431376 0.557851 0.993933
0.672006 0.544620 0.987704
0.890611 0.532151 0.978707
0.000000 0.784496 0.986349
0.206590 0.778264 0.980100
0.469516 0.768097 0.971075
0.703082 0.756742 0.961099
0.916151 0.742401 0.953563
0.182815 0.956420 0.962475
0.303427 0.953861 0.957358
0.512723 0.945936 0.948230
0.722149 0.937344 0.937868
0.920835 0.926578 0.927587
