gsg/03_Cinematic/GSG_LUT_Cinematic_SheetMetal.cube
# GSG LUTs 1.0
# Copyright (c) 2016-2020 Greyscalegorilla
# See EULA for licensing and distribution information
# Converted by Briz LUT Converter
LUT_3D_SIZE 32
0.032234 0.028571 0.018803
0.039300 0.031604 0.022829
0.046690 0.034865 0.026610
0.055260 0.037914 0.030415
0.063957 0.041160 0.034416
0.073615 0.044184 0.038198
0.083887 0.047209 0.041979
0.095088 0.050234 0.045760
0.106810 0.053259 0.049541
0.119193 0.056213 0.053251
0.132538 0.058986 0.056780
0.146662 0.061672 0.060223
0.161472 0.064193 0.063500
0.177108 0.066612 0.066675
0.193604 0.068880 0.069699
0.210950 0.070913 0.072606
0.229099 0.072803 0.075379
0.248186 0.074552 0.077884
0.268242 0.076206 0.080153
0.289306 0.077522 0.082272
0.311143 0.078688 0.084131
0.334066 0.079617 0.085730
0.357856 0.080200 0.087243
0.382709 0.080704 0.088393
0.408673 0.080830 0.089212
0.435677 0.080830 0.089771
0.463721 0.080421 0.090071
0.492591 0.079704 0.090110
0.523124 0.078727 0.089889
0.553192 0.078176 0.089637
0.578699 0.080507 0.091748
0.603907 0.083272 0.094261
0.038788 0.045713 0.028130
0.046091 0.048990 0.031903
0.053251 0.052267 0.035677
0.061846 0.055552 0.039458
0.070763 0.058838 0.043208
0.080421 0.062121 0.046775
0.090646 0.065353 0.050501
0.101650 0.068384 0.054023
0.113433 0.071411 0.057550
0.125921 0.074442 0.061069
0.139013 0.077390 0.064508
0.152972 0.080169 0.067696
0.167778 0.082850 0.070716
0.183410 0.085376 0.073734
0.199795 0.087790 0.076636
0.217004 0.089944 0.079282
0.235149 0.092087 0.081795
0.254232 0.093958 0.084044
0.274142 0.095621 0.086056
0.294955 0.097094 0.087915
0.316691 0.098358 0.089672
0.339441 0.099458 0.091097
0.363149 0.100295 0.092182
0.387816 0.100876 0.093003
0.413526 0.101382 0.093751
0.440271 0.101499 0.094105
0.468259 0.101296 0.094144
0.496690 0.100852 0.094143
0.526247 0.100585 0.093930
0.555274 0.100578 0.094143
0.580472 0.103186 0.096522
0.605175 0.105967 0.099051
0.045311 0.062933 0.037426
0.052605 0.066210 0.040954
0.059996 0.069503 0.044483
0.068606 0.073033 0.048248
0.077540 0.076574 0.051983
0.087211 0.080053 0.055512
0.097436 0.083346 0.058997
0.108441 0.086584 0.062338
0.120162 0.089685 0.065792
0.132475 0.092895 0.068998
0.145562 0.095931 0.072092
0.159504 0.098875 0.075174
0.174209 0.101658 0.078036
0.189690 0.104335 0.080846
0.206059 0.106865 0.083360
0.223144 0.109165 0.085754
0.241159 0.111324 0.088014
0.260096 0.113333 0.090133
0.279884 0.115247 0.091991
0.300680 0.116964 0.093590
0.322258 0.118339 0.095086
0.344753 0.119611 0.096262
0.368369 0.120536 0.097259
0.392843 0.121308 0.097889
0.418476 0.121880 0.098377
0.445015 0.122199 0.098484
0.472743 0.122058 0.098266
0.500707 0.122234 0.098210
0.529305 0.122515 0.098208
0.557322 0.123028 0.098680
0.582229 0.125897 0.101075
0.606704 0.128922 0.103840
0.051337 0.081334 0.046248
0.058427 0.084635 0.049745
0.065832 0.087928 0.053015
0.074678 0.091478 0.056544
0.083850 0.095178 0.060073
0.093745 0.098519 0.063602
0.103994 0.102068 0.067127
0.115013 0.105547 0.070587
0.126716 0.108849 0.073876
0.139022 0.112143 0.077058
0.152019 0.115349 0.079987
0.165717 0.118390 0.082760
0.180250 0.121329 0.085524
0.195620 0.124117 0.088170
0.211742 0.126790 0.090567
0.228678 0.129324 0.092813
0.246551 0.131731 0.094931
0.265241 0.133890 0.096801
0.284779 0.135931 0.098399
0.305315 0.137673 0.099752
0.326780 0.139352 0.100997
0.349112 0.140801 0.102068
0.372458 0.141913 0.102878
0.396684 0.142928 0.103265
0.422062 0.143577 0.103481
0.448321 0.144105 0.103506
0.475785 0.144224 0.103092
0.503489 0.144461 0.102780
0.531392 0.145179 0.102767
0.558889 0.146188 0.103454
0.583742 0.149088 0.105888
0.608445 0.152113 0.108653
0.057103 0.099862 0.055008
0.064382 0.103383 0.058214
0.071789 0.106676 0.061269
0.080665 0.110205 0.064765
0.089870 0.113734 0.068266
0.100025 0.117298 0.071795
0.110528 0.121011 0.075283
0.121682 0.124566 0.078633
0.133239 0.128095 0.082020
0.145489 0.131562 0.085007
0.158342 0.134872 0.087802
0.171941 0.138083 0.090563
0.186234 0.141121 0.093209
0.201436 0.144076 0.095608
0.217441 0.146881 0.097863
0.234133 0.149553 0.099878
0.251746 0.152090 0.101736
0.270297 0.154492 0.103454
0.289692 0.156761 0.104825
0.309981 0.158749 0.106047
0.331186 0.160547 0.107125
0.353386 0.162178 0.107947
0.376399 0.163550 0.108497
0.400473 0.164638 0.108788
0.425624 0.165506 0.108653
0.451463 0.166277 0.108376
0.478630 0.166650 0.107886
0.506074 0.167147 0.107377
0.533489 0.168125 0.107563
0.560672 0.169394 0.108246
0.585293 0.172311 0.110921
0.609989 0.175336 0.113695
0.062570 0.119312 0.063287
0.069676 0.122795 0.066067
0.077096 0.126125 0.069067
0.086171 0.129655 0.072303
0.095409 0.133184 0.075571
0.105817 0.136713 0.079066
0.116507 0.140281 0.082595
0.127749 0.143976 0.086069
0.139512 0.147515 0.089356
0.151853 0.151085 0.092603
0.164801 0.154642 0.095590
0.178268 0.158012 0.098288
0.192453 0.161156 0.100689
0.207403 0.164348 0.102941
0.223238 0.167395 0.105059
0.239809 0.170203 0.106917
0.257162 0.172890 0.108535
0.275474 0.175436 0.110026
0.294728 0.177746 0.111356
0.314853 0.179881 0.112301
0.335788 0.181923 0.113189
0.357596 0.183788 0.113826
0.380444 0.185407 0.114116
0.404319 0.186598 0.114175
0.429045 0.187806 0.113956
0.454748 0.188704 0.113498
0.481695 0.189296 0.112756
0.508845 0.190054 0.112172
0.535803 0.191292 0.112545
0.562469 0.192821 0.113086
0.587057 0.195754 0.115956
0.611753 0.198818 0.118736
0.067565 0.139068 0.071259
0.074875 0.142399 0.073983
0.082295 0.145882 0.076726
0.091370 0.149411 0.079746
0.100634 0.152940 0.082760
0.111237 0.156469 0.086069
0.122054 0.159998 0.089549
0.133546 0.163528 0.092996
0.145532 0.167120 0.096360
0.158074 0.170887 0.099797
0.171121 0.174571 0.103044
0.184655 0.178062 0.105858
0.198708 0.181370 0.108175
0.213486 0.184647 0.110351
0.229062 0.187835 0.112251
0.245485 0.190791 0.113900
0.262602 0.193714 0.115364
0.280763 0.196497 0.116694
0.299736 0.199066 0.117791
0.319661 0.201337 0.118621
0.340282 0.203529 0.119328
0.361896 0.205499 0.119705
0.384550 0.207279 0.119768
0.408165 0.208751 0.119733
0.432631 0.210072 0.119306
0.458074 0.211147 0.118753
0.484761 0.211990 0.117791
0.511472 0.213007 0.116988
0.538100 0.214506 0.117377
0.564266 0.216295 0.118158
0.588868 0.219245 0.120999
0.613518 0.222514 0.123825
0.072299 0.159345 0.078766
0.079608 0.162866 0.081232
0.086975 0.166159 0.083777
0.096055 0.169688 0.086675
0.105368 0.173217 0.089504
0.116043 0.176737 0.092724
0.127276 0.180220 0.095955
0.138951 0.183749 0.099275
0.151073 0.187327 0.102698
0.163835 0.191012 0.106046
0.177079 0.194641 0.109496
0.190669 0.198298 0.112552
0.204758 0.201776 0.115187
0.219536 0.205143 0.117491
0.234998 0.208452 0.119398
0.251188 0.211638 0.121060
0.268174 0.214691 0.122321
0.286062 0.217613 0.123417
0.304801 0.220410 0.124336
0.324548 0.222918 0.124999
0.344945 0.225243 0.125468
0.366318 0.227404 0.125621
0.388673 0.229304 0.125582
0.412012 0.231084 0.125303
0.436260 0.232660 0.124645
0.461410 0.233867 0.123844
0.487826 0.234897 0.122621
0.514277 0.236166 0.121777
0.540418 0.237924 0.122394
0.566115 0.239974 0.123384
0.590825 0.242993 0.126100
0.615282 0.246209 0.129119
0.076710 0.180078 0.085951
0.084015 0.183601 0.088225
0.091256 0.186955 0.090681
0.100295 0.190484 0.093160
0.109788 0.194005 0.095900
0.120548 0.197450 0.098870
0.131963 0.200815 0.101942
0.143826 0.204293 0.105205
0.156257 0.207822 0.108433
0.169139 0.211404 0.111762
0.182622 0.215062 0.115168
0.196430 0.218613 0.118381
0.210706 0.222253 0.121471
0.225523 0.225893 0.124177
0.240900 0.229369 0.126296
0.256985 0.232715 0.127992
0.273842 0.235898 0.129285
0.291470 0.238954 0.130274
0.309948 0.241874 0.130860
0.329435 0.244562 0.131325
0.349693 0.247107 0.131607
0.370874 0.249505 0.131629
0.392879 0.251666 0.131390
0.415874 0.253566 0.130757
0.439992 0.255207 0.129952
0.464823 0.256733 0.128934
0.490902 0.257942 0.127504
0.517082 0.259396 0.126630
0.542735 0.261406 0.127417
0.568148 0.263716 0.128485
0.592658 0.266934 0.131449
0.617110 0.269967 0.134476
0.080602 0.201213 0.092686
0.087912 0.204742 0.094881
0.095321 0.208271 0.097077
0.104251 0.211800 0.099296
0.113712 0.215298 0.101784
0.124692 0.218603 0.104585
0.136191 0.222025 0.107584
0.148419 0.225357 0.110765
0.160970 0.228887 0.113889
0.174091 0.232395 0.117093
0.187749 0.235874 0.120320
0.201742 0.239490 0.123597
0.216279 0.243176 0.126846
0.231250 0.246705 0.129832
0.246659 0.250313 0.132389
0.262749 0.253853 0.134366
0.279475 0.257203 0.135935
0.296916 0.260419 0.136981
0.315166 0.263517 0.137444
0.334349 0.266422 0.137725
0.354320 0.269084 0.137746
0.375289 0.271629 0.137556
0.397134 0.274027 0.137080
0.419820 0.276188 0.136321
0.443594 0.278089 0.135358
0.468295 0.279729 0.134095
0.493997 0.281256 0.132557
0.519888 0.282830 0.131609
0.545117 0.285077 0.132452
0.570185 0.287648 0.133828
0.594675 0.290882 0.136920
0.619126 0.293986 0.140021
0.084131 0.222892 0.099161
0.091441 0.226500 0.101096
0.098857 0.230029 0.103032
0.107858 0.233558 0.104991
0.117185 0.237055 0.107241
0.128341 0.240332 0.109945
0.140006 0.243609 0.112765
0.152430 0.246924 0.115828
0.165241 0.250392 0.118960
0.178573 0.253850 0.121950
0.192398 0.257206 0.125084
0.206716 0.260794 0.128280
0.221512 0.264429 0.131411
0.236671 0.267959 0.134469
0.252239 0.271488 0.137501
0.268384 0.275055 0.140044
0.285021 0.278625 0.142182
0.302418 0.282020 0.143515
0.320487 0.285343 0.143958
0.339352 0.288402 0.144094
0.359026 0.291256 0.143936
0.379798 0.293944 0.143578
0.401347 0.296491 0.142928
0.423815 0.298889 0.141932
0.447280 0.300989 0.140843
0.471636 0.302872 0.139359
0.497063 0.304513 0.137560
0.522693 0.306388 0.136421
0.547733 0.308835 0.137540
0.572534 0.311657 0.139347
0.597083 0.314908 0.142374
0.621616 0.318264 0.145646
0.087400 0.244917 0.105203
0.094710 0.248604 0.106881
0.102115 0.252138 0.108640
0.110961 0.255749 0.110330
0.120288 0.259246 0.112253
0.131498 0.262523 0.114814
0.143457 0.265783 0.117617
0.156008 0.268991 0.120552
0.169080 0.272308 0.123470
0.182671 0.275727 0.126398
0.196704 0.279117 0.129473
0.211169 0.282587 0.132498
0.226192 0.286082 0.135523
0.241558 0.289558 0.138614
0.257387 0.293088 0.141802
0.273712 0.296693 0.144643
0.290438 0.300348 0.147171
0.307739 0.303785 0.148987
0.325648 0.307204 0.150009
0.344427 0.310487 0.150396
0.363905 0.313601 0.150182
0.384305 0.316550 0.149569
0.405596 0.319239 0.148751
0.427768 0.321785 0.147543
0.451014 0.324062 0.146193
0.474994 0.326187 0.144519
0.500128 0.328016 0.142477
0.525574 0.330206 0.141297
0.550749 0.332930 0.142872
0.575965 0.335933 0.144963
0.601120 0.339362 0.148250
0.626358 0.342889 0.151617
0.090173 0.267604 0.110749
0.097483 0.271133 0.112172
0.104882 0.274678 0.113823
0.113640 0.278445 0.115238
0.122979 0.282028 0.116779
0.134271 0.285289 0.119256
0.146278 0.288458 0.122011
0.159090 0.291593 0.124708
0.172397 0.294797 0.127519
0.186179 0.298117 0.130403
0.200472 0.301501 0.133255
0.215164 0.304831 0.136246
0.230362 0.308241 0.139210
0.245949 0.311639 0.142195
0.261995 0.315113 0.145165
0.278529 0.318642 0.148118
0.295515 0.322248 0.150988
0.312904 0.325768 0.153478
0.330821 0.329229 0.155578
0.349471 0.332667 0.156472
0.368689 0.335980 0.156255
0.388893 0.339156 0.155555
0.409843 0.342105 0.154527
0.431826 0.344794 0.153129
0.454730 0.347413 0.151544
0.478491 0.349758 0.149737
0.503462 0.351775 0.147544
0.528883 0.354078 0.146339
0.554599 0.357327 0.148369
0.580491 0.360473 0.150833
0.606909 0.364213 0.154387
0.633511 0.367844 0.157919
0.092536 0.290598 0.115987
0.099949 0.294131 0.117252
0.107338 0.297768 0.118643
0.115956 0.301453 0.119798
0.125314 0.305172 0.121079
0.136753 0.308409 0.123320
0.148875 0.311481 0.125960
0.161842 0.314703 0.128513
0.175291 0.317791 0.131206
0.189222 0.321038 0.133979
0.203775 0.324243 0.136765
0.218674 0.327520 0.139564
0.234054 0.330852 0.142392
0.249931 0.334259 0.145295
0.266216 0.337659 0.148191
0.282934 0.341132 0.151160
0.300128 0.344608 0.154132
0.317720 0.348088 0.156973
0.335677 0.351617 0.159664
0.354279 0.355146 0.161195
0.373382 0.358584 0.161792
0.393394 0.361897 0.161437
0.414171 0.365073 0.160249
0.436000 0.368023 0.158701
0.458988 0.370901 0.156894
0.482949 0.373469 0.154910
0.508304 0.375949 0.152774
0.534058 0.378552 0.151675
0.560311 0.382061 0.154080
0.586633 0.385467 0.157055
0.613900 0.389224 0.160786
0.641128 0.393005 0.164323
0.094411 0.314042 0.120666
0.101855 0.317685 0.121923
0.109251 0.321351 0.123054
0.117972 0.325007 0.123949
0.127317 0.328725 0.124983
0.138700 0.331963 0.127061
0.151034 0.335014 0.129468
0.164025 0.338146 0.131900
0.177625 0.341234 0.134455
0.191816 0.344441 0.137146
0.206593 0.347544 0.139840
0.221718 0.350782 0.142408
0.237331 0.353988 0.145110
0.253313 0.357321 0.147939
0.269923 0.360676 0.150790
0.286910 0.364071 0.153627
0.304234 0.367474 0.156469
0.322016 0.370885 0.159242
0.340219 0.374414 0.162015
0.358946 0.377943 0.164378
0.378133 0.381472 0.166530
0.397917 0.384911 0.167104
0.418489 0.388223 0.166056
0.440367 0.391483 0.164312
0.463883 0.394650 0.162245
0.488486 0.397681 0.160203
0.514805 0.400589 0.158187
0.541381 0.403572 0.157330
0.567860 0.407255 0.160195
0.594535 0.410911 0.163583
0.621962 0.414684 0.167340
0.649195 0.418465 0.170877
0.095955 0.337957 0.124968
0.103383 0.341731 0.125984
0.110788 0.345276 0.126969
0.119623 0.349068 0.127614
0.128858 0.352878 0.128498
0.140231 0.356032 0.130329
0.152601 0.359156 0.132498
0.165744 0.362180 0.134795
0.179604 0.365238 0.137225
0.194021 0.368356 0.139782
0.208932 0.371422 0.142392
0.224231 0.374532 0.144913
0.240109 0.377652 0.147483
0.256342 0.380929 0.150134
0.273104 0.384206 0.152838
0.290279 0.387544 0.155554
0.307856 0.390886 0.158265
0.325842 0.394232 0.161038
0.344312 0.397708 0.163742
0.363280 0.401237 0.166466
0.382867 0.404766 0.169396
0.403134 0.408375 0.170836
0.424094 0.411937 0.170831
0.446433 0.415463 0.169652
0.470374 0.418986 0.167386
0.495483 0.422317 0.165261
0.522154 0.425488 0.163739
0.549025 0.428848 0.163403
0.575647 0.432581 0.166588
0.602584 0.436362 0.170129
0.630029 0.440143 0.173894
0.657379 0.443925 0.177549
0.097089 0.362409 0.128875
0.104518 0.366186 0.129635
0.111922 0.369853 0.130481
0.120757 0.373646 0.130879
0.130009 0.377455 0.131600
0.141471 0.380609 0.133061
0.153760 0.383733 0.135019
0.167061 0.386758 0.137288
0.181149 0.389750 0.139587
0.195696 0.392682 0.142014
0.210778 0.395707 0.144494
0.226292 0.398732 0.146930
0.242349 0.401851 0.149402
0.258842 0.405075 0.151845
0.275751 0.408279 0.154419
0.293048 0.411556 0.157005
0.310885 0.414833 0.159587
0.329131 0.418110 0.162230
0.347788 0.421456 0.164804
0.367350 0.424932 0.167474
0.387685 0.428542 0.170323
0.409029 0.432367 0.172658
0.431111 0.436278 0.174531
0.454304 0.440008 0.174592
0.478733 0.443759 0.172261
0.504029 0.447350 0.170152
0.530408 0.450781 0.169501
0.556998 0.454291 0.169985
0.583815 0.458041 0.173154
0.610658 0.461822 0.176683
0.638217 0.465725 0.180448
0.665698 0.469510 0.184229
0.097814 0.387396 0.132254
0.105129 0.391043 0.132872
0.112654 0.394833 0.133467
0.121375 0.398740 0.133730
0.130734 0.402458 0.134190
0.142195 0.405695 0.135391
0.154510 0.408720 0.137112
0.167947 0.411745 0.139273
0.182161 0.414707 0.141507
0.196841 0.417551 0.143708
0.212088 0.420533 0.146055
0.227815 0.423467 0.148411
0.244000 0.426534 0.150837
0.260681 0.429683 0.153152
0.277850 0.432836 0.155595
0.295480 0.436039 0.158051
0.313792 0.439316 0.160503
0.332640 0.442667 0.163023
0.351974 0.446082 0.165544
0.372352 0.449647 0.168215
0.393524 0.453385 0.170987
0.415724 0.457241 0.173760
0.438608 0.461231 0.176438
0.462378 0.465083 0.177395
0.487116 0.468864 0.176031
0.512466 0.472646 0.174881
0.538745 0.476222 0.175155
0.565213 0.479868 0.176442
0.592002 0.483635 0.179708
0.618858 0.487416 0.183362
0.646532 0.491304 0.187136
0.674150 0.495222 0.190783
0.098066 0.412856 0.135279
0.105384 0.416393 0.135637
0.113010 0.420190 0.135979
0.121627 0.424199 0.136085
0.130968 0.427936 0.136303
0.142329 0.431297 0.137367
0.154784 0.434322 0.138828
0.168309 0.437315 0.140753
0.182588 0.440167 0.142886
0.197497 0.442970 0.145037
0.212880 0.445861 0.147205
0.228732 0.448816 0.149460
0.245106 0.451786 0.151703
0.261987 0.454767 0.153972
0.279399 0.457916 0.156287
0.297542 0.461137 0.158681
0.316561 0.464487 0.161075
0.336345 0.467966 0.163528
0.356881 0.471578 0.166048
0.378251 0.475316 0.168719
0.400366 0.479097 0.171400
0.423169 0.482878 0.174027
0.446528 0.486732 0.176580
0.470632 0.490543 0.178254
0.495435 0.494324 0.178601
0.520785 0.498105 0.179208
0.546945 0.501801 0.180767
0.573390 0.505565 0.182898
0.600207 0.509347 0.186390
0.627169 0.513128 0.190028
0.654988 0.516909 0.193800
0.682721 0.520934 0.197337
0.097869 0.438765 0.137705
0.105187 0.442451 0.137953
0.112813 0.446239 0.138044
0.121431 0.450123 0.138030
0.130757 0.453988 0.138001
0.142022 0.457332 0.138870
0.154437 0.460483 0.139974
0.168030 0.463419 0.141794
0.182567 0.466076 0.143835
0.197582 0.468892 0.145921
0.213134 0.471802 0.147969
0.229331 0.474725 0.150049
0.246120 0.477714 0.152160
0.263436 0.480743 0.154429
0.281403 0.483898 0.156698
0.300294 0.487165 0.159085
0.320118 0.490568 0.161634
0.340877 0.494025 0.164263
0.362386 0.497696 0.166939
0.384468 0.501385 0.169764
0.407275 0.505109 0.172533
0.430602 0.508788 0.175209
0.454342 0.512521 0.177990
0.478736 0.516302 0.180387
0.503720 0.520084 0.182091
0.529103 0.523744 0.184090
0.555177 0.527496 0.186584
0.581606 0.531277 0.189374
0.608515 0.535058 0.193036
0.635628 0.538840 0.196589
0.663410 0.542621 0.200354
0.691292 0.546646 0.204041
0.097207 0.465138 0.139722
0.104678 0.468920 0.139809
0.112151 0.472701 0.139788
0.120769 0.476506 0.139470
0.130096 0.480465 0.139303
0.141345 0.483879 0.139785
0.153681 0.487078 0.140700
0.167317 0.489901 0.142357
0.182041 0.492607 0.144251
0.197218 0.495405 0.146268
0.212993 0.498239 0.148234
0.229605 0.501099 0.150200
0.246914 0.504185 0.152351
0.264988 0.507409 0.154524
0.283990 0.510718 0.156792
0.303869 0.514076 0.159255
0.324686 0.517397 0.162065
0.346181 0.520808 0.165087
0.368316 0.524296 0.168185
0.390984 0.527796 0.171336
0.414108 0.531380 0.174468
0.437844 0.534940 0.177566
0.462038 0.538531 0.180725
0.486737 0.542266 0.183784
0.511859 0.545926 0.186537
0.537391 0.549601 0.189471
0.563496 0.553233 0.192684
0.589925 0.556989 0.196021
0.616976 0.560770 0.199606
0.644192 0.564552 0.203290
0.671889 0.568485 0.206914
0.699862 0.572358 0.210690
0.096120 0.491937 0.141242
0.103509 0.495724 0.141072
0.110920 0.499665 0.140891
0.119847 0.503454 0.140549
0.129217 0.507253 0.140253
0.140834 0.510572 0.140925
0.153650 0.513584 0.142133
0.167628 0.516224 0.143871
0.182716 0.518996 0.145870
0.198372 0.521769 0.148057
0.214749 0.524542 0.150219
0.231993 0.527460 0.152381
0.249993 0.530622 0.154683
0.268868 0.533867 0.157074
0.288715 0.537276 0.159514
0.309214 0.540596 0.162190
0.330645 0.543873 0.165174
0.352606 0.547194 0.168423
0.375005 0.550506 0.171775
0.397990 0.553933 0.175052
0.421459 0.557462 0.178436
0.445429 0.560991 0.181884
0.469802 0.564520 0.185214
0.494739 0.568108 0.188614
0.520054 0.571657 0.192001
0.545693 0.575383 0.195564
0.571953 0.579098 0.199110
0.598409 0.582867 0.202639
0.625539 0.586648 0.206168
0.652763 0.590429 0.209926
0.680620 0.594286 0.213470
0.708598 0.598235 0.217244
0.094513 0.519256 0.142329
0.101997 0.523213 0.141904
0.109417 0.527063 0.141652
0.118526 0.530827 0.141393
0.128318 0.534344 0.141248
0.140798 0.537224 0.142468
0.154414 0.539864 0.144326
0.169191 0.542401 0.146504
0.184844 0.545039 0.148897
0.201323 0.547862 0.151394
0.218727 0.550758 0.154021
0.236752 0.553643 0.156647
0.255532 0.556781 0.159301
0.275042 0.559971 0.162074
0.295355 0.563189 0.164952
0.316252 0.566466 0.167983
0.337894 0.569743 0.171187
0.359975 0.573020 0.174469
0.382510 0.576397 0.177778
0.405617 0.579791 0.181161
0.429217 0.583253 0.184551
0.453361 0.586782 0.188018
0.477790 0.590311 0.191497
0.502785 0.593840 0.195006
0.528181 0.597503 0.198535
0.553978 0.601268 0.202121
0.580338 0.604904 0.205664
0.606957 0.608657 0.209193
0.634109 0.612438 0.212722
0.661334 0.616220 0.216480
0.689267 0.620169 0.220024
0.717421 0.624026 0.223624
0.092749 0.547095 0.143156
0.100870 0.550571 0.143210
0.109039 0.554154 0.143168
0.118909 0.557555 0.143477
0.129591 0.560802 0.143952
0.142913 0.563349 0.145704
0.157288 0.565717 0.148107
0.172700 0.568279 0.150618
0.188939 0.571003 0.153326
0.206134 0.573794 0.156104
0.224162 0.576670 0.159064
0.242839 0.579653 0.162024
0.262096 0.582702 0.165054
0.282064 0.585841 0.168152
0.302670 0.589000 0.171258
0.323778 0.592178 0.174501
0.345457 0.595455 0.177778
0.367636 0.598831 0.181055
0.390295 0.602227 0.184332
0.413542 0.605641 0.187758
0.437213 0.609029 0.191130
0.461405 0.612494 0.194572
0.485985 0.616151 0.198102
0.511032 0.619733 0.201631
0.536429 0.623311 0.205160
0.562283 0.627051 0.208689
0.588657 0.630779 0.212218
0.615337 0.634550 0.215747
0.642662 0.638332 0.219276
0.670074 0.642113 0.223034
0.698019 0.646130 0.226578
0.726244 0.649919 0.230108
0.090984 0.575076 0.143724
0.100480 0.577775 0.144944
0.110263 0.580703 0.145951
0.121564 0.583413 0.147413
0.133596 0.586254 0.148831
0.147668 0.588766 0.151207
0.162616 0.591277 0.153765
0.178548 0.593963 0.156536
0.195226 0.596638 0.159455
0.212635 0.599551 0.162299
0.230903 0.602403 0.165324
0.249797 0.605428 0.168348
0.269339 0.608526 0.171468
0.289527 0.611690 0.174643
0.310197 0.614832 0.177778
0.331340 0.618079 0.181055
0.353117 0.621356 0.184332
0.375422 0.624663 0.187609
0.398219 0.627965 0.190996
0.421468 0.631392 0.194386
0.445212 0.634885 0.197806
0.469471 0.638395 0.201187
0.494096 0.641963 0.204656
0.519302 0.645648 0.208185
0.544748 0.649226 0.211714
0.570754 0.652952 0.215243
0.597164 0.656733 0.218772
0.623845 0.660514 0.222301
0.651227 0.664296 0.225830
0.678703 0.668077 0.229411
0.706835 0.671911 0.233126
0.735066 0.675883 0.236662
0.091386 0.602269 0.146000
0.102229 0.604391 0.147924
0.113042 0.606754 0.150016
0.125682 0.609076 0.152386
0.138796 0.611487 0.154736
0.153437 0.614179 0.157289
0.168867 0.616747 0.160060
0.185117 0.619510 0.163003
0.202083 0.622309 0.165863
0.219711 0.625320 0.168853
0.238158 0.628311 0.171878
0.257072 0.631336 0.174903
0.276671 0.634380 0.178022
0.296892 0.637516 0.181279
0.317652 0.640677 0.184440
0.338998 0.643846 0.187609
0.360904 0.647123 0.190886
0.383237 0.650508 0.194271
0.406066 0.653874 0.197664
0.429425 0.657300 0.200961
0.453259 0.660829 0.204396
0.477538 0.664359 0.207893
0.502302 0.667888 0.211267
0.527460 0.671598 0.214739
0.553174 0.675190 0.218268
0.579155 0.678916 0.221797
0.605703 0.682532 0.225326
0.632587 0.686281 0.228855
0.659994 0.690063 0.232384
0.687471 0.694028 0.235913
0.715656 0.697822 0.239488
0.743889 0.701650 0.243019
0.095876 0.627807 0.151231
0.107171 0.630037 0.153467
0.118348 0.632305 0.155949
0.131459 0.634594 0.158470
0.145126 0.637111 0.161017
0.159865 0.639877 0.163756
0.175423 0.642617 0.166576
0.191886 0.645390 0.169546
0.208954 0.648173 0.172382
0.226783 0.651046 0.175407
0.245330 0.654071 0.178432
0.264455 0.657096 0.181529
0.284186 0.660121 0.184702
0.304407 0.663248 0.187853
0.325188 0.666507 0.191020
0.346583 0.669762 0.194262
0.368620 0.673040 0.197645
0.391051 0.676338 0.200943
0.413999 0.679752 0.204238
0.437473 0.683264 0.207641
0.461326 0.686661 0.211022
0.485743 0.690257 0.214479
0.510607 0.693852 0.217834
0.535896 0.697410 0.221293
0.561565 0.701108 0.224822
0.587648 0.704880 0.228351
0.614266 0.708456 0.231880
0.641199 0.712198 0.235231
0.668612 0.715979 0.238733
0.696280 0.719797 0.242262
0.724479 0.723779 0.245791
0.752917 0.727567 0.249321
0.101382 0.653015 0.157241
0.112732 0.655291 0.159731
0.124375 0.657779 0.162251
0.137729 0.660270 0.164793
0.151495 0.662822 0.167537
0.166453 0.665595 0.170310
0.182197 0.668368 0.173130
0.198740 0.671141 0.176100
0.215983 0.673969 0.178936
0.233841 0.676909 0.181961
0.252401 0.679783 0.184986
0.271642 0.682808 0.188097
0.291536 0.685915 0.191280
0.311846 0.689172 0.194407
0.332846 0.692449 0.197670
0.354358 0.695726 0.200945
0.376305 0.699004 0.204238
0.398886 0.702281 0.207515
