gsg/03_Cinematic/GSG_LUT_Cinematic_SiberianWinter.cube
# GSG LUTs 1.0
# Copyright (c) 2016-2020 Greyscalegorilla
# See EULA for licensing and distribution information
# Converted by Briz LUT Converter
LUT_3D_SIZE 8
DOMAIN_MIN 0.000000 0.000000 0.000000
DOMAIN_MAX 0.903226 0.903226 0.903226
0.031502 0.050794 0.057143
0.058198 0.060688 0.063492
0.075994 0.063681 0.063500
0.109126 0.066950 0.068360
0.161779 0.068376 0.069597
0.238859 0.065391 0.066367
0.343976 0.055229 0.055528
0.457537 0.048478 0.045910
0.070936 0.116799 0.093434
0.096428 0.122198 0.094246
0.119091 0.123660 0.091229
0.153180 0.128134 0.088834
0.208720 0.132696 0.083019
0.290094 0.133239 0.069894
0.398569 0.129508 0.049639
0.501340 0.134534 0.045996
0.093001 0.195904 0.112891
0.123259 0.200481 0.105707
0.157242 0.200110 0.103368
0.196881 0.202836 0.102888
0.253700 0.208209 0.089549
0.336454 0.209658 0.063449
0.437345 0.209470 0.042738
0.538455 0.215117 0.041331
0.092528 0.299665 0.104675
0.138419 0.301603 0.095620
0.181309 0.297838 0.090401
0.231454 0.296675 0.087048
0.295312 0.300388 0.083042
0.378814 0.304429 0.051061
0.474077 0.308246 0.041487
0.573027 0.313003 0.042366
0.097775 0.416188 0.091953
0.154461 0.416432 0.082524
0.198007 0.412432 0.069612
0.255073 0.410122 0.059371
0.327898 0.411328 0.051952
0.411105 0.413255 0.048080
0.491665 0.411731 0.057730
0.570515 0.411690 0.075524
0.121974 0.534239 0.095467
0.183010 0.535799 0.085946
0.226434 0.532191 0.071716
0.282518 0.528660 0.062875
0.350018 0.521384 0.068743
0.420474 0.513915 0.083145
0.493446 0.509654 0.101386
0.569207 0.509031 0.123385
0.145929 0.663240 0.099169
0.211660 0.663976 0.092542
0.259159 0.650540 0.093804
0.310138 0.634472 0.103633
0.369834 0.621573 0.117350
0.435441 0.612608 0.135070
0.504891 0.607704 0.156754
0.577754 0.606782 0.182628
0.174706 0.786868 0.121383
0.247707 0.772673 0.137096
0.303747 0.756335 0.151154
0.350019 0.738863 0.164331
0.401990 0.723310 0.179534
0.462239 0.712938 0.199843
0.527751 0.707259 0.224680
0.597243 0.705817 0.254104
0.036417 0.062736 0.124952
0.067620 0.068321 0.126807
0.091528 0.070093 0.123628
0.126461 0.076395 0.127366
0.179470 0.078358 0.139588
0.257348 0.072870 0.150682
0.364804 0.058473 0.154557
0.470854 0.054488 0.153599
0.072768 0.129848 0.154862
0.102490 0.133629 0.158190
0.129593 0.132785 0.157608
0.170858 0.135067 0.157225
0.233735 0.134502 0.158965
0.321537 0.130571 0.155667
0.414807 0.134302 0.153093
0.513575 0.140551 0.152315
0.100343 0.209437 0.185798
0.128618 0.213526 0.183962
0.160449 0.212343 0.176282
0.206683 0.210977 0.168965
0.273480 0.209851 0.158392
0.356032 0.210888 0.150882
0.447762 0.214603 0.147363
0.548877 0.219772 0.145473
0.096309 0.311619 0.200305
0.137219 0.314475 0.188453
0.179148 0.310156 0.174950
0.233953 0.306621 0.163737
0.304803 0.306635 0.155503
0.388412 0.308767 0.148702
0.482222 0.312317 0.145256
0.575557 0.315754 0.148372
0.105164 0.423593 0.199465
0.162228 0.423103 0.189059
0.204998 0.418319 0.174663
0.261594 0.415550 0.162486
0.334501 0.415976 0.154131
0.414102 0.415171 0.153542
0.491736 0.412730 0.161914
0.569379 0.412832 0.175815
0.128090 0.540896 0.201202
0.189282 0.541924 0.190640
0.232485 0.537397 0.175928
0.287229 0.530559 0.169313
0.352610 0.521383 0.173604
0.421569 0.513726 0.183703
0.493867 0.509882 0.198099
0.568868 0.509827 0.216800
0.150593 0.669534 0.203663
0.217442 0.665837 0.199793
0.265918 0.650451 0.200465
0.315497 0.633997 0.205761
0.373381 0.621042 0.215046
0.437835 0.612265 0.229064
0.506356 0.607854 0.247517
0.578442 0.607515 0.270368
0.180976 0.784875 0.228888
0.254205 0.771197 0.240187
0.311300 0.755621 0.250529
0.356830 0.738438 0.260008
0.407083 0.722979 0.271375
0.466018 0.712773 0.288378
0.530721 0.707399 0.310409
0.599467 0.706758 0.337320
0.036016 0.067896 0.206649
0.072725 0.071062 0.207807
0.102785 0.070558 0.203087
0.144292 0.074150 0.204459
0.197244 0.080445 0.210885
0.272841 0.076718 0.228265
0.381036 0.059627 0.247041
0.482302 0.058521 0.251599
0.066107 0.138099 0.234921
0.100488 0.138776 0.242818
0.134327 0.134839 0.245297
0.182931 0.135317 0.242539
0.247213 0.137844 0.244978
0.333400 0.135242 0.252111
0.425298 0.139597 0.253596
0.524591 0.145573 0.254932
0.091284 0.220663 0.265303
0.125024 0.221851 0.269497
0.161561 0.217882 0.266235
0.212817 0.214096 0.260049
0.282894 0.213590 0.255480
0.364969 0.215495 0.252699
0.457038 0.219134 0.251243
0.558763 0.224220 0.250946
0.097307 0.319641 0.290291
0.143066 0.320386 0.284998
0.185528 0.315427 0.274275
0.240848 0.311738 0.264580
0.312383 0.311306 0.258038
0.396273 0.313063 0.253758
0.489248 0.315953 0.251340
0.576474 0.318578 0.254831
0.110937 0.429446 0.299879
0.168770 0.428816 0.291342
0.211532 0.423516 0.278374
0.268011 0.420284 0.267567
0.340635 0.420046 0.260067
0.416514 0.416660 0.259960
0.491701 0.413965 0.265229
0.568528 0.414480 0.274441
0.133388 0.546914 0.305362
0.195270 0.547652 0.296258
0.238472 0.542215 0.282222
0.292132 0.531901 0.276413
0.355443 0.521428 0.277611
0.423129 0.513876 0.282723
0.494021 0.510048 0.291593
0.567946 0.510040 0.304651
0.155187 0.675283 0.310216
0.223291 0.667369 0.307657
0.273166 0.650339 0.306242
0.321105 0.633799 0.306320
0.376875 0.620366 0.309488
0.439620 0.611392 0.317398
0.506771 0.606793 0.330064
0.577564 0.606387 0.347388
0.187333 0.783166 0.334921
0.260803 0.769984 0.341624
0.318502 0.754730 0.346706
0.363211 0.737422 0.350183
0.411195 0.721353 0.355179
0.468193 0.710849 0.366041
0.531310 0.705455 0.382632
0.598951 0.704788 0.404513
0.032739 0.069353 0.305502
0.074663 0.069482 0.309430
0.110742 0.066950 0.303162
0.159276 0.067189 0.303722
0.220822 0.069304 0.309937
0.294649 0.071040 0.319461
0.393234 0.061682 0.339123
0.492843 0.061972 0.346511
0.056571 0.142518 0.335090
0.095861 0.139748 0.349462
0.137764 0.134826 0.347813
0.192083 0.132928 0.344392
0.261822 0.134718 0.345038
0.343715 0.139079 0.348035
0.434822 0.144070 0.351078
0.534866 0.149660 0.354590
0.073482 0.228894 0.368188
0.120858 0.226838 0.367921
0.165432 0.221797 0.361197
0.219750 0.217953 0.355021
0.290401 0.217576 0.352311
0.372964 0.219479 0.351654
0.465730 0.222985 0.352390
0.567856 0.227947 0.354225
0.093612 0.326806 0.385322
0.148033 0.325157 0.380280
0.191499 0.319769 0.371009
0.247320 0.315814 0.363333
0.319099 0.315225 0.358866
0.403324 0.316675 0.356472
0.493088 0.318873 0.356023
0.576611 0.321501 0.359098
0.116020 0.434316 0.396907
0.174593 0.433568 0.390556
0.217274 0.427900 0.379376
0.273675 0.424362 0.370298
0.344493 0.422231 0.365026
0.418035 0.417964 0.364166
0.492146 0.415626 0.366867
0.568421 0.416899 0.373148
0.137910 0.552294 0.406686
0.200584 0.552602 0.399415
0.244466 0.544601 0.388012
0.296909 0.532631 0.381610
0.358733 0.522011 0.379803
0.425451 0.514884 0.381617
0.495581 0.511474 0.387109
0.568701 0.512077 0.396664
0.160300 0.677192 0.416453
0.229456 0.667214 0.413934
0.280941 0.650842 0.410207
0.327662 0.634587 0.406720
0.381684 0.620990 0.405919
0.443041 0.612202 0.409947
0.509137 0.607754 0.418279
0.579015 0.607791 0.431139
0.194123 0.781913 0.439002
0.267978 0.769362 0.442682
0.326835 0.755103 0.444634
0.371136 0.738249 0.444313
0.417444 0.721936 0.444761
0.472755 0.711259 0.450656
0.534395 0.705761 0.461934
0.600722 0.705197 0.478355
0.028808 0.068620 0.416291
0.075820 0.066785 0.419520
0.116626 0.061734 0.416584
0.170759 0.059230 0.417352
0.238914 0.058963 0.421842
0.317923 0.059747 0.428128
0.406129 0.061751 0.434582
0.502926 0.064776 0.441242
0.051290 0.145015 0.439480
0.100138 0.142948 0.440134
0.144622 0.138816 0.437238
0.199598 0.136571 0.436013
0.270385 0.138942 0.438594
0.352475 0.143356 0.443066
0.443972 0.148104 0.448256
0.544556 0.153470 0.454241
0.075008 0.233227 0.459658
0.126890 0.230872 0.458085
0.171720 0.225674 0.453174
0.226438 0.221636 0.449283
0.297452 0.221276 0.449045
0.380585 0.223052 0.450670
0.474048 0.226617 0.453728
0.576359 0.231701 0.457873
0.098287 0.331175 0.477594
0.153796 0.329371 0.474681
0.197202 0.323628 0.467618
0.253398 0.319554 0.462175
0.325478 0.318754 0.459846
0.410046 0.319997 0.459620
0.495239 0.321498 0.459770
0.576273 0.324829 0.461532
0.120619 0.438854 0.493665
0.180045 0.437922 0.489648
0.222756 0.432069 0.480509
0.278977 0.428130 0.473307
0.347965 0.423924 0.468884
0.419646 0.419554 0.466515
0.493126 0.417968 0.466972
0.569062 0.420127 0.471051
0.142030 0.557010 0.508018
0.205537 0.557113 0.502976
0.250690 0.546567 0.492892
0.302057 0.533585 0.485009
0.362603 0.523205 0.480599
0.428451 0.516649 0.479791
0.497976 0.513830 0.482684
0.570572 0.515116 0.489529
0.165602 0.678366 0.521494
0.236059 0.667194 0.518260
0.289106 0.651764 0.512560
0.334974 0.635938 0.506333
0.387432 0.622572 0.502436
0.447666 0.614150 0.503338
0.512945 0.610132 0.508645
0.582064 0.610683 0.518255
0.201516 0.781138 0.541333
0.275817 0.769602 0.542821
0.335806 0.756176 0.542432
0.380239 0.740043 0.539356
0.425071 0.723924 0.536235
0.478832 0.713300 0.538624
0.539442 0.708118 0.546265
0.604733 0.707798 0.558825
0.033668 0.071937 0.497601
0.081834 0.069944 0.501875
0.123597 0.064540 0.502115
0.178392 0.061525 0.505248
0.247133 0.061279 0.511248
0.326425 0.062413 0.518736
0.415148 0.064551 0.527307
0.512584 0.067399 0.536610
0.056626 0.148789 0.522609
0.106368 0.146949 0.525244
0.151711 0.142857 0.525135
0.206869 0.140870 0.526370
0.278228 0.143506 0.531772
0.360715 0.147426 0.538541
0.452795 0.151924 0.546245
0.554110 0.157086 0.554817
0.080137 0.236858 0.547129
0.132931 0.234539 0.548101
0.177770 0.229312 0.545615
0.232850 0.225201 0.544226
0.304310 0.224725 0.546439
0.388043 0.226559 0.550654
0.482102 0.230100 0.556262
0.582426 0.235782 0.562029
0.103023 0.335058 0.570143
0.159417 0.333172 0.569737
0.202747 0.327173 0.564881
0.259175 0.323066 0.561874
0.331690 0.322116 0.561945
0.415191 0.322938 0.563267
0.496521 0.324422 0.562495
0.576383 0.328852 0.562915
0.125015 0.443074 0.591266
0.185319 0.442042 0.589629
0.228114 0.435858 0.582637
0.283799 0.431160 0.577147
0.351215 0.425641 0.571868
0.421760 0.421592 0.567666
0.494834 0.421030 0.566571
0.570543 0.424167 0.568955
0.146063 0.561645 0.610491
0.210633 0.560625 0.607383
0.257403 0.548299 0.597093
0.307916 0.535068 0.587289
0.367200 0.525158 0.580685
0.432287 0.519165 0.577862
0.501335 0.517197 0.578728
0.573487 0.519338 0.583542
0.171220 0.679235 0.625858
0.243082 0.667408 0.621217
0.297721 0.653401 0.614195
0.343113 0.638245 0.605853
0.394180 0.625102 0.599350
0.453358 0.617248 0.597814
0.517874 0.613908 0.600678
0.586449 0.615011 0.607952
0.209303 0.781008 0.642987
0.284512 0.770505 0.642780
0.345563 0.758251 0.640674
0.390374 0.743015 0.635494
0.434115 0.727209 0.629544
0.486422 0.716853 0.628984
0.546087 0.712010 0.633817
0.610655 0.712243 0.643556
0.039474 0.075482 0.575430
0.087991 0.073377 0.582308
0.130655 0.067896 0.585356
0.185450 0.064603 0.590920
0.254696 0.064088 0.599581
0.334491 0.065194 0.609902
0.423936 0.067166 0.621127
0.522142 0.069849 0.633251
0.061987 0.152382 0.605641
0.112498 0.150693 0.611120
0.158496 0.146914 0.613831
0.213908 0.145155 0.617817
0.285683 0.147765 0.625850
0.368771 0.151215 0.635161
0.461382 0.155378 0.645543
0.563436 0.160500 0.656865
0.085130 0.240372 0.635355
0.138773 0.238059 0.639173
0.183412 0.232668 0.639164
0.239063 0.228609 0.640390
0.311014 0.228122 0.645204
0.395399 0.229920 0.652037
0.489822 0.233659 0.660204
0.586188 0.240336 0.666258
0.107598 0.338658 0.663676
0.164867 0.336807 0.665974
0.208081 0.330669 0.663448
0.264886 0.326409 0.662969
0.337637 0.325343 0.665425
0.418626 0.325781 0.666559
0.497830 0.327854 0.664442
0.577188 0.333558 0.663742
0.129166 0.447107 0.690026
0.190288 0.445989 0.691026
0.233404 0.439619 0.686339
0.288428 0.433334 0.680773
0.354683 0.427671 0.673898
0.424487 0.424551 0.668314
0.497378 0.424886 0.666022
0.572995 0.429113 0.667114
0.150096 0.566009 0.714392
0.216262 0.562619 0.711677
0.264726 0.549887 0.700522
0.314587 0.537203 0.689092
0.372643 0.527890 0.680695
0.437095 0.522690 0.676221
0.505727 0.521522 0.675548
0.577584 0.524652 0.678791
0.177904 0.679113 0.729343
0.250725 0.668393 0.723621
0.307128 0.655750 0.715637
0.352197 0.641424 0.705623
0.401973 0.628750 0.697102
0.460244 0.621387 0.693520
0.524185 0.618762 0.694482
0.592234 0.620837 0.699838
0.217982 0.781661 0.744215
0.293811 0.772232 0.742836
0.356136 0.761313 0.739540
0.401624 0.747059 0.732691
0.444326 0.731655 0.724620
0.495326 0.721721 0.721561
0.554131 0.717544 0.724145
0.618045 0.718417 0.731708
0.045035 0.078806 0.654079
0.093828 0.076482 0.663749
0.137305 0.071102 0.669693
0.192373 0.067628 0.677780
0.262027 0.066852 0.689251
0.342480 0.067745 0.702336
0.432528 0.069610 0.716397
0.531642 0.072165 0.731395
0.067242 0.155850 0.689713
0.118544 0.154273 0.698281
0.165074 0.150861 0.703715
0.220899 0.149497 0.710626
0.293069 0.151603 0.721260
0.376515 0.154799 0.733372
0.469931 0.158922 0.746542
0.572710 0.163839 0.760541
0.089913 0.243641 0.724877
0.144480 0.241483 0.731388
0.189095 0.235937 0.734001
0.245240 0.231887 0.738032
0.317653 0.231395 0.745573
0.402615 0.233320 0.755277
0.497208 0.237303 0.765721
0.588051 0.245817 0.769569
0.112010 0.342257 0.758633
0.170186 0.340347 0.763626
0.213367 0.333969 0.763774
0.270401 0.329678 0.765736
0.343538 0.328443 0.770658
0.421603 0.328853 0.769369
0.499419 0.332113 0.765744
0.578820 0.339260 0.764472
0.133444 0.451034 0.790310
0.195375 0.449905 0.794034
0.238794 0.443183 0.791630
0.293518 0.435754 0.784139
0.358637 0.430399 0.775372
0.428017 0.428175 0.768900
0.500680 0.429616 0.765642
0.576268 0.435088 0.765906
0.153894 0.570429 0.819986
0.222344 0.564621 0.815771
0.272875 0.552091 0.803322
0.322088 0.540321 0.790823
0.378986 0.531464 0.780952
0.442844 0.527150 0.775214
0.511060 0.526996 0.773305
0.582652 0.531136 0.775343
0.185078 0.679523 0.832014
0.258968 0.670093 0.825713
0.317084 0.658764 0.817073
0.362209 0.645477 0.805918
0.410773 0.633401 0.795735
0.468212 0.626594 0.790533
0.531588 0.624921 0.789982
0.599222 0.627850 0.793925
0.227248 0.782912 0.845539
0.304071 0.774966 0.843417
0.367542 0.765217 0.839152
0.414001 0.752173 0.831274
0.455900 0.737379 0.821464
0.505638 0.727876 0.816485
0.563585 0.724283 0.817142
0.627017 0.726090 0.822960
