gsg/03_Cinematic/GSG_LUT_Cinematic_SciFi_Horror.cube
# GSG LUTs 1.0
# Copyright (c) 2016-2020 Greyscalegorilla
# See EULA for licensing and distribution information
# Converted by Briz LUT Converter
LUT_3D_SIZE 8
DOMAIN_MIN 0.000000 0.000000 0.000000
DOMAIN_MAX 0.903226 0.903226 0.903226
0.027839 0.053236 0.061050
0.067265 0.052960 0.063555
0.130742 0.052196 0.065572
0.219331 0.051093 0.067344
0.325220 0.049809 0.068872
0.444775 0.048438 0.069999
0.575273 0.047186 0.071007
0.715546 0.045933 0.071551
0.017480 0.131655 0.064839
0.062255 0.131194 0.067313
0.126527 0.130403 0.069329
0.216996 0.129395 0.071007
0.324708 0.128142 0.072369
0.445855 0.126752 0.073481
0.578156 0.125456 0.074056
0.719308 0.124448 0.074300
0.006696 0.232384 0.068077
0.056946 0.232203 0.070283
0.121887 0.231912 0.072244
0.214172 0.231328 0.073725
0.323740 0.230494 0.074945
0.446754 0.229792 0.075562
0.580425 0.229232 0.075765
0.722770 0.228873 0.075237
0.000000 0.345953 0.070519
0.051841 0.346567 0.072535
0.117673 0.347157 0.074283
0.211895 0.347458 0.075461
0.323534 0.347552 0.076118
0.448255 0.347647 0.076190
0.583468 0.348174 0.075418
0.727252 0.349254 0.073356
0.000000 0.471078 0.072165
0.047982 0.472732 0.073796
0.114663 0.474480 0.075244
0.211101 0.475828 0.075748
0.324897 0.477089 0.075511
0.451962 0.478499 0.073993
0.589723 0.480279 0.069807
0.736441 0.482898 0.063610
0.000000 0.607247 0.071968
0.046992 0.610174 0.072976
0.114869 0.613101 0.073764
0.213990 0.615540 0.072805
0.331193 0.617653 0.069313
0.461530 0.620016 0.063887
0.600638 0.622766 0.061172
0.746087 0.626335 0.063296
0.000000 0.753255 0.069085
0.051905 0.757233 0.068493
0.122527 0.760526 0.066358
0.225444 0.763252 0.062057
0.343842 0.765788 0.061337
0.473681 0.768569 0.063354
0.612265 0.771972 0.068275
0.757231 0.776415 0.077225
0.000000 0.906054 0.060774
0.066714 0.909302 0.061055
0.138241 0.912586 0.062052
0.240986 0.915499 0.064798
0.359751 0.918362 0.069904
0.489637 0.921541 0.078382
0.627752 0.925511 0.091247
0.771287 0.930550 0.109871
0.025822 0.052960 0.144693
0.066257 0.052499 0.147962
0.129978 0.051707 0.150766
0.218925 0.050699 0.153298
0.325101 0.049447 0.155477
0.444933 0.048174 0.157356
0.575786 0.046910 0.158864
0.716258 0.045689 0.159896
0.015463 0.131384 0.150010
0.061279 0.130871 0.153224
0.125740 0.130127 0.155983
0.216491 0.128934 0.158287
0.324589 0.127685 0.160276
0.446099 0.126433 0.162029
0.578644 0.125212 0.163142
0.720044 0.124232 0.163685
0.004860 0.232117 0.154531
0.055994 0.231959 0.157556
0.121123 0.231755 0.160233
0.213779 0.231180 0.162314
0.323740 0.230478 0.164015
0.447076 0.229706 0.165115
0.580943 0.229280 0.165662
0.723591 0.229099 0.165321
0.000000 0.345965 0.158321
0.051006 0.346792 0.161007
0.116950 0.347363 0.163398
0.211583 0.347494 0.165095
0.323583 0.347796 0.166118
0.448760 0.347964 0.166494
0.584249 0.348562 0.165840
0.728602 0.349868 0.163181
0.000000 0.471583 0.160881
0.047478 0.473347 0.163034
0.114283 0.474998 0.165015
0.211117 0.476339 0.165834
0.325458 0.477703 0.165834
0.453026 0.479181 0.164037
0.591563 0.481287 0.159782
0.738561 0.484139 0.154165
0.000000 0.608169 0.161224
0.047012 0.611107 0.162574
0.115162 0.614045 0.163819
0.215067 0.616430 0.162612
0.332836 0.618662 0.159211
0.463523 0.621149 0.154311
0.602410 0.624034 0.153799
0.748080 0.627821 0.156800
0.000000 0.754721 0.158194
0.053151 0.758454 0.157406
0.124489 0.761675 0.155697
0.227274 0.764260 0.152981
0.345828 0.766989 0.153849
0.475711 0.769952 0.156931
0.614343 0.773493 0.162717
0.759338 0.778187 0.172463
0.000000 0.907062 0.150634
0.068763 0.910339 0.152134
0.140667 0.913821 0.154392
0.243482 0.916602 0.158050
0.362399 0.919627 0.164100
0.492402 0.923043 0.173601
0.630511 0.927281 0.187515
0.773863 0.932766 0.206941
0.023561 0.052440 0.246792
0.065194 0.052007 0.250392
0.128969 0.051266 0.253637
0.218386 0.050211 0.256592
0.324827 0.049046 0.259136
0.444933 0.047706 0.261397
0.576209 0.046453 0.263169
0.716767 0.045445 0.264233
0.013447 0.130868 0.252905
0.060270 0.130380 0.256405
0.124818 0.129609 0.259719
0.215981 0.128543 0.262408
0.324357 0.127273 0.264694
0.446256 0.126128 0.266552
0.578975 0.124966 0.267803
0.720737 0.124183 0.268463
0.002663 0.231849 0.258222
0.055016 0.231715 0.261515
0.120312 0.231482 0.264539
0.213319 0.230857 0.266958
0.323652 0.230227 0.268879
0.447374 0.229589 0.270028
0.581568 0.229140 0.270487
0.724359 0.229156 0.269896
0.000000 0.346048 0.262586
0.050252 0.346792 0.265491
0.116309 0.347387 0.268148
0.211351 0.347634 0.270018
0.323754 0.347857 0.271101
0.449281 0.348205 0.271180
0.585164 0.349002 0.270154
0.730240 0.350679 0.267188
0.000000 0.472000 0.265241
0.046902 0.473824 0.267628
0.113995 0.475483 0.269699
0.211321 0.476874 0.270525
0.326097 0.478297 0.270288
0.454501 0.480002 0.268124
0.593438 0.482269 0.264103
0.740565 0.485371 0.259659
0.000000 0.609177 0.265384
0.047198 0.612085 0.266691
0.115665 0.615004 0.267737
0.216407 0.617313 0.266528
0.334767 0.619628 0.263356
0.465559 0.622246 0.259882
0.604340 0.625402 0.261180
0.750018 0.629379 0.264997
0.000000 0.756138 0.261160
0.055004 0.759470 0.260343
0.126793 0.762518 0.259065
0.229468 0.765268 0.258708
0.347996 0.768049 0.260930
0.478157 0.771263 0.265003
0.616826 0.775203 0.271782
0.761767 0.780149 0.282499
0.000000 0.908070 0.254929
0.071489 0.911319 0.257709
0.143505 0.914829 0.261102
0.246365 0.917837 0.265944
0.365430 0.920908 0.272974
0.495534 0.924589 0.283425
0.633534 0.929056 0.298289
0.776825 0.935078 0.318588
0.021545 0.051920 0.358856
0.064028 0.051514 0.362972
0.128024 0.050769 0.366710
0.217658 0.049722 0.369979
0.324567 0.048542 0.372806
0.445090 0.047270 0.375233
0.576567 0.046136 0.377177
0.717341 0.045201 0.378313
0.011217 0.130352 0.365895
0.059224 0.129864 0.369766
0.123810 0.129100 0.373376
0.215376 0.128041 0.376448
0.324117 0.126858 0.378991
0.446409 0.125700 0.380987
0.579386 0.124702 0.382300
0.721336 0.123988 0.382721
0.000947 0.231470 0.371853
0.054008 0.231400 0.375490
0.119414 0.231184 0.378841
0.212825 0.230592 0.381464
0.323621 0.230004 0.383430
0.447643 0.229430 0.384590
0.582119 0.229099 0.384764
0.725175 0.229400 0.383833
0.000000 0.346048 0.376517
0.049423 0.346662 0.379755
0.115681 0.347387 0.382669
0.211144 0.347738 0.384539
0.324017 0.348017 0.385543
0.449935 0.348477 0.385354
0.586348 0.349498 0.383930
0.731938 0.351485 0.380934
0.000000 0.472474 0.379273
0.046622 0.474205 0.381726
0.113908 0.475930 0.383911
0.211692 0.477391 0.384584
0.327109 0.478935 0.383985
0.456113 0.480799 0.381976
0.595552 0.483375 0.378040
0.742232 0.486676 0.375987
0.000000 0.609941 0.378843
0.047732 0.612859 0.380004
0.116702 0.615796 0.380960
0.218087 0.618173 0.379976
0.337021 0.620592 0.377131
0.467565 0.623412 0.375926
0.606357 0.626754 0.378471
0.752035 0.631132 0.383164
0.000000 0.757168 0.373144
0.057263 0.760306 0.372602
0.129234 0.763496 0.372907
0.231780 0.766277 0.374902
0.350458 0.769247 0.378033
0.480728 0.772651 0.383081
0.619464 0.776918 0.390731
0.764240 0.782386 0.402208
0.000000 0.908835 0.369207
0.074475 0.912132 0.373146
0.146598 0.915667 0.377790
0.249663 0.918862 0.383606
0.368892 0.922245 0.391736
0.498939 0.926214 0.403002
0.636823 0.931243 0.418809
0.779871 0.937594 0.439993
0.019284 0.051400 0.478499
0.062910 0.051022 0.483020
0.127016 0.050242 0.487179
0.217029 0.049234 0.490802
0.324251 0.048100 0.494025
0.445090 0.046847 0.496648
0.576927 0.045812 0.498665
0.717732 0.044956 0.499728
0.009169 0.129836 0.486415
0.058009 0.129334 0.490678
0.122864 0.128572 0.494600
0.214809 0.127536 0.498027
0.323926 0.126408 0.500791
0.446500 0.125243 0.502890
0.579750 0.124451 0.504022
0.721866 0.123967 0.504214
0.000000 0.231133 0.492922
0.053004 0.231045 0.496925
0.118650 0.230799 0.500533
0.212410 0.230305 0.503416
0.323534 0.229763 0.505397
0.447887 0.229280 0.506440
0.582724 0.229124 0.506359
0.726000 0.229660 0.504835
0.000000 0.346048 0.497932
0.048677 0.346662 0.501425
0.115130 0.347347 0.504543
0.211022 0.347796 0.506443
0.324257 0.348160 0.507155
0.450605 0.348779 0.506623
0.587723 0.350144 0.505195
0.733940 0.352570 0.502290
0.000000 0.472795 0.500611
0.046429 0.474568 0.503124
0.113924 0.476333 0.505305
0.212133 0.477898 0.505735
0.328410 0.479633 0.505227
0.457938 0.481681 0.503385
0.597801 0.484433 0.499895
0.743932 0.488125 0.500230
0.000000 0.610863 0.499316
0.048386 0.613795 0.500275
0.118047 0.616560 0.501632
0.220111 0.618998 0.501135
0.339412 0.621600 0.498901
0.469610 0.624559 0.500200
0.608531 0.628307 0.503503
0.754067 0.633062 0.508985
0.000000 0.758021 0.492300
0.059982 0.761235 0.492377
0.131723 0.764472 0.495382
0.234341 0.767285 0.498840
0.353229 0.770499 0.502977
0.483480 0.774143 0.508783
0.622252 0.778854 0.517283
0.766849 0.784732 0.529466
0.000342 0.909705 0.491307
0.077747 0.913105 0.496349
0.150143 0.916665 0.502210
0.253407 0.920031 0.508970
0.372626 0.923624 0.518007
0.502676 0.928032 0.530140
0.640346 0.933407 0.546683
0.783119 0.940348 0.568523
0.017023 0.050880 0.604136
0.061767 0.050381 0.609166
0.126007 0.049754 0.613825
0.216346 0.048746 0.617858
0.323930 0.047580 0.621358
0.445090 0.046485 0.624215
0.577171 0.045476 0.626197
0.718224 0.044933 0.627161
0.006940 0.129245 0.612848
0.057001 0.128736 0.617641
0.121856 0.127997 0.622082
0.214109 0.126984 0.625741
0.323755 0.125976 0.628705
0.446609 0.124992 0.630809
0.580117 0.124204 0.631920
0.722462 0.123967 0.631713
0.000000 0.230760 0.620213
0.052035 0.230643 0.624514
0.117838 0.230440 0.628508
0.211967 0.229989 0.631525
0.323534 0.229535 0.633550
0.448289 0.229280 0.634369
0.583358 0.229329 0.633879
0.727057 0.230112 0.632020
0.000000 0.345898 0.625586
0.048071 0.346662 0.629280
0.114672 0.347347 0.632494
0.210994 0.347833 0.634432
0.324712 0.348356 0.634897
0.451569 0.349214 0.634141
0.589314 0.350892 0.632943
0.736002 0.353664 0.629967
0.000000 0.473166 0.627939
0.046432 0.474943 0.630528
0.114066 0.476775 0.632643
0.212928 0.478501 0.633006
0.329948 0.480331 0.632970
0.460071 0.482653 0.631507
0.599869 0.485733 0.628997
0.745823 0.489767 0.631143
0.000000 0.611627 0.625570
0.049450 0.614558 0.626473
0.119920 0.617365 0.628713
0.222516 0.619893 0.628623
0.341796 0.622734 0.628223
0.471877 0.625897 0.631016
0.610792 0.629911 0.635114
0.756291 0.635299 0.641266
0.000000 0.759030 0.617575
0.062658 0.762032 0.620137
0.134372 0.765268 0.624890
0.237095 0.768441 0.629316
0.356195 0.771805 0.634382
0.486667 0.775769 0.640962
0.625243 0.780858 0.650141
0.769579 0.787317 0.662936
0.003657 0.910592 0.619827
0.081597 0.913906 0.626016
0.154114 0.917673 0.632926
0.257460 0.921215 0.640727
0.376762 0.925145 0.650553
0.506713 0.929820 0.663422
0.644236 0.935868 0.680572
0.786551 0.943361 0.703172
0.014817 0.050305 0.735090
0.060522 0.049840 0.740565
0.124999 0.049076 0.745606
0.215668 0.048068 0.750065
0.323644 0.047060 0.753917
0.445090 0.046032 0.756942
0.577415 0.045232 0.758856
0.718697 0.044933 0.759644
0.004679 0.128757 0.744598
0.055780 0.128094 0.749898
0.120854 0.127486 0.754776
0.213548 0.126496 0.758756
0.323511 0.125495 0.761892
0.446690 0.124546 0.763988
0.580574 0.123978 0.764867
0.723140 0.123989 0.764109
0.000000 0.230353 0.752570
0.051077 0.230314 0.757304
0.117003 0.230131 0.761702
0.211633 0.229706 0.764828
0.323566 0.229300 0.766763
0.448646 0.229099 0.767294
0.584089 0.229444 0.766337
0.728336 0.230692 0.764552
0.000000 0.345898 0.758313
0.047483 0.346734 0.762205
0.114349 0.347371 0.765606
0.210997 0.347919 0.767309
0.325284 0.348582 0.767499
0.452714 0.349752 0.767051
0.591085 0.351840 0.766172
0.738153 0.354920 0.762985
0.000000 0.473599 0.760279
0.046536 0.475308 0.762716
0.114460 0.477272 0.764841
0.214105 0.479043 0.765710
0.331789 0.481074 0.766202
0.462416 0.483758 0.764631
0.601894 0.487154 0.764512
0.747630 0.491528 0.767433
0.000000 0.612549 0.756454
0.051067 0.615321 0.757978
0.122208 0.618205 0.761139
0.225316 0.620875 0.761558
0.344141 0.623806 0.763692
0.474363 0.627314 0.767305
0.613210 0.631813 0.771956
0.758684 0.637650 0.778647
0.000000 0.759794 0.748766
0.065568 0.763008 0.753721
0.137351 0.766277 0.759866
0.240309 0.769564 0.765238
0.359426 0.773270 0.770986
0.489881 0.777648 0.778191
0.628329 0.783109 0.787897
0.772382 0.790182 0.801308
0.007709 0.911371 0.753563
0.085648 0.914892 0.761005
0.158412 0.918808 0.768959
0.261890 0.922639 0.777555
0.381186 0.926822 0.788090
0.511046 0.931979 0.801568
0.648249 0.938581 0.819312
0.790112 0.946778 0.842283
0.012525 0.049596 0.870290
0.059293 0.049300 0.876558
0.123810 0.048556 0.882059
0.214989 0.047548 0.886983
0.323400 0.046540 0.891016
0.445090 0.045752 0.894159
0.577825 0.044988 0.896073
0.719185 0.044933 0.896417
0.002663 0.128048 0.881051
0.054744 0.127532 0.886804
0.120081 0.126845 0.892050
0.212927 0.126009 0.896256
0.323295 0.125041 0.899604
0.446923 0.124287 0.901564
0.581058 0.123967 0.902091
0.723712 0.124216 0.900821
0.000000 0.230068 0.889568
0.050289 0.229902 0.894710
0.116254 0.229845 0.899363
0.211383 0.229462 0.902550
0.323723 0.229280 0.904421
0.449179 0.229140 0.904535
0.585057 0.229870 0.903086
0.729901 0.231478 0.901888
0.000000 0.345898 0.895444
0.046987 0.346607 0.899468
0.114029 0.347434 0.903002
0.211274 0.348076 0.904584
0.325976 0.348929 0.904369
0.454233 0.350484 0.904761
0.593068 0.352814 0.904072
0.740278 0.356461 0.901456
0.000000 0.473898 0.896758
0.046720 0.475785 0.899172
0.115090 0.477806 0.901201
0.215626 0.479701 0.903215
0.333985 0.482026 0.904158
0.464856 0.484945 0.903047
0.603821 0.488686 0.905089
0.749619 0.493648 0.908329
0.000000 0.613313 0.891362
0.053138 0.616109 0.894045
0.124826 0.619012 0.898138
0.227951 0.621970 0.900200
0.346633 0.625064 0.904085
0.476915 0.628907 0.908369
0.615858 0.633826 0.913439
0.761021 0.640191 0.920480
0.000000 0.760558 0.885888
0.068603 0.763803 0.892458
0.140736 0.767329 0.899641
0.243819 0.770809 0.905738
0.363081 0.774792 0.912185
0.493450 0.779593 0.919978
0.631754 0.785735 0.930062
0.775596 0.793418 0.943805
0.012234 0.912157 0.892208
0.090343 0.915901 0.900302
0.163127 0.919934 0.909493
0.266660 0.924042 0.918790
0.385956 0.928788 0.929947
0.515615 0.934360 0.943969
0.652553 0.941400 0.962098
0.793901 0.950516 0.985507
