gsg/03_Cinematic/GSG_LUT_Cinematic_OfficeCubicle.cube
# GSG LUTs 1.0
# Copyright (c) 2016-2020 Greyscalegorilla
# See EULA for licensing and distribution information
# Converted by Briz LUT Converter
LUT_3D_SIZE 32
0.076923 0.080830 0.080342
0.086502 0.084864 0.084627
0.096160 0.088881 0.088913
0.107023 0.092662 0.093198
0.118272 0.096443 0.097515
0.130663 0.100225 0.102013
0.143503 0.103958 0.106298
0.157588 0.107487 0.110583
0.172650 0.111017 0.114869
0.188562 0.114546 0.119083
0.205514 0.118075 0.123116
0.223593 0.121517 0.127063
0.242688 0.124794 0.130844
0.262815 0.127969 0.134625
0.283989 0.130994 0.138186
0.306345 0.133901 0.141463
0.330041 0.136673 0.144740
0.354941 0.139178 0.147749
0.381047 0.141589 0.150380
0.408460 0.143810 0.152901
0.437008 0.145984 0.155264
0.466572 0.148088 0.157367
0.497089 0.150278 0.159384
0.526031 0.153996 0.162307
0.552940 0.159605 0.166340
0.579605 0.165654 0.170822
0.606940 0.171909 0.175359
0.634204 0.178424 0.180109
0.662090 0.185419 0.184899
0.690299 0.192249 0.189917
0.719004 0.199764 0.195431
0.747985 0.207082 0.200733
0.084990 0.100240 0.090173
0.094324 0.104266 0.094442
0.103974 0.108062 0.098475
0.114806 0.112065 0.102524
0.125842 0.115885 0.106771
0.138271 0.119879 0.110842
0.151311 0.123616 0.115072
0.165347 0.127213 0.119097
0.180218 0.130994 0.123122
0.196124 0.134704 0.127079
0.212998 0.138236 0.130857
0.230911 0.141770 0.134628
0.250003 0.145208 0.138301
0.270125 0.148493 0.141723
0.291299 0.151668 0.144996
0.313537 0.154697 0.148147
0.337103 0.157726 0.151160
0.361865 0.160491 0.153909
0.387715 0.163157 0.156425
0.415017 0.165636 0.158644
0.443405 0.167912 0.160655
0.472023 0.170702 0.163170
0.500705 0.174111 0.165963
0.528497 0.178751 0.169479
0.555020 0.184558 0.173648
0.581630 0.190616 0.178132
0.608753 0.197077 0.182881
0.636189 0.203844 0.187679
0.664099 0.210871 0.192910
0.692079 0.217929 0.197983
0.720769 0.225231 0.203505
0.749498 0.232794 0.209059
0.093025 0.119729 0.100004
0.102336 0.123739 0.104005
0.111742 0.127536 0.108007
0.122392 0.131340 0.111811
0.133641 0.135374 0.115830
0.146034 0.139370 0.119860
0.158932 0.143212 0.123833
0.173146 0.147193 0.127614
0.187955 0.150991 0.131391
0.203682 0.154722 0.135156
0.220544 0.158352 0.138842
0.238446 0.162052 0.142274
0.257426 0.165597 0.145551
0.277397 0.169136 0.148815
0.298555 0.172562 0.151963
0.320777 0.175737 0.154863
0.344196 0.178896 0.157501
0.368820 0.181923 0.160013
0.394525 0.184719 0.162385
0.421565 0.187359 0.164495
0.449838 0.189896 0.166348
0.477469 0.193436 0.168950
0.504465 0.198021 0.172349
0.531045 0.203375 0.176442
0.557320 0.209492 0.180921
0.583917 0.215794 0.185484
0.610839 0.222314 0.190437
0.638223 0.229083 0.195492
0.665933 0.236124 0.200770
0.693876 0.243199 0.206080
0.722550 0.250731 0.211848
0.751058 0.258521 0.217661
0.100563 0.140399 0.109811
0.109646 0.144211 0.113347
0.119067 0.148207 0.117082
0.129930 0.152034 0.120861
0.141182 0.156068 0.124649
0.153637 0.160105 0.128623
0.166702 0.164162 0.132404
0.180726 0.168220 0.136185
0.195518 0.172278 0.139903
0.211171 0.176328 0.143425
0.227847 0.180290 0.146851
0.245571 0.184096 0.150112
0.264238 0.187892 0.153380
0.284074 0.191581 0.156428
0.304972 0.195135 0.159287
0.326933 0.198570 0.162062
0.349986 0.201871 0.164583
0.374251 0.205173 0.166957
0.399815 0.208332 0.169201
0.426540 0.211232 0.171161
0.454450 0.214029 0.172925
0.481641 0.218000 0.175698
0.507793 0.223090 0.179520
0.533889 0.228770 0.183940
0.560093 0.234952 0.188501
0.586506 0.241273 0.193438
0.613384 0.247989 0.198499
0.640548 0.254816 0.203778
0.668431 0.262066 0.209295
0.696183 0.269377 0.214863
0.724621 0.276946 0.220692
0.753326 0.284509 0.226736
0.107842 0.161227 0.119327
0.116924 0.165222 0.122817
0.126315 0.169050 0.126121
0.137178 0.173083 0.129817
0.148458 0.177116 0.133349
0.161146 0.181189 0.137130
0.174428 0.185474 0.140911
0.188435 0.189766 0.144685
0.203080 0.194076 0.148387
0.218670 0.198300 0.151869
0.235107 0.202366 0.155077
0.252649 0.206420 0.158188
0.271125 0.210383 0.161330
0.290585 0.214203 0.164150
0.311223 0.217998 0.166767
0.332924 0.221694 0.169389
0.355814 0.225256 0.171893
0.379911 0.228800 0.174129
0.405086 0.232224 0.176131
0.431440 0.235416 0.177998
0.458894 0.238506 0.179783
0.485553 0.242877 0.182738
0.511207 0.248310 0.186842
0.536839 0.254236 0.191508
0.562929 0.260475 0.196322
0.589316 0.266999 0.201341
0.616188 0.273764 0.206620
0.643160 0.280783 0.212131
0.670987 0.288062 0.217705
0.698736 0.295372 0.223512
0.727173 0.303185 0.229785
0.755626 0.310788 0.235874
0.114861 0.183197 0.128402
0.123937 0.187025 0.131638
0.133157 0.191020 0.134875
0.143984 0.195053 0.138111
0.155269 0.199086 0.141410
0.168026 0.203159 0.145157
0.181535 0.207444 0.148939
0.195802 0.211785 0.152673
0.210642 0.216269 0.156286
0.226243 0.220595 0.159907
0.242628 0.224921 0.163212
0.259910 0.229160 0.166316
0.278208 0.233314 0.169168
0.297538 0.237411 0.171964
0.317915 0.241343 0.174485
0.339356 0.245299 0.176869
0.361877 0.249120 0.179223
0.385610 0.252808 0.181323
0.410502 0.256497 0.183206
0.436424 0.260177 0.185105
0.463195 0.263787 0.187083
0.489272 0.268363 0.190298
0.514624 0.274111 0.194785
0.540165 0.280190 0.199604
0.566215 0.286470 0.204623
0.592454 0.293142 0.209870
0.619259 0.299974 0.215402
0.646225 0.306999 0.220988
0.673823 0.314313 0.226795
0.701548 0.321664 0.232825
0.729947 0.329648 0.239150
0.758226 0.337469 0.245532
0.121620 0.205522 0.137335
0.130748 0.209547 0.140358
0.140108 0.213344 0.143338
0.150742 0.217378 0.146358
0.162054 0.221417 0.149397
0.174997 0.225523 0.152917
0.188586 0.229778 0.156649
0.203075 0.234146 0.160392
0.218122 0.238647 0.164123
0.233818 0.243184 0.167701
0.250297 0.247737 0.171184
0.267399 0.252236 0.174305
0.285468 0.256570 0.177126
0.304537 0.260802 0.179806
0.324655 0.264973 0.182278
0.345813 0.269163 0.184537
0.368073 0.273245 0.186655
0.391543 0.277193 0.188633
0.416062 0.281023 0.190397
0.441445 0.285003 0.192490
0.467527 0.289146 0.194838
0.493182 0.294088 0.198330
0.518453 0.299917 0.202932
0.543842 0.306148 0.207917
0.569643 0.312639 0.213184
0.595952 0.319231 0.218526
0.622616 0.326204 0.224239
0.649549 0.333262 0.230078
0.676962 0.340762 0.236145
0.704623 0.348324 0.242288
0.732821 0.356168 0.248862
0.761251 0.364032 0.255662
0.128174 0.228627 0.145654
0.137437 0.232599 0.148614
0.146610 0.236449 0.151345
0.157291 0.240482 0.154290
0.168560 0.244540 0.157076
0.181583 0.248747 0.160383
0.195347 0.252910 0.163866
0.209926 0.257348 0.167450
0.225190 0.261696 0.171217
0.241089 0.266233 0.174958
0.257671 0.270850 0.178617
0.274906 0.275572 0.181921
0.292898 0.280145 0.185038
0.311742 0.284626 0.187790
0.331599 0.289000 0.190034
0.352428 0.293316 0.192154
0.374428 0.297630 0.194142
0.397599 0.301838 0.195998
0.421851 0.305928 0.197731
0.446671 0.310202 0.199989
0.472066 0.314881 0.202781
0.497389 0.320223 0.206623
0.522557 0.326133 0.211446
0.547889 0.332405 0.216569
0.573524 0.338911 0.222017
0.599630 0.345662 0.227608
0.626209 0.352672 0.233415
0.653133 0.359779 0.239482
0.680497 0.367335 0.245810
0.707968 0.374903 0.252346
0.736153 0.382937 0.259189
0.764386 0.391004 0.266052
0.134602 0.252448 0.153909
0.143678 0.256235 0.156609
0.152920 0.260207 0.159081
0.163707 0.264247 0.161771
0.174879 0.268337 0.164378
0.188011 0.272399 0.167590
0.201824 0.276632 0.170861
0.216620 0.280917 0.174431
0.231982 0.285265 0.178101
0.248094 0.289803 0.181701
0.264875 0.294419 0.185482
0.282154 0.299208 0.189199
0.300170 0.303928 0.192698
0.318946 0.308606 0.195631
0.338572 0.313314 0.197883
0.359236 0.317798 0.199938
0.380976 0.322274 0.201829
0.403791 0.326743 0.203589
0.427681 0.331057 0.205147
0.452111 0.335719 0.207608
0.476953 0.340755 0.210961
0.501967 0.346358 0.215175
0.526960 0.352394 0.220124
0.552097 0.358825 0.225593
0.577683 0.365379 0.231204
0.603738 0.372180 0.237012
0.630147 0.379204 0.243027
0.656986 0.386529 0.249344
0.684170 0.394232 0.255932
0.711623 0.401871 0.262551
0.739748 0.409971 0.269642
0.767915 0.417976 0.277144
0.140581 0.276789 0.161834
0.149732 0.280573 0.164276
0.159073 0.284438 0.166556
0.169767 0.288488 0.169003
0.181025 0.292678 0.171514
0.194060 0.296723 0.174477
0.207895 0.300849 0.177583
0.222837 0.305077 0.181039
0.238431 0.309407 0.184513
0.254701 0.313892 0.188113
0.271669 0.318508 0.191871
0.289120 0.323297 0.195604
0.307298 0.328087 0.199318
0.326139 0.332906 0.202571
0.345669 0.337769 0.205311
0.366119 0.342513 0.207628
0.387599 0.347213 0.209519
0.410107 0.351908 0.211233
0.433720 0.356377 0.212604
0.457757 0.361334 0.215298
0.482135 0.366746 0.219335
0.506763 0.372587 0.224036
0.531589 0.378810 0.229268
0.556706 0.385293 0.234944
0.582237 0.391902 0.240797
0.608130 0.398866 0.246865
0.634444 0.405983 0.252988
0.661113 0.413478 0.259536
0.688210 0.421105 0.266320
0.715656 0.428902 0.273259
0.743537 0.437052 0.281164
0.771515 0.444878 0.290244
0.146378 0.301650 0.169317
0.155621 0.305437 0.171507
0.164877 0.309399 0.173771
0.175651 0.313506 0.175958
0.186835 0.317539 0.178219
0.199953 0.321612 0.181018
0.213769 0.325850 0.184009
0.228692 0.329938 0.187223
0.244570 0.334223 0.190563
0.261097 0.338557 0.194140
0.278116 0.343117 0.197786
0.295797 0.347907 0.201402
0.314230 0.352696 0.205183
0.333192 0.357588 0.208826
0.352779 0.362629 0.212265
0.373139 0.367591 0.215076
0.394358 0.372462 0.217089
0.416566 0.377333 0.218839
0.439808 0.382062 0.220336
0.463537 0.387279 0.223406
0.487518 0.393064 0.228074
0.511855 0.399055 0.233304
0.536508 0.405334 0.238852
0.561574 0.411840 0.244602
0.586910 0.418644 0.250650
0.612746 0.425665 0.256978
0.638914 0.432928 0.263361
0.665487 0.440451 0.270101
0.692560 0.448162 0.277192
0.720005 0.455895 0.284928
0.747946 0.463629 0.294319
0.776084 0.471440 0.303903
0.152003 0.327118 0.176454
0.161086 0.330899 0.178476
0.170491 0.334712 0.180645
0.181126 0.338974 0.182653
0.192438 0.343007 0.184675
0.205412 0.347079 0.187359
0.219260 0.351317 0.190106
0.234353 0.355386 0.193186
0.250383 0.359605 0.196504
0.266999 0.363915 0.199968
0.284186 0.368391 0.203498
0.302122 0.373091 0.207083
0.320674 0.377859 0.210808
0.339774 0.382767 0.214589
0.359526 0.387758 0.218370
0.379944 0.392842 0.221610
0.401037 0.397973 0.224192
0.423112 0.403056 0.226509
0.446033 0.408057 0.228631
0.469384 0.413571 0.232293
0.493125 0.419504 0.237371
0.517177 0.425640 0.242888
0.541723 0.432031 0.248697
0.566724 0.438624 0.254648
0.591910 0.445579 0.260869
0.617639 0.452637 0.267438
0.643718 0.459973 0.274081
0.670208 0.467359 0.281315
0.697883 0.474820 0.289148
0.725879 0.482212 0.297561
0.754922 0.489679 0.306163
0.784119 0.497223 0.314703
0.157296 0.353177 0.183260
0.166379 0.356958 0.185180
0.175785 0.360770 0.187105
0.186419 0.365032 0.189098
0.197731 0.369065 0.190932
0.210705 0.373138 0.193273
0.224554 0.377376 0.195809
0.239647 0.381409 0.198889
0.255717 0.385506 0.202166
0.272523 0.389834 0.205487
0.289920 0.394305 0.208949
0.307976 0.398842 0.212511
0.326703 0.403532 0.216159
0.345984 0.408453 0.219922
0.365941 0.413407 0.223758
0.386498 0.418567 0.227440
0.407673 0.423812 0.230933
0.429599 0.429030 0.234214
0.452243 0.434353 0.237377
0.475413 0.440135 0.241714
0.498938 0.446089 0.247071
0.522847 0.452416 0.252827
0.547296 0.458864 0.258829
0.572153 0.465556 0.265060
0.597298 0.472551 0.271435
0.622900 0.479609 0.278304
0.648975 0.486919 0.285702
0.675690 0.494025 0.293891
0.704393 0.501218 0.301648
0.733646 0.508203 0.309095
0.764475 0.515308 0.315955
0.795557 0.522273 0.322833
0.162385 0.379700 0.189759
0.171468 0.383583 0.191524
0.180874 0.387390 0.193298
0.191508 0.391565 0.195185
0.202820 0.395691 0.196888
0.215778 0.399764 0.198928
0.229540 0.404002 0.201233
0.244657 0.408035 0.204230
0.260832 0.412105 0.207507
0.277758 0.416314 0.210784
0.295342 0.420645 0.214140
0.313605 0.425150 0.217828
0.332554 0.429808 0.221726
0.352167 0.434594 0.225629
0.372311 0.439576 0.229750
0.392999 0.444736 0.233917
0.414279 0.449956 0.238214
0.436173 0.455315 0.242431
0.458690 0.460920 0.246589
0.481634 0.466808 0.251565
0.505008 0.472858 0.257253
0.528796 0.479239 0.263286
0.553090 0.485866 0.269441
0.577980 0.492631 0.275626
0.603468 0.499467 0.282249
0.629493 0.506397 0.289440
0.656414 0.513349 0.297259
0.683941 0.520302 0.305072
0.713604 0.527161 0.311944
0.743657 0.533971 0.318553
0.775548 0.540778 0.324538
0.807562 0.547481 0.330340
0.167175 0.406782 0.195919
0.176257 0.410698 0.197570
0.185663 0.414502 0.199228
0.196298 0.418651 0.200969
0.207610 0.422819 0.202530
0.220544 0.426970 0.204451
0.234188 0.431116 0.206588
0.249361 0.435149 0.209382
0.265769 0.439182 0.212659
0.282832 0.443286 0.215936
0.300540 0.447572 0.219327
0.319027 0.451991 0.223230
0.338307 0.456615 0.227578
0.358241 0.461255 0.231941
0.378663 0.466105 0.236514
0.399480 0.471204 0.241272
0.420907 0.476498 0.246220
0.442869 0.481986 0.251225
0.465304 0.487723 0.256295
0.488120 0.493670 0.261890
0.511340 0.499792 0.267801
0.534992 0.506211 0.273969
0.559172 0.512860 0.280584
0.584299 0.519553 0.287242
0.610576 0.526141 0.294020
0.637705 0.532803 0.300869
0.666111 0.539496 0.307334
0.695104 0.546188 0.313709
0.725403 0.552759 0.319722
0.756109 0.559438 0.325785
0.788042 0.566131 0.331600
0.820166 0.572689 0.337288
0.171728 0.434598 0.201867
0.180807 0.438379 0.203379
0.190113 0.442176 0.204900
0.200992 0.446217 0.206542
0.212548 0.450251 0.208238
0.225784 0.454272 0.210408
0.239991 0.458183 0.212885
0.255481 0.462095 0.215911
0.272022 0.466036 0.219401
0.289246 0.470106 0.222869
0.307171 0.474308 0.226593
0.325834 0.478680 0.230714
0.345293 0.483217 0.235297
0.365243 0.487906 0.240059
0.385734 0.492765 0.244970
0.406568 0.497848 0.250061
0.427933 0.503202 0.255416
0.449831 0.508764 0.260965
0.472144 0.514561 0.266633
0.494973 0.520581 0.272383
0.518395 0.526834 0.278112
0.542446 0.533142 0.284362
0.567098 0.539536 0.291182
0.592819 0.546055 0.298038
0.619750 0.552518 0.304477
0.647659 0.559045 0.310494
0.676892 0.565500 0.316113
0.706700 0.572035 0.321659
0.737343 0.578589 0.327205
0.768435 0.585143 0.332868
0.800508 0.591697 0.338544
0.832770 0.598251 0.344094
0.176013 0.462956 0.207413
0.185088 0.466738 0.208921
0.194297 0.470519 0.210320
0.205566 0.474311 0.211986
0.217561 0.478167 0.214008
0.231638 0.481688 0.216958
0.246919 0.485233 0.220216
0.262974 0.488913 0.223936
0.279776 0.492724 0.227817
0.297260 0.496701 0.231748
0.315404 0.500861 0.236001
0.334108 0.505148 0.240338
0.353437 0.509734 0.245100
0.373203 0.514501 0.250069
0.393491 0.519416 0.255167
0.414195 0.524629 0.260457
0.435431 0.530113 0.265942
0.457198 0.535736 0.271691
0.479308 0.541534 0.277619
0.502340 0.547554 0.283474
0.526201 0.553725 0.289285
0.551155 0.559903 0.295238
0.576978 0.566077 0.301090
0.603683 0.572430 0.306869
0.631232 0.578762 0.312559
0.659560 0.585261 0.318028
0.688865 0.591611 0.323444
0.718784 0.598015 0.328859
0.749443 0.604553 0.334389
0.780653 0.611107 0.339817
0.812978 0.617539 0.345354
0.845248 0.624089 0.350774
0.180700 0.491323 0.213226
0.190466 0.494828 0.215016
0.200365 0.498332 0.216852
0.212296 0.501850 0.219055
0.224839 0.505447 0.221609
0.239499 0.508724 0.225064
0.255110 0.512049 0.228800
0.271409 0.515633 0.232863
0.288390 0.519414 0.237035
0.305857 0.523337 0.241309
0.323991 0.527587 0.245854
0.342605 0.531884 0.250494
0.361771 0.536464 0.255378
0.381432 0.541228 0.260476
0.401520 0.546205 0.265706
0.422224 0.551548 0.270988
0.443537 0.557163 0.276188
0.465459 0.562842 0.281660
0.487854 0.568562 0.287667
0.511315 0.574454 0.293609
0.535696 0.580503 0.299453
0.561239 0.586628 0.304860
0.587688 0.592713 0.309937
0.614920 0.598944 0.315061
0.642878 0.605246 0.320216
0.671480 0.611637 0.325480
0.700831 0.617961 0.330661
0.730750 0.624379 0.335933
0.761529 0.630798 0.341326
0.792878 0.637214 0.346505
0.825196 0.643652 0.351897
0.857600 0.650069 0.357060
0.185884 0.519950 0.219134
0.196951 0.522929 0.221881
0.208135 0.525776 0.224605
0.221082 0.528784 0.227589
0.234340 0.532026 0.230858
0.249202 0.535303 0.234573
0.264693 0.538654 0.238521
0.280846 0.542321 0.242609
0.297688 0.546029 0.246931
0.315001 0.550016 0.251434
0.332909 0.554246 0.256150
0.351388 0.558714 0.260990
0.370428 0.563307 0.266020
0.389897 0.568136 0.271311
0.409839 0.573241 0.276687
0.430665 0.578647 0.281862
0.452164 0.584172 0.286997
0.474494 0.589783 0.292161
0.497702 0.595521 0.297446
0.521849 0.601339 0.302682
0.546750 0.607334 0.307788
0.572547 0.613384 0.312756
0.599210 0.619534 0.317651
0.626515 0.625701 0.322546
0.654559 0.631967 0.327551
0.683186 0.638269 0.332675
0.712656 0.644570 0.337737
0.742721 0.650962 0.342868
0.773618 0.657277 0.348015
0.805081 0.663579 0.353066
0.837437 0.669980 0.358070
0.869952 0.676285 0.363110
0.194021 0.547788 0.226878
0.205766 0.550404 0.230301
0.217472 0.552940 0.233497
0.230847 0.555722 0.236952
0.244512 0.558644 0.240667
0.259309 0.561921 0.244618
0.274654 0.565292 0.248680
0.290667 0.569052 0.252923
0.307276 0.572784 0.257387
0.324448 0.576750 0.261995
0.342202 0.581047 0.266785
0.360510 0.585637 0.271555
0.379511 0.590366 0.276324
0.398999 0.595321 0.281319
0.419055 0.600492 0.286716
0.440003 0.605821 0.291983
0.461787 0.611241 0.297045
0.484512 0.616803 0.301962
0.508252 0.622600 0.306510
0.532758 0.628398 0.311082
0.557968 0.634353 0.315717
0.583891 0.640403 0.320352
0.610627 0.646520 0.325094
0.637961 0.652709 0.329883
0.666121 0.658870 0.334746
0.694781 0.665138 0.339633
0.724463 0.671315 0.344645
0.754658 0.677593 0.349557
0.785569 0.683895 0.354444
0.817031 0.690197 0.359331
0.849486 0.696498 0.363981
0.882154 0.702651 0.368711
0.204734 0.574698 0.236583
0.216417 0.577218 0.239952
0.228122 0.579755 0.243407
0.241491 0.582543 0.247107
0.255067 0.585501 0.250920
0.269629 0.588666 0.254978
0.284865 0.592139 0.259191
0.300693 0.595793 0.263531
0.317082 0.599615 0.268110
0.334138 0.603655 0.272880
0.351751 0.608019 0.277782
0.369995 0.612643 0.282540
0.388934 0.617494 0.287240
0.408537 0.622519 0.291881
0.429029 0.627682 0.296552
0.450271 0.633046 0.301130
0.472365 0.638547 0.305558
0.495395 0.644184 0.310016
0.519212 0.649982 0.314341
0.543789 0.655780 0.318776
0.569120 0.661634 0.323212
0.595183 0.667628 0.327800
0.621970 0.673678 0.332450
0.649422 0.679792 0.337076
0.677573 0.685986 0.341825
0.706346 0.692141 0.346488
0.736138 0.698208 0.351187
0.766348 0.704470 0.355965
0.797401 0.710772 0.360612
0.828731 0.716927 0.365092
0.861329 0.723219 0.369625
0.894096 0.729276 0.374004
0.216157 0.601583 0.246831
0.227747 0.603939 0.250282
0.239282 0.606486 0.253826
0.252487 0.609421 0.257624
0.265952 0.612318 0.261586
0.280268 0.615566 0.265658
0.295316 0.619127 0.269944
0.310922 0.622845 0.274247
0.327201 0.626731 0.278591
0.344110 0.630958 0.283131
0.361607 0.635322 0.288265
0.379739 0.639946 0.293108
0.398709 0.644830 0.297662
0.418503 0.649941 0.301836
0.439269 0.655189 0.305684
0.460728 0.660601 0.309589
0.483082 0.666061 0.313578
0.506192 0.671661 0.317693
0.530018 0.677459 0.321903
0.554681 0.683257 0.326237
0.580153 0.689054 0.330553
0.606333 0.695018 0.335057
0.633148 0.701067 0.339502
0.660664 0.707117 0.343991
0.688899 0.713228 0.348590
0.717760 0.719296 0.353012
0.747568 0.725346 0.357517
0.777778 0.731464 0.361979
0.808909 0.737745 0.366356
0.840322 0.743818 0.370494
0.873008 0.749944 0.374845
0.905944 0.755997 0.378802
0.227925 0.628556 0.257340
0.239340 0.631006 0.260874
0.250782 0.633547 0.264598
0.263735 0.636403 0.268565
0.277033 0.639395 0.272621
0.291240 0.642683 0.276872
0.306028 0.646114 0.281336
0.321391 0.649935 0.285840
0.337472 0.653976 0.290330
0.354193 0.658312 0.294366
0.371665 0.662855 0.298440
0.389805 0.667596 0.302476
0.408917 0.672480 0.306337
0.428792 0.677624 0.310103
0.449682 0.682918 0.313664
0.471191 0.688330 0.317350
0.493537 0.693839 0.321257
0.516736 0.699389 0.325290
0.540752 0.705109 0.329365
0.565521 0.710906 0.333578
0.590932 0.716704 0.337751
0.617196 0.722667 0.342023
0.644066 0.728594 0.346331
0.671711 0.734594 0.350669
0.700051 0.740644 0.354893
0.728930 0.746693 0.359156
0.758738 0.752743 0.363500
0.789099 0.758793 0.367646
0.820253 0.764907 0.371753
0.851901 0.770964 0.375631
0.884604 0.777014 0.379554
0.917445 0.782890 0.383166
0.239954 0.655528 0.268289
0.251292 0.658049 0.272008
0.262543 0.660597 0.275781
0.275218 0.663545 0.279510
0.288101 0.666462 0.283949
0.302080 0.669896 0.288590
0.316491 0.673303 0.293092
0.331700 0.677285 0.297375
0.347426 0.681428 0.301274
0.364095 0.685972 0.304657
0.381567 0.690716 0.307832
0.399732 0.695570 0.311030
0.418960 0.700571 0.314279
0.438946 0.705639 0.317736
0.459868 0.710828 0.321265
0.481469 0.716239 0.324912
0.503965 0.721785 0.328726
0.527291 0.727331 0.332672
0.551275 0.733018 0.336600
0.576109 0.738816 0.340596
0.601544 0.744614 0.344653
0.627831 0.750454 0.348729
0.654853 0.756272 0.352827
0.682468 0.762251 0.356926
0.710921 0.768161 0.360975
0.739986 0.774170 0.364913
0.769829 0.780220 0.368976
0.800094 0.786112 0.372862
0.831398 0.792138 0.376545
0.863130 0.798188 0.380314
0.896012 0.804063 0.383745
0.928788 0.810044 0.387089
0.252432 0.682689 0.280137
0.263390 0.685204 0.284504
0.274551 0.687573 0.288842
0.286765 0.690593 0.292783
0.299136 0.693631 0.296864
0.312649 0.697212 0.300443
0.326564 0.701107 0.303762
0.341439 0.705183 0.306895
0.357068 0.709488 0.310013
0.373737 0.714097 0.312884
0.391270 0.718886 0.315775
0.409563 0.723695 0.318867
0.428816 0.728688 0.322035
0.448840 0.733845 0.325298
0.469848 0.738997 0.328827
0.491583 0.744409 0.332383
0.514144 0.749955 0.335969
0.537500 0.755500 0.339689
0.561558 0.761078 0.343495
0.586482 0.766797 0.347310
0.612064 0.772472 0.351148
0.638290 0.778203 0.355114
0.665296 0.784001 0.359013
0.693023 0.789980 0.362852
0.721557 0.795841 0.366543
0.750687 0.801835 0.370294
0.780543 0.807727 0.373963
0.810917 0.813698 0.377558
0.842465 0.819570 0.380923
0.874221 0.825425 0.384309
0.906982 0.831409 0.387593
0.939942 0.837268 0.390492
0.264642 0.709717 0.293812
0.275076 0.712236 0.297943
0.285634 0.714743 0.302017
0.297346 0.717806 0.305256
0.309400 0.721275 0.308560
0.322564 0.725054 0.310984
0.336035 0.729126 0.313187
0.350821 0.733373 0.315449
0.366450 0.737721 0.318055
0.383119 0.742329 0.320682
0.400733 0.747119 0.323470
0.419197 0.751978 0.326379
0.438526 0.757008 0.329510
0.458671 0.762161 0.332778
0.479704 0.767427 0.336104
0.501469 0.772743 0.339525
0.524030 0.778187 0.343054
0.547495 0.783733 0.346609
0.571673 0.789279 0.350187
0.596621 0.794853 0.353765
0.622238 0.800545 0.357343
0.648580 0.806326 0.361086
0.675631 0.811984 0.364743
0.703399 0.817905 0.368321
0.731947 0.823766 0.371862
0.761078 0.829602 0.375270
0.791098 0.835409 0.378605
0.821553 0.841248 0.381759
0.853157 0.847052 0.385017
0.884919 0.852850 0.387926
0.917816 0.858693 0.390796
0.950837 0.864492 0.393375
0.276537 0.737099 0.307724
0.285822 0.739831 0.310072
0.295430 0.742608 0.312602
0.306818 0.746063 0.314805
0.318426 0.749650 0.317163
0.331389 0.753649 0.319036
0.344953 0.757730 0.321092
0.359785 0.762015 0.323338
0.375572 0.766363 0.325700
0.392241 0.770972 0.328232
0.409870 0.775761 0.330860
0.428439 0.780637 0.333719
0.447918 0.785679 0.336760
0.468092 0.790737 0.339911
0.489125 0.795912 0.343095
0.510990 0.801205 0.346279
0.533656 0.806519 0.349597
0.557147 0.811966 0.353027
0.581346 0.817512 0.356437
0.606294 0.823183 0.359880
0.632044 0.828833 0.363277
0.658490 0.834558 0.366622
0.685702 0.840183 0.369952
0.713529 0.845939 0.373270
0.742077 0.851747 0.376587
0.771373 0.857545 0.379708
0.801473 0.863342 0.382774
0.831935 0.868962 0.385626
0.863539 0.874733 0.388291
0.895301 0.880531 0.390860
0.928245 0.886329 0.393421
0.961472 0.891922 0.395738
0.287321 0.764788 0.320099
0.295951 0.767787 0.321019
0.304553 0.771019 0.321996
0.315499 0.774569 0.323378
0.327031 0.778353 0.325007
0.339966 0.782386 0.326777
0.353604 0.786467 0.328621
0.368616 0.790752 0.330718
0.384434 0.795100 0.333050
0.401165 0.799647 0.335571
0.418945 0.804354 0.338170
0.437528 0.809299 0.340954
0.457033 0.814203 0.343759
0.477296 0.819334 0.346667
0.498452 0.824513 0.349711
0.520336 0.829690 0.352854
0.543023 0.834984 0.356021
0.566513 0.840411 0.359096
