gsg/03_Cinematic/GSG_LUT_Cinematic_Furiosa.cube
# GSG LUTs 1.0
# Copyright (c) 2016-2020 Greyscalegorilla
# See EULA for licensing and distribution information
# Converted by Briz LUT Converter
LUT_3D_SIZE 32
0.057143 0.025153 0.007814
0.078042 0.023640 0.008870
0.106022 0.029942 0.011391
0.134003 0.036220 0.013888
0.162015 0.042239 0.016125
0.190208 0.048037 0.018102
0.218236 0.053740 0.019867
0.246359 0.059033 0.021576
0.273961 0.064264 0.023026
0.301044 0.069164 0.024286
0.327449 0.073701 0.025468
0.352814 0.078152 0.026389
0.376951 0.082343 0.027146
0.399732 0.086274 0.027902
0.421694 0.089944 0.028548
0.443137 0.093474 0.029052
0.463933 0.096877 0.029430
0.484084 0.100154 0.029816
0.503714 0.103289 0.030178
0.522825 0.106314 0.030281
0.541258 0.109181 0.030438
0.559077 0.111954 0.030525
0.576376 0.114727 0.030698
0.593155 0.117319 0.030769
0.609224 0.119650 0.030580
0.624711 0.122116 0.030525
0.639679 0.124432 0.030525
0.654126 0.126701 0.030525
0.668053 0.128749 0.030304
0.681460 0.130765 0.030281
0.694584 0.132782 0.030045
0.707204 0.134554 0.029792
0.120603 0.080759 0.017653
0.094756 0.038364 0.011702
0.109360 0.034399 0.012168
0.135795 0.038797 0.014162
0.163579 0.044590 0.016384
0.192036 0.050824 0.018393
0.220521 0.056867 0.020310
0.248952 0.062864 0.021882
0.277128 0.068668 0.023516
0.304827 0.074328 0.024780
0.331571 0.079557 0.025959
0.357449 0.084606 0.026886
0.382098 0.089467 0.027642
0.405292 0.093913 0.028395
0.427630 0.098105 0.029036
0.449466 0.102036 0.029426
0.470649 0.105829 0.029804
0.491312 0.109619 0.030171
0.511313 0.113266 0.030285
0.530683 0.116659 0.030434
0.549534 0.119947 0.030530
0.567700 0.123067 0.030693
0.585259 0.126100 0.030764
0.602117 0.128957 0.030586
0.618567 0.131740 0.030525
0.634368 0.134515 0.030519
0.649595 0.137090 0.030319
0.664302 0.139619 0.030274
0.678490 0.141927 0.030052
0.692150 0.144204 0.029800
0.705297 0.146481 0.029548
0.718169 0.148513 0.029532
0.127583 0.101934 0.019922
0.143248 0.074965 0.018344
0.126649 0.048746 0.014758
0.139953 0.044359 0.015194
0.165825 0.047664 0.016871
0.193381 0.052900 0.018620
0.221806 0.058670 0.020371
0.250262 0.064678 0.022080
0.278609 0.070653 0.023589
0.306381 0.076450 0.024952
0.333381 0.082096 0.026046
0.359502 0.087406 0.027122
0.384401 0.092526 0.027878
0.407955 0.097326 0.028539
0.430683 0.102012 0.029052
0.452778 0.106447 0.029548
0.474229 0.110631 0.029918
0.495144 0.114688 0.030171
0.515407 0.118596 0.030423
0.535045 0.122393 0.030525
0.554145 0.126033 0.030683
0.572566 0.129424 0.030769
0.590385 0.132722 0.030596
0.607503 0.136004 0.030525
0.624030 0.139104 0.030513
0.640038 0.141961 0.030325
0.655512 0.144753 0.030268
0.670477 0.147528 0.030052
0.684911 0.150095 0.029800
0.698623 0.152632 0.029548
0.712017 0.155154 0.029296
0.725117 0.157446 0.029044
0.137351 0.123108 0.022167
0.198673 0.121998 0.024294
0.170893 0.079714 0.019870
0.157792 0.058568 0.017520
0.170764 0.054072 0.017701
0.196129 0.056723 0.019107
0.223587 0.061200 0.020642
0.251550 0.066493 0.022333
0.279658 0.072224 0.023782
0.307473 0.077980 0.025035
0.334625 0.083682 0.026200
0.360763 0.089228 0.027130
0.385750 0.094584 0.027902
0.409540 0.099533 0.028648
0.432411 0.104347 0.029280
0.454740 0.109043 0.029666
0.476557 0.113593 0.029931
0.497606 0.118009 0.030194
0.518146 0.122177 0.030433
0.538129 0.126235 0.030525
0.557343 0.130135 0.030683
0.575943 0.133924 0.030753
0.594005 0.137549 0.030589
0.611377 0.140921 0.030525
0.628164 0.144222 0.030336
0.644413 0.147524 0.030262
0.659971 0.150620 0.030052
0.675143 0.153457 0.029821
0.689627 0.156254 0.029572
0.703769 0.159052 0.029298
0.717413 0.161613 0.029044
0.730340 0.164158 0.028792
0.149104 0.144346 0.024152
0.226095 0.154929 0.026961
0.225308 0.122246 0.024995
0.200186 0.086825 0.021810
0.189088 0.068310 0.019795
0.201594 0.063680 0.019960
0.226668 0.065564 0.021129
0.253774 0.069554 0.022609
0.281224 0.074512 0.024034
0.308745 0.079788 0.025224
0.335757 0.085269 0.026232
0.362012 0.090760 0.027229
0.386979 0.096097 0.028122
0.410768 0.101138 0.028776
0.433739 0.106180 0.029280
0.456205 0.111103 0.029682
0.478152 0.115783 0.030060
0.499446 0.120336 0.030415
0.520099 0.124749 0.030525
0.540218 0.129048 0.030544
0.559680 0.133196 0.030694
0.578518 0.137096 0.030604
0.596674 0.140910 0.030525
0.614242 0.144543 0.030502
0.631290 0.148104 0.030329
0.647621 0.151640 0.030084
0.663555 0.154991 0.029832
0.678798 0.158088 0.029765
0.693510 0.161145 0.029540
0.707706 0.164173 0.029089
0.721382 0.166993 0.028793
0.734751 0.169798 0.028540
0.162117 0.166064 0.025877
0.235286 0.176588 0.028267
0.282338 0.170567 0.028867
0.251704 0.124934 0.025956
0.230215 0.094688 0.023525
0.220391 0.077801 0.021964
0.232774 0.073053 0.021971
0.257138 0.074426 0.023096
0.283791 0.078091 0.024315
0.310734 0.082549 0.025476
0.337294 0.087466 0.026484
0.363261 0.092540 0.027406
0.388050 0.097673 0.028147
0.411816 0.102674 0.028793
0.434787 0.107692 0.029302
0.457336 0.112616 0.029785
0.479373 0.117405 0.030163
0.500784 0.122061 0.030415
0.521556 0.126598 0.030525
0.541691 0.131010 0.030675
0.561316 0.135336 0.030769
0.580270 0.139470 0.030604
0.598590 0.143531 0.030525
0.616377 0.147395 0.030344
0.633644 0.151206 0.030281
0.650227 0.154831 0.030084
0.666210 0.158368 0.029832
0.681521 0.161718 0.029580
0.696435 0.165001 0.029292
0.710888 0.168123 0.029036
0.724786 0.171153 0.028586
0.738202 0.174178 0.028288
0.176076 0.187995 0.027343
0.245337 0.198255 0.029238
0.315006 0.206395 0.030265
0.310366 0.171570 0.029135
0.279948 0.129970 0.026933
0.260513 0.102982 0.024995
0.251796 0.087225 0.023759
0.263752 0.082291 0.023915
0.287583 0.083407 0.024802
0.313569 0.086388 0.025761
0.339527 0.090396 0.026721
0.365031 0.095007 0.027610
0.389560 0.099686 0.028290
0.413131 0.104427 0.028906
0.436047 0.109257 0.029436
0.458498 0.114128 0.029809
0.480429 0.118893 0.030163
0.501813 0.123552 0.030415
0.522683 0.128111 0.030525
0.542933 0.132648 0.030675
0.562678 0.137185 0.030769
0.581859 0.141424 0.030604
0.600260 0.145646 0.030525
0.618082 0.149604 0.030344
0.635362 0.153586 0.030244
0.652147 0.157423 0.030037
0.668219 0.161038 0.029785
0.683853 0.164616 0.029532
0.698857 0.167974 0.029103
0.713506 0.171439 0.028831
0.727463 0.174584 0.028534
0.741085 0.177660 0.028083
0.190555 0.209926 0.028548
0.256088 0.219659 0.029925
0.325708 0.228988 0.030577
0.368944 0.220718 0.030457
0.336066 0.172929 0.029600
0.308870 0.136046 0.027863
0.290981 0.111500 0.026445
0.283109 0.096617 0.025453
0.294601 0.091569 0.025575
0.317624 0.092172 0.026208
0.342583 0.094706 0.026964
0.367447 0.098291 0.027701
0.391602 0.102343 0.028400
0.414786 0.106732 0.029020
0.437423 0.111181 0.029525
0.459787 0.115753 0.029911
0.481689 0.120359 0.030163
0.502966 0.125000 0.030415
0.523747 0.129623 0.030525
0.544084 0.134160 0.030675
0.563792 0.138662 0.030734
0.583018 0.143052 0.030586
0.601504 0.147355 0.030525
0.619489 0.151459 0.030344
0.636862 0.155493 0.030092
0.653774 0.159373 0.029840
0.670038 0.163211 0.029588
0.685629 0.167001 0.029336
0.700800 0.170562 0.029083
0.715467 0.173914 0.028780
0.729669 0.177431 0.028341
0.743298 0.180771 0.028028
0.205491 0.231856 0.029493
0.268019 0.241069 0.030356
0.335948 0.250821 0.030686
0.403594 0.257221 0.030410
0.397339 0.221987 0.030456
0.362778 0.176206 0.029878
0.338054 0.142829 0.028788
0.321341 0.120026 0.027634
0.314033 0.105773 0.026829
0.324990 0.100604 0.026847
0.347005 0.100752 0.027448
0.370937 0.102956 0.028075
0.394295 0.106122 0.028579
0.416975 0.109771 0.029083
0.439304 0.113720 0.029559
0.461303 0.117871 0.029911
0.483043 0.122217 0.030163
0.504289 0.126690 0.030415
0.525033 0.131199 0.030525
0.545228 0.135697 0.030675
0.564944 0.140053 0.030612
0.584130 0.144461 0.030525
0.602710 0.148805 0.030525
0.620749 0.152955 0.030344
0.638220 0.157005 0.030092
0.655059 0.161038 0.029840
0.671351 0.165071 0.029588
0.687227 0.168947 0.029336
0.702495 0.172516 0.029027
0.717169 0.176104 0.028599
0.731553 0.179637 0.028274
0.745252 0.183166 0.027839
0.220615 0.253716 0.030178
0.280734 0.262408 0.030594
0.345485 0.271656 0.030484
0.415960 0.280617 0.029844
0.455786 0.271218 0.029511
0.421605 0.222327 0.030464
0.390039 0.180724 0.030218
0.367114 0.150042 0.029454
0.351209 0.128567 0.028564
0.344354 0.114822 0.027979
0.354721 0.109441 0.027990
0.375517 0.109328 0.028373
0.397956 0.111171 0.028831
0.419967 0.113812 0.029306
0.441710 0.116971 0.029691
0.463376 0.120556 0.029981
0.484782 0.124532 0.030234
0.505834 0.128710 0.030447
0.526441 0.133023 0.030525
0.546516 0.137351 0.030675
0.566088 0.141636 0.030612
0.585284 0.145921 0.030525
0.603899 0.150156 0.030525
0.621939 0.154421 0.030344
0.639324 0.158517 0.030092
0.656284 0.162551 0.029840
0.672704 0.166584 0.029588
0.688502 0.170617 0.029274
0.703919 0.174273 0.028856
0.718677 0.178038 0.028587
0.733066 0.181583 0.028099
0.746946 0.185183 0.027768
0.235819 0.275237 0.030604
0.294010 0.283567 0.030680
0.356056 0.292305 0.030304
0.426170 0.302257 0.029257
0.490343 0.307267 0.028120
0.483627 0.272680 0.029067
0.446339 0.224300 0.030271
0.417189 0.185976 0.030413
0.395718 0.157544 0.029880
0.380357 0.137090 0.029312
0.373787 0.123710 0.028914
0.383371 0.118233 0.028866
0.402865 0.117758 0.029132
0.423998 0.119123 0.029485
0.445039 0.121351 0.029812
0.466141 0.124245 0.030155
0.487027 0.127571 0.030407
0.507696 0.131285 0.030525
0.528098 0.135202 0.030571
0.548001 0.139303 0.030705
0.567455 0.143457 0.030612
0.586506 0.147686 0.030525
0.605009 0.151798 0.030469
0.623026 0.155954 0.030324
0.640484 0.160030 0.030092
0.657466 0.164063 0.029840
0.673807 0.168096 0.029588
0.689671 0.172061 0.029123
0.705101 0.175935 0.028839
0.720020 0.179724 0.028513
0.734497 0.183345 0.028096
0.748379 0.187042 0.027595
0.251195 0.296412 0.030683
0.307557 0.304641 0.030420
0.367250 0.312943 0.029789
0.434949 0.322399 0.028548
0.504071 0.330816 0.026863
0.540223 0.320928 0.026328
0.505650 0.272217 0.028798
0.470884 0.227389 0.030103
0.443690 0.191911 0.030442
0.423391 0.165203 0.030337
0.408644 0.145592 0.029923
0.402185 0.132487 0.029589
0.410918 0.126788 0.029538
0.429119 0.125970 0.029737
0.449290 0.126922 0.029989
0.469645 0.128888 0.030200
0.490010 0.131519 0.030407
0.510244 0.134585 0.030525
0.530211 0.138038 0.030667
0.549886 0.141790 0.030769
0.569143 0.145598 0.030612
0.588046 0.149593 0.030525
0.606404 0.153588 0.030352
0.624308 0.157596 0.030281
0.641616 0.161629 0.030092
0.658561 0.165592 0.029840
0.674968 0.169609 0.029515
0.690776 0.173429 0.029112
0.706196 0.177431 0.028839
0.721115 0.181236 0.028359
0.735668 0.185017 0.028007
0.749640 0.188554 0.027595
0.266572 0.317586 0.030431
0.321609 0.325555 0.029971
0.379235 0.333587 0.029076
0.444640 0.342635 0.027530
0.514726 0.352337 0.025605
0.573558 0.355799 0.023820
0.566406 0.322621 0.025499
0.527370 0.273099 0.028329
0.494923 0.231294 0.029913
0.469422 0.198172 0.030497
0.450047 0.172868 0.030507
0.435706 0.153926 0.030330
0.429350 0.141075 0.030039
0.437227 0.135227 0.030044
0.454601 0.134030 0.030199
0.474037 0.134720 0.030327
0.493735 0.136423 0.030453
0.513399 0.138739 0.030525
0.532908 0.141558 0.030667
0.552226 0.144789 0.030711
0.571186 0.148281 0.030578
0.589829 0.151931 0.030525
0.608039 0.155615 0.030352
0.625799 0.159479 0.030211
0.642993 0.163415 0.029997
0.659839 0.167230 0.029745
0.676175 0.171137 0.029368
0.692028 0.174942 0.029091
0.707456 0.178944 0.028754
0.722376 0.182748 0.028353
0.736776 0.186438 0.027855
0.750900 0.190067 0.027500
0.282051 0.338761 0.030076
0.335878 0.346367 0.029210
0.391802 0.354139 0.028163
0.455010 0.362927 0.026498
0.523423 0.372382 0.024312
0.588810 0.379960 0.021869
0.619838 0.369453 0.021403
0.585582 0.321445 0.025088
0.549033 0.275032 0.027958
0.518518 0.235954 0.029581
0.494328 0.204583 0.030363
0.475743 0.180462 0.030653
0.461772 0.162161 0.030533
0.455430 0.149479 0.030383
0.462896 0.143505 0.030383
0.479629 0.142087 0.030452
0.498364 0.142514 0.030525
0.517339 0.143878 0.030581
0.536350 0.145944 0.030710
0.555146 0.148569 0.030620
0.573749 0.151540 0.030525
0.592063 0.154771 0.030525
0.609979 0.158161 0.030352
0.627590 0.161766 0.030100
0.644641 0.165441 0.029848
0.661334 0.169117 0.029595
0.677594 0.172878 0.029343
0.693308 0.176570 0.029002
0.708716 0.180466 0.028609
0.723636 0.184261 0.028247
0.738036 0.187806 0.027851
0.752058 0.191579 0.027350
0.297680 0.359715 0.029462
0.350449 0.367029 0.028446
0.404755 0.374541 0.027177
0.466009 0.383069 0.025355
0.532703 0.392282 0.022923
0.599961 0.401434 0.020133
0.651822 0.403588 0.018107
0.644802 0.371476 0.020418
0.605228 0.321620 0.024573
0.570648 0.277851 0.027479
0.541866 0.241003 0.029253
0.518812 0.211372 0.030139
0.500923 0.188156 0.030472
0.487167 0.170285 0.030571
0.480884 0.157783 0.030586
0.488024 0.151661 0.030525
0.504068 0.150088 0.030582
0.522155 0.150306 0.030709
0.540467 0.151409 0.030705
0.558697 0.153213 0.030577
0.576871 0.155579 0.030525
0.594789 0.158289 0.030450
0.612321 0.161260 0.030320
0.629640 0.164490 0.030100
0.646541 0.167877 0.029848
0.663120 0.171292 0.029595
0.679121 0.174912 0.029251
0.694789 0.178463 0.028864
0.710098 0.182113 0.028595
0.724904 0.185884 0.028115
0.739297 0.189428 0.027740
0.753177 0.193091 0.027350
0.313309 0.380385 0.028587
0.365143 0.387577 0.027445
0.418009 0.394935 0.025909
0.477552 0.403092 0.023963
0.542489 0.412060 0.021396
0.608649 0.421096 0.018461
0.668362 0.428093 0.015581
0.696078 0.417190 0.015259
0.662707 0.370000 0.019900
0.625025 0.322655 0.024061
0.592371 0.281374 0.026928
0.565015 0.246523 0.028668
0.542929 0.218242 0.029726
0.525521 0.195888 0.030323
0.512005 0.178374 0.030529
0.505836 0.165924 0.030582
0.512614 0.159789 0.030708
0.528117 0.158020 0.030704
0.545542 0.157977 0.030578
0.563074 0.158820 0.030525
0.580606 0.160439 0.030525
0.598052 0.162508 0.030360
0.615190 0.164920 0.030197
0.632210 0.167717 0.029981
0.648851 0.170718 0.029729
0.665074 0.173846 0.029477
0.681004 0.177206 0.029120
0.696569 0.180613 0.028847
0.711635 0.184127 0.028488
0.726291 0.187663 0.028107
0.740675 0.191193 0.027610
0.754555 0.194722 0.027232
0.328938 0.400803 0.027579
0.379853 0.407865 0.026181
0.431524 0.415085 0.024515
0.489481 0.422982 0.022438
0.552662 0.431706 0.019741
0.617704 0.440632 0.016677
0.679970 0.449313 0.013422
0.726905 0.450431 0.011327
0.720888 0.419765 0.014017
0.680774 0.369561 0.019349
0.644966 0.324565 0.023387
0.613918 0.285371 0.026208
0.587847 0.252357 0.028129
0.566642 0.225296 0.029347
0.549768 0.203627 0.030001
0.536520 0.186436 0.030391
0.530288 0.174056 0.030582
0.536733 0.167855 0.030578
0.551637 0.165869 0.030525
0.568282 0.165590 0.030525
0.585114 0.166298 0.030444
0.601910 0.167541 0.030234
0.618667 0.169351 0.030071
0.635239 0.171629 0.029855
0.651555 0.174206 0.029603
0.667517 0.176944 0.029351
0.683187 0.180020 0.029099
0.698492 0.183166 0.028737
0.713411 0.186420 0.028362
0.727938 0.189696 0.027981
0.742192 0.193088 0.027606
0.756068 0.196613 0.027106
0.344433 0.420836 0.026437
0.394445 0.427890 0.024782
0.445165 0.434857 0.022993
0.501675 0.442604 0.020781
0.563221 0.451085 0.017959
0.627102 0.459886 0.014778
0.688507 0.468584 0.012019
0.739446 0.476122 0.013595
0.760855 0.466504 0.018186
0.737362 0.418036 0.013476
0.699072 0.369953 0.018677
0.664994 0.327162 0.022625
0.635411 0.289989 0.025493
0.610431 0.258465 0.027488
0.590013 0.232417 0.028818
0.573619 0.211356 0.029615
0.560446 0.194434 0.030074
0.554118 0.182166 0.030331
0.560254 0.175823 0.030391
0.574590 0.173677 0.030391
0.590580 0.173241 0.030234
0.606680 0.173614 0.030072
0.622867 0.174728 0.029942
0.638826 0.176259 0.029722
0.654683 0.178342 0.029469
0.670450 0.180695 0.029217
0.685783 0.183262 0.028965
0.700809 0.186106 0.028617
0.715575 0.189113 0.028230
0.729852 0.192116 0.027862
0.743976 0.195376 0.027473
0.757714 0.198629 0.026972
0.359668 0.440608 0.025176
0.409033 0.447517 0.023265
0.458696 0.454361 0.021332
0.513894 0.461861 0.019002
0.574039 0.470225 0.016038
0.636719 0.478885 0.012761
0.695914 0.487926 0.011829
0.740643 0.499397 0.022766
0.772931 0.503473 0.033898
0.778882 0.471451 0.024244
0.753447 0.417325 0.013562
0.717422 0.371208 0.017918
0.684953 0.330453 0.021812
0.656669 0.294980 0.024654
0.632740 0.264705 0.026778
0.612954 0.239603 0.028173
0.596829 0.219079 0.029096
0.583852 0.202429 0.029681
0.577390 0.190138 0.030020
0.583309 0.183761 0.030139
0.597050 0.181467 0.030073
0.612355 0.180773 0.029941
0.627797 0.180959 0.029722
0.643163 0.181774 0.029469
0.658499 0.183199 0.029327
0.673835 0.184973 0.028993
0.688761 0.187041 0.028713
0.703504 0.189589 0.028461
0.718010 0.192308 0.028117
0.732160 0.194944 0.027722
0.746002 0.198043 0.027224
0.759620 0.200930 0.026862
0.374643 0.459971 0.023766
0.423471 0.466772 0.021745
0.472087 0.473465 0.019558
0.526124 0.480855 0.017093
0.584987 0.489051 0.014171
0.645709 0.497732 0.011836
0.698519 0.508325 0.017129
0.738065 0.521029 0.033663
0.773952 0.531915 0.049588
0.796780 0.521539 0.050540
0.792007 0.470043 0.026175
0.768887 0.417513 0.014352
0.735747 0.373086 0.017066
0.704733 0.334164 0.020906
0.677636 0.300140 0.023898
0.654533 0.271079 0.026024
0.635286 0.246782 0.027544
0.619574 0.226795 0.028594
0.606733 0.210333 0.029233
0.600105 0.198005 0.029621
0.605676 0.191592 0.029737
0.618894 0.189205 0.029673
0.633507 0.188303 0.029469
0.648279 0.188228 0.029217
0.662979 0.188860 0.029154
0.677761 0.189975 0.028881
0.692292 0.191588 0.028485
0.706628 0.193591 0.028209
0.720854 0.195918 0.027957
0.734700 0.198284 0.027476
0.748324 0.200979 0.027117
0.761787 0.203750 0.026712
0.389358 0.478814 0.022096
0.437655 0.485607 0.020072
0.485382 0.492056 0.017787
0.538369 0.499422 0.015228
0.596004 0.507398 0.012331
0.653474 0.516541 0.012308
0.697218 0.529315 0.027003
0.735488 0.542262 0.044523
0.772106 0.554807 0.061831
0.802255 0.558434 0.072722
0.812890 0.527370 0.058602
0.804652 0.469545 0.028749
0.784299 0.418626 0.015204
0.753965 0.375588 0.016252
0.724209 0.338222 0.020080
0.698191 0.305593 0.022987
0.675903 0.277604 0.025158
0.657248 0.254027 0.026728
0.641773 0.234366 0.027869
0.629030 0.218068 0.028668
0.622107 0.205854 0.029121
0.627527 0.199534 0.029233
0.640200 0.196991 0.029172
0.654216 0.195830 0.028965
0.668282 0.195495 0.028780
0.682395 0.195869 0.028548
0.696455 0.196931 0.028223
0.710285 0.198331 0.027957
0.724219 0.200069 0.027705
0.737715 0.202145 0.027224
0.751013 0.204335 0.026957
0.764213 0.206932 0.026460
0.403813 0.497302 0.020332
0.451581 0.503927 0.018307
0.498522 0.510281 0.016012
0.550607 0.517484 0.013289
0.606057 0.525628 0.011426
0.655251 0.536571 0.019552
0.695372 0.550057 0.037639
0.733166 0.562921 0.055363
0.769333 0.575399 0.072736
0.802931 0.585822 0.088760
0.824322 0.575803 0.089500
0.824435 0.526024 0.061080
0.816957 0.470005 0.031487
0.799504 0.420299 0.016089
0.772084 0.378512 0.015297
0.743507 0.342676 0.019075
0.718483 0.311301 0.021982
0.696919 0.284251 0.024243
0.678688 0.261219 0.025934
0.663502 0.241990 0.027167
0.650708 0.225913 0.028001
0.643626 0.213673 0.028569
0.648943 0.207343 0.028729
0.661043 0.204609 0.028671
0.674310 0.203190 0.028461
0.687795 0.202727 0.028209
0.701179 0.202943 0.027957
0.714606 0.203769 0.027705
0.727970 0.204908 0.027453
0.741174 0.206536 0.026972
0.754127 0.208371 0.026704
0.767064 0.210540 0.026208
0.417834 0.515184 0.018567
0.465080 0.521730 0.016369
0.511397 0.528068 0.014069
0.562205 0.535102 0.011608
0.612720 0.544163 0.014032
0.654149 0.557040 0.029994
0.693664 0.570365 0.048241
0.730884 0.583127 0.066068
0.766644 0.595426 0.083595
0.800767 0.607235 0.100826
0.828938 0.610907 0.111584
0.839578 0.582301 0.097929
0.835527 0.525420 0.063881
0.829001 0.471014 0.034492
0.814583 0.422514 0.016927
0.789905 0.381834 0.014294
0.762368 0.347385 0.018071
0.738299 0.317131 0.021018
0.717409 0.290895 0.023320
0.699655 0.268559 0.025007
0.684702 0.249715 0.026355
0.671990 0.233699 0.027295
0.664679 0.221267 0.027901
0.669712 0.214892 0.028180
0.681263 0.212099 0.028036
0.693992 0.210658 0.027784
0.706756 0.209994 0.027532
0.719568 0.209944 0.027280
0.732484 0.210518 0.027027
0.745251 0.211626 0.026709
0.757765 0.213017 0.026452
0.770263 0.214668 0.025956
0.431518 0.532467 0.016803
0.478243 0.539007 0.014528
0.524019 0.545165 0.012052
0.573078 0.552371 0.010605
0.614156 0.563701 0.022758
0.653211 0.576903 0.040521
0.692076 0.590134 0.058829
0.728839 0.602693 0.076671
0.764040 0.614825 0.094253
0.797891 0.626683 0.111505
0.829176 0.636717 0.127322
0.849190 0.627263 0.127966
0.850264 0.580745 0.100322
0.846361 0.525436 0.067020
0.840778 0.472692 0.037630
0.829444 0.425187 0.017857
0.807477 0.385501 0.013381
0.781066 0.352312 0.016970
0.757752 0.323141 0.019938
0.737485 0.297647 0.022319
0.720049 0.275818 0.024159
0.705250 0.257259 0.025485
0.692723 0.241383 0.026486
0.685000 0.228893 0.027336
0.690027 0.222593 0.027491
0.701054 0.219680 0.027280
0.713026 0.217999 0.027179
0.725227 0.217077 0.026957
0.737514 0.216926 0.026704
0.749750 0.217326 0.026283
0.761918 0.218185 0.026019
0.774083 0.219315 0.025704
0.444752 0.549230 0.015038
0.491145 0.555585 0.012572
0.535933 0.561987 0.010548
0.577290 0.571053 0.016962
0.614059 0.583205 0.033156
0.652333 0.596157 0.050889
0.690478 0.609217 0.069074
0.726800 0.621710 0.087069
0.761594 0.633761 0.104652
0.795100 0.645508 0.121958
0.826909 0.656615 0.138824
0.853240 0.660354 0.149708
0.863843 0.634214 0.137018
0.860500 0.579921 0.102917
0.856746 0.526201 0.070348
0.852066 0.474995 0.041260
0.844183 0.428316 0.018796
0.824841 0.389508 0.012245
0.799208 0.357498 0.015856
0.776640 0.329260 0.018822
0.756919 0.304472 0.021166
0.739908 0.283069 0.023118
0.725304 0.264774 0.024523
0.712899 0.248978 0.025726
0.704932 0.236531 0.026466
0.709740 0.230163 0.026702
0.720396 0.227173 0.026570
0.731706 0.225266 0.026491
0.743366 0.224309 0.026263
0.755076 0.223929 0.025960
0.766785 0.224068 0.025521
0.778306 0.224861 0.025263
0.457663 0.565473 0.013273
0.503471 0.571801 0.010886
0.543677 0.579143 0.013357
0.578094 0.590000 0.026930
0.613961 0.601991 0.043294
0.651455 0.614683 0.061050
0.688906 0.627532 0.079327
0.724879 0.639981 0.097207
0.759247 0.651865 0.114841
0.792467 0.663571 0.132309
0.824136 0.674742 0.149278
0.853237 0.684431 0.164916
0.871893 0.675670 0.165560
0.873618 0.632750 0.139096
0.870500 0.579763 0.105730
0.867007 0.527532 0.074096
0.863104 0.477734 0.045014
0.856540 0.432332 0.021800
0.840109 0.394176 0.013035
0.817116 0.362675 0.014825
0.795241 0.335341 0.017766
0.776041 0.311195 0.020142
0.759337 0.290256 0.021982
0.744973 0.272249 0.023503
0.732497 0.256695 0.024741
0.724256 0.244002 0.025668
0.729115 0.237838 0.025790
0.739152 0.234699 0.025783
0.749897 0.232574 0.025562
0.761048 0.231375 0.025310
0.772046 0.230924 0.025012
0.783182 0.230856 0.024759
0.470109 0.580992 0.011304
0.514310 0.587801 0.010449
0.545919 0.597316 0.022088
0.578735 0.608287 0.036870
0.613864 0.620203 0.053351
0.650609 0.632668 0.070936
0.687549 0.645437 0.089283
0.723159 0.657710 0.107244
0.756913 0.669505 0.124731
0.789873 0.681059 0.142294
0.821364 0.692179 0.159423
0.850833 0.702605 0.175787
0.875472 0.706881 0.186809
0.885753 0.683084 0.174933
0.883063 0.631823 0.141506
0.880091 0.580039 0.108843
0.876733 0.529347 0.077956
0.873122 0.481198 0.049647
0.867769 0.437078 0.026131
0.855117 0.399169 0.013896
0.834531 0.368154 0.013623
0.813306 0.341530 0.016560
0.794520 0.318039 0.019050
0.778227 0.297500 0.020964
0.763954 0.279759 0.022499
0.751666 0.264234 0.023774
0.742948 0.251435 0.024861
0.747744 0.245360 0.025027
0.757348 0.242019 0.024991
0.767758 0.239818 0.024759
0.778177 0.238619 0.024507
0.788838 0.237725 0.024255
0.482036 0.596156 0.009500
0.517218 0.605183 0.018511
0.546934 0.615077 0.031919
0.579225 0.625991 0.046685
0.613794 0.637682 0.063031
0.649985 0.649893 0.080733
0.686371 0.662476 0.098909
0.721359 0.674669 0.116941
0.754737 0.686289 0.134562
0.787279 0.697814 0.152137
0.818591 0.708921 0.169294
0.848136 0.719335 0.185746
0.875278 0.728671 0.201091
0.892711 0.720843 0.201898
0.894869 0.681608 0.176976
0.892301 0.631394 0.144085
0.889463 0.580819 0.112185
0.886256 0.531592 0.082079
