gsg/03_Cinematic/GSG_LUT_Cinematic_Falconry.cube
# GSG LUTs 1.0
# Copyright (c) 2016-2020 Greyscalegorilla
# See EULA for licensing and distribution information
# Converted by Briz LUT Converter
LUT_3D_SIZE 5
DOMAIN_MIN 0.000000 0.000000 0.000000
DOMAIN_MAX 0.903226 0.903226 0.903226
0.035653 0.026618 0.014652
0.291701 0.026618 0.014652
0.485691 0.026618 0.014652
0.755461 0.026618 0.014652
0.912427 0.026618 0.014652
0.035653 0.209477 0.014652
0.291701 0.209477 0.014652
0.485691 0.209477 0.014652
0.755461 0.209477 0.014652
0.912427 0.209477 0.014652
0.035653 0.344228 0.014652
0.291701 0.344228 0.014652
0.485691 0.344228 0.014652
0.755461 0.344228 0.014652
0.912427 0.344228 0.014652
0.035653 0.533286 0.014652
0.291701 0.533286 0.014652
0.485691 0.533286 0.014652
0.755461 0.533286 0.014652
0.912427 0.533286 0.014652
0.035653 0.836709 0.014652
0.291701 0.836709 0.014652
0.485691 0.836709 0.014652
0.755461 0.836709 0.014652
0.912427 0.836709 0.014652
0.035653 0.026618 0.101052
0.291701 0.026618 0.101052
0.485691 0.026618 0.101052
0.755461 0.026618 0.101052
0.912427 0.026618 0.101052
0.035653 0.209477 0.101052
0.291701 0.209477 0.101052
0.485691 0.209477 0.101052
0.755461 0.209477 0.101052
0.912427 0.209477 0.101052
0.035653 0.344228 0.101052
0.291701 0.344228 0.101052
0.485691 0.344228 0.101052
0.755461 0.344228 0.101052
0.912427 0.344228 0.101052
0.035653 0.533286 0.101052
0.291701 0.533286 0.101052
0.485691 0.533286 0.101052
0.755461 0.533286 0.101052
0.912427 0.533286 0.101052
0.035653 0.836709 0.101052
0.291701 0.836709 0.101052
0.485691 0.836709 0.101052
0.755461 0.836709 0.101052
0.912427 0.836709 0.101052
0.035653 0.026618 0.217449
0.291701 0.026618 0.217449
0.485691 0.026618 0.217449
0.755461 0.026618 0.217449
0.912427 0.026618 0.217449
0.035653 0.209477 0.217449
0.291701 0.209477 0.217449
0.485691 0.209477 0.217449
0.755461 0.209477 0.217449
0.912427 0.209477 0.217449
0.035653 0.344228 0.217449
0.291701 0.344228 0.217449
0.485691 0.344228 0.217449
0.755461 0.344228 0.217449
0.912427 0.344228 0.217449
0.035653 0.533286 0.217449
0.291701 0.533286 0.217449
0.485691 0.533286 0.217449
0.755461 0.533286 0.217449
0.912427 0.533286 0.217449
0.035653 0.836709 0.217449
0.291701 0.836709 0.217449
0.485691 0.836709 0.217449
0.755461 0.836709 0.217449
0.912427 0.836709 0.217449
0.035653 0.026618 0.347324
0.291701 0.026618 0.347324
0.485691 0.026618 0.347324
0.755461 0.026618 0.347324
0.912427 0.026618 0.347324
0.035653 0.209477 0.347324
0.291701 0.209477 0.347324
0.485691 0.209477 0.347324
0.755461 0.209477 0.347324
0.912427 0.209477 0.347324
0.035653 0.344228 0.347324
0.291701 0.344228 0.347324
0.485691 0.344228 0.347324
0.755461 0.344228 0.347324
0.912427 0.344228 0.347324
0.035653 0.533286 0.347324
0.291701 0.533286 0.347324
0.485691 0.533286 0.347324
0.755461 0.533286 0.347324
0.912427 0.533286 0.347324
0.035653 0.836709 0.347324
0.291701 0.836709 0.347324
0.485691 0.836709 0.347324
0.755461 0.836709 0.347324
0.912427 0.836709 0.347324
0.035653 0.026618 0.810170
0.291701 0.026618 0.810170
0.485691 0.026618 0.810170
0.755461 0.026618 0.810170
0.912427 0.026618 0.810170
0.035653 0.209477 0.810170
0.291701 0.209477 0.810170
0.485691 0.209477 0.810170
0.755461 0.209477 0.810170
0.912427 0.209477 0.810170
0.035653 0.344228 0.810170
0.291701 0.344228 0.810170
0.485691 0.344228 0.810170
0.755461 0.344228 0.810170
0.912427 0.344228 0.810170
0.035653 0.533286 0.810170
0.291701 0.533286 0.810170
0.485691 0.533286 0.810170
0.755461 0.533286 0.810170
0.912427 0.533286 0.810170
0.035653 0.836709 0.810170
0.291701 0.836709 0.810170
0.485691 0.836709 0.810170
0.755461 0.836709 0.810170
0.912427 0.836709 0.810170
