gsg/03_Cinematic/GSG_LUT_Cinematic_SheetMetal.cube
# GSG LUTs 1.0
# Copyright (c) 2016-2020 Greyscalegorilla
# See EULA for licensing and distribution information
# Converted by Briz LUT Converter
LUT_3D_SIZE 8
DOMAIN_MIN 0.000000 0.000000 0.000000
DOMAIN_MAX 0.903226 0.903226 0.903226
0.032234 0.028571 0.018803
0.063957 0.041160 0.034416
0.106810 0.053259 0.049541
0.161472 0.064193 0.063500
0.229099 0.072803 0.075379
0.311143 0.078688 0.084131
0.408673 0.080830 0.089212
0.523124 0.078727 0.089889
0.057103 0.099862 0.055008
0.089870 0.113734 0.068266
0.133239 0.128095 0.082020
0.186234 0.141121 0.093209
0.251746 0.152090 0.101736
0.331186 0.160547 0.107125
0.425624 0.165506 0.108653
0.533489 0.168125 0.107563
0.076710 0.180078 0.085951
0.109788 0.194005 0.095900
0.156257 0.207822 0.108433
0.210706 0.222253 0.121471
0.273842 0.235898 0.129285
0.349693 0.247107 0.131607
0.439992 0.255207 0.129952
0.542735 0.261406 0.127417
0.090173 0.267604 0.110749
0.122979 0.282028 0.116779
0.172397 0.294797 0.127519
0.230362 0.308241 0.139210
0.295515 0.322248 0.150988
0.368689 0.335980 0.156255
0.454730 0.347413 0.151544
0.554599 0.357327 0.148369
0.097089 0.362409 0.128875
0.130009 0.377455 0.131600
0.181149 0.389750 0.139587
0.242349 0.401851 0.149402
0.310885 0.414833 0.159587
0.387685 0.428542 0.170323
0.478733 0.443759 0.172261
0.583815 0.458041 0.173154
0.097207 0.465138 0.139722
0.130096 0.480465 0.139303
0.182041 0.492607 0.144251
0.246914 0.504185 0.152351
0.324686 0.517397 0.162065
0.414108 0.531380 0.174468
0.511859 0.545926 0.186537
0.616976 0.560770 0.199606
0.090984 0.575076 0.143724
0.133596 0.586254 0.148831
0.195226 0.596638 0.159455
0.269339 0.608526 0.171468
0.353117 0.621356 0.184332
0.445212 0.634885 0.197806
0.544748 0.649226 0.211714
0.651227 0.664296 0.225830
0.106928 0.678664 0.163512
0.158050 0.688727 0.174091
0.223041 0.699852 0.185490
0.298931 0.711774 0.197834
0.384217 0.724861 0.210792
0.477601 0.738477 0.224058
0.578400 0.753027 0.237691
0.686195 0.767907 0.251581
0.035748 0.032085 0.074237
0.069491 0.045437 0.088842
0.112403 0.059490 0.104045
0.166419 0.070405 0.121364
0.233392 0.078695 0.137651
0.314911 0.083816 0.151232
0.411753 0.085383 0.161283
0.525167 0.082784 0.167408
0.060802 0.106649 0.108145
0.093107 0.119512 0.122774
0.137213 0.132558 0.137072
0.192132 0.144516 0.150635
0.259572 0.153911 0.162371
0.341187 0.160517 0.171171
0.437942 0.163597 0.176461
0.537994 0.170584 0.183022
0.081752 0.186640 0.141912
0.113719 0.200251 0.153645
0.157204 0.213841 0.164860
0.213249 0.226847 0.176154
0.279355 0.238689 0.185526
0.358083 0.247786 0.190975
0.450853 0.254264 0.193328
0.545875 0.264920 0.201680
0.094632 0.273559 0.170905
0.126842 0.287741 0.179231
0.170634 0.301895 0.186691
0.228410 0.314818 0.195202
0.297010 0.327322 0.205693
0.373396 0.339264 0.212049
0.461674 0.349192 0.212631
0.559374 0.361952 0.222906
0.101012 0.367844 0.193565
0.133266 0.382575 0.198536
0.177340 0.397425 0.202067
0.236132 0.410351 0.207231
0.307994 0.421742 0.216085
0.390421 0.434553 0.226049
0.485790 0.448501 0.235267
0.590010 0.463327 0.248785
0.100563 0.470022 0.208958
0.132729 0.485088 0.210773
0.179511 0.499398 0.212762
0.246993 0.510873 0.221571
0.328476 0.523361 0.233674
0.419481 0.536870 0.246879
0.518031 0.551117 0.260877
0.623383 0.566056 0.275217
0.094419 0.579408 0.217836
0.137739 0.590529 0.224144
0.200318 0.601386 0.234922
0.274891 0.613443 0.247028
0.358922 0.626306 0.259907
0.451262 0.639962 0.273306
0.551156 0.654458 0.287124
0.657790 0.669414 0.301437
0.111214 0.683214 0.239114
0.162850 0.693331 0.249502
0.228385 0.704628 0.261043
0.304501 0.716797 0.273225
0.390035 0.729777 0.286171
0.483685 0.743519 0.299523
0.584871 0.758080 0.313160
0.692736 0.773193 0.327008
0.037670 0.034495 0.140801
0.073552 0.046871 0.154335
0.119036 0.060207 0.167915
0.172925 0.074095 0.182173
0.237866 0.084346 0.199621
0.318563 0.088985 0.218111
0.414589 0.089992 0.233599
0.527228 0.086880 0.245228
0.059144 0.112238 0.170207
0.093253 0.123810 0.186432
0.139509 0.135309 0.202057
0.196691 0.148108 0.214613
0.263599 0.158849 0.228405
0.344590 0.164875 0.242050
0.440688 0.167452 0.252409
0.539520 0.175036 0.261150
0.083092 0.193508 0.199984
0.115634 0.206483 0.214043
0.159585 0.219114 0.228060
0.215333 0.230824 0.240876
0.283219 0.241452 0.251905
0.364110 0.248756 0.260783
0.454348 0.257289 0.268712
0.548018 0.269245 0.278465
0.099257 0.279609 0.231400
0.131008 0.293307 0.242538
0.174186 0.307102 0.253134
0.229004 0.319927 0.262303
0.297225 0.331325 0.270806
0.376802 0.341689 0.278351
0.464915 0.353096 0.287176
0.565446 0.366915 0.299505
0.105148 0.373406 0.258773
0.136902 0.387703 0.266511
0.180212 0.402190 0.273283
0.235065 0.415879 0.278382
0.307731 0.426958 0.286489
0.394841 0.439631 0.298181
0.491964 0.453732 0.311362
0.597028 0.468612 0.325091
0.103855 0.475064 0.279147
0.135581 0.489817 0.283576
0.182411 0.503664 0.288426
0.251579 0.515570 0.298126
0.334156 0.528265 0.310475
0.425444 0.541912 0.323559
0.524279 0.556304 0.337301
0.630521 0.571399 0.351015
0.097894 0.583741 0.292988
0.142116 0.595037 0.300730
0.205578 0.606192 0.311651
0.280478 0.618365 0.323665
0.364817 0.631347 0.336374
0.457537 0.645193 0.349645
0.557525 0.659634 0.363474
0.664891 0.674906 0.376970
0.115704 0.687770 0.315617
0.167679 0.698123 0.326133
0.233438 0.709752 0.337234
0.309909 0.722148 0.349077
0.395774 0.735227 0.361892
0.489822 0.748981 0.375017
0.591273 0.763487 0.388553
0.699918 0.778604 0.402022
0.037607 0.035504 0.218252
0.075730 0.047170 0.230651
0.124314 0.059308 0.242876
0.181275 0.072252 0.254964
0.245626 0.085681 0.267532
0.322386 0.094196 0.285204
0.417669 0.094716 0.306103
0.529048 0.091324 0.323263
0.055673 0.116433 0.242861
0.091645 0.126800 0.260665
0.140270 0.136772 0.277583
0.200707 0.148403 0.288766
0.268988 0.160611 0.299569
0.347777 0.169574 0.313466
0.442979 0.171560 0.329085
0.541053 0.179423 0.339521
0.076710 0.200513 0.267855
0.110949 0.212117 0.283492
0.157165 0.223305 0.299755
0.215380 0.233309 0.314835
0.285980 0.243638 0.325922
0.366742 0.252707 0.336521
0.456174 0.261603 0.346521
0.550278 0.273784 0.355935
0.098982 0.286636 0.294716
0.131374 0.299558 0.308230
0.175088 0.312511 0.321851
0.230321 0.324450 0.334620
0.298063 0.334818 0.345461
0.378994 0.345463 0.354443
0.469041 0.357853 0.364659
0.581167 0.370922 0.375156
0.109135 0.379085 0.324622
0.140498 0.392791 0.335115
0.183193 0.406907 0.345412
0.237717 0.420087 0.354401
0.311720 0.431591 0.363868
0.400292 0.444712 0.375675
0.498462 0.458962 0.388674
0.613382 0.473514 0.398324
0.107188 0.480192 0.350071
0.138422 0.494498 0.357420
0.186362 0.508300 0.365245
0.256854 0.520485 0.375788
0.339942 0.533444 0.387964
0.431494 0.547198 0.400811
0.530896 0.561619 0.414158
0.645029 0.577510 0.422276
0.101511 0.588391 0.369613
0.146763 0.599816 0.378297
0.210786 0.611154 0.389090
0.286009 0.623559 0.400706
0.370678 0.636725 0.413106
0.463634 0.650552 0.426117
0.564159 0.665123 0.439598
0.677510 0.682043 0.446230
0.120066 0.692558 0.393022
0.172720 0.702917 0.403245
0.238611 0.714779 0.414105
0.311762 0.732986 0.420948
0.398623 0.746248 0.431880
0.494708 0.759195 0.444139
0.598741 0.772807 0.456784
0.710785 0.787472 0.468067
0.036008 0.035283 0.306834
0.076450 0.046130 0.317902
0.127961 0.057370 0.328362
0.188201 0.069006 0.338822
0.256237 0.081041 0.349214
0.331230 0.093686 0.360256
0.420749 0.099397 0.378635
0.530880 0.095719 0.401429
0.050683 0.119430 0.325983
0.088476 0.128625 0.345332
0.139596 0.137111 0.363786
0.203323 0.147308 0.373593
0.275261 0.158156 0.382455
0.354242 0.169415 0.391844
0.445298 0.175811 0.406217
0.542700 0.183973 0.417929
0.068407 0.206327 0.346488
0.104422 0.216658 0.363669
0.152995 0.226373 0.381867
0.213862 0.234700 0.399025
0.288062 0.244209 0.408282
0.370017 0.254823 0.415909
0.458142 0.265985 0.424625
0.552169 0.278452 0.433993
0.088218 0.294891 0.368827
0.122424 0.306706 0.383992
0.168293 0.318147 0.399784
0.226090 0.328498 0.414942
0.299492 0.338588 0.423961
0.381336 0.349805 0.432266
0.474151 0.362852 0.443007
0.588710 0.375761 0.455470
0.108228 0.385921 0.393235
0.140157 0.398919 0.406240
0.183286 0.412187 0.419634
0.239140 0.424538 0.431821
0.316462 0.436419 0.442070
0.406351 0.449880 0.453934
0.510419 0.464291 0.465908
0.631271 0.477727 0.476244
0.110502 0.485436 0.421831
0.141310 0.499295 0.432046
0.190637 0.513107 0.442919
0.262343 0.525430 0.453998
0.345748 0.538590 0.465792
0.437730 0.552468 0.478467
0.542002 0.568138 0.489032
0.661604 0.583220 0.497325
0.105372 0.593084 0.446748
0.151562 0.604632 0.456442
0.216128 0.616031 0.467048
0.291569 0.628731 0.478335
0.375074 0.645547 0.488196
0.469922 0.659185 0.499928
0.573672 0.673272 0.511826
0.691341 0.689414 0.518455
0.124491 0.697341 0.470920
0.177762 0.707724 0.480788
0.243942 0.719761 0.491575
0.316466 0.738651 0.499629
0.400065 0.757876 0.505831
0.498538 0.770426 0.516224
0.605797 0.782927 0.527646
0.721622 0.796293 0.538163
0.032825 0.033873 0.405814
0.075411 0.043798 0.415952
0.129924 0.053968 0.424869
0.193690 0.064416 0.433385
0.265488 0.075166 0.441819
0.344424 0.086400 0.450660
0.430056 0.097700 0.460318
0.532932 0.100257 0.479618
0.044251 0.121144 0.419662
0.083866 0.129064 0.440350
0.137434 0.136095 0.460535
0.204513 0.145293 0.468136
0.279786 0.155376 0.474067
0.361877 0.165881 0.480589
0.450218 0.177012 0.487992
0.544354 0.188601 0.496574
0.058529 0.210919 0.435526
0.096532 0.220013 0.454250
0.147742 0.228280 0.473600
0.214383 0.237331 0.482618
0.290204 0.247557 0.488559
0.372421 0.258479 0.495326
0.460148 0.270378 0.503111
0.555227 0.283373 0.512673
0.075103 0.302257 0.453702
0.111066 0.312673 0.470448
0.160514 0.322684 0.486776
0.226571 0.332412 0.495325
0.301944 0.342838 0.502302
0.384597 0.354427 0.510613
0.479567 0.368056 0.521886
0.594485 0.380732 0.536668
0.093119 0.395512 0.473959
0.126824 0.407366 0.488710
0.174887 0.418613 0.502185
0.241288 0.429114 0.510701
0.321675 0.441446 0.520883
0.412423 0.455040 0.532585
0.517145 0.469309 0.546464
0.638073 0.482269 0.559828
0.109270 0.491781 0.496549
0.140789 0.505229 0.509539
0.194219 0.518266 0.521739
0.267919 0.530568 0.532481
0.351635 0.543852 0.544165
0.445547 0.559442 0.557012
0.553174 0.574413 0.568966
0.675943 0.588070 0.579417
0.108988 0.598007 0.524806
0.156556 0.609429 0.534901
0.221522 0.621072 0.545205
0.297229 0.633773 0.556361
0.380503 0.651014 0.567870
0.475949 0.667863 0.578534
0.582941 0.681145 0.589417
0.703910 0.695763 0.597664
0.128922 0.702147 0.548986
0.182619 0.712742 0.558644
0.249256 0.724782 0.569258
0.321855 0.743377 0.579497
0.404773 0.762992 0.588186
0.501677 0.779983 0.595632
0.611754 0.791896 0.605391
0.731400 0.804077 0.615074
0.028115 0.031612 0.514892
0.072891 0.040505 0.524888
0.130263 0.049453 0.532049
0.197489 0.058813 0.538562
0.272866 0.068691 0.543697
0.355162 0.079176 0.548868
0.443436 0.090316 0.554889
0.537892 0.101716 0.562356
0.036220 0.121573 0.523793
0.079066 0.129334 0.541299
0.137619 0.138143 0.548237
0.206164 0.147751 0.552288
0.282098 0.158029 0.556772
0.364621 0.168896 0.561909
0.452842 0.180559 0.568158
0.546126 0.193312 0.575438
0.047391 0.214228 0.535066
0.089537 0.222627 0.550467
0.148188 0.231667 0.557029
0.216691 0.241325 0.561895
0.292465 0.251725 0.567419
0.374492 0.262850 0.574046
0.462258 0.274971 0.581643
0.559496 0.288414 0.591844
0.060759 0.308244 0.549094
0.102485 0.317468 0.561808
0.161216 0.326717 0.568143
0.229265 0.336473 0.574306
0.304674 0.347198 0.581262
0.389266 0.359232 0.590024
0.485483 0.373219 0.601153
0.600495 0.385773 0.618046
0.075411 0.404304 0.565620
0.117642 0.413872 0.575603
0.176273 0.423197 0.581906
0.245750 0.433995 0.590052
0.328124 0.447598 0.605095
0.421493 0.460730 0.616370
0.523838 0.474330 0.628365
0.643596 0.486851 0.644080
0.092260 0.501965 0.583135
0.136486 0.512116 0.591906
0.199042 0.523266 0.600930
0.273449 0.535819 0.611492
0.357017 0.551329 0.626748
0.453238 0.566292 0.641631
0.559781 0.579314 0.653034
0.682183 0.592262 0.665972
0.111060 0.603690 0.604295
0.161433 0.614471 0.613562
0.226831 0.626114 0.623423
0.302874 0.638935 0.634492
0.385833 0.656330 0.648765
0.481362 0.673026 0.662010
0.590630 0.687756 0.673555
0.714753 0.700929 0.683674
0.133473 0.706960 0.627219
0.187661 0.717591 0.636551
0.254718 0.729697 0.646980
0.327197 0.748004 0.659523
0.409926 0.767167 0.671303
0.506203 0.784505 0.681414
0.616723 0.799484 0.690097
0.739820 0.810964 0.698786
0.025129 0.031187 0.616401
0.072039 0.040974 0.619691
0.131157 0.050597 0.622474
0.199362 0.060436 0.625255
0.275253 0.070763 0.628304
0.357998 0.081736 0.631974
0.446516 0.093311 0.636685
0.540076 0.106046 0.642215
0.032006 0.123198 0.621529
0.079903 0.132514 0.625020
0.139588 0.141919 0.628343
0.208200 0.151735 0.631974
0.284092 0.162178 0.636192
0.366584 0.173291 0.641190
0.454669 0.185229 0.647260
0.547725 0.198109 0.654349
0.042467 0.217307 0.628650
0.090835 0.226332 0.632424
0.150544 0.235654 0.636920
0.219128 0.245358 0.641976
0.294922 0.255891 0.647290
0.377096 0.267127 0.653581
0.465201 0.279449 0.661234
0.565136 0.293514 0.671472
0.056292 0.312680 0.637771
0.104455 0.321501 0.642292
0.163959 0.330877 0.647998
0.231910 0.341047 0.662972
0.309232 0.351200 0.670416
0.398708 0.363134 0.678763
0.498593 0.376699 0.688787
0.608067 0.390465 0.701063
0.073004 0.409319 0.649612
0.120738 0.417905 0.654670
0.179334 0.427461 0.661308
0.249525 0.440457 0.678825
0.334690 0.453622 0.698147
0.431210 0.465681 0.708174
0.536269 0.478270 0.717879
0.650554 0.491230 0.729445
0.092190 0.507165 0.664154
0.140805 0.516843 0.671144
0.204072 0.528482 0.680508
0.276607 0.543779 0.697894
0.361266 0.558969 0.716906
0.460139 0.572407 0.733284
0.569447 0.584161 0.743279
0.688251 0.596169 0.753865
0.114388 0.608909 0.683690
0.166426 0.619512 0.692221
0.232001 0.631446 0.702245
0.304553 0.648009 0.718542
0.388115 0.665064 0.735570
0.485820 0.680259 0.750906
0.597609 0.693568 0.764183
0.720675 0.704916 0.773912
0.137821 0.711778 0.705573
0.192702 0.722604 0.714459
0.259822 0.734949 0.724943
0.331513 0.753672 0.740408
0.414241 0.772217 0.755300
0.510538 0.788831 0.768370
0.621288 0.803815 0.779638
0.746897 0.816338 0.789247
