gsg/03_Cinematic/GSG_LUT_Cinematic_CoolasIce.cube
# GSG LUTs 1.0
# Copyright (c) 2016-2020 Greyscalegorilla
# See EULA for licensing and distribution information
# Converted by Briz LUT Converter
LUT_3D_SIZE 8
DOMAIN_MIN 0.000000 0.000000 0.000000
DOMAIN_MAX 0.903226 0.903226 0.903226
0.000000 0.000000 0.000000
0.102477 0.021143 0.053653
0.204726 0.042105 0.107314
0.313939 0.064595 0.164701
0.424475 0.087510 0.222931
0.527701 0.108890 0.277545
0.615857 0.127512 0.324424
0.684541 0.142085 0.361369
0.062452 0.101469 0.091142
0.125312 0.128415 0.130299
0.221041 0.145645 0.179787
0.328788 0.163866 0.232671
0.438284 0.183450 0.287754
0.540628 0.202387 0.340147
0.628075 0.218961 0.385537
0.696235 0.232416 0.421494
0.124731 0.202466 0.181992
0.182866 0.227390 0.217220
0.249249 0.257128 0.260101
0.347598 0.276261 0.315223
0.455827 0.293979 0.367836
0.556964 0.311396 0.418419
0.643364 0.327006 0.462673
0.710725 0.339525 0.497846
0.191437 0.310670 0.279349
0.246280 0.333963 0.312411
0.310646 0.362227 0.352838
0.381861 0.394522 0.399223
0.475669 0.416062 0.458285
0.575539 0.432103 0.509020
0.660725 0.446924 0.552712
0.728007 0.459251 0.583401
0.258868 0.420080 0.378282
0.311355 0.442349 0.409799
0.373909 0.469549 0.448839
0.443750 0.500721 0.493820
0.515221 0.533869 0.541699
0.599154 0.558228 0.584287
0.693368 0.575769 0.582838
0.767116 0.590807 0.577104
0.322116 0.522415 0.471496
0.372574 0.543716 0.501989
0.433454 0.570239 0.540187
0.503133 0.601526 0.577826
0.578232 0.636533 0.599564
0.648788 0.675481 0.593738
0.734188 0.699370 0.575895
0.805561 0.714601 0.570082
0.376108 0.609807 0.552019
0.426658 0.631620 0.575181
0.490141 0.659689 0.593523
0.561453 0.692221 0.612935
0.632110 0.729499 0.626385
0.698499 0.771468 0.609366
0.775795 0.799997 0.583415
0.844870 0.817330 0.568622
0.424845 0.681539 0.589641
0.475749 0.703817 0.603600
0.537784 0.731317 0.620535
0.608035 0.763315 0.638544
0.672440 0.804830 0.641321
0.739186 0.846225 0.620789
0.812638 0.875694 0.596581
0.878457 0.895697 0.573882
0.014329 0.015125 0.060191
0.098613 0.034224 0.130813
0.207754 0.047893 0.191455
0.316964 0.069912 0.243925
0.427256 0.092568 0.298357
0.530238 0.113856 0.350093
0.618198 0.132316 0.395139
0.686833 0.146890 0.430572
0.072287 0.111281 0.136756
0.133480 0.137950 0.174983
0.217680 0.156014 0.245225
0.331541 0.168448 0.307492
0.440949 0.187758 0.359846
0.543144 0.206675 0.410144
0.630367 0.223270 0.454019
0.698497 0.236696 0.488863
0.134530 0.210966 0.222506
0.191133 0.235944 0.257048
0.256742 0.265454 0.299610
0.344286 0.286113 0.372660
0.458008 0.298370 0.436353
0.559365 0.315455 0.485872
0.645636 0.331053 0.528933
0.712936 0.343590 0.563110
0.201419 0.318055 0.316739
0.255214 0.341438 0.349134
0.318243 0.370034 0.389195
0.388707 0.402270 0.435759
0.472684 0.426043 0.506812
0.576329 0.437422 0.570869
0.662001 0.451480 0.615473
0.731202 0.463697 0.641597
0.268368 0.427043 0.413738
0.320474 0.449197 0.444720
0.382221 0.476576 0.483195
0.450495 0.508204 0.528040
0.521562 0.541329 0.576163
0.601889 0.566155 0.624741
0.698784 0.580465 0.632279
0.773059 0.595233 0.626391
0.331233 0.529017 0.505621
0.381512 0.550297 0.535601
0.441980 0.576840 0.573217
0.512175 0.608661 0.605898
0.587359 0.643476 0.627752
0.657514 0.679724 0.636524
0.740010 0.704356 0.621955
0.811714 0.719417 0.616406
0.384994 0.616213 0.584944
0.436508 0.638518 0.603056
0.499719 0.666689 0.621193
0.570823 0.699057 0.641251
0.644441 0.733574 0.660555
0.707808 0.774966 0.653436
0.781689 0.805015 0.628771
0.850695 0.822380 0.614077
0.434988 0.688608 0.617267
0.485410 0.710662 0.631691
0.547353 0.738162 0.648743
0.617387 0.769916 0.667506
0.686964 0.806651 0.680814
0.748557 0.849808 0.664554
0.819271 0.880293 0.641433
0.884318 0.900545 0.619171
0.028540 0.030312 0.120147
0.100870 0.051952 0.190350
0.197028 0.068400 0.261255
0.315252 0.080658 0.332839
0.430588 0.098940 0.390445
0.533507 0.120076 0.439734
0.621278 0.138454 0.482713
0.689858 0.153003 0.516996
0.083713 0.123439 0.191177
0.144117 0.149380 0.227890
0.218691 0.171090 0.299749
0.322146 0.185495 0.375629
0.441958 0.195167 0.446281
0.546237 0.212331 0.497286
0.633407 0.228831 0.539605
0.701287 0.242286 0.573238
0.144409 0.222388 0.273110
0.200780 0.246753 0.306888
0.266363 0.275713 0.348515
0.345346 0.299911 0.423212
0.448967 0.314124 0.500216
0.559347 0.323046 0.566253
0.647682 0.336898 0.611099
0.715493 0.348977 0.645218
0.210627 0.328781 0.364181
0.263973 0.352042 0.396171
0.327023 0.380164 0.435776
0.397607 0.411938 0.481770
0.475280 0.438360 0.553927
0.567816 0.453202 0.627039
0.658631 0.461794 0.685359
0.735155 0.471325 0.704941
0.278239 0.436882 0.458552
0.329138 0.459175 0.489258
0.390256 0.486575 0.527550
0.458703 0.517835 0.572120
0.530181 0.550637 0.618795
0.606754 0.578090 0.663142
0.703211 0.588512 0.691696
0.779440 0.601371 0.689515
0.341731 0.538005 0.548244
0.390885 0.559631 0.578195
0.450371 0.586438 0.615120
0.522472 0.618640 0.640867
0.598387 0.652913 0.662565
0.669475 0.686435 0.682668
0.747929 0.710578 0.680802
0.819867 0.725306 0.675495
0.397304 0.625413 0.621596
0.449145 0.647716 0.637441
0.512053 0.675658 0.655800
0.582849 0.707918 0.676364
0.656355 0.742085 0.697189
0.722619 0.778626 0.706966
0.789673 0.811306 0.686045
0.858121 0.828742 0.671862
0.447932 0.697718 0.652103
0.498114 0.719587 0.666614
0.559605 0.746965 0.684142
0.629367 0.778597 0.703574
0.702068 0.812341 0.722581
0.762557 0.853499 0.719163
0.828121 0.886241 0.697741
0.891984 0.906899 0.675959
0.043759 0.046540 0.184411
0.110496 0.068822 0.252262
0.196454 0.088439 0.325403
0.301955 0.105271 0.400572
0.419079 0.118621 0.473706
0.534428 0.129568 0.538675
0.624743 0.145756 0.582977
0.693236 0.160156 0.616048
0.096766 0.136968 0.251648
0.156490 0.162454 0.287172
0.226746 0.185591 0.358440
0.319336 0.204092 0.437385
0.427164 0.218347 0.512774
0.537406 0.228586 0.580761
0.634485 0.237343 0.635051
0.704032 0.249407 0.669732
0.156265 0.235070 0.330529
0.212202 0.259028 0.363612
0.277619 0.287740 0.404329
0.352643 0.313280 0.478829
0.445844 0.331755 0.558982
0.545533 0.344793 0.629895
0.637599 0.353775 0.688055
0.712777 0.359859 0.732474
0.221595 0.341072 0.418874
0.274626 0.363999 0.450403
0.337609 0.391800 0.489534
0.408051 0.423228 0.534896
0.482784 0.450771 0.606332
0.566661 0.469121 0.682414
0.650376 0.481146 0.740281
0.735479 0.484812 0.767832
0.288430 0.448801 0.511080
0.339164 0.470840 0.541360
0.400092 0.497981 0.579309
0.468557 0.528920 0.623398
0.541070 0.561880 0.665436
0.616544 0.590548 0.706215
0.703619 0.603069 0.747725
0.785773 0.609839 0.761294
0.351388 0.549679 0.599039
0.400234 0.571058 0.628608
0.461180 0.598152 0.660398
0.534200 0.630559 0.682263
0.609888 0.664745 0.703856
0.681644 0.697578 0.724472
0.756079 0.718696 0.748124
0.830000 0.731734 0.746137
0.410209 0.637300 0.663295
0.462374 0.659369 0.678018
0.525810 0.686846 0.695995
0.596867 0.718590 0.716502
0.670363 0.752528 0.738015
0.739834 0.785395 0.757626
0.799957 0.818487 0.752365
0.867196 0.836328 0.739024
0.463223 0.708450 0.692380
0.513053 0.730236 0.706914
0.574136 0.757446 0.724717
0.643546 0.788933 0.744635
0.715888 0.822394 0.764709
0.782693 0.856884 0.778837
0.839597 0.892798 0.763100
0.901172 0.914524 0.741959
0.059278 0.063067 0.249454
0.122462 0.085250 0.314885
0.202496 0.106456 0.388953
0.299779 0.126119 0.465833
0.407915 0.142637 0.541687
0.515686 0.156036 0.610351
0.612120 0.166102 0.667749
0.689826 0.173130 0.712265
0.110575 0.151184 0.313955
0.169346 0.176179 0.348341
0.237256 0.200103 0.418041
0.323563 0.220859 0.498416
0.423045 0.238254 0.576575
0.524468 0.252034 0.646713
0.616338 0.262290 0.705400
0.690663 0.269612 0.750288
0.169003 0.248360 0.390382
0.224483 0.272071 0.422934
0.289510 0.300428 0.462916
0.362461 0.326777 0.536268
0.449424 0.347657 0.617973
0.541325 0.363779 0.690791
0.626357 0.375601 0.751225
0.696081 0.383787 0.797693
0.233392 0.353878 0.476647
0.286102 0.376564 0.507653
0.348860 0.404049 0.546230
0.419172 0.435220 0.590974
0.492404 0.463505 0.661064
0.570939 0.484012 0.738359
0.652558 0.498150 0.790807
0.731037 0.504962 0.819911
0.299563 0.461328 0.566868
0.350057 0.483052 0.596713
0.410863 0.509992 0.634275
0.479176 0.540792 0.677845
0.553805 0.574323 0.711401
0.628340 0.603498 0.751556
0.707050 0.619531 0.796521
0.785487 0.625330 0.824316
0.362005 0.561947 0.653099
0.410696 0.583176 0.682209
0.474032 0.610872 0.705879
0.547001 0.643206 0.726545
0.622629 0.677272 0.748101
0.694422 0.709922 0.768824
0.761592 0.732663 0.802553
0.837733 0.740268 0.822194
0.423714 0.650408 0.707322
0.475371 0.672441 0.721997
0.538446 0.699728 0.739714
0.609774 0.731282 0.759814
0.683958 0.764609 0.780818
0.754275 0.796828 0.800990
0.814276 0.825844 0.816321
0.877394 0.844241 0.810409
0.478160 0.720588 0.735255
0.528330 0.742101 0.749449
0.589710 0.768931 0.767081
0.658915 0.800211 0.787229
0.731017 0.833540 0.808218
0.799709 0.865879 0.827243
0.855026 0.898802 0.830896
0.911264 0.922715 0.811654
0.073599 0.078396 0.310166
0.134692 0.100781 0.372872
0.210908 0.122717 0.447179
0.302881 0.143755 0.525659
0.404598 0.162732 0.602437
0.506558 0.178093 0.673535
0.597389 0.190283 0.732053
0.670982 0.199040 0.777752
0.123739 0.164729 0.372744
0.181773 0.189449 0.406392
0.248231 0.213709 0.474636
0.330574 0.235755 0.555324
0.424607 0.255219 0.634626
0.520100 0.271263 0.706494
0.606596 0.283611 0.766564
0.676900 0.292400 0.812903
0.181315 0.261247 0.447493
0.236283 0.284500 0.479412
0.300941 0.312671 0.518743
0.372680 0.339571 0.590606
0.455750 0.361847 0.672898
0.542691 0.379898 0.747221
0.622813 0.393568 0.809154
0.688608 0.403536 0.856168
0.244996 0.366279 0.531923
0.297367 0.388609 0.562472
0.359935 0.415928 0.600608
0.430039 0.447015 0.644764
0.502250 0.475609 0.713526
0.578375 0.497492 0.789103
0.658947 0.513317 0.836575
0.731963 0.522316 0.867630
0.310578 0.473286 0.620466
0.360813 0.494972 0.650027
0.421419 0.521549 0.687172
0.490126 0.552444 0.728439
0.566568 0.586658 0.754742
0.640306 0.615897 0.795310
0.714528 0.633758 0.841687
0.784888 0.642919 0.872720
0.372531 0.573808 0.705407
0.422653 0.595297 0.729446
0.487067 0.623305 0.748897
0.559769 0.655491 0.769480
0.635291 0.689459 0.790993
0.706936 0.721920 0.811655
0.771180 0.745783 0.846819
0.838326 0.755453 0.878712
0.436969 0.663078 0.750258
0.488326 0.684903 0.764564
0.551103 0.712190 0.782158
0.622098 0.743639 0.802156
0.696160 0.776907 0.822950
0.766386 0.809068 0.842782
0.827185 0.837059 0.860084
0.886838 0.852039 0.880870
0.491126 0.733294 0.777652
0.541041 0.754576 0.791587
0.602527 0.781299 0.808723
0.672448 0.812048 0.828397
0.745465 0.844787 0.848899
0.814274 0.876783 0.868736
0.873448 0.905044 0.885294
0.921431 0.930699 0.878676
0.086085 0.091457 0.362243
0.145638 0.113616 0.423752
0.219393 0.136101 0.497688
0.308000 0.158289 0.576299
0.405747 0.178353 0.654594
0.503033 0.195541 0.725516
0.590479 0.208755 0.785884
0.660948 0.218685 0.832219
0.135137 0.176595 0.423349
0.192512 0.200906 0.456412
0.258095 0.225334 0.523495
0.338065 0.248122 0.604648
0.428587 0.268849 0.684719
0.520004 0.286474 0.757036
0.603077 0.300110 0.818346
0.670420 0.310137 0.865329
0.192011 0.272376 0.496758
0.246582 0.295459 0.528158
0.311026 0.323521 0.567163
0.381956 0.350632 0.637528
0.462600 0.373793 0.720185
0.546252 0.393044 0.795161
0.623101 0.408018 0.857975
0.687173 0.419253 0.903088
0.255199 0.376990 0.579873
0.307314 0.399194 0.610154
0.369609 0.426351 0.647863
0.439474 0.457293 0.691602
0.511044 0.486178 0.758919
0.586828 0.509012 0.830793
0.665987 0.525951 0.876312
0.735515 0.536448 0.908400
0.320293 0.483772 0.667131
0.370258 0.505203 0.696514
0.430726 0.531774 0.733262
0.500756 0.562929 0.769508
0.577946 0.597440 0.792564
0.651008 0.626861 0.833303
0.722704 0.645694 0.880640
0.788775 0.656631 0.913270
0.382201 0.584154 0.750216
0.434188 0.606321 0.768344
0.498618 0.634204 0.786539
0.571104 0.666247 0.807090
0.646367 0.700080 0.828396
0.718068 0.732529 0.849022
0.781173 0.756634 0.885088
0.842138 0.769038 0.919185
0.448966 0.674103 0.787625
0.499969 0.695892 0.802048
0.562388 0.723116 0.819402
0.633243 0.754396 0.839215
0.707127 0.787563 0.859903
0.777321 0.819639 0.879687
0.838295 0.847526 0.897017
0.890884 0.864510 0.925260
0.502800 0.744504 0.814725
0.552443 0.765555 0.828570
0.613533 0.792220 0.845602
0.683359 0.823034 0.864923
0.756204 0.855681 0.885163
0.825570 0.887274 0.904526
0.885638 0.914931 0.921199
0.932634 0.937428 0.933792
0.095758 0.101863 0.403056
0.154292 0.123825 0.463185
0.226634 0.146530 0.537219
0.312852 0.169294 0.615588
0.408009 0.190318 0.694461
0.502651 0.208342 0.766364
0.587104 0.222837 0.826452
0.655796 0.233225 0.873840
0.144094 0.185797 0.463282
0.201139 0.210055 0.495717
0.265965 0.234576 0.561890
0.344328 0.257972 0.642286
0.432594 0.279387 0.723036
0.521522 0.298041 0.795784
0.602148 0.312534 0.857614
0.667306 0.323534 0.904847
0.200662 0.281163 0.535492
0.254872 0.304132 0.566755
0.319009 0.331997 0.605353
0.389499 0.359386 0.674640
0.468465 0.382999 0.757647
0.550107 0.403118 0.832620
0.624687 0.419099 0.895407
0.690136 0.430599 0.936372
0.263271 0.385435 0.617756
0.315203 0.407602 0.647792
0.377268 0.434577 0.685115
0.447017 0.465438 0.728517
0.518287 0.494592 0.794779
0.594795 0.518294 0.861269
0.672125 0.535986 0.907137
0.739510 0.547355 0.940121
0.328048 0.492063 0.704207
0.377898 0.513441 0.733221
0.438131 0.539919 0.769820
0.509770 0.571660 0.800150
0.586955 0.606111 0.822557
0.659713 0.635478 0.863542
0.729819 0.655029 0.911214
0.793476 0.666847 0.944958
0.391154 0.592793 0.782478
0.443655 0.615093 0.798391
0.507826 0.642886 0.816410
0.580243 0.674906 0.836906
0.655405 0.708648 0.858183
0.726977 0.740984 0.878696
0.789459 0.765295 0.914955
0.847561 0.778834 0.950067
0.458474 0.683012 0.817456
0.509238 0.704628 0.831691
0.571531 0.731783 0.848990
0.642177 0.763040 0.868681
0.715970 0.796195 0.889251
0.786213 0.828069 0.908906
0.847105 0.855878 0.926282
0.897666 0.873717 0.955647
0.512230 0.753192 0.844242
0.561659 0.774288 0.857926
0.622687 0.800880 0.874747
0.692170 0.831500 0.894041
0.764901 0.864233 0.914104
0.834218 0.895719 0.933328
0.894272 0.923489 0.949976
0.941705 0.945445 0.963306
