gsg/03_Cinematic/GSG_LUT_Cinematic_Ripley.cube
# GSG LUTs 1.0
# Copyright (c) 2016-2020 Greyscalegorilla
# See EULA for licensing and distribution information
# Converted by Briz LUT Converter
LUT_3D_SIZE 8
DOMAIN_MIN 0.000000 0.000000 0.000000
DOMAIN_MAX 0.903226 0.903226 0.903226
0.034432 0.034432 0.034432
0.060696 0.040632 0.046587
0.085005 0.047076 0.058009
0.108827 0.053763 0.069581
0.132892 0.060696 0.081098
0.157604 0.068029 0.092765
0.183599 0.075726 0.104919
0.211391 0.083666 0.117783
0.026248 0.075844 0.057734
0.052023 0.082047 0.069156
0.075844 0.088771 0.080610
0.099634 0.096065 0.092520
0.123731 0.104006 0.104707
0.149175 0.112466 0.117615
0.176179 0.121604 0.131191
0.205908 0.131348 0.145830
0.018063 0.117074 0.080302
0.043349 0.124345 0.092032
0.067155 0.132458 0.104203
0.090954 0.141423 0.117137
0.115672 0.151231 0.130702
0.141943 0.162110 0.145434
0.170860 0.173902 0.161454
0.203255 0.186671 0.178944
0.009295 0.161976 0.103698
0.034338 0.171263 0.116354
0.058159 0.181866 0.129970
0.082377 0.193635 0.144543
0.107976 0.206743 0.160518
0.135901 0.221474 0.178028
0.167256 0.237712 0.197621
0.203982 0.255562 0.218804
0.000000 0.213667 0.128993
0.024412 0.226350 0.143290
0.048478 0.241019 0.159053
0.073370 0.257403 0.176502
0.100406 0.276143 0.195906
0.130754 0.296982 0.217367
0.185902 0.312340 0.222663
0.255988 0.327937 0.225381
0.000000 0.276978 0.157588
0.012727 0.295337 0.174635
0.037237 0.316422 0.193611
0.063165 0.340626 0.215032
0.110111 0.359639 0.220954
0.168316 0.379691 0.223728
0.238962 0.402091 0.226232
0.328497 0.427059 0.227595
0.000000 0.359313 0.190949
0.000088 0.386798 0.211894
0.039868 0.409957 0.218127
0.089616 0.434466 0.221007
0.147686 0.462632 0.223514
0.218276 0.494620 0.225310
0.308072 0.530451 0.225550
0.426689 0.569914 0.223687
0.000000 0.463902 0.214652
0.016390 0.493300 0.217105
0.065613 0.527441 0.219355
0.122761 0.566542 0.221025
0.192615 0.610969 0.221561
0.281903 0.660318 0.220450
0.400961 0.713514 0.216637
0.563151 0.766135 0.209807
0.032936 0.036906 0.069369
0.058955 0.043105 0.080058
0.083264 0.049557 0.091016
0.106873 0.056351 0.102332
0.130923 0.063539 0.113868
0.155863 0.070991 0.126043
0.181913 0.078719 0.138935
0.210118 0.086904 0.152783
0.024751 0.078105 0.090716
0.050285 0.084548 0.101899
0.074268 0.091496 0.113572
0.097924 0.099027 0.125791
0.122129 0.107031 0.138728
0.147612 0.115872 0.152559
0.174951 0.125159 0.167492
0.205175 0.135318 0.183911
0.016503 0.119800 0.113136
0.041632 0.127322 0.125290
0.065430 0.135710 0.138085
0.089251 0.145065 0.152050
0.114175 0.155234 0.166962
0.140691 0.166395 0.183423
0.169980 0.178656 0.201613
0.203011 0.191934 0.222057
0.007405 0.165308 0.137540
0.032597 0.175084 0.151075
0.056418 0.186110 0.166082
0.080685 0.198412 0.182411
0.106538 0.212060 0.200607
0.134901 0.227374 0.221029
0.166731 0.244375 0.243918
0.211043 0.260442 0.263155
0.000000 0.218267 0.164985
0.022413 0.231685 0.181062
0.046523 0.246891 0.199095
0.071629 0.264223 0.219234
0.098909 0.283714 0.242131
0.135372 0.303171 0.262048
0.195403 0.318031 0.267286
0.268609 0.334390 0.272654
0.000000 0.283580 0.197393
0.010382 0.302871 0.217106
0.035002 0.325008 0.239574
0.065863 0.348255 0.260044
0.117150 0.366754 0.265323
0.177460 0.387772 0.270939
0.251357 0.411329 0.276321
0.345552 0.437442 0.280947
0.000000 0.369153 0.236686
0.000521 0.396195 0.257298
0.045169 0.418614 0.262433
0.096179 0.444535 0.267942
0.156229 0.474161 0.273423
0.230080 0.507775 0.278472
0.324660 0.545178 0.282330
0.450534 0.586378 0.284067
0.000000 0.474268 0.258581
0.021075 0.505436 0.263614
0.071387 0.541403 0.268872
0.130528 0.582593 0.273908
0.203386 0.629111 0.278125
0.297475 0.680576 0.280807
0.423979 0.734319 0.281276
0.596417 0.786280 0.279215
0.031258 0.039135 0.102414
0.057222 0.045579 0.113073
0.081342 0.052086 0.124038
0.105101 0.059049 0.135499
0.129166 0.066288 0.147772
0.154122 0.073953 0.160723
0.180362 0.081894 0.174619
0.208862 0.090305 0.189775
0.023231 0.080555 0.123762
0.048616 0.087033 0.135193
0.072534 0.094229 0.147373
0.096183 0.101997 0.160235
0.120493 0.110280 0.174303
0.146125 0.119339 0.189536
0.173741 0.129033 0.206314
0.204459 0.139317 0.224995
0.014779 0.122573 0.146899
0.039914 0.130395 0.159683
0.063689 0.139178 0.173670
0.087580 0.148719 0.188851
0.112609 0.159336 0.205680
0.139438 0.170862 0.224452
0.169199 0.183576 0.245505
0.202987 0.197354 0.269527
0.005569 0.168971 0.172934
0.030612 0.179066 0.187974
0.054538 0.190495 0.204656
0.079024 0.203336 0.223323
0.105109 0.217576 0.244264
0.133820 0.233520 0.268274
0.166224 0.251142 0.295786
0.221039 0.264642 0.310188
0.000000 0.223199 0.203403
0.020316 0.237155 0.221755
0.044538 0.253032 0.242626
0.069889 0.271124 0.266327
0.097309 0.291551 0.293615
0.142904 0.308477 0.309071
0.205234 0.324033 0.317263
0.281989 0.341003 0.326023
0.000000 0.290466 0.240655
0.007783 0.310757 0.263886
0.032571 0.334052 0.290836
0.071635 0.354681 0.306842
0.124392 0.374221 0.315223
0.187051 0.396243 0.324252
0.264378 0.420961 0.333423
0.363820 0.448151 0.342310
0.000000 0.379621 0.287636
0.003846 0.404057 0.303933
0.050511 0.427756 0.311957
0.102911 0.455113 0.320945
0.165145 0.486277 0.330368
0.242299 0.521419 0.339591
0.342165 0.560583 0.348182
0.475943 0.603408 0.354966
0.000000 0.485180 0.307968
0.025783 0.518097 0.316358
0.077325 0.556082 0.325442
0.138539 0.599461 0.334754
0.214641 0.647903 0.343582
0.313923 0.701025 0.351508
0.448695 0.754916 0.357796
0.631455 0.806099 0.361971
0.029698 0.041609 0.135917
0.055504 0.048052 0.146607
0.079538 0.054629 0.158029
0.103360 0.061709 0.170034
0.127353 0.069069 0.183048
0.152381 0.076915 0.197038
0.178865 0.085066 0.212438
0.207695 0.093614 0.229602
0.021513 0.083032 0.157623
0.047012 0.089741 0.169594
0.070800 0.097011 0.182540
0.094442 0.105014 0.196664
0.118801 0.113599 0.212106
0.144646 0.122876 0.229131
0.172641 0.132838 0.248322
0.203741 0.143393 0.270035
0.013021 0.125424 0.182141
0.038127 0.133572 0.196069
0.061885 0.142658 0.211392
0.085849 0.152526 0.228390
0.111018 0.163481 0.247580
0.138202 0.175428 0.269170
0.168397 0.188484 0.294026
0.202749 0.202743 0.322642
0.003584 0.172610 0.210577
0.028658 0.183150 0.227382
0.052692 0.195045 0.246359
0.077283 0.208435 0.267905
0.103612 0.223292 0.292653
0.132656 0.239722 0.321158
0.167761 0.257318 0.352041
0.231385 0.268707 0.363117
0.000000 0.228122 0.245012
0.018087 0.242775 0.266220
0.042416 0.259425 0.290631
0.067903 0.278328 0.318910
0.097301 0.298931 0.349906
0.150650 0.313908 0.361781
0.215510 0.330020 0.374001
0.295962 0.347793 0.387139
0.000000 0.297767 0.288501
0.005111 0.319020 0.316167
0.031026 0.342958 0.347277
0.077538 0.361461 0.359429
0.131894 0.381932 0.371657
0.196880 0.405091 0.385078
0.278018 0.430861 0.399401
0.383141 0.459176 0.413594
0.000000 0.390267 0.344823
0.008366 0.412211 0.356179
0.055822 0.437310 0.368208
0.109737 0.466073 0.381608
0.174364 0.498803 0.395896
0.255146 0.535665 0.410680
0.360734 0.576467 0.425197
0.502945 0.620818 0.438497
0.000000 0.496758 0.363772
0.030273 0.531462 0.376612
0.083156 0.571452 0.390632
0.146593 0.616745 0.405468
0.226311 0.667335 0.420437
0.331331 0.721595 0.435165
0.474926 0.775070 0.448799
0.667331 0.824988 0.461157
0.028083 0.044082 0.170278
0.053763 0.050423 0.181425
0.077797 0.057246 0.193367
0.101375 0.064439 0.206231
0.125440 0.071937 0.220371
0.150640 0.079877 0.235853
0.177368 0.088188 0.253188
0.206471 0.096861 0.272611
0.019772 0.085510 0.192910
0.045272 0.092370 0.205743
0.068880 0.099870 0.219903
0.092676 0.108116 0.235348
0.117137 0.116901 0.252708
0.143123 0.126370 0.272113
0.171499 0.136595 0.294206
0.203230 0.147513 0.319714
0.011280 0.128409 0.219394
0.036323 0.136797 0.234610
0.060032 0.146197 0.251880
0.084099 0.156454 0.271250
0.109441 0.167670 0.293365
0.136891 0.180080 0.318697
0.167539 0.193573 0.348155
0.202562 0.208273 0.382755
0.001599 0.176336 0.250991
0.026641 0.187413 0.270083
0.050707 0.199802 0.291926
0.075413 0.213606 0.317213
0.101920 0.229069 0.346535
0.131386 0.246170 0.380913
0.175570 0.261331 0.408287
0.242280 0.273016 0.423190
0.000000 0.233345 0.290474
0.015628 0.248644 0.315291
0.040122 0.266007 0.344279
0.065720 0.285749 0.378364
0.102716 0.304181 0.406546
0.158712 0.319438 0.421677
0.226213 0.336319 0.438844
0.310723 0.354678 0.457503
0.000000 0.305132 0.341757
0.002137 0.327477 0.375256
0.034796 0.349529 0.404104
0.083404 0.368446 0.419119
0.139451 0.389923 0.436327
0.207152 0.414158 0.455310
0.292217 0.441006 0.475794
0.403462 0.470553 0.496923
0.000000 0.397994 0.401068
0.012824 0.420790 0.415518
0.061093 0.447199 0.432450
0.116695 0.477434 0.451411
0.183799 0.511840 0.472039
0.268526 0.550311 0.493815
0.380194 0.592815 0.515897
0.531261 0.638581 0.537203
0.000000 0.508736 0.427618
0.034740 0.545328 0.446077
0.089111 0.587321 0.466413
0.154924 0.634770 0.488125
0.238445 0.687235 0.510762
0.349769 0.741974 0.533887
0.502684 0.794707 0.556531
0.702829 0.843158 0.578436
0.026460 0.046311 0.206010
0.052011 0.052924 0.217834
0.076034 0.059867 0.230541
0.099634 0.067169 0.244689
0.123699 0.074812 0.260239
0.148899 0.082839 0.277656
0.175871 0.091390 0.297314
0.205340 0.100177 0.319659
0.018031 0.087999 0.230265
0.043318 0.094992 0.244137
0.067108 0.102851 0.259648
0.090770 0.111224 0.277083
0.115396 0.120312 0.296714
0.141629 0.130047 0.319162
0.170348 0.140493 0.345023
0.202507 0.151727 0.375201
0.009295 0.131435 0.259018
0.034338 0.140034 0.276199
0.058159 0.149719 0.295744
0.082249 0.160337 0.318146
0.107733 0.172036 0.344005
0.135553 0.184790 0.373968
0.166617 0.198707 0.409436
0.202709 0.213731 0.450940
0.000000 0.180306 0.294742
0.024566 0.191681 0.316773
0.048525 0.204555 0.342390
0.073370 0.218939 0.372235
0.100161 0.234875 0.407460
0.130198 0.252657 0.448938
0.184074 0.265225 0.471592
0.253666 0.277253 0.491921
0.000000 0.238618 0.340665
0.013145 0.254622 0.370124
0.037577 0.272823 0.404906
0.063368 0.293292 0.446187
0.109049 0.309242 0.469712
0.167041 0.325066 0.490200
0.237359 0.342516 0.513469
0.326243 0.361613 0.539076
0.000000 0.312899 0.402110
0.000206 0.336312 0.442679
0.039646 0.355800 0.466951
0.089306 0.375617 0.487376
0.147208 0.398162 0.510667
0.217738 0.423395 0.536617
0.307140 0.451471 0.564712
0.425133 0.482147 0.594044
0.000000 0.405573 0.463535
0.017068 0.429739 0.483481
0.066424 0.457507 0.506502
0.123607 0.489238 0.532368
0.193443 0.525204 0.560599
0.282472 0.565457 0.590684
0.400786 0.609568 0.621462
0.561283 0.656636 0.651761
0.000000 0.521194 0.501130
0.039009 0.559815 0.526451
0.095000 0.603883 0.554422
0.163361 0.653320 0.584598
0.251195 0.707356 0.616173
0.369377 0.761834 0.648535
0.532089 0.813721 0.679718
0.737976 0.860813 0.707905
0.024719 0.048785 0.243586
0.050250 0.055425 0.256261
0.074071 0.062454 0.270205
0.097649 0.069865 0.285801
0.121714 0.077616 0.303218
0.147158 0.085801 0.323018
0.174362 0.094462 0.345701
0.204317 0.103557 0.371977
0.016291 0.090472 0.269864
0.041546 0.097712 0.285258
0.065146 0.105678 0.302554
0.088956 0.114337 0.322263
0.113656 0.123652 0.344977
0.140132 0.133609 0.371090
0.169116 0.144299 0.401823
0.201837 0.155729 0.437958
0.007310 0.134443 0.301942
0.032353 0.143422 0.321401
0.056174 0.153341 0.343900
0.080302 0.164307 0.369918
0.105992 0.176344 0.400458
0.134097 0.189489 0.436471
0.165631 0.203810 0.479234
0.208212 0.217446 0.521772
0.000000 0.184200 0.342749
0.022232 0.196010 0.368367
0.046293 0.209385 0.398633
0.071385 0.224318 0.434353
0.098343 0.240869 0.476935
0.133235 0.257584 0.520448
0.192933 0.269046 0.543809
0.265570 0.281390 0.570694
0.000000 0.244169 0.396734
0.010364 0.260703 0.431907
0.034910 0.279695 0.473969
0.064545 0.299561 0.518219
0.115509 0.314380 0.541673
0.175515 0.330768 0.568698
0.248961 0.348949 0.599370
0.342536 0.368725 0.633070
0.000000 0.320997 0.470810
0.000419 0.344030 0.515293
0.044430 0.362215 0.538580
0.095323 0.383116 0.565517
0.155188 0.406584 0.596220
0.228712 0.432943 0.630328
0.322809 0.462215 0.667041
0.447945 0.494033 0.705112
0.000000 0.413628 0.534823
0.021283 0.438847 0.561245
0.071663 0.468105 0.591590
0.130772 0.501519 0.625529
0.203430 0.539121 0.662520
0.297069 0.581051 0.701426
0.422592 0.626745 0.739312
0.592920 0.674978 0.773357
0.000000 0.534255 0.585800
0.043216 0.574897 0.619101
0.100880 0.620928 0.655784
0.172081 0.672405 0.694858
0.264642 0.727330 0.734023
0.390440 0.781685 0.770835
0.563553 0.832174 0.803345
0.772755 0.878015 0.831596
0.022978 0.051014 0.283509
0.048265 0.057734 0.297384
0.072086 0.064942 0.312805
0.095663 0.072529 0.330222
0.119855 0.080448 0.350013
0.145315 0.088754 0.372705
0.172805 0.097607 0.399225
0.203064 0.106794 0.430126
0.014305 0.092974 0.312316
0.039560 0.100429 0.329493
0.063140 0.108628 0.349253
0.086971 0.117435 0.371983
0.111670 0.126913 0.398335
0.138399 0.137126 0.429153
0.167864 0.148066 0.465767
0.201256 0.159731 0.509204
0.005161 0.137502 0.348491
0.030123 0.146741 0.370795
0.053945 0.156994 0.397097
0.078279 0.168341 0.427793
0.104100 0.180735 0.464042
0.132581 0.194257 0.507432
0.164568 0.208967 0.559271
0.217421 0.219780 0.597325
0.000000 0.188192 0.395650
0.019859 0.200564 0.426010
0.043927 0.214390 0.462030
0.068912 0.229827 0.505050
0.096160 0.246902 0.556493
0.140105 0.260979 0.595814
0.201940 0.272845 0.625993
0.278098 0.285662 0.660466
0.000000 0.249762 0.459782
0.007358 0.267044 0.502226
0.031932 0.286810 0.553136
0.069636 0.304171 0.593443
0.122086 0.319538 0.623520
0.184233 0.336644 0.658225
0.261085 0.355490 0.697180
0.359824 0.375928 0.739228
0.000000 0.329238 0.549467
0.002581 0.349792 0.590256
0.049101 0.368965 0.620140
0.101325 0.390726 0.654741
0.163294 0.415275 0.693721
0.240190 0.442777 0.736241
0.339412 0.473192 0.779419
0.472429 0.506401 0.820442
0.000000 0.421702 0.615926
0.025279 0.448431 0.649918
0.076818 0.479138 0.688589
0.137846 0.514091 0.731101
0.213879 0.553487 0.774657
0.312724 0.597270 0.816783
0.446191 0.644622 0.855187
0.626928 0.693551 0.887823
0.000000 0.547781 0.682172
0.047238 0.590489 0.723988
0.106881 0.638538 0.767594
0.181176 0.692033 0.810239
0.279135 0.747552 0.850270
0.413411 0.801394 0.885933
0.597492 0.850557 0.915528
0.806892 0.895212 0.940045
