gsg/03_Cinematic/GSG_LUT_Cinematic_OhBrother.cube
# GSG LUTs 1.0
# Copyright (c) 2016-2020 Greyscalegorilla
# See EULA for licensing and distribution information
# Converted by Briz LUT Converter
LUT_3D_SIZE 32
0.176313 0.128205 0.097192
0.186545 0.131017 0.098728
0.201702 0.135129 0.101028
0.221584 0.140541 0.103848
0.246634 0.147284 0.107220
0.276584 0.155587 0.111371
0.311072 0.165308 0.116208
0.349128 0.175808 0.121360
0.388956 0.186963 0.126842
0.428146 0.198094 0.132136
0.464445 0.208366 0.137193
0.495979 0.217425 0.141471
0.521438 0.224735 0.144968
0.540352 0.230068 0.147584
0.553681 0.233912 0.149490
0.564197 0.236953 0.151018
0.573272 0.239600 0.152279
0.581441 0.241987 0.153405
0.589113 0.244114 0.154555
0.596227 0.246130 0.155516
0.603033 0.248147 0.156430
0.609673 0.249998 0.157438
0.616054 0.251763 0.158447
0.622175 0.253527 0.159274
0.628225 0.255292 0.160219
0.634275 0.257056 0.161030
0.640120 0.258821 0.161991
0.645918 0.260373 0.162787
0.651715 0.262106 0.163543
0.657513 0.263870 0.164528
0.663547 0.265398 0.165300
0.669353 0.267155 0.166300
0.183694 0.139407 0.099988
0.193919 0.142219 0.101509
0.208854 0.146323 0.103580
0.228965 0.151736 0.106393
0.254017 0.158486 0.109802
0.284011 0.166787 0.114120
0.318697 0.176502 0.118752
0.356700 0.187002 0.123904
0.396345 0.198157 0.129387
0.435606 0.209287 0.134680
0.472002 0.219560 0.139738
0.503459 0.228532 0.144018
0.528980 0.235779 0.147521
0.547848 0.241262 0.150235
0.561314 0.244996 0.152168
0.571830 0.247903 0.153566
0.580905 0.250549 0.154831
0.589078 0.252936 0.156087
0.596750 0.255200 0.157207
0.603865 0.257316 0.158218
0.610669 0.259180 0.159226
0.617307 0.261108 0.160229
0.623687 0.262954 0.161067
0.629808 0.264721 0.162007
0.635858 0.266479 0.162826
0.641908 0.268052 0.163780
0.647753 0.269770 0.164583
0.653558 0.271528 0.165552
0.659356 0.273078 0.166347
0.665154 0.274820 0.167325
0.671181 0.276577 0.168104
0.676986 0.278105 0.169097
0.193430 0.154232 0.103565
0.203656 0.157037 0.104856
0.218605 0.160928 0.107126
0.238702 0.166362 0.109755
0.263784 0.173311 0.113333
0.293949 0.181575 0.117445
0.328449 0.191094 0.122080
0.366505 0.201607 0.127241
0.406333 0.212757 0.132715
0.445595 0.223876 0.138016
0.482067 0.234149 0.143067
0.513606 0.243121 0.147436
0.539070 0.250368 0.151081
0.557981 0.255851 0.153703
0.571311 0.259585 0.155515
0.581819 0.262492 0.157029
0.590894 0.265138 0.158407
0.599197 0.267525 0.159542
0.606838 0.269652 0.160690
0.613998 0.271669 0.161794
0.620751 0.273685 0.162803
0.627300 0.275537 0.163656
0.633676 0.277463 0.164591
0.639808 0.279294 0.165599
0.645850 0.280882 0.166419
0.651896 0.282595 0.167372
0.657742 0.284359 0.168188
0.663752 0.285911 0.169146
0.669581 0.287644 0.170152
0.675379 0.289394 0.170932
0.681177 0.290937 0.171925
0.686975 0.292694 0.172705
0.205766 0.172484 0.107921
0.216022 0.175296 0.109205
0.231157 0.179408 0.111269
0.251061 0.184820 0.114089
0.276143 0.191563 0.117460
0.306345 0.199827 0.121572
0.341042 0.209385 0.126247
0.379112 0.220064 0.131527
0.418928 0.231161 0.136896
0.458199 0.242128 0.142289
0.494655 0.252393 0.147269
0.526275 0.261358 0.151720
0.551798 0.268611 0.155233
0.570664 0.274079 0.157950
0.584025 0.277824 0.159998
0.594418 0.280744 0.161527
0.603505 0.283378 0.162787
0.611795 0.285754 0.164047
0.619426 0.287894 0.165180
0.626586 0.289906 0.166198
0.633487 0.291914 0.167206
0.639962 0.293765 0.168215
0.646264 0.295546 0.169223
0.652566 0.297300 0.170231
0.658508 0.299059 0.171069
0.664489 0.300823 0.172008
0.670349 0.302588 0.173012
0.676343 0.304140 0.173828
0.682169 0.305873 0.174787
0.687967 0.307431 0.175586
0.693765 0.309158 0.176580
0.699563 0.310922 0.177589
0.220765 0.194604 0.113057
0.231204 0.197416 0.114341
0.246168 0.201528 0.116405
0.266252 0.206940 0.119225
0.291362 0.213683 0.122596
0.321564 0.221947 0.126708
0.356304 0.231462 0.131340
0.394502 0.241963 0.136492
0.434204 0.253109 0.141983
0.473575 0.264217 0.147300
0.509874 0.274420 0.152436
0.541494 0.283324 0.156966
0.567017 0.290626 0.160633
0.585870 0.295979 0.163370
0.599226 0.299809 0.165418
0.609729 0.302832 0.166962
0.618914 0.305369 0.168238
0.627100 0.307653 0.169499
0.634645 0.309903 0.170759
0.641806 0.311879 0.171870
0.648686 0.313813 0.172878
0.655171 0.315664 0.173886
0.661483 0.317580 0.174917
0.667762 0.319248 0.175911
0.673867 0.320958 0.176911
0.679720 0.322722 0.177748
0.685722 0.324461 0.178715
0.691559 0.326035 0.179724
0.697357 0.327743 0.180540
0.703155 0.329505 0.181527
0.708953 0.331064 0.182536
0.714750 0.332790 0.183544
0.238804 0.220363 0.118973
0.249075 0.223174 0.120295
0.264196 0.227248 0.122321
0.284135 0.232664 0.125141
0.309402 0.239442 0.128512
0.339610 0.247706 0.132624
0.374375 0.257222 0.137256
0.412550 0.267722 0.142408
0.452272 0.278814 0.147964
0.491614 0.289763 0.153479
0.527914 0.300035 0.158644
0.559520 0.309008 0.163187
0.585017 0.316240 0.166962
0.603798 0.321698 0.169846
0.617131 0.325450 0.171917
0.627626 0.328378 0.173563
0.636701 0.331025 0.174970
0.644982 0.333391 0.176250
0.652628 0.335522 0.177510
0.659781 0.337556 0.178621
0.666535 0.339547 0.179654
0.673076 0.341411 0.180677
0.679444 0.343188 0.181830
0.685565 0.344953 0.182746
0.691614 0.346717 0.183702
0.697467 0.348450 0.184710
0.703470 0.350035 0.185751
0.709307 0.351767 0.186766
0.715105 0.353310 0.187774
0.720903 0.355051 0.188783
0.726701 0.356778 0.189791
0.732498 0.358336 0.190799
0.259490 0.249667 0.125669
0.269959 0.252473 0.127190
0.284895 0.256395 0.129061
0.305006 0.261825 0.131837
0.330088 0.268746 0.135208
0.360322 0.277010 0.139320
0.395179 0.286526 0.143961
0.433224 0.297026 0.149162
0.473016 0.308118 0.154807
0.512206 0.319081 0.160534
0.548490 0.329371 0.165874
0.579991 0.338329 0.170571
0.605357 0.345512 0.174527
0.624203 0.350845 0.177506
0.637536 0.354689 0.179690
0.647918 0.357730 0.181362
0.656993 0.360352 0.182874
0.665162 0.362608 0.184279
0.672807 0.364788 0.185561
0.679930 0.366907 0.186700
0.686724 0.368766 0.187854
0.693214 0.370664 0.188964
0.699498 0.372526 0.189988
0.705605 0.374304 0.191031
0.711655 0.376032 0.192052
0.717508 0.377627 0.193060
0.723510 0.379353 0.194273
0.729347 0.381077 0.195321
0.735102 0.382657 0.196329
0.740896 0.384403 0.197382
0.746693 0.385931 0.198393
0.752491 0.387688 0.199401
0.282871 0.282036 0.133144
0.293340 0.284793 0.134617
0.308275 0.288905 0.136669
0.328386 0.294322 0.139312
0.353468 0.301115 0.142684
0.383661 0.309378 0.146805
0.418307 0.318894 0.151541
0.456308 0.329395 0.156989
0.495919 0.340500 0.162801
0.535027 0.351546 0.168601
0.571230 0.361891 0.174146
0.602560 0.370802 0.179200
0.627904 0.378098 0.183416
0.646634 0.383465 0.186490
0.659853 0.387309 0.188680
0.670208 0.390350 0.190487
0.679255 0.392871 0.192028
0.687424 0.395140 0.193541
0.694955 0.397408 0.194911
0.702081 0.399527 0.196172
0.708803 0.401386 0.197310
0.715357 0.403188 0.198503
0.721564 0.405105 0.199630
0.727532 0.406924 0.200958
0.733298 0.408585 0.202413
0.738898 0.410364 0.203877
0.744581 0.412185 0.205453
0.750124 0.413842 0.206938
0.755467 0.415589 0.208352
0.760962 0.417406 0.209936
0.766528 0.418991 0.211408
0.772043 0.420804 0.212817
0.308267 0.316948 0.141337
0.318675 0.319579 0.142621
0.333668 0.323691 0.144685
0.353714 0.329127 0.147511
0.378731 0.336090 0.150939
0.408838 0.344354 0.155101
0.443314 0.353882 0.160085
0.481249 0.364433 0.165714
0.520714 0.375588 0.171689
0.559505 0.386737 0.177804
0.595557 0.397054 0.183703
0.626737 0.406026 0.188931
0.651943 0.413273 0.193407
0.670492 0.418756 0.196742
0.683674 0.422600 0.199078
0.693725 0.425702 0.201312
0.702218 0.428353 0.203666
0.709932 0.430717 0.205825
0.717044 0.433051 0.207818
0.723664 0.435235 0.209652
0.729963 0.437200 0.211432
0.736149 0.439217 0.213213
0.742056 0.441126 0.214949
0.747530 0.442955 0.217068
0.752271 0.444925 0.219906
0.757005 0.446942 0.222880
0.761590 0.448958 0.225741
0.766127 0.450920 0.228682
0.770664 0.452765 0.231535
0.775261 0.454764 0.234314
0.779978 0.456544 0.237262
0.784521 0.458553 0.240104
0.335129 0.353350 0.149978
0.345360 0.356162 0.151333
0.360443 0.360274 0.153397
0.380242 0.365710 0.156241
0.405127 0.372673 0.159851
0.435004 0.380948 0.164166
0.469357 0.390571 0.169329
0.506975 0.401268 0.175171
0.546226 0.412441 0.181564
0.584839 0.423675 0.187992
0.620538 0.434093 0.194232
0.651206 0.443214 0.200369
0.675117 0.450726 0.206634
0.692384 0.456429 0.211776
0.704647 0.460460 0.215407
0.713695 0.463815 0.219184
0.720879 0.466840 0.223632
0.727283 0.469479 0.227650
0.733192 0.472000 0.231390
0.738690 0.474371 0.234885
0.743984 0.476639 0.238190
0.749112 0.478908 0.241419
0.754153 0.481004 0.244500
0.759014 0.483020 0.247525
0.763614 0.485037 0.250549
0.768348 0.487053 0.253377
0.772933 0.489070 0.256355
0.777532 0.490874 0.259167
0.782079 0.492859 0.262097
0.786778 0.494876 0.264886
0.791327 0.496656 0.267728
0.795935 0.498665 0.270676
0.362117 0.390421 0.158880
0.372340 0.393233 0.160411
0.387168 0.397350 0.162551
0.406814 0.402860 0.165402
0.431752 0.409823 0.169128
0.461368 0.418139 0.173770
0.495428 0.427973 0.179148
0.532628 0.438688 0.185407
0.571538 0.449967 0.192167
0.609512 0.461370 0.199486
0.643426 0.472097 0.208264
0.671224 0.481958 0.218391
0.691922 0.490251 0.229311
0.706511 0.496538 0.238465
0.716783 0.500992 0.245004
0.724881 0.504494 0.250157
0.732065 0.507560 0.254654
0.738469 0.510237 0.258671
0.744377 0.512757 0.262310
0.749924 0.515129 0.265791
0.755198 0.517397 0.269132
0.760351 0.519613 0.272297
0.765362 0.521739 0.275348
0.770200 0.523778 0.278314
0.774861 0.525795 0.281319
0.779613 0.527748 0.284147
0.784198 0.529749 0.287058
0.788948 0.531622 0.289858
0.793517 0.533546 0.292631
0.798128 0.535555 0.295404
0.802670 0.537335 0.298336
0.807452 0.539344 0.301115
0.387979 0.426366 0.167868
0.398109 0.429181 0.169491
0.412777 0.433387 0.171797
0.432391 0.438978 0.174753
0.456990 0.446031 0.178718
0.486346 0.454435 0.183503
0.520129 0.464352 0.189297
0.556962 0.475194 0.195923
0.594702 0.486824 0.204144
0.629097 0.498970 0.216445
0.658738 0.510733 0.231505
0.682871 0.521383 0.246879
0.702468 0.529954 0.259323
0.717040 0.536343 0.268526
0.727362 0.540761 0.275025
0.735460 0.544220 0.280050
0.742644 0.547326 0.284462
0.749049 0.550041 0.288479
0.754957 0.552562 0.292119
0.760605 0.554933 0.295498
0.765892 0.557202 0.298719
0.771071 0.559364 0.301907
0.776051 0.561520 0.304982
0.780866 0.563583 0.307891
0.785655 0.565599 0.310808
0.790445 0.567489 0.313616
0.795102 0.569402 0.316389
0.799791 0.571405 0.319162
0.804427 0.573201 0.321856
0.809120 0.575194 0.324621
0.813751 0.577058 0.327394
0.818536 0.578983 0.330080
0.411548 0.459924 0.176596
0.421518 0.462744 0.178285
0.436088 0.467092 0.180699
0.455574 0.472551 0.183906
0.479770 0.479779 0.188059
0.508851 0.488392 0.193186
0.542063 0.498342 0.199581
0.576987 0.509724 0.208894
0.610808 0.522273 0.222718
0.640423 0.535448 0.241774
0.668148 0.547725 0.259467
0.692386 0.558376 0.274700
0.711959 0.566946 0.286985
0.726519 0.573335 0.296034
0.736921 0.577825 0.302462
0.745071 0.581324 0.307355
0.752255 0.584349 0.311669
0.758711 0.587034 0.315641
0.764662 0.589555 0.319280
0.770310 0.591926 0.322659
0.775698 0.594194 0.325779
0.780826 0.596399 0.328804
0.785868 0.598464 0.331762
0.790798 0.600481 0.334689
0.795612 0.602497 0.337500
0.800402 0.604514 0.340273
0.805191 0.606405 0.342967
0.809768 0.608315 0.345725
0.814526 0.610184 0.348277
0.819175 0.612098 0.351026
0.823955 0.614108 0.353707
0.828650 0.615881 0.356233
0.431691 0.489488 0.184757
0.441653 0.492308 0.186301
0.455963 0.496663 0.188876
0.475198 0.502217 0.192329
0.499227 0.509465 0.196613
0.527709 0.518315 0.202487
0.558228 0.528986 0.212489
0.588996 0.541321 0.227887
0.618914 0.554760 0.247154
0.648515 0.567978 0.266070
0.676173 0.580362 0.283657
0.700379 0.591012 0.298767
0.720076 0.599582 0.310898
0.734665 0.605971 0.319769
0.745047 0.610461 0.326078
0.753279 0.613888 0.330899
0.760463 0.616913 0.335058
0.767001 0.619670 0.338902
0.773079 0.622191 0.342495
0.778770 0.624562 0.345811
0.784158 0.626831 0.348891
0.789356 0.628934 0.351916
0.794431 0.630950 0.354768
0.799396 0.632967 0.357541
0.804302 0.634984 0.360234
0.809114 0.637000 0.362984
0.813904 0.638931 0.365552
0.818570 0.640808 0.368196
0.823341 0.642713 0.370735
0.828034 0.644588 0.373389
0.832817 0.646496 0.375919
0.837567 0.648367 0.378439
0.447934 0.514112 0.191768
0.457891 0.516933 0.193422
0.472048 0.521304 0.196006
0.491037 0.527094 0.199617
0.514634 0.534413 0.204583
0.540263 0.543893 0.214403
0.567027 0.555453 0.229684
0.595502 0.568278 0.248163
0.625310 0.581855 0.267292
0.654953 0.595155 0.286085
0.682701 0.607539 0.303490
0.706897 0.618189 0.318390
0.726657 0.626717 0.330408
0.741359 0.633038 0.339092
0.751806 0.637528 0.345186
0.760038 0.641008 0.349947
0.767222 0.644033 0.354106
0.773760 0.646797 0.357872
0.779920 0.649304 0.361337
0.785671 0.651629 0.364520
0.791059 0.653897 0.367545
0.796353 0.656075 0.370495
0.801473 0.658128 0.373311
0.806415 0.660144 0.376002
0.811422 0.662161 0.378643
0.816267 0.664088 0.381297
0.821056 0.665971 0.383843
0.825846 0.667870 0.386364
0.830635 0.669752 0.388885
0.835300 0.671652 0.391303
0.840187 0.673532 0.393816
0.845114 0.675434 0.396337
0.461105 0.534743 0.197834
0.471062 0.537682 0.199626
0.485172 0.542069 0.202370
0.503241 0.548153 0.206988
0.524158 0.556091 0.215769
0.546717 0.566198 0.229911
0.572445 0.578005 0.246626
0.600785 0.590925 0.264997
0.630501 0.604537 0.284092
0.660144 0.617937 0.302716
0.687936 0.630320 0.319910
0.712216 0.640970 0.334589
0.732018 0.649492 0.346315
0.746859 0.655804 0.354917
0.757383 0.660240 0.360898
0.765672 0.663721 0.365521
0.772917 0.666745 0.369619
0.779456 0.669518 0.373327
0.785616 0.672008 0.376714
0.791366 0.674349 0.379842
0.796831 0.676587 0.382790
0.802166 0.678814 0.385608
0.807287 0.680909 0.388381
0.812328 0.682926 0.390972
0.817370 0.684942 0.393591
0.822214 0.686762 0.396140
0.827103 0.688731 0.398661
0.831911 0.690535 0.401079
0.836701 0.692520 0.403584
0.841490 0.694309 0.405877
0.846516 0.696309 0.408382
0.851314 0.698082 0.410784
0.472449 0.553019 0.203379
0.482231 0.556096 0.205371
0.494747 0.560873 0.210497
0.510674 0.567372 0.218181
0.529150 0.575896 0.230312
0.551381 0.586112 0.244783
0.577084 0.597944 0.261475
0.605322 0.610965 0.279715
0.635039 0.624578 0.298680
0.664682 0.637977 0.317137
0.692473 0.650360 0.334112
0.716843 0.661011 0.348616
0.736807 0.669581 0.360131
0.751648 0.675970 0.368603
0.762230 0.680407 0.374454
0.770588 0.683826 0.379007
0.777898 0.686851 0.382975
0.784497 0.689615 0.386561
0.790657 0.692121 0.389875
0.796408 0.694515 0.392950
0.801954 0.696672 0.395817
0.807334 0.698854 0.398590
0.812544 0.700949 0.401273
0.817622 0.702966 0.403828
0.822663 0.704982 0.406349
0.827508 0.706802 0.408870
0.832502 0.708772 0.411285
0.837331 0.710575 0.413683
0.842121 0.712561 0.416074
0.847028 0.714349 0.418354
0.851940 0.716228 0.420737
0.856859 0.718122 0.423136
0.480625 0.569877 0.211084
0.489168 0.573233 0.214731
0.500098 0.578369 0.221931
0.514798 0.585088 0.231494
0.533168 0.593627 0.243625
0.555376 0.603968 0.258074
0.580970 0.615912 0.274631
0.609248 0.628934 0.292749
0.639056 0.642546 0.311557
0.668699 0.655945 0.329789
0.696534 0.668329 0.346587
0.720989 0.678979 0.360873
0.740995 0.687550 0.372204
0.755918 0.693938 0.380472
0.766552 0.698368 0.386254
0.774983 0.701786 0.390742
0.782293 0.704811 0.394649
0.788958 0.707577 0.398170
0.795179 0.710080 0.401355
0.801012 0.712395 0.404298
0.806523 0.714593 0.407113
0.811946 0.716732 0.409886
0.817188 0.718784 0.412486
0.822262 0.720800 0.415006
0.827303 0.722817 0.417424
0.832256 0.724745 0.419914
0.837276 0.726628 0.422230
0.842105 0.728527 0.424595
0.847015 0.730408 0.426878
0.851921 0.732183 0.429146
0.856847 0.734077 0.431415
0.861885 0.735957 0.433794
0.485257 0.585695 0.221765
0.492777 0.589271 0.226626
0.503738 0.594407 0.233826
0.518437 0.601126 0.243389
0.536789 0.609666 0.255520
0.558856 0.620024 0.269952
0.584379 0.632061 0.286388
0.612746 0.645083 0.304360
0.642554 0.658731 0.323030
0.672197 0.672236 0.341107
0.700067 0.684619 0.357645
0.724608 0.695270 0.371670
0.744677 0.703785 0.382796
0.759727 0.710087 0.390937
0.770444 0.714531 0.396636
0.778928 0.717951 0.401071
0.786311 0.720976 0.404905
0.792974 0.723740 0.408350
0.799181 0.726247 0.411485
0.805081 0.728575 0.414361
0.810655 0.730753 0.417133
0.816068 0.732902 0.419810
0.821322 0.734964 0.422364
0.826405 0.736981 0.424780
0.831447 0.738887 0.427184
0.836488 0.740872 0.429568
0.841530 0.742684 0.431856
0.846482 0.744661 0.434125
0.851382 0.746457 0.436394
0.856314 0.748222 0.438662
0.861349 0.750223 0.440794
0.866391 0.751995 0.443058
0.488487 0.600173 0.232510
0.496053 0.603750 0.237371
0.506958 0.608895 0.244570
0.521517 0.615755 0.254134
0.539875 0.624294 0.266246
0.561984 0.634653 0.280547
0.587477 0.646690 0.296963
0.615723 0.659745 0.314795
0.645570 0.673497 0.333270
0.675324 0.686967 0.351274
0.703243 0.699350 0.367552
0.727922 0.710000 0.381370
0.748056 0.718477 0.392372
0.763149 0.724715 0.400315
0.773926 0.729206 0.405869
0.782410 0.732705 0.410231
0.789846 0.735730 0.413935
0.796585 0.738414 0.417330
0.802812 0.740935 0.420379
0.808712 0.743306 0.423191
0.814353 0.745417 0.425964
0.819834 0.747599 0.428571
0.825176 0.749695 0.431092
0.830289 0.751711 0.433432
0.835330 0.753539 0.435774
0.840372 0.755500 0.438064
0.845413 0.757312 0.440332
0.850455 0.759289 0.442601
0.855276 0.761086 0.444735
0.860294 0.762850 0.446989
0.865335 0.764851 0.449166
0.870377 0.766623 0.451282
0.491355 0.613407 0.242373
0.499011 0.616984 0.247233
0.509819 0.622136 0.254433
0.524290 0.629099 0.263981
0.542640 0.637780 0.275959
0.564693 0.648139 0.290289
0.590199 0.660176 0.306574
0.618496 0.673217 0.324349
0.648327 0.686937 0.342588
0.678125 0.700453 0.360402
0.706247 0.712836 0.376419
0.730939 0.723487 0.390011
0.751176 0.731963 0.400874
0.766269 0.738202 0.408720
0.777116 0.742692 0.414148
0.785687 0.746160 0.418378
0.793123 0.749104 0.422033
0.799913 0.751829 0.425342
0.806184 0.754330 0.428356
0.812084 0.756635 0.431195
0.817724 0.758848 0.433866
0.823270 0.760979 0.436417
0.828642 0.763023 0.438826
0.833872 0.765040 0.441120
0.838954 0.766990 0.443389
0.843995 0.768860 0.445658
0.849037 0.770773 0.447926
0.854079 0.772638 0.450058
0.859042 0.774414 0.452228
0.863928 0.776326 0.454341
0.868959 0.778185 0.456447
0.874158 0.779952 0.458624
0.493962 0.625767 0.251455
0.501619 0.629343 0.256316
0.512427 0.634495 0.263516
0.526881 0.641451 0.273055
0.545092 0.650082 0.284945
0.567214 0.660559 0.299193
0.592705 0.672489 0.315372
0.620938 0.685643 0.332995
0.650789 0.699319 0.351102
0.680696 0.712899 0.368655
0.708967 0.725283 0.384466
0.733743 0.735933 0.397909
0.754035 0.744409 0.408546
0.769198 0.750648 0.416291
0.780106 0.755138 0.421679
0.788633 0.758565 0.425862
0.796155 0.761464 0.429431
0.803025 0.764236 0.432613
0.809295 0.766726 0.435541
0.815196 0.768994 0.438347
0.820943 0.771263 0.440963
0.826435 0.773366 0.443483
0.831754 0.775383 0.445831
0.837048 0.777400 0.448100
0.842152 0.779288 0.450368
0.847327 0.781204 0.452504
0.852401 0.783067 0.454740
0.857442 0.784988 0.456796
0.862484 0.786774 0.458884
0.867452 0.788612 0.461063
0.872488 0.790542 0.463090
0.877608 0.792312 0.465186
0.496309 0.637174 0.259758
0.503799 0.640750 0.264786
0.514774 0.645902 0.271819
0.529221 0.652866 0.281358
0.547349 0.661571 0.293237
0.569388 0.671980 0.307417
0.594897 0.684005 0.323548
0.623207 0.697223 0.340927
0.653078 0.710898 0.358835
0.683044 0.724479 0.376179
0.711395 0.736862 0.391878
0.736343 0.747513 0.405114
0.756702 0.755989 0.415558
0.771931 0.762228 0.423181
0.782827 0.766640 0.428469
0.791406 0.770055 0.432652
0.798968 0.773043 0.436181
0.805877 0.775721 0.439324
0.812147 0.778233 0.442207
0.818153 0.780574 0.444874
0.823906 0.782731 0.447422
0.829429 0.784890 0.449825
0.834779 0.786963 0.452117
0.840072 0.788851 0.454386
0.845177 0.790768 0.456654
0.850416 0.792769 0.458726
0.855504 0.794580 0.460802
0.860546 0.796407 0.462981
0.865587 0.798337 0.465020
0.870629 0.800118 0.467103
0.875671 0.801951 0.469124
0.880885 0.803718 0.471141
0.498397 0.647903 0.267643
0.505993 0.651479 0.272565
0.516862 0.656631 0.279692
0.531309 0.663602 0.289062
0.549427 0.672362 0.300918
0.571405 0.682721 0.314940
0.596928 0.694805 0.331057
0.625294 0.708064 0.348323
0.655212 0.721833 0.366017
0.685313 0.735279 0.383255
0.713687 0.747662 0.398744
0.738682 0.758313 0.411785
0.759069 0.766789 0.422113
0.774388 0.773028 0.429595
0.785379 0.777408 0.434760
0.794085 0.780818 0.438756
0.801647 0.783843 0.442192
0.808468 0.786482 0.445335
0.814844 0.789003 0.448218
0.820859 0.791374 0.450841
0.826640 0.793485 0.453362
0.832250 0.795667 0.455717
0.837623 0.797634 0.457986
0.842916 0.799551 0.460120
0.848021 0.801552 0.462342
0.853259 0.803422 0.464414
0.858348 0.805351 0.466430
0.863390 0.807145 0.468502
0.868431 0.808966 0.470527
0.873642 0.810906 0.472543
0.878695 0.812683 0.474560
0.883800 0.814447 0.476576
0.500414 0.657923 0.275080
0.507881 0.661688 0.279934
0.518689 0.666840 0.286947
0.533155 0.673811 0.296417
0.551444 0.682571 0.308094
0.573422 0.692930 0.322030
0.598908 0.705014 0.337989
0.627165 0.718245 0.355240
0.657245 0.731948 0.372788
0.687392 0.745488 0.389673
0.715767 0.757872 0.404963
0.740829 0.768522 0.417893
0.761411 0.776998 0.428075
0.776793 0.783237 0.435440
0.787711 0.787617 0.440466
0.796447 0.791028 0.444397
0.804107 0.794053 0.447800
0.810989 0.796691 0.450943
0.817401 0.799102 0.453717
0.823404 0.801394 0.456261
0.829202 0.803627 0.458781
0.834834 0.805748 0.461137
0.840206 0.807744 0.463405
0.845500 0.809744 0.465493
0.850751 0.811761 0.467552
0.856032 0.813581 0.469581
0.861121 0.815391 0.471598
0.866163 0.817330 0.473615
0.871204 0.819119 0.475631
0.876474 0.820935 0.477648
0.881531 0.822703 0.479481
0.886762 0.824656 0.481492
0.502233 0.667557 0.281996
0.509646 0.671187 0.286849
0.520454 0.676529 0.293800
0.534925 0.683482 0.303150
0.553263 0.692089 0.314955
0.575241 0.702619 0.328851
0.600755 0.714703 0.344560
0.629094 0.727922 0.361608
0.659065 0.741597 0.378975
0.689269 0.755177 0.395762
0.717783 0.767561 0.410949
0.742935 0.778211 0.423657
0.763625 0.786687 0.433600
0.778979 0.792843 0.440903
0.789980 0.797198 0.445923
0.798716 0.800622 0.449746
0.806404 0.803646 0.453149
0.813421 0.806381 0.456184
0.819808 0.808760 0.458837
0.825848 0.811028 0.461357
0.831722 0.813297 0.463751
0.837355 0.815400 0.466036
0.842727 0.817417 0.468305
0.848021 0.819434 0.470393
0.853314 0.821298 0.472409
0.858608 0.823232 0.474426
0.863697 0.825034 0.476443
0.868738 0.826840 0.478459
0.873958 0.828789 0.480298
0.879063 0.830572 0.482295
0.884298 0.832337 0.484076
0.889590 0.834149 0.486085
0.503998 0.676726 0.288597
0.511410 0.680310 0.293450
0.522218 0.685699 0.300398
0.536669 0.692666 0.309689
0.554823 0.701395 0.321352
0.576801 0.711789 0.335240
0.602324 0.723873 0.350860
0.630737 0.737137 0.367695
0.660882 0.750918 0.384972
0.691252 0.764347 0.401548
0.719800 0.776730 0.416508
0.744968 0.787380 0.429028
0.765749 0.795856 0.438843
0.781220 0.802079 0.445926
0.792249 0.806454 0.450926
0.800985 0.809867 0.454835
0.808673 0.812892 0.458132
0.815715 0.815550 0.461042
0.822096 0.817929 0.463673
0.828146 0.820198 0.466194
0.834038 0.822466 0.468557
0.839671 0.824570 0.470826
0.845188 0.826586 0.472949
0.850542 0.828603 0.474977
0.855835 0.830431 0.476994
0.860964 0.832392 0.479011
0.866185 0.834204 0.481027
0.871259 0.835968 0.482865
0.876521 0.837953 0.484820
0.881587 0.839742 0.486641
0.886864 0.841506 0.488408
0.892158 0.843271 0.490212
0.505550 0.685588 0.294726
0.512962 0.689172 0.299585
0.523770 0.694561 0.306725
0.538217 0.701532 0.315814
0.556335 0.710292 0.327414
0.578348 0.720651 0.341116
0.604049 0.732735 0.356729
0.632471 0.746008 0.373484
0.662657 0.759809 0.390586
0.693056 0.773209 0.407059
0.721672 0.785592 0.421760
0.746985 0.796242 0.434109
0.767781 0.804719 0.443909
0.783276 0.810958 0.450862
0.794305 0.815337 0.455637
0.803144 0.818748 0.459451
0.810942 0.821773 0.462728
0.817868 0.824412 0.465619
