gsg/03_Cinematic/GSG_LUT_Cinematic_Blockbuster.cube
# GSG LUTs 1.0
# Copyright (c) 2016-2020 Greyscalegorilla
# See EULA for licensing and distribution information
# Converted by Briz LUT Converter
LUT_3D_SIZE 32
0.050794 0.050794 0.050794
0.050991 0.050817 0.050802
0.057230 0.051558 0.051038
0.062901 0.052086 0.051038
0.072701 0.052905 0.051700
0.085888 0.054205 0.056324
0.099925 0.055717 0.057946
0.114979 0.057174 0.061570
0.127016 0.058435 0.063398
0.140636 0.060971 0.067494
0.159415 0.066139 0.074379
0.176982 0.069140 0.082390
0.189775 0.071787 0.087116
0.204829 0.076120 0.093899
0.222616 0.081476 0.103336
0.241798 0.087707 0.114569
0.261586 0.093883 0.125787
0.280909 0.100941 0.137122
0.303092 0.108567 0.150372
0.325243 0.119028 0.164032
0.345535 0.130970 0.177896
0.367600 0.142321 0.191595
0.389925 0.152026 0.205034
0.410768 0.163275 0.219300
0.430052 0.174430 0.232408
0.445807 0.182906 0.242845
0.464776 0.194202 0.255749
0.479160 0.204813 0.268297
0.492962 0.212281 0.277782
0.508653 0.222994 0.287770
0.519808 0.229595 0.296435
0.535531 0.240781 0.306471
0.050817 0.051006 0.050833
0.057466 0.057424 0.052016
0.067785 0.058371 0.052377
0.081957 0.059672 0.057245
0.099463 0.061455 0.058470
0.118986 0.064110 0.063226
0.135442 0.069783 0.068143
0.151124 0.071403 0.071019
0.167060 0.074503 0.078839
0.184016 0.079820 0.085369
0.201292 0.082876 0.094621
0.220592 0.087810 0.103966
0.239368 0.092911 0.114610
0.258537 0.099222 0.126264
0.277577 0.105159 0.137119
0.299610 0.112741 0.149567
0.321943 0.122698 0.163090
0.343898 0.133696 0.177640
0.367092 0.143779 0.192094
0.389458 0.154007 0.206173
0.410709 0.163907 0.219394
0.432450 0.175301 0.234485
0.451756 0.186382 0.247018
0.469511 0.195537 0.258559
0.484373 0.205218 0.271320
0.499964 0.213683 0.281462
0.513888 0.223387 0.290999
0.527473 0.230727 0.300030
0.540366 0.237728 0.309072
0.551455 0.244105 0.317689
0.564105 0.254181 0.327113
0.574839 0.260853 0.335720
0.051589 0.058033 0.052125
0.058023 0.058486 0.052154
0.068052 0.063872 0.053370
0.082210 0.065007 0.058220
0.099332 0.067571 0.059403
0.116092 0.073067 0.064747
0.132809 0.074747 0.068857
0.151755 0.077979 0.072339
0.169321 0.083331 0.080201
0.185941 0.086507 0.086503
0.204974 0.092877 0.096385
0.224276 0.097737 0.106639
0.243042 0.102808 0.117983
0.263262 0.109860 0.129341
0.284029 0.117186 0.141665
0.306141 0.125874 0.155139
0.329246 0.135766 0.169743
0.352495 0.145856 0.184117
0.374367 0.155916 0.198321
0.396980 0.166004 0.212486
0.418631 0.176937 0.226280
0.439824 0.188161 0.241211
0.458415 0.197613 0.254920
0.475222 0.207232 0.265804
0.491633 0.216083 0.277544
0.505867 0.223419 0.287372
0.521018 0.232974 0.297179
0.534897 0.240898 0.308766
0.546207 0.247159 0.317766
0.559101 0.253890 0.326397
0.569388 0.263524 0.333036
0.582260 0.270164 0.341943
0.053094 0.068321 0.053889
0.062810 0.069086 0.053890
0.068922 0.069458 0.054249
0.082572 0.071629 0.059245
0.099807 0.076810 0.061047
0.116401 0.078943 0.065725
0.133338 0.084070 0.071205
0.152431 0.087766 0.076434
0.169816 0.092920 0.082269
0.186998 0.096270 0.089167
0.207072 0.103044 0.099455
0.226548 0.109231 0.111695
0.246533 0.115269 0.122194
0.266923 0.122220 0.134558
0.288872 0.130243 0.147883
0.312186 0.139820 0.161614
0.336003 0.148793 0.176007
0.360531 0.158894 0.191381
0.383067 0.168639 0.205573
0.404939 0.178678 0.220304
0.426619 0.188311 0.234531
0.447036 0.198951 0.248178
0.466084 0.209621 0.261604
0.483271 0.218759 0.272931
0.499145 0.226323 0.283956
0.513593 0.235505 0.294239
0.527279 0.243231 0.305687
0.540462 0.250355 0.315033
0.553549 0.257020 0.323865
0.566227 0.266652 0.333306
0.576729 0.272945 0.339565
0.587743 0.279594 0.350317
0.059396 0.078246 0.056221
0.064736 0.079160 0.056326
0.073597 0.080349 0.056954
0.084104 0.084371 0.061812
0.100343 0.087007 0.062862
0.116952 0.089139 0.067473
0.133938 0.095018 0.073112
0.152889 0.099482 0.078565
0.170901 0.103595 0.084863
0.189401 0.109457 0.094072
0.208534 0.115174 0.103409
0.229383 0.121958 0.114261
0.249726 0.128764 0.125627
0.270773 0.135673 0.138871
0.293031 0.143752 0.152466
0.316907 0.153197 0.167129
0.341765 0.162349 0.181847
0.366448 0.171748 0.197355
0.390529 0.181727 0.212561
0.413314 0.190606 0.227100
0.434786 0.201007 0.241978
0.455039 0.211525 0.255915
0.474078 0.221045 0.268603
0.491064 0.230646 0.281147
0.506768 0.239186 0.291537
0.521288 0.246396 0.301359
0.534894 0.253281 0.312010
0.547974 0.262347 0.321703
0.560906 0.269650 0.330665
0.571742 0.276017 0.339405
0.582300 0.282083 0.347749
0.594769 0.292008 0.354602
0.065619 0.089267 0.062011
0.070525 0.090335 0.062822
0.079071 0.093875 0.064014
0.088202 0.095684 0.064485
0.101197 0.100056 0.065932
0.118031 0.102799 0.070521
0.136383 0.107440 0.075506
0.153421 0.110936 0.080957
0.172201 0.116839 0.088109
0.191110 0.122185 0.097204
0.211685 0.128599 0.107198
0.232666 0.135240 0.118460
0.252922 0.142031 0.130999
0.273800 0.148931 0.143499
0.297040 0.157208 0.157147
0.321065 0.166007 0.171800
0.345468 0.174850 0.187359
0.371820 0.185167 0.203748
0.397099 0.195187 0.219980
0.419996 0.204066 0.235028
0.442107 0.214305 0.249413
0.462345 0.223664 0.262610
0.481286 0.233894 0.275996
0.498054 0.242264 0.287950
0.513193 0.249353 0.298296
0.528038 0.258022 0.309621
0.542191 0.265575 0.319252
0.554902 0.272962 0.328229
0.568080 0.279732 0.337437
0.579075 0.286069 0.345688
0.589436 0.292096 0.353538
0.599772 0.301217 0.360613
0.071464 0.103525 0.066029
0.076908 0.107376 0.066912
0.084553 0.107937 0.069846
0.093151 0.110205 0.071094
0.103180 0.113525 0.072569
0.118793 0.116389 0.073887
0.137391 0.121215 0.078743
0.153919 0.124716 0.083883
0.172516 0.130099 0.091290
0.191526 0.135734 0.099884
0.212281 0.141455 0.110772
0.233179 0.148079 0.123169
0.253396 0.154760 0.134362
0.274667 0.161621 0.147198
0.298166 0.169903 0.160667
0.322771 0.179318 0.176118
0.348475 0.188292 0.192629
0.374785 0.197976 0.208559
0.400531 0.207996 0.224551
0.424615 0.217126 0.240989
0.447437 0.227402 0.256187
0.467967 0.236821 0.269575
0.486815 0.245972 0.282437
0.503809 0.254893 0.294801
0.519932 0.262213 0.305211
0.533953 0.269220 0.315944
0.547292 0.275868 0.325707
0.560432 0.284308 0.335230
0.573319 0.291675 0.344098
0.583891 0.298456 0.352688
0.593768 0.304267 0.358278
0.604088 0.310497 0.366552
0.078120 0.120627 0.073851
0.085121 0.122007 0.074025
0.090041 0.122536 0.074344
0.098237 0.126110 0.075407
0.107810 0.127458 0.078467
0.120753 0.130281 0.080235
0.137957 0.134804 0.082410
0.154312 0.139459 0.088391
0.172218 0.143342 0.095849
0.191214 0.148560 0.102826
0.212179 0.154439 0.114057
0.233325 0.161030 0.126215
0.253677 0.167606 0.137484
0.275579 0.174547 0.150623
0.299199 0.182779 0.164528
0.324078 0.191511 0.179363
0.350571 0.200643 0.195675
0.376797 0.210900 0.213187
0.402758 0.220756 0.229670
0.427618 0.230042 0.245411
0.451050 0.239832 0.261419
0.472202 0.249297 0.275936
0.491451 0.257826 0.288597
0.508765 0.266528 0.300910
0.524668 0.274125 0.311456
0.538874 0.281907 0.322646
0.552159 0.288677 0.332137
0.565180 0.295222 0.341320
0.577605 0.301677 0.349921
0.588129 0.310048 0.358176
0.596634 0.315889 0.364660
0.606964 0.322628 0.372941
0.086061 0.134932 0.079523
0.090561 0.138368 0.080104
0.096038 0.139848 0.081293
0.103498 0.140452 0.082353
0.113259 0.142385 0.083365
0.124942 0.146469 0.086437
0.138882 0.148983 0.089076
0.154528 0.153952 0.093243
0.172206 0.158485 0.099450
0.190962 0.162524 0.107504
0.211089 0.168492 0.118726
0.233455 0.175039 0.130004
0.254295 0.181557 0.142143
0.276433 0.188617 0.154410
0.300488 0.196759 0.168839
0.325589 0.205676 0.183907
0.351528 0.215101 0.199894
0.378397 0.224721 0.216937
0.404769 0.234326 0.233978
0.429877 0.244104 0.251022
0.454236 0.253731 0.266859
0.476583 0.262759 0.281809
0.495372 0.271947 0.295149
0.513105 0.279978 0.307263
0.529269 0.287429 0.318281
0.543627 0.295267 0.329184
0.557002 0.301879 0.338406
0.569813 0.308448 0.347229
0.580669 0.314569 0.355611
0.591028 0.322255 0.363141
0.601363 0.328418 0.371222
0.611942 0.334223 0.378424
0.091780 0.152854 0.085194
0.096116 0.153733 0.085290
0.102118 0.156989 0.086245
0.109770 0.157644 0.089523
0.120136 0.159961 0.091034
0.129470 0.163437 0.092638
0.141395 0.165740 0.096069
0.155279 0.170436 0.098970
0.171180 0.174577 0.104516
0.190581 0.178421 0.112915
0.210676 0.184544 0.122998
0.232962 0.190566 0.134319
0.253783 0.196601 0.146749
0.275825 0.203253 0.159245
0.300406 0.210849 0.172982
0.325667 0.220278 0.188748
0.352261 0.229837 0.205726
0.379579 0.238514 0.221879
0.406130 0.248819 0.238599
0.431600 0.258640 0.255535
0.456615 0.267571 0.272077
0.479948 0.277437 0.288113
0.499334 0.286354 0.301821
0.516691 0.294219 0.313288
0.532797 0.301438 0.324857
0.548121 0.309557 0.335114
0.561119 0.316196 0.344125
0.573945 0.322788 0.352886
0.585012 0.328914 0.361323
0.595790 0.334802 0.369611
0.605741 0.340635 0.376807
0.616732 0.346930 0.383670
0.099059 0.173477 0.093923
0.103354 0.174572 0.094098
0.110468 0.175358 0.094616
0.117414 0.176843 0.097791
0.125401 0.180356 0.099768
0.134405 0.181627 0.100798
0.145733 0.185050 0.104367
0.157619 0.188117 0.106940
0.172248 0.192274 0.111079
0.189340 0.195819 0.117486
0.209533 0.202009 0.127584
0.231219 0.208076 0.139736
0.252627 0.213923 0.150997
0.275031 0.220489 0.163986
0.299788 0.228141 0.178377
0.325885 0.237183 0.194026
0.352764 0.246587 0.210671
0.380420 0.255386 0.227855
0.407926 0.265050 0.245234
0.433717 0.275255 0.261885
0.458269 0.284303 0.278024
0.482684 0.294225 0.294353
0.503432 0.303572 0.308421
0.520864 0.310980 0.320654
0.537101 0.317996 0.331845
0.552117 0.324794 0.342110
0.564696 0.331036 0.351432
0.577143 0.337380 0.360162
0.588419 0.343400 0.368671
0.600050 0.349443 0.376320
0.609280 0.354936 0.382541
0.621048 0.361960 0.391122
0.107724 0.195053 0.102997
0.111744 0.195402 0.103010
0.117990 0.196111 0.103548
0.122502 0.198698 0.105921
0.130190 0.200332 0.108051
0.139110 0.202137 0.109480
0.150021 0.205578 0.112868
0.161925 0.208426 0.116014
0.175795 0.212465 0.120356
0.190320 0.215727 0.125023
0.208370 0.221497 0.133414
0.230104 0.227584 0.145291
0.250937 0.233345 0.156691
0.273399 0.239754 0.169636
0.298327 0.247201 0.184300
0.325330 0.255767 0.200283
0.353030 0.265375 0.216952
0.381219 0.274623 0.234149
0.408988 0.284132 0.251572
0.435094 0.293947 0.268666
0.460266 0.303404 0.285286
0.485230 0.313110 0.301449
0.506714 0.321908 0.316094
0.524878 0.329316 0.328355
0.540954 0.336173 0.338967
0.555366 0.342848 0.349210
0.568728 0.349214 0.359262
0.581713 0.355653 0.368270
0.592595 0.361456 0.376651
0.603625 0.367393 0.383879
0.613549 0.373201 0.390903
0.624585 0.379156 0.399181
0.115444 0.215282 0.111316
0.119225 0.216629 0.112269
0.123058 0.216974 0.112589
0.127935 0.218692 0.114001
0.135404 0.220321 0.116094
0.143811 0.222881 0.118384
0.153789 0.225575 0.121551
0.165556 0.228810 0.124824
0.178613 0.232036 0.129345
0.192694 0.236177 0.133925
0.209142 0.241198 0.141143
0.228279 0.246479 0.151467
0.248750 0.251870 0.163046
0.271976 0.258789 0.175249
0.297237 0.266541 0.189806
0.324369 0.275259 0.206251
0.352720 0.284265 0.223702
0.380958 0.293281 0.241219
0.409208 0.303249 0.258939
0.436130 0.312721 0.275837
0.462066 0.322264 0.292148
0.487203 0.331991 0.308426
0.509240 0.340218 0.323041
0.527698 0.347013 0.334835
0.543644 0.353504 0.346203
0.558877 0.360243 0.356354
0.572817 0.366560 0.366108
0.585680 0.372353 0.374911
0.597388 0.378176 0.383354
0.608066 0.383977 0.390561
0.618509 0.388952 0.398528
0.628997 0.395478 0.406554
0.121202 0.236937 0.119603
0.124980 0.239327 0.121950
0.128726 0.239688 0.122329
0.133693 0.240202 0.124459
0.140405 0.242076 0.125493
0.148600 0.245249 0.128197
0.158190 0.246965 0.131017
0.169177 0.250754 0.134161
0.181337 0.253480 0.138099
0.194741 0.258341 0.143074
0.210222 0.262309 0.149082
0.227618 0.267045 0.158254
0.246340 0.272842 0.169144
0.269434 0.279599 0.181918
0.294896 0.287172 0.196025
0.322313 0.295715 0.211773
0.351314 0.304623 0.229179
0.380159 0.313581 0.246799
0.408878 0.323491 0.264540
0.436818 0.333561 0.282114
0.463319 0.342834 0.299268
0.488664 0.352173 0.315946
0.510912 0.360309 0.330039
0.530087 0.366715 0.342714
0.547011 0.373311 0.354120
0.561972 0.380035 0.364492
0.576428 0.385777 0.373829
0.589250 0.391127 0.382365
0.601822 0.396566 0.390732
0.613075 0.402428 0.399055
0.623695 0.406898 0.406466
0.634141 0.413785 0.414227
0.121391 0.260916 0.129466
0.125140 0.262992 0.131778
0.127937 0.263374 0.131992
0.131972 0.263748 0.133366
0.138642 0.265543 0.135000
0.146815 0.268772 0.137430
0.156172 0.270930 0.140228
0.166792 0.274266 0.143244
0.178257 0.277215 0.146991
0.191124 0.281312 0.151707
0.206094 0.285108 0.157047
0.223152 0.290260 0.164993
0.241711 0.296205 0.175304
0.264839 0.302360 0.188018
0.291188 0.309523 0.201851
0.319489 0.318029 0.217664
0.349141 0.327458 0.235549
0.378765 0.336810 0.253304
0.408096 0.346732 0.271095
0.436662 0.356670 0.288754
0.463382 0.365537 0.305912
0.489090 0.374158 0.322675
0.512204 0.381845 0.337417
0.532388 0.388921 0.351041
0.550112 0.395180 0.362618
0.565602 0.401526 0.372727
0.580318 0.406717 0.382547
0.593763 0.411916 0.391503
0.605882 0.416820 0.399761
0.618153 0.422861 0.408170
0.628847 0.428445 0.415207
0.639545 0.432581 0.422797
0.115199 0.286384 0.139635
0.118921 0.287762 0.141041
0.120926 0.288068 0.141880
0.124947 0.289306 0.142608
0.131297 0.291705 0.144399
0.138028 0.293517 0.146365
0.146501 0.296567 0.149389
0.156106 0.299058 0.152163
0.166254 0.302390 0.155975
0.178781 0.305401 0.160344
0.194336 0.310158 0.165564
0.212052 0.315499 0.172511
0.232107 0.321248 0.182090
0.257611 0.327734 0.195186
0.285488 0.334972 0.209117
0.315117 0.343392 0.225121
0.345419 0.352853 0.242717
0.375976 0.362608 0.260668
0.406154 0.372464 0.278566
0.435220 0.381968 0.296163
0.462626 0.390849 0.313319
0.489237 0.399955 0.330248
0.513219 0.406954 0.346005
0.534480 0.413711 0.359540
0.552591 0.419901 0.371538
0.569257 0.425065 0.381862
0.584322 0.430587 0.392017
0.597897 0.435189 0.400960
0.610581 0.440699 0.409861
0.623522 0.446057 0.417580
0.634373 0.450789 0.424779
0.645090 0.454543 0.432313
0.118855 0.314491 0.152869
0.120531 0.314731 0.151246
0.121626 0.314963 0.152036
0.124650 0.316811 0.153716
0.129390 0.318316 0.154564
0.135889 0.320197 0.157078
0.143411 0.322986 0.160102
0.151467 0.325246 0.162877
0.160152 0.328480 0.166461
0.170312 0.331564 0.170029
0.184111 0.336175 0.174688
0.199847 0.340743 0.180671
0.219837 0.346623 0.189275
0.247272 0.353836 0.202370
0.277223 0.361497 0.216586
0.308230 0.369986 0.232813
0.339833 0.379513 0.250345
0.371682 0.389397 0.268425
0.402665 0.399310 0.286381
0.432638 0.409046 0.304132
0.461622 0.418073 0.321711
0.489456 0.427009 0.338477
0.513903 0.434105 0.354340
0.536171 0.440841 0.368826
0.555681 0.446706 0.381117
0.573168 0.451684 0.391949
0.588884 0.457181 0.402226
0.602780 0.461564 0.411169
0.615952 0.466586 0.419842
0.629296 0.470834 0.427184
0.640171 0.474639 0.434724
0.651014 0.480003 0.442774
0.116420 0.341620 0.165418
0.116310 0.341620 0.163871
0.116358 0.341662 0.163723
0.117309 0.342293 0.163147
0.120308 0.342908 0.163661
0.125760 0.345126 0.166049
0.132245 0.346918 0.168105
0.138990 0.349973 0.171557
0.146791 0.352595 0.174309
0.155889 0.355802 0.178048
0.167828 0.359651 0.182319
0.182276 0.364213 0.187892
0.202766 0.370307 0.195794
0.233597 0.377764 0.208323
0.266097 0.385763 0.222897
0.298762 0.394913 0.239385
0.332110 0.405090 0.257628
0.365630 0.415355 0.275993
0.397653 0.425465 0.294059
0.429132 0.435351 0.311879
0.459514 0.444570 0.329545
0.488457 0.453318 0.346758
0.513808 0.461178 0.362612
0.537328 0.467937 0.377975
0.558108 0.473808 0.390638
0.576701 0.479451 0.401913
0.593040 0.484267 0.412419
0.608273 0.488646 0.421928
0.621752 0.492917 0.429934
0.635330 0.496219 0.437498
0.646236 0.499965 0.444929
0.658655 0.505345 0.453110
0.106164 0.366482 0.177518
0.106164 0.366486 0.177518
0.106157 0.366681 0.177331
0.106131 0.367523 0.174613
0.106977 0.367722 0.174617
0.108672 0.368501 0.175399
0.111772 0.369389 0.175318
0.118093 0.372313 0.178059
0.124039 0.375257 0.181279
0.132590 0.378130 0.184849
0.142812 0.381642 0.189033
0.155371 0.386303 0.194547
0.178100 0.392492 0.202199
0.215737 0.400549 0.214048
0.252437 0.409036 0.228532
0.287268 0.418378 0.244510
0.321957 0.428547 0.262379
0.356859 0.439071 0.280964
0.390986 0.450029 0.299462
0.424065 0.460087 0.317468
0.455805 0.469880 0.335844
0.486560 0.479105 0.354105
0.513612 0.487134 0.370358
0.537989 0.493879 0.385863
0.559790 0.499920 0.399697
0.579172 0.505353 0.411544
0.596301 0.509827 0.421936
0.612649 0.514414 0.431604
0.627398 0.518524 0.440152
0.640301 0.520921 0.447431
0.652905 0.524742 0.454870
0.667620 0.527969 0.461743
0.098807 0.393525 0.192130
0.098807 0.393528 0.192130
0.098797 0.393662 0.191928
0.098657 0.394281 0.188986
0.098657 0.394262 0.188669
0.098642 0.394324 0.186998
0.099046 0.395522 0.186129
0.101671 0.396662 0.185521
0.104887 0.398650 0.188540
0.109801 0.401938 0.191358
0.116224 0.405230 0.195464
0.124931 0.409136 0.200609
0.149243 0.414810 0.207867
0.194346 0.423585 0.219144
0.235780 0.432809 0.233536
0.272647 0.442110 0.249711
0.309125 0.451912 0.266410
0.345853 0.462657 0.284766
0.382064 0.474576 0.304267
0.416979 0.485010 0.322738
0.450788 0.495441 0.341995
0.484087 0.505421 0.361199
0.512777 0.513734 0.378057
0.538159 0.520173 0.393578
0.561289 0.526193 0.408343
0.581837 0.530811 0.420274
0.600516 0.535710 0.430987
0.617212 0.539937 0.441248
0.633256 0.542759 0.448890
0.647821 0.544554 0.455969
0.663023 0.548008 0.462631
0.678790 0.549584 0.468455
0.089196 0.424089 0.207728
0.089196 0.424089 0.207728
0.089180 0.424089 0.207517
0.088952 0.424089 0.204451
0.088932 0.424078 0.204093
0.088794 0.424114 0.202385
0.088747 0.424713 0.200493
0.088707 0.425015 0.198171
0.089467 0.426272 0.198555
0.090629 0.428529 0.200126
0.092592 0.431963 0.204026
0.095731 0.435352 0.208183
0.117584 0.440506 0.213685
0.167804 0.449401 0.224225
0.213938 0.458694 0.238489
0.253405 0.467925 0.254963
0.292501 0.477792 0.271304
0.331677 0.488669 0.289095
0.369841 0.500702 0.308909
0.407151 0.512538 0.328326
0.444172 0.523513 0.347907
0.480076 0.533882 0.368510
0.510980 0.542462 0.386320
0.538232 0.549308 0.402053
0.563306 0.555221 0.416826
0.584574 0.559361 0.429817
0.606597 0.563634 0.440258
0.625845 0.566553 0.448963
0.643937 0.568285 0.456247
0.660018 0.569658 0.463163
0.675983 0.571748 0.469114
0.691236 0.571232 0.474599
0.087124 0.456261 0.224270
0.087124 0.456261 0.224270
0.087109 0.456261 0.224076
0.086880 0.456261 0.221238
0.086849 0.456261 0.220806
0.086636 0.456234 0.219091
0.086589 0.456095 0.217110
0.086354 0.456202 0.214521
0.086184 0.456629 0.212014
0.086155 0.457749 0.211096
0.086516 0.461107 0.214204
0.087048 0.464440 0.217725
0.103467 0.469226 0.222752
0.147814 0.476997 0.231651
0.190448 0.485436 0.243733
0.227653 0.494265 0.258725
0.268843 0.504649 0.275366
0.311881 0.515542 0.293139
0.353031 0.527376 0.312228
0.393878 0.539816 0.331640
0.433784 0.551505 0.351867
0.472843 0.563565 0.374328
0.507256 0.573277 0.394547
0.537283 0.580862 0.410961
0.565447 0.586000 0.424833
0.591830 0.590325 0.437523
0.615668 0.593370 0.447030
0.637271 0.595358 0.455151
0.656623 0.597061 0.463365
0.673577 0.597123 0.469532
0.689351 0.597734 0.475660
0.704912 0.596211 0.480980
0.089125 0.485313 0.238560
0.089125 0.485313 0.237867
0.089121 0.485313 0.237812
0.089038 0.485313 0.236825
0.088872 0.485313 0.234921
0.088782 0.485301 0.233749
0.088623 0.485242 0.231589
0.088511 0.485242 0.229982
0.088259 0.485197 0.226552
0.088048 0.485336 0.223696
0.088077 0.487014 0.222898
0.088438 0.490316 0.225006
0.097200 0.494532 0.230071
0.125399 0.500836 0.237171
0.159011 0.508017 0.246798
0.191986 0.515776 0.259722
0.236836 0.526273 0.276485
0.287171 0.537809 0.294893
0.332654 0.549618 0.313728
0.376327 0.562589 0.333293
0.419220 0.575828 0.353708
0.462180 0.589395 0.376839
0.500696 0.600486 0.399232
0.535834 0.608266 0.416852
0.569457 0.613700 0.430249
0.599328 0.617205 0.442156
0.625423 0.619631 0.452775
0.648054 0.621927 0.461563
0.667737 0.623289 0.468873
0.686381 0.624178 0.475703
0.702362 0.625138 0.481700
0.719280 0.621624 0.488574
0.091071 0.510252 0.253661
0.091071 0.510252 0.251597
0.091071 0.510252 0.251562
0.091047 0.510252 0.250829
0.090827 0.510252 0.248620
0.090787 0.510252 0.247475
0.090547 0.510252 0.244964
0.090387 0.510662 0.242688
0.090275 0.512001 0.239923
0.090023 0.511820 0.236646
0.089812 0.512084 0.233399
0.089776 0.513573 0.231715
0.091559 0.516975 0.234411
0.098323 0.521527 0.240087
0.109110 0.526171 0.246555
0.131298 0.532212 0.256652
0.185283 0.542673 0.273883
0.252006 0.555714 0.293318
0.306439 0.568680 0.312550
0.354662 0.581222 0.332079
0.401687 0.594781 0.352372
0.447931 0.608838 0.375588
0.490271 0.621305 0.398865
0.532033 0.630869 0.417980
0.571377 0.637850 0.433350
0.603887 0.641369 0.445749
0.632850 0.644024 0.456818
0.656498 0.645932 0.465911
0.678125 0.647527 0.473722
0.697838 0.649045 0.480389
0.715700 0.650321 0.487286
0.733286 0.646146 0.493379
0.092898 0.534200 0.266517
0.092898 0.534200 0.265398
0.092886 0.534188 0.265266
0.092704 0.534011 0.263239
0.092630 0.534011 0.262055
0.092456 0.534011 0.260305
0.092399 0.534377 0.258602
0.092312 0.536026 0.256074
0.092103 0.536439 0.252968
0.091851 0.536398 0.249691
0.091599 0.536398 0.246282
0.091366 0.536727 0.242646
0.091360 0.538495 0.241390
0.091808 0.541880 0.244043
0.092942 0.545601 0.248144
0.097672 0.550048 0.255650
0.135557 0.558363 0.269823
0.206061 0.570847 0.288845
0.270252 0.584841 0.309013
0.324797 0.598361 0.329106
0.377188 0.611994 0.349026
0.428916 0.627582 0.373405
0.476582 0.639589 0.396682
0.524156 0.649388 0.416130
0.568525 0.658532 0.433615
0.605465 0.664182 0.448296
0.637412 0.667638 0.459727
0.663946 0.669737 0.469029
0.688614 0.671690 0.477385
0.708555 0.673067 0.484932
0.727389 0.672502 0.492618
0.746961 0.668140 0.498042
0.094663 0.557753 0.277774
0.094663 0.557753 0.277632
0.094647 0.557750 0.277449
0.094419 0.557706 0.274763
0.094387 0.557706 0.274129
0.094175 0.557706 0.271811
0.094137 0.557759 0.270705
0.093923 0.557982 0.267714
0.093721 0.558541 0.265098
0.093615 0.560148 0.262405
0.093363 0.560148 0.258795
0.093111 0.560112 0.254735
0.092896 0.560399 0.251214
0.092906 0.562743 0.249695
0.093180 0.566757 0.252489
0.093599 0.570401 0.257296
0.106373 0.575345 0.266464
0.156321 0.585335 0.283321
0.222129 0.598853 0.302618
0.284379 0.611950 0.322507
0.345505 0.626286 0.343597
0.403252 0.641990 0.367063
0.457259 0.655055 0.391293
0.510259 0.665868 0.412785
0.559203 0.675815 0.431444
0.603844 0.684473 0.448404
0.638858 0.688865 0.460829
0.670289 0.692826 0.471647
0.695883 0.693318 0.479907
0.718562 0.694827 0.488284
0.738261 0.695274 0.495755
0.758013 0.689314 0.502493
0.096223 0.580787 0.288865
0.096223 0.580787 0.288456
0.096220 0.580787 0.288425
0.096164 0.580787 0.287741
0.095973 0.580787 0.285430
0.095906 0.580787 0.284610
0.095687 0.580779 0.281816
0.095481 0.580794 0.279107
0.095398 0.581064 0.276174
0.095175 0.581386 0.273166
0.094989 0.582112 0.270155
0.094803 0.583625 0.267148
0.094419 0.583550 0.263092
0.094200 0.583942 0.259287
0.094122 0.585858 0.257101
0.094379 0.589744 0.259113
0.096209 0.594029 0.265509
0.114112 0.599539 0.276754
0.160214 0.609503 0.293460
0.226648 0.623029 0.313388
0.300382 0.639294 0.335893
0.369437 0.656059 0.359437
0.430709 0.670136 0.384645
0.490043 0.681701 0.407595
0.545008 0.692144 0.427759
0.594829 0.701973 0.445940
0.637885 0.710268 0.460584
0.672343 0.714271 0.473545
0.700872 0.716273 0.482350
0.726610 0.717660 0.492423
0.748224 0.716867 0.500115
0.768144 0.709874 0.507188
0.097948 0.601812 0.301446
0.097941 0.601812 0.301369
0.097735 0.601812 0.300806
0.097732 0.602018 0.298643
0.097704 0.603966 0.298603
0.097664 0.604151 0.296616
0.097453 0.604151 0.295361
0.097380 0.604159 0.292338
0.097152 0.604128 0.289094
0.096900 0.603970 0.285902
0.096590 0.604151 0.282347
0.096279 0.604530 0.278123
0.096144 0.605505 0.275070
0.095892 0.606988 0.271674
0.095654 0.607153 0.267198
0.095568 0.609015 0.264273
0.095759 0.612971 0.265932
0.097964 0.617172 0.273890
