gsg/03_Cinematic/GSG_LUT_Cinematic_Falconry.cube
# GSG LUTs 1.0
# Copyright (c) 2016-2020 Greyscalegorilla
# See EULA for licensing and distribution information
# Converted by Briz LUT Converter
LUT_3D_SIZE 32
0.035653 0.026618 0.014652
0.106534 0.026618 0.014652
0.153090 0.026618 0.014652
0.187349 0.026618 0.014652
0.215905 0.026618 0.014652
0.243294 0.026618 0.014652
0.266147 0.026618 0.014652
0.291701 0.026618 0.014652
0.317011 0.026618 0.014652
0.343243 0.026618 0.014652
0.370806 0.026618 0.014652
0.399047 0.026618 0.014652
0.428666 0.026618 0.014652
0.457245 0.026618 0.014652
0.485691 0.026618 0.014652
0.514160 0.026618 0.014652
0.547182 0.026618 0.014652
0.586388 0.026618 0.014652
0.627130 0.026618 0.014652
0.671047 0.026618 0.014652
0.714719 0.026618 0.014652
0.755461 0.026618 0.014652
0.791870 0.026618 0.014652
0.824136 0.026618 0.014652
0.847178 0.026618 0.014652
0.863405 0.026618 0.014652
0.880050 0.026618 0.014652
0.896341 0.026618 0.014652
0.912427 0.026618 0.014652
0.928528 0.026618 0.014652
0.947678 0.026618 0.014652
0.984860 0.026618 0.014652
0.035653 0.067163 0.014652
0.106534 0.067163 0.014652
0.153090 0.067163 0.014652
0.187349 0.067163 0.014652
0.215905 0.067163 0.014652
0.243294 0.067163 0.014652
0.266147 0.067163 0.014652
0.291701 0.067163 0.014652
0.317011 0.067163 0.014652
0.343243 0.067163 0.014652
0.370806 0.067163 0.014652
0.399047 0.067163 0.014652
0.428666 0.067163 0.014652
0.457245 0.067163 0.014652
0.485691 0.067163 0.014652
0.514160 0.067163 0.014652
0.547182 0.067163 0.014652
0.586388 0.067163 0.014652
0.627130 0.067163 0.014652
0.671047 0.067163 0.014652
0.714719 0.067163 0.014652
0.755461 0.067163 0.014652
0.791870 0.067163 0.014652
0.824136 0.067163 0.014652
0.847178 0.067163 0.014652
0.863405 0.067163 0.014652
0.880050 0.067163 0.014652
0.896341 0.067163 0.014652
0.912427 0.067163 0.014652
0.928528 0.067163 0.014652
0.947678 0.067163 0.014652
0.984860 0.067163 0.014652
0.035653 0.098484 0.014652
0.106534 0.098484 0.014652
0.153090 0.098484 0.014652
0.187349 0.098484 0.014652
0.215905 0.098484 0.014652
0.243294 0.098484 0.014652
0.266147 0.098484 0.014652
0.291701 0.098484 0.014652
0.317011 0.098484 0.014652
0.343243 0.098484 0.014652
0.370806 0.098484 0.014652
0.399047 0.098484 0.014652
0.428666 0.098484 0.014652
0.457245 0.098484 0.014652
0.485691 0.098484 0.014652
0.514160 0.098484 0.014652
0.547182 0.098484 0.014652
0.586388 0.098484 0.014652
0.627130 0.098484 0.014652
0.671047 0.098484 0.014652
0.714719 0.098484 0.014652
0.755461 0.098484 0.014652
0.791870 0.098484 0.014652
0.824136 0.098484 0.014652
0.847178 0.098484 0.014652
0.863405 0.098484 0.014652
0.880050 0.098484 0.014652
0.896341 0.098484 0.014652
0.912427 0.098484 0.014652
0.928528 0.098484 0.014652
0.947678 0.098484 0.014652
0.984860 0.098484 0.014652
0.035653 0.123510 0.014652
0.106534 0.123510 0.014652
0.153090 0.123510 0.014652
0.187349 0.123510 0.014652
0.215905 0.123510 0.014652
0.243294 0.123510 0.014652
0.266147 0.123510 0.014652
0.291701 0.123510 0.014652
0.317011 0.123510 0.014652
0.343243 0.123510 0.014652
0.370806 0.123510 0.014652
0.399047 0.123510 0.014652
0.428666 0.123510 0.014652
0.457245 0.123510 0.014652
0.485691 0.123510 0.014652
0.514160 0.123510 0.014652
0.547182 0.123510 0.014652
0.586388 0.123510 0.014652
0.627130 0.123510 0.014652
0.671047 0.123510 0.014652
0.714719 0.123510 0.014652
0.755461 0.123510 0.014652
0.791870 0.123510 0.014652
0.824136 0.123510 0.014652
0.847178 0.123510 0.014652
0.863405 0.123510 0.014652
0.880050 0.123510 0.014652
0.896341 0.123510 0.014652
0.912427 0.123510 0.014652
0.928528 0.123510 0.014652
0.947678 0.123510 0.014652
0.984860 0.123510 0.014652
0.035653 0.145795 0.014652
0.106534 0.145795 0.014652
0.153090 0.145795 0.014652
0.187349 0.145795 0.014652
0.215905 0.145795 0.014652
0.243294 0.145795 0.014652
0.266147 0.145795 0.014652
0.291701 0.145795 0.014652
0.317011 0.145795 0.014652
0.343243 0.145795 0.014652
0.370806 0.145795 0.014652
0.399047 0.145795 0.014652
0.428666 0.145795 0.014652
0.457245 0.145795 0.014652
0.485691 0.145795 0.014652
0.514160 0.145795 0.014652
0.547182 0.145795 0.014652
0.586388 0.145795 0.014652
0.627130 0.145795 0.014652
0.671047 0.145795 0.014652
0.714719 0.145795 0.014652
0.755461 0.145795 0.014652
0.791870 0.145795 0.014652
0.824136 0.145795 0.014652
0.847178 0.145795 0.014652
0.863405 0.145795 0.014652
0.880050 0.145795 0.014652
0.896341 0.145795 0.014652
0.912427 0.145795 0.014652
0.928528 0.145795 0.014652
0.947678 0.145795 0.014652
0.984860 0.145795 0.014652
0.035653 0.168081 0.014652
0.106534 0.168081 0.014652
0.153090 0.168081 0.014652
0.187349 0.168081 0.014652
0.215905 0.168081 0.014652
0.243294 0.168081 0.014652
0.266147 0.168081 0.014652
0.291701 0.168081 0.014652
0.317011 0.168081 0.014652
0.343243 0.168081 0.014652
0.370806 0.168081 0.014652
0.399047 0.168081 0.014652
0.428666 0.168081 0.014652
0.457245 0.168081 0.014652
0.485691 0.168081 0.014652
0.514160 0.168081 0.014652
0.547182 0.168081 0.014652
0.586388 0.168081 0.014652
0.627130 0.168081 0.014652
0.671047 0.168081 0.014652
0.714719 0.168081 0.014652
0.755461 0.168081 0.014652
0.791870 0.168081 0.014652
0.824136 0.168081 0.014652
0.847178 0.168081 0.014652
0.863405 0.168081 0.014652
0.880050 0.168081 0.014652
0.896341 0.168081 0.014652
0.912427 0.168081 0.014652
0.928528 0.168081 0.014652
0.947678 0.168081 0.014652
0.984860 0.168081 0.014652
0.035653 0.188003 0.014652
0.106534 0.188003 0.014652
0.153090 0.188003 0.014652
0.187349 0.188003 0.014652
0.215905 0.188003 0.014652
0.243294 0.188003 0.014652
0.266147 0.188003 0.014652
0.291701 0.188003 0.014652
0.317011 0.188003 0.014652
0.343243 0.188003 0.014652
0.370806 0.188003 0.014652
0.399047 0.188003 0.014652
0.428666 0.188003 0.014652
0.457245 0.188003 0.014652
0.485691 0.188003 0.014652
0.514160 0.188003 0.014652
0.547182 0.188003 0.014652
0.586388 0.188003 0.014652
0.627130 0.188003 0.014652
0.671047 0.188003 0.014652
0.714719 0.188003 0.014652
0.755461 0.188003 0.014652
0.791870 0.188003 0.014652
0.824136 0.188003 0.014652
0.847178 0.188003 0.014652
0.863405 0.188003 0.014652
0.880050 0.188003 0.014652
0.896341 0.188003 0.014652
0.912427 0.188003 0.014652
0.928528 0.188003 0.014652
0.947678 0.188003 0.014652
0.984860 0.188003 0.014652
0.035653 0.209477 0.014652
0.106534 0.209477 0.014652
0.153090 0.209477 0.014652
0.187349 0.209477 0.014652
0.215905 0.209477 0.014652
0.243294 0.209477 0.014652
0.266147 0.209477 0.014652
0.291701 0.209477 0.014652
0.317011 0.209477 0.014652
0.343243 0.209477 0.014652
0.370806 0.209477 0.014652
0.399047 0.209477 0.014652
0.428666 0.209477 0.014652
0.457245 0.209477 0.014652
0.485691 0.209477 0.014652
0.514160 0.209477 0.014652
0.547182 0.209477 0.014652
0.586388 0.209477 0.014652
0.627130 0.209477 0.014652
0.671047 0.209477 0.014652
0.714719 0.209477 0.014652
0.755461 0.209477 0.014652
0.791870 0.209477 0.014652
0.824136 0.209477 0.014652
0.847178 0.209477 0.014652
0.863405 0.209477 0.014652
0.880050 0.209477 0.014652
0.896341 0.209477 0.014652
0.912427 0.209477 0.014652
0.928528 0.209477 0.014652
0.947678 0.209477 0.014652
0.984860 0.209477 0.014652
0.035653 0.228831 0.014652
0.106534 0.228831 0.014652
0.153090 0.228831 0.014652
0.187349 0.228831 0.014652
0.215905 0.228831 0.014652
0.243294 0.228831 0.014652
0.266147 0.228831 0.014652
0.291701 0.228831 0.014652
0.317011 0.228831 0.014652
0.343243 0.228831 0.014652
0.370806 0.228831 0.014652
0.399047 0.228831 0.014652
0.428666 0.228831 0.014652
0.457245 0.228831 0.014652
0.485691 0.228831 0.014652
0.514160 0.228831 0.014652
0.547182 0.228831 0.014652
0.586388 0.228831 0.014652
0.627130 0.228831 0.014652
0.671047 0.228831 0.014652
0.714719 0.228831 0.014652
0.755461 0.228831 0.014652
0.791870 0.228831 0.014652
0.824136 0.228831 0.014652
0.847178 0.228831 0.014652
0.863405 0.228831 0.014652
0.880050 0.228831 0.014652
0.896341 0.228831 0.014652
0.912427 0.228831 0.014652
0.928528 0.228831 0.014652
0.947678 0.228831 0.014652
0.984860 0.228831 0.014652
0.035653 0.245012 0.014652
0.106534 0.245012 0.014652
0.153090 0.245012 0.014652
0.187349 0.245012 0.014652
0.215905 0.245012 0.014652
0.243294 0.245012 0.014652
0.266147 0.245012 0.014652
0.291701 0.245012 0.014652
0.317011 0.245012 0.014652
0.343243 0.245012 0.014652
0.370806 0.245012 0.014652
0.399047 0.245012 0.014652
0.428666 0.245012 0.014652
0.457245 0.245012 0.014652
0.485691 0.245012 0.014652
0.514160 0.245012 0.014652
0.547182 0.245012 0.014652
0.586388 0.245012 0.014652
0.627130 0.245012 0.014652
0.671047 0.245012 0.014652
0.714719 0.245012 0.014652
0.755461 0.245012 0.014652
0.791870 0.245012 0.014652
0.824136 0.245012 0.014652
0.847178 0.245012 0.014652
0.863405 0.245012 0.014652
0.880050 0.245012 0.014652
0.896341 0.245012 0.014652
0.912427 0.245012 0.014652
0.928528 0.245012 0.014652
0.947678 0.245012 0.014652
0.984860 0.245012 0.014652
0.035653 0.264288 0.014652
0.106534 0.264288 0.014652
0.153090 0.264288 0.014652
0.187349 0.264288 0.014652
0.215905 0.264288 0.014652
0.243294 0.264288 0.014652
0.266147 0.264288 0.014652
0.291701 0.264288 0.014652
0.317011 0.264288 0.014652
0.343243 0.264288 0.014652
0.370806 0.264288 0.014652
0.399047 0.264288 0.014652
0.428666 0.264288 0.014652
0.457245 0.264288 0.014652
0.485691 0.264288 0.014652
0.514160 0.264288 0.014652
0.547182 0.264288 0.014652
0.586388 0.264288 0.014652
0.627130 0.264288 0.014652
0.671047 0.264288 0.014652
0.714719 0.264288 0.014652
0.755461 0.264288 0.014652
0.791870 0.264288 0.014652
0.824136 0.264288 0.014652
0.847178 0.264288 0.014652
0.863405 0.264288 0.014652
0.880050 0.264288 0.014652
0.896341 0.264288 0.014652
0.912427 0.264288 0.014652
0.928528 0.264288 0.014652
0.947678 0.264288 0.014652
0.984860 0.264288 0.014652
0.035653 0.283477 0.014652
0.106534 0.283477 0.014652
0.153090 0.283477 0.014652
0.187349 0.283477 0.014652
0.215905 0.283477 0.014652
0.243294 0.283477 0.014652
0.266147 0.283477 0.014652
0.291701 0.283477 0.014652
0.317011 0.283477 0.014652
0.343243 0.283477 0.014652
0.370806 0.283477 0.014652
0.399047 0.283477 0.014652
0.428666 0.283477 0.014652
0.457245 0.283477 0.014652
0.485691 0.283477 0.014652
0.514160 0.283477 0.014652
0.547182 0.283477 0.014652
0.586388 0.283477 0.014652
0.627130 0.283477 0.014652
0.671047 0.283477 0.014652
0.714719 0.283477 0.014652
0.755461 0.283477 0.014652
0.791870 0.283477 0.014652
0.824136 0.283477 0.014652
0.847178 0.283477 0.014652
0.863405 0.283477 0.014652
0.880050 0.283477 0.014652
0.896341 0.283477 0.014652
0.912427 0.283477 0.014652
0.928528 0.283477 0.014652
0.947678 0.283477 0.014652
0.984860 0.283477 0.014652
0.035653 0.302832 0.014652
0.106534 0.302832 0.014652
0.153090 0.302832 0.014652
0.187349 0.302832 0.014652
0.215905 0.302832 0.014652
0.243294 0.302832 0.014652
0.266147 0.302832 0.014652
0.291701 0.302832 0.014652
0.317011 0.302832 0.014652
0.343243 0.302832 0.014652
0.370806 0.302832 0.014652
0.399047 0.302832 0.014652
0.428666 0.302832 0.014652
0.457245 0.302832 0.014652
0.485691 0.302832 0.014652
0.514160 0.302832 0.014652
0.547182 0.302832 0.014652
0.586388 0.302832 0.014652
0.627130 0.302832 0.014652
0.671047 0.302832 0.014652
0.714719 0.302832 0.014652
0.755461 0.302832 0.014652
0.791870 0.302832 0.014652
0.824136 0.302832 0.014652
0.847178 0.302832 0.014652
0.863405 0.302832 0.014652
0.880050 0.302832 0.014652
0.896341 0.302832 0.014652
0.912427 0.302832 0.014652
0.928528 0.302832 0.014652
0.947678 0.302832 0.014652
0.984860 0.302832 0.014652
0.035653 0.321943 0.014652
0.106534 0.321943 0.014652
0.153090 0.321943 0.014652
0.187349 0.321943 0.014652
0.215905 0.321943 0.014652
0.243294 0.321943 0.014652
0.266147 0.321943 0.014652
0.291701 0.321943 0.014652
0.317011 0.321943 0.014652
0.343243 0.321943 0.014652
0.370806 0.321943 0.014652
0.399047 0.321943 0.014652
0.428666 0.321943 0.014652
0.457245 0.321943 0.014652
0.485691 0.321943 0.014652
0.514160 0.321943 0.014652
0.547182 0.321943 0.014652
0.586388 0.321943 0.014652
0.627130 0.321943 0.014652
0.671047 0.321943 0.014652
0.714719 0.321943 0.014652
0.755461 0.321943 0.014652
0.791870 0.321943 0.014652
0.824136 0.321943 0.014652
0.847178 0.321943 0.014652
0.863405 0.321943 0.014652
0.880050 0.321943 0.014652
0.896341 0.321943 0.014652
0.912427 0.321943 0.014652
0.928528 0.321943 0.014652
0.947678 0.321943 0.014652
0.984860 0.321943 0.014652
0.035653 0.344228 0.014652
0.106534 0.344228 0.014652
0.153090 0.344228 0.014652
0.187349 0.344228 0.014652
0.215905 0.344228 0.014652
0.243294 0.344228 0.014652
0.266147 0.344228 0.014652
0.291701 0.344228 0.014652
0.317011 0.344228 0.014652
0.343243 0.344228 0.014652
0.370806 0.344228 0.014652
0.399047 0.344228 0.014652
0.428666 0.344228 0.014652
0.457245 0.344228 0.014652
0.485691 0.344228 0.014652
0.514160 0.344228 0.014652
0.547182 0.344228 0.014652
0.586388 0.344228 0.014652
0.627130 0.344228 0.014652
0.671047 0.344228 0.014652
0.714719 0.344228 0.014652
0.755461 0.344228 0.014652
0.791870 0.344228 0.014652
0.824136 0.344228 0.014652
0.847178 0.344228 0.014652
0.863405 0.344228 0.014652
0.880050 0.344228 0.014652
0.896341 0.344228 0.014652
0.912427 0.344228 0.014652
0.928528 0.344228 0.014652
0.947678 0.344228 0.014652
0.984860 0.344228 0.014652
0.035653 0.366513 0.014652
0.106534 0.366513 0.014652
0.153090 0.366513 0.014652
0.187349 0.366513 0.014652
0.215905 0.366513 0.014652
0.243294 0.366513 0.014652
0.266147 0.366513 0.014652
0.291701 0.366513 0.014652
0.317011 0.366513 0.014652
0.343243 0.366513 0.014652
0.370806 0.366513 0.014652
0.399047 0.366513 0.014652
0.428666 0.366513 0.014652
0.457245 0.366513 0.014652
0.485691 0.366513 0.014652
0.514160 0.366513 0.014652
0.547182 0.366513 0.014652
0.586388 0.366513 0.014652
0.627130 0.366513 0.014652
0.671047 0.366513 0.014652
0.714719 0.366513 0.014652
0.755461 0.366513 0.014652
0.791870 0.366513 0.014652
0.824136 0.366513 0.014652
0.847178 0.366513 0.014652
0.863405 0.366513 0.014652
0.880050 0.366513 0.014652
0.896341 0.366513 0.014652
0.912427 0.366513 0.014652
0.928528 0.366513 0.014652
0.947678 0.366513 0.014652
0.984860 0.366513 0.014652
0.035653 0.388798 0.014652
0.106534 0.388798 0.014652
0.153090 0.388798 0.014652
0.187349 0.388798 0.014652
0.215905 0.388798 0.014652
0.243294 0.388798 0.014652
0.266147 0.388798 0.014652
0.291701 0.388798 0.014652
0.317011 0.388798 0.014652
0.343243 0.388798 0.014652
0.370806 0.388798 0.014652
0.399047 0.388798 0.014652
0.428666 0.388798 0.014652
0.457245 0.388798 0.014652
0.485691 0.388798 0.014652
0.514160 0.388798 0.014652
0.547182 0.388798 0.014652
0.586388 0.388798 0.014652
0.627130 0.388798 0.014652
0.671047 0.388798 0.014652
0.714719 0.388798 0.014652
0.755461 0.388798 0.014652
0.791870 0.388798 0.014652
0.824136 0.388798 0.014652
0.847178 0.388798 0.014652
0.863405 0.388798 0.014652
0.880050 0.388798 0.014652
0.896341 0.388798 0.014652
0.912427 0.388798 0.014652
0.928528 0.388798 0.014652
0.947678 0.388798 0.014652
0.984860 0.388798 0.014652
0.035653 0.412691 0.014652
0.106534 0.412691 0.014652
0.153090 0.412691 0.014652
0.187349 0.412691 0.014652
0.215905 0.412691 0.014652
0.243294 0.412691 0.014652
0.266147 0.412691 0.014652
0.291701 0.412691 0.014652
0.317011 0.412691 0.014652
0.343243 0.412691 0.014652
0.370806 0.412691 0.014652
0.399047 0.412691 0.014652
0.428666 0.412691 0.014652
0.457245 0.412691 0.014652
0.485691 0.412691 0.014652
0.514160 0.412691 0.014652
0.547182 0.412691 0.014652
0.586388 0.412691 0.014652
0.627130 0.412691 0.014652
0.671047 0.412691 0.014652
0.714719 0.412691 0.014652
0.755461 0.412691 0.014652
0.791870 0.412691 0.014652
0.824136 0.412691 0.014652
0.847178 0.412691 0.014652
0.863405 0.412691 0.014652
0.880050 0.412691 0.014652
0.896341 0.412691 0.014652
0.912427 0.412691 0.014652
0.928528 0.412691 0.014652
0.947678 0.412691 0.014652
0.984860 0.412691 0.014652
0.035653 0.439844 0.014652
0.106534 0.439844 0.014652
0.153090 0.439844 0.014652
0.187349 0.439844 0.014652
0.215905 0.439844 0.014652
0.243294 0.439844 0.014652
0.266147 0.439844 0.014652
0.291701 0.439844 0.014652
0.317011 0.439844 0.014652
0.343243 0.439844 0.014652
0.370806 0.439844 0.014652
0.399047 0.439844 0.014652
0.428666 0.439844 0.014652
0.457245 0.439844 0.014652
0.485691 0.439844 0.014652
0.514160 0.439844 0.014652
0.547182 0.439844 0.014652
0.586388 0.439844 0.014652
0.627130 0.439844 0.014652
0.671047 0.439844 0.014652
0.714719 0.439844 0.014652
0.755461 0.439844 0.014652
0.791870 0.439844 0.014652
0.824136 0.439844 0.014652
0.847178 0.439844 0.014652
0.863405 0.439844 0.014652
0.880050 0.439844 0.014652
0.896341 0.439844 0.014652
0.912427 0.439844 0.014652
0.928528 0.439844 0.014652
0.947678 0.439844 0.014652
0.984860 0.439844 0.014652
0.035653 0.468282 0.014652
0.106534 0.468282 0.014652
0.153090 0.468282 0.014652
0.187349 0.468282 0.014652
0.215905 0.468282 0.014652
0.243294 0.468282 0.014652
0.266147 0.468282 0.014652
0.291701 0.468282 0.014652
0.317011 0.468282 0.014652
0.343243 0.468282 0.014652
0.370806 0.468282 0.014652
0.399047 0.468282 0.014652
0.428666 0.468282 0.014652
0.457245 0.468282 0.014652
0.485691 0.468282 0.014652
0.514160 0.468282 0.014652
0.547182 0.468282 0.014652
0.586388 0.468282 0.014652
0.627130 0.468282 0.014652
0.671047 0.468282 0.014652
0.714719 0.468282 0.014652
0.755461 0.468282 0.014652
0.791870 0.468282 0.014652
0.824136 0.468282 0.014652
0.847178 0.468282 0.014652
0.863405 0.468282 0.014652
0.880050 0.468282 0.014652
0.896341 0.468282 0.014652
0.912427 0.468282 0.014652
0.928528 0.468282 0.014652
0.947678 0.468282 0.014652
0.984860 0.468282 0.014652
0.035653 0.499791 0.014652
0.106534 0.499791 0.014652
0.153090 0.499791 0.014652
0.187349 0.499791 0.014652
0.215905 0.499791 0.014652
0.243294 0.499791 0.014652
0.266147 0.499791 0.014652
0.291701 0.499791 0.014652
0.317011 0.499791 0.014652
0.343243 0.499791 0.014652
0.370806 0.499791 0.014652
0.399047 0.499791 0.014652
0.428666 0.499791 0.014652
0.457245 0.499791 0.014652
0.485691 0.499791 0.014652
0.514160 0.499791 0.014652
0.547182 0.499791 0.014652
0.586388 0.499791 0.014652
0.627130 0.499791 0.014652
0.671047 0.499791 0.014652
0.714719 0.499791 0.014652
0.755461 0.499791 0.014652
0.791870 0.499791 0.014652
0.824136 0.499791 0.014652
0.847178 0.499791 0.014652
0.863405 0.499791 0.014652
0.880050 0.499791 0.014652
0.896341 0.499791 0.014652
0.912427 0.499791 0.014652
0.928528 0.499791 0.014652
0.947678 0.499791 0.014652
0.984860 0.499791 0.014652
0.035653 0.533286 0.014652
0.106534 0.533286 0.014652
0.153090 0.533286 0.014652
0.187349 0.533286 0.014652
0.215905 0.533286 0.014652
0.243294 0.533286 0.014652
0.266147 0.533286 0.014652
0.291701 0.533286 0.014652
0.317011 0.533286 0.014652
0.343243 0.533286 0.014652
0.370806 0.533286 0.014652
0.399047 0.533286 0.014652
0.428666 0.533286 0.014652
0.457245 0.533286 0.014652
0.485691 0.533286 0.014652
0.514160 0.533286 0.014652
0.547182 0.533286 0.014652
0.586388 0.533286 0.014652
0.627130 0.533286 0.014652
0.671047 0.533286 0.014652
0.714719 0.533286 0.014652
0.755461 0.533286 0.014652
0.791870 0.533286 0.014652
0.824136 0.533286 0.014652
0.847178 0.533286 0.014652
0.863405 0.533286 0.014652
0.880050 0.533286 0.014652
0.896341 0.533286 0.014652
0.912427 0.533286 0.014652
0.928528 0.533286 0.014652
0.947678 0.533286 0.014652
0.984860 0.533286 0.014652
0.035653 0.567994 0.014652
0.106534 0.567994 0.014652
0.153090 0.567994 0.014652
0.187349 0.567994 0.014652
0.215905 0.567994 0.014652
0.243294 0.567994 0.014652
0.266147 0.567994 0.014652
0.291701 0.567994 0.014652
0.317011 0.567994 0.014652
0.343243 0.567994 0.014652
0.370806 0.567994 0.014652
0.399047 0.567994 0.014652
0.428666 0.567994 0.014652
0.457245 0.567994 0.014652
0.485691 0.567994 0.014652
0.514160 0.567994 0.014652
0.547182 0.567994 0.014652
0.586388 0.567994 0.014652
0.627130 0.567994 0.014652
0.671047 0.567994 0.014652
0.714719 0.567994 0.014652
0.755461 0.567994 0.014652
0.791870 0.567994 0.014652
0.824136 0.567994 0.014652
0.847178 0.567994 0.014652
0.863405 0.567994 0.014652
0.880050 0.567994 0.014652
0.896341 0.567994 0.014652
0.912427 0.567994 0.014652
0.928528 0.567994 0.014652
0.947678 0.567994 0.014652
0.984860 0.567994 0.014652
0.035653 0.605530 0.014652
0.106534 0.605530 0.014652
0.153090 0.605530 0.014652
0.187349 0.605530 0.014652
0.215905 0.605530 0.014652
0.243294 0.605530 0.014652
0.266147 0.605530 0.014652
0.291701 0.605530 0.014652
0.317011 0.605530 0.014652
0.343243 0.605530 0.014652
0.370806 0.605530 0.014652
0.399047 0.605530 0.014652
0.428666 0.605530 0.014652
0.457245 0.605530 0.014652
0.485691 0.605530 0.014652
0.514160 0.605530 0.014652
0.547182 0.605530 0.014652
0.586388 0.605530 0.014652
0.627130 0.605530 0.014652
0.671047 0.605530 0.014652
0.714719 0.605530 0.014652
0.755461 0.605530 0.014652
0.791870 0.605530 0.014652
0.824136 0.605530 0.014652
0.847178 0.605530 0.014652
0.863405 0.605530 0.014652
0.880050 0.605530 0.014652
0.896341 0.605530 0.014652
0.912427 0.605530 0.014652
0.928528 0.605530 0.014652
0.947678 0.605530 0.014652
0.984860 0.605530 0.014652
0.035653 0.650896 0.014652
0.106534 0.650896 0.014652
0.153090 0.650896 0.014652
0.187349 0.650896 0.014652
0.215905 0.650896 0.014652
0.243294 0.650896 0.014652
0.266147 0.650896 0.014652
0.291701 0.650896 0.014652
0.317011 0.650896 0.014652
0.343243 0.650896 0.014652
0.370806 0.650896 0.014652
0.399047 0.650896 0.014652
0.428666 0.650896 0.014652
0.457245 0.650896 0.014652
0.485691 0.650896 0.014652
0.514160 0.650896 0.014652
0.547182 0.650896 0.014652
0.586388 0.650896 0.014652
0.627130 0.650896 0.014652
0.671047 0.650896 0.014652
0.714719 0.650896 0.014652
0.755461 0.650896 0.014652
0.791870 0.650896 0.014652
0.824136 0.650896 0.014652
0.847178 0.650896 0.014652
0.863405 0.650896 0.014652
0.880050 0.650896 0.014652
0.896341 0.650896 0.014652
0.912427 0.650896 0.014652
0.928528 0.650896 0.014652
0.947678 0.650896 0.014652
0.984860 0.650896 0.014652
0.035653 0.710985 0.014652
0.106534 0.710985 0.014652
0.153090 0.710985 0.014652
0.187349 0.710985 0.014652
0.215905 0.710985 0.014652
0.243294 0.710985 0.014652
0.266147 0.710985 0.014652
0.291701 0.710985 0.014652
0.317011 0.710985 0.014652
0.343243 0.710985 0.014652
0.370806 0.710985 0.014652
0.399047 0.710985 0.014652
0.428666 0.710985 0.014652
0.457245 0.710985 0.014652
0.485691 0.710985 0.014652
0.514160 0.710985 0.014652
0.547182 0.710985 0.014652
0.586388 0.710985 0.014652
0.627130 0.710985 0.014652
0.671047 0.710985 0.014652
0.714719 0.710985 0.014652
0.755461 0.710985 0.014652
0.791870 0.710985 0.014652
0.824136 0.710985 0.014652
0.847178 0.710985 0.014652
0.863405 0.710985 0.014652
0.880050 0.710985 0.014652
0.896341 0.710985 0.014652
0.912427 0.710985 0.014652
0.928528 0.710985 0.014652
0.947678 0.710985 0.014652
0.984860 0.710985 0.014652
0.035653 0.789933 0.014652
0.106534 0.789933 0.014652
0.153090 0.789933 0.014652
0.187349 0.789933 0.014652
0.215905 0.789933 0.014652
0.243294 0.789933 0.014652
0.266147 0.789933 0.014652
0.291701 0.789933 0.014652
0.317011 0.789933 0.014652
0.343243 0.789933 0.014652
0.370806 0.789933 0.014652
0.399047 0.789933 0.014652
0.428666 0.789933 0.014652
0.457245 0.789933 0.014652
0.485691 0.789933 0.014652
0.514160 0.789933 0.014652
0.547182 0.789933 0.014652
0.586388 0.789933 0.014652
0.627130 0.789933 0.014652
0.671047 0.789933 0.014652
0.714719 0.789933 0.014652
0.755461 0.789933 0.014652
0.791870 0.789933 0.014652
0.824136 0.789933 0.014652
0.847178 0.789933 0.014652
0.863405 0.789933 0.014652
0.880050 0.789933 0.014652
0.896341 0.789933 0.014652
0.912427 0.789933 0.014652
0.928528 0.789933 0.014652
0.947678 0.789933 0.014652
0.984860 0.789933 0.014652
0.035653 0.820505 0.014652
0.106534 0.820505 0.014652
0.153090 0.820505 0.014652
0.187349 0.820505 0.014652
0.215905 0.820505 0.014652
0.243294 0.820505 0.014652
0.266147 0.820505 0.014652
0.291701 0.820505 0.014652
0.317011 0.820505 0.014652
0.343243 0.820505 0.014652
0.370806 0.820505 0.014652
0.399047 0.820505 0.014652
0.428666 0.820505 0.014652
0.457245 0.820505 0.014652
0.485691 0.820505 0.014652
0.514160 0.820505 0.014652
0.547182 0.820505 0.014652
0.586388 0.820505 0.014652
