gsg/03_Cinematic/GSG_LUT_Cinematic_ArcticSplendor.cube
# GSG LUTs 1.0
# Copyright (c) 2016-2020 Greyscalegorilla
# See EULA for licensing and distribution information
# Converted by Briz LUT Converter
LUT_3D_SIZE 5
DOMAIN_MIN 0.000000 0.000000 0.000000
DOMAIN_MAX 0.903226 0.903226 0.903226
0.000000 0.000000 0.003175
0.147591 0.043838 0.056859
0.311938 0.073095 0.081177
0.458419 0.092166 0.100067
0.613187 0.103423 0.118445
0.000000 0.100933 0.017708
0.097122 0.136014 0.057180
0.273292 0.156153 0.084170
0.427939 0.167356 0.101715
0.597119 0.178022 0.115971
0.000000 0.284478 0.064713
0.082045 0.299243 0.087647
0.254462 0.312813 0.105965
0.411737 0.319162 0.114774
0.586840 0.332642 0.139096
0.000000 0.499067 0.114105
0.116936 0.504468 0.123843
0.257887 0.507720 0.142018
0.425285 0.521109 0.182262
0.599409 0.545315 0.232069
0.016172 0.728418 0.169262
0.214959 0.745877 0.224793
0.358578 0.755201 0.271692
0.515610 0.773870 0.328339
0.683601 0.808281 0.400406
0.000000 0.000000 0.172736
0.145657 0.052295 0.202606
0.310040 0.079096 0.206986
0.455971 0.093239 0.205841
0.611270 0.100595 0.205346
0.000000 0.105970 0.145234
0.087203 0.135324 0.162091
0.265055 0.154053 0.171486
0.420070 0.163803 0.174815
0.591053 0.173560 0.180980
0.000000 0.283555 0.154465
0.077746 0.295836 0.161822
0.243570 0.307376 0.170314
0.401146 0.313637 0.176220
0.575703 0.330667 0.205620
0.000000 0.494505 0.180224
0.117543 0.500648 0.188065
0.257973 0.504388 0.210785
0.421208 0.518187 0.249329
0.592831 0.544107 0.300826
0.027831 0.727228 0.243460
0.226712 0.745403 0.297256
0.371384 0.754153 0.345792
0.522063 0.773743 0.403509
0.686569 0.810811 0.478397
0.000000 0.020812 0.445405
0.154145 0.071486 0.449287
0.317508 0.094049 0.431260
0.462066 0.102611 0.409240
0.617401 0.105778 0.390455
0.000000 0.120887 0.372140
0.085657 0.143721 0.365145
0.265745 0.160782 0.357259
0.419864 0.168112 0.344410
0.591479 0.175856 0.336454
0.000000 0.291693 0.342889
0.083026 0.301072 0.333196
0.240024 0.309090 0.325671
0.398460 0.315963 0.323785
0.571696 0.336046 0.342908
0.000000 0.497270 0.337611
0.127038 0.503817 0.338003
0.265730 0.508274 0.350822
0.424778 0.522645 0.375025
0.593155 0.550715 0.413394
0.046414 0.733026 0.388557
0.246522 0.751677 0.427838
0.390443 0.760763 0.459964
0.535721 0.779274 0.501423
0.693189 0.816539 0.560469
0.000000 0.053779 0.800662
0.169924 0.098218 0.774040
0.331057 0.114435 0.729218
0.473662 0.117214 0.682544
0.628264 0.115712 0.641593
0.000000 0.142843 0.673237
0.096123 0.159637 0.639830
0.271814 0.172949 0.609486
0.424160 0.176921 0.576510
0.595055 0.182798 0.551572
0.000000 0.305510 0.598082
0.094833 0.311527 0.567718
0.240963 0.315034 0.540380
0.402296 0.324945 0.530566
0.575260 0.348965 0.539441
0.000000 0.504736 0.555199
0.144905 0.513598 0.549559
0.281250 0.519628 0.549857
0.438299 0.536365 0.560127
0.604986 0.569866 0.582892
0.072039 0.745614 0.592257
0.277157 0.766327 0.616405
0.420685 0.777927 0.632143
0.560605 0.797395 0.656423
0.716326 0.836971 0.701222
0.000000 0.094797 1.000000
0.195752 0.137750 1.000000
0.349587 0.146116 1.000000
0.487022 0.140242 0.993190
0.640025 0.131514 0.934042
0.000000 0.169819 0.998470
0.113262 0.180776 0.965005
0.281918 0.189899 0.904498
0.430720 0.189005 0.850099
0.600328 0.195057 0.808119
0.000000 0.323001 0.901667
0.110405 0.325162 0.846432
0.248908 0.325865 0.796044
0.414336 0.344188 0.771359
0.584663 0.376248 0.766277
0.000000 0.515428 0.814755
0.170541 0.529538 0.802927
0.311185 0.539439 0.782475
0.467108 0.562080 0.772029
0.628482 0.601096 0.780605
0.109648 0.763909 0.836309
0.323633 0.788365 0.838916
0.466150 0.804751 0.839207
0.599010 0.826461 0.846710
0.750901 0.869552 0.875056
