gsg/03_Cinematic/GSG_LUT_Cinematic_Napalm_in_the_Morning.cube
# GSG LUTs 1.0
# Copyright (c) 2016-2020 Greyscalegorilla
# See EULA for licensing and distribution information
# Converted by Briz LUT Converter
LUT_3D_SIZE 32
0.045421 0.060806 0.018315
0.069243 0.060806 0.018315
0.112860 0.060806 0.018315
0.167569 0.060806 0.018315
0.214211 0.060806 0.018315
0.252787 0.060806 0.018315
0.288007 0.060806 0.018315
0.319469 0.060806 0.018315
0.347072 0.060806 0.018315
0.377274 0.060806 0.018315
0.404758 0.060806 0.018315
0.433542 0.060806 0.018315
0.463390 0.060806 0.018315
0.486967 0.060806 0.018315
0.505006 0.060806 0.018315
0.520635 0.060806 0.018315
0.532483 0.060806 0.018315
0.548230 0.060806 0.018315
0.561731 0.060806 0.018315
0.575730 0.060806 0.018315
0.591453 0.060806 0.018315
0.607247 0.060806 0.018315
0.622884 0.060806 0.018315
0.638584 0.060806 0.018315
0.650494 0.060806 0.018315
0.670038 0.060806 0.018315
0.685714 0.060806 0.018315
0.708653 0.060806 0.018315
0.735752 0.060806 0.018315
0.774580 0.060806 0.018315
0.825381 0.060806 0.018315
0.953602 0.060806 0.018315
0.045421 0.084257 0.018315
0.069243 0.084257 0.018315
0.112860 0.084257 0.018315
0.167569 0.084257 0.018315
0.214211 0.084257 0.018315
0.252787 0.084257 0.018315
0.288007 0.084257 0.018315
0.319469 0.084257 0.018315
0.347072 0.084257 0.018315
0.377274 0.084257 0.018315
0.404758 0.084257 0.018315
0.433542 0.084257 0.018315
0.463390 0.084257 0.018315
0.486967 0.084257 0.018315
0.505006 0.084257 0.018315
0.520635 0.084257 0.018315
0.532483 0.084257 0.018315
0.548230 0.084257 0.018315
0.561731 0.084257 0.018315
0.575730 0.084257 0.018315
0.591453 0.084257 0.018315
0.607247 0.084257 0.018315
0.622884 0.084257 0.018315
0.638584 0.084257 0.018315
0.650494 0.084257 0.018315
0.670038 0.084257 0.018315
0.685714 0.084257 0.018315
0.708653 0.084257 0.018315
0.735752 0.084257 0.018315
0.774580 0.084257 0.018315
0.825381 0.084257 0.018315
0.953602 0.084257 0.018315
0.045421 0.096231 0.018315
0.069243 0.096231 0.018315
0.112860 0.096231 0.018315
0.167569 0.096231 0.018315
0.214211 0.096231 0.018315
0.252787 0.096231 0.018315
0.288007 0.096231 0.018315
0.319469 0.096231 0.018315
0.347072 0.096231 0.018315
0.377274 0.096231 0.018315
0.404758 0.096231 0.018315
0.433542 0.096231 0.018315
0.463390 0.096231 0.018315
0.486967 0.096231 0.018315
0.505006 0.096231 0.018315
0.520635 0.096231 0.018315
0.532483 0.096231 0.018315
0.548230 0.096231 0.018315
0.561731 0.096231 0.018315
0.575730 0.096231 0.018315
0.591453 0.096231 0.018315
0.607247 0.096231 0.018315
0.622884 0.096231 0.018315
0.638584 0.096231 0.018315
0.650494 0.096231 0.018315
0.670038 0.096231 0.018315
0.685714 0.096231 0.018315
0.708653 0.096231 0.018315
0.735752 0.096231 0.018315
0.774580 0.096231 0.018315
0.825381 0.096231 0.018315
0.953602 0.096231 0.018315
0.045421 0.112245 0.018315
0.069243 0.112245 0.018315
0.112860 0.112245 0.018315
0.167569 0.112245 0.018315
0.214211 0.112245 0.018315
0.252787 0.112245 0.018315
0.288007 0.112245 0.018315
0.319469 0.112245 0.018315
0.347072 0.112245 0.018315
0.377274 0.112245 0.018315
0.404758 0.112245 0.018315
0.433542 0.112245 0.018315
0.463390 0.112245 0.018315
0.486967 0.112245 0.018315
0.505006 0.112245 0.018315
0.520635 0.112245 0.018315
0.532483 0.112245 0.018315
0.548230 0.112245 0.018315
0.561731 0.112245 0.018315
0.575730 0.112245 0.018315
0.591453 0.112245 0.018315
0.607247 0.112245 0.018315
0.622884 0.112245 0.018315
0.638584 0.112245 0.018315
0.650494 0.112245 0.018315
0.670038 0.112245 0.018315
0.685714 0.112245 0.018315
0.708653 0.112245 0.018315
0.735752 0.112245 0.018315
0.774580 0.112245 0.018315
0.825381 0.112245 0.018315
0.953602 0.112245 0.018315
0.045421 0.131915 0.018315
0.069243 0.131915 0.018315
0.112860 0.131915 0.018315
0.167569 0.131915 0.018315
0.214211 0.131915 0.018315
0.252787 0.131915 0.018315
0.288007 0.131915 0.018315
0.319469 0.131915 0.018315
0.347072 0.131915 0.018315
0.377274 0.131915 0.018315
0.404758 0.131915 0.018315
0.433542 0.131915 0.018315
0.463390 0.131915 0.018315
0.486967 0.131915 0.018315
0.505006 0.131915 0.018315
0.520635 0.131915 0.018315
0.532483 0.131915 0.018315
0.548230 0.131915 0.018315
0.561731 0.131915 0.018315
0.575730 0.131915 0.018315
0.591453 0.131915 0.018315
0.607247 0.131915 0.018315
0.622884 0.131915 0.018315
0.638584 0.131915 0.018315
0.650494 0.131915 0.018315
0.670038 0.131915 0.018315
0.685714 0.131915 0.018315
0.708653 0.131915 0.018315
0.735752 0.131915 0.018315
0.774580 0.131915 0.018315
0.825381 0.131915 0.018315
0.953602 0.131915 0.018315
0.045421 0.155493 0.018315
0.069243 0.155493 0.018315
0.112860 0.155493 0.018315
0.167569 0.155493 0.018315
0.214211 0.155493 0.018315
0.252787 0.155493 0.018315
0.288007 0.155493 0.018315
0.319469 0.155493 0.018315
0.347072 0.155493 0.018315
0.377274 0.155493 0.018315
0.404758 0.155493 0.018315
0.433542 0.155493 0.018315
0.463390 0.155493 0.018315
0.486967 0.155493 0.018315
0.505006 0.155493 0.018315
0.520635 0.155493 0.018315
0.532483 0.155493 0.018315
0.548230 0.155493 0.018315
0.561731 0.155493 0.018315
0.575730 0.155493 0.018315
0.591453 0.155493 0.018315
0.607247 0.155493 0.018315
0.622884 0.155493 0.018315
0.638584 0.155493 0.018315
0.650494 0.155493 0.018315
0.670038 0.155493 0.018315
0.685714 0.155493 0.018315
0.708653 0.155493 0.018315
0.735752 0.155493 0.018315
0.774580 0.155493 0.018315
0.825381 0.155493 0.018315
0.953602 0.155493 0.018315
0.045421 0.179070 0.018315
0.069243 0.179070 0.018315
0.112860 0.179070 0.018315
0.167569 0.179070 0.018315
0.214211 0.179070 0.018315
0.252787 0.179070 0.018315
0.288007 0.179070 0.018315
0.319469 0.179070 0.018315
0.347072 0.179070 0.018315
0.377274 0.179070 0.018315
0.404758 0.179070 0.018315
0.433542 0.179070 0.018315
0.463390 0.179070 0.018315
0.486967 0.179070 0.018315
0.505006 0.179070 0.018315
0.520635 0.179070 0.018315
0.532483 0.179070 0.018315
0.548230 0.179070 0.018315
0.561731 0.179070 0.018315
0.575730 0.179070 0.018315
0.591453 0.179070 0.018315
0.607247 0.179070 0.018315
0.622884 0.179070 0.018315
0.638584 0.179070 0.018315
0.650494 0.179070 0.018315
0.670038 0.179070 0.018315
0.685714 0.179070 0.018315
0.708653 0.179070 0.018315
0.735752 0.179070 0.018315
0.774580 0.179070 0.018315
0.825381 0.179070 0.018315
0.953602 0.179070 0.018315
0.045421 0.201765 0.018315
0.069243 0.201765 0.018315
0.112860 0.201765 0.018315
0.167569 0.201765 0.018315
0.214211 0.201765 0.018315
0.252787 0.201765 0.018315
0.288007 0.201765 0.018315
0.319469 0.201765 0.018315
0.347072 0.201765 0.018315
0.377274 0.201765 0.018315
0.404758 0.201765 0.018315
0.433542 0.201765 0.018315
0.463390 0.201765 0.018315
0.486967 0.201765 0.018315
0.505006 0.201765 0.018315
0.520635 0.201765 0.018315
0.532483 0.201765 0.018315
0.548230 0.201765 0.018315
0.561731 0.201765 0.018315
0.575730 0.201765 0.018315
0.591453 0.201765 0.018315
0.607247 0.201765 0.018315
0.622884 0.201765 0.018315
0.638584 0.201765 0.018315
0.650494 0.201765 0.018315
0.670038 0.201765 0.018315
0.685714 0.201765 0.018315
0.708653 0.201765 0.018315
0.735752 0.201765 0.018315
0.774580 0.201765 0.018315
0.825381 0.201765 0.018315
0.953602 0.201765 0.018315
0.045421 0.222317 0.018315
0.069243 0.222317 0.018315
0.112860 0.222317 0.018315
0.167569 0.222317 0.018315
0.214211 0.222317 0.018315
0.252787 0.222317 0.018315
0.288007 0.222317 0.018315
0.319469 0.222317 0.018315
0.347072 0.222317 0.018315
0.377274 0.222317 0.018315
0.404758 0.222317 0.018315
0.433542 0.222317 0.018315
0.463390 0.222317 0.018315
0.486967 0.222317 0.018315
0.505006 0.222317 0.018315
0.520635 0.222317 0.018315
0.532483 0.222317 0.018315
0.548230 0.222317 0.018315
0.561731 0.222317 0.018315
0.575730 0.222317 0.018315
0.591453 0.222317 0.018315
0.607247 0.222317 0.018315
0.622884 0.222317 0.018315
0.638584 0.222317 0.018315
0.650494 0.222317 0.018315
0.670038 0.222317 0.018315
0.685714 0.222317 0.018315
0.708653 0.222317 0.018315
0.735752 0.222317 0.018315
0.774580 0.222317 0.018315
0.825381 0.222317 0.018315
0.953602 0.222317 0.018315
0.045421 0.245894 0.018315
0.069243 0.245894 0.018315
0.112860 0.245894 0.018315
0.167569 0.245894 0.018315
0.214211 0.245894 0.018315
0.252787 0.245894 0.018315
0.288007 0.245894 0.018315
0.319469 0.245894 0.018315
0.347072 0.245894 0.018315
0.377274 0.245894 0.018315
0.404758 0.245894 0.018315
0.433542 0.245894 0.018315
0.463390 0.245894 0.018315
0.486967 0.245894 0.018315
0.505006 0.245894 0.018315
0.520635 0.245894 0.018315
0.532483 0.245894 0.018315
0.548230 0.245894 0.018315
0.561731 0.245894 0.018315
0.575730 0.245894 0.018315
0.591453 0.245894 0.018315
0.607247 0.245894 0.018315
0.622884 0.245894 0.018315
0.638584 0.245894 0.018315
0.650494 0.245894 0.018315
0.670038 0.245894 0.018315
0.685714 0.245894 0.018315
0.708653 0.245894 0.018315
0.735752 0.245894 0.018315
0.774580 0.245894 0.018315
0.825381 0.245894 0.018315
0.953602 0.245894 0.018315
0.045421 0.265564 0.018315
0.069243 0.265564 0.018315
0.112860 0.265564 0.018315
0.167569 0.265564 0.018315
0.214211 0.265564 0.018315
0.252787 0.265564 0.018315
0.288007 0.265564 0.018315
0.319469 0.265564 0.018315
0.347072 0.265564 0.018315
0.377274 0.265564 0.018315
0.404758 0.265564 0.018315
0.433542 0.265564 0.018315
0.463390 0.265564 0.018315
0.486967 0.265564 0.018315
0.505006 0.265564 0.018315
0.520635 0.265564 0.018315
0.532483 0.265564 0.018315
0.548230 0.265564 0.018315
0.561731 0.265564 0.018315
0.575730 0.265564 0.018315
0.591453 0.265564 0.018315
0.607247 0.265564 0.018315
0.622884 0.265564 0.018315
0.638584 0.265564 0.018315
0.650494 0.265564 0.018315
0.670038 0.265564 0.018315
0.685714 0.265564 0.018315
0.708653 0.265564 0.018315
0.735752 0.265564 0.018315
0.774580 0.265564 0.018315
0.825381 0.265564 0.018315
0.953602 0.265564 0.018315
0.045421 0.289141 0.018315
0.069243 0.289141 0.018315
0.112860 0.289141 0.018315
0.167569 0.289141 0.018315
0.214211 0.289141 0.018315
0.252787 0.289141 0.018315
0.288007 0.289141 0.018315
0.319469 0.289141 0.018315
0.347072 0.289141 0.018315
0.377274 0.289141 0.018315
0.404758 0.289141 0.018315
0.433542 0.289141 0.018315
0.463390 0.289141 0.018315
0.486967 0.289141 0.018315
0.505006 0.289141 0.018315
0.520635 0.289141 0.018315
0.532483 0.289141 0.018315
0.548230 0.289141 0.018315
0.561731 0.289141 0.018315
0.575730 0.289141 0.018315
0.591453 0.289141 0.018315
0.607247 0.289141 0.018315
0.622884 0.289141 0.018315
0.638584 0.289141 0.018315
0.650494 0.289141 0.018315
0.670038 0.289141 0.018315
0.685714 0.289141 0.018315
0.708653 0.289141 0.018315
0.735752 0.289141 0.018315
0.774580 0.289141 0.018315
0.825381 0.289141 0.018315
0.953602 0.289141 0.018315
0.045421 0.308961 0.018315
0.069243 0.308961 0.018315
0.112860 0.308961 0.018315
0.167569 0.308961 0.018315
0.214211 0.308961 0.018315
0.252787 0.308961 0.018315
0.288007 0.308961 0.018315
0.319469 0.308961 0.018315
0.347072 0.308961 0.018315
0.377274 0.308961 0.018315
0.404758 0.308961 0.018315
0.433542 0.308961 0.018315
0.463390 0.308961 0.018315
0.486967 0.308961 0.018315
0.505006 0.308961 0.018315
0.520635 0.308961 0.018315
0.532483 0.308961 0.018315
0.548230 0.308961 0.018315
0.561731 0.308961 0.018315
0.575730 0.308961 0.018315
0.591453 0.308961 0.018315
0.607247 0.308961 0.018315
0.622884 0.308961 0.018315
0.638584 0.308961 0.018315
0.650494 0.308961 0.018315
0.670038 0.308961 0.018315
0.685714 0.308961 0.018315
0.708653 0.308961 0.018315
0.735752 0.308961 0.018315
0.774580 0.308961 0.018315
0.825381 0.308961 0.018315
0.953602 0.308961 0.018315
0.045421 0.326984 0.018315
0.069243 0.326984 0.018315
0.112860 0.326984 0.018315
0.167569 0.326984 0.018315
0.214211 0.326984 0.018315
0.252787 0.326984 0.018315
0.288007 0.326984 0.018315
0.319469 0.326984 0.018315
0.347072 0.326984 0.018315
0.377274 0.326984 0.018315
0.404758 0.326984 0.018315
0.433542 0.326984 0.018315
0.463390 0.326984 0.018315
0.486967 0.326984 0.018315
0.505006 0.326984 0.018315
0.520635 0.326984 0.018315
0.532483 0.326984 0.018315
0.548230 0.326984 0.018315
0.561731 0.326984 0.018315
0.575730 0.326984 0.018315
0.591453 0.326984 0.018315
0.607247 0.326984 0.018315
0.622884 0.326984 0.018315
0.638584 0.326984 0.018315
0.650494 0.326984 0.018315
0.670038 0.326984 0.018315
0.685714 0.326984 0.018315
0.708653 0.326984 0.018315
0.735752 0.326984 0.018315
0.774580 0.326984 0.018315
0.825381 0.326984 0.018315
0.953602 0.326984 0.018315
0.045421 0.346520 0.018315
0.069243 0.346520 0.018315
0.112860 0.346520 0.018315
0.167569 0.346520 0.018315
0.214211 0.346520 0.018315
0.252787 0.346520 0.018315
0.288007 0.346520 0.018315
0.319469 0.346520 0.018315
0.347072 0.346520 0.018315
0.377274 0.346520 0.018315
0.404758 0.346520 0.018315
0.433542 0.346520 0.018315
0.463390 0.346520 0.018315
0.486967 0.346520 0.018315
0.505006 0.346520 0.018315
0.520635 0.346520 0.018315
0.532483 0.346520 0.018315
0.548230 0.346520 0.018315
0.561731 0.346520 0.018315
0.575730 0.346520 0.018315
0.591453 0.346520 0.018315
0.607247 0.346520 0.018315
0.622884 0.346520 0.018315
0.638584 0.346520 0.018315
0.650494 0.346520 0.018315
0.670038 0.346520 0.018315
0.685714 0.346520 0.018315
0.708653 0.346520 0.018315
0.735752 0.346520 0.018315
0.774580 0.346520 0.018315
0.825381 0.346520 0.018315
0.953602 0.346520 0.018315
0.045421 0.362267 0.018315
0.069243 0.362267 0.018315
0.112860 0.362267 0.018315
0.167569 0.362267 0.018315
0.214211 0.362267 0.018315
0.252787 0.362267 0.018315
0.288007 0.362267 0.018315
0.319469 0.362267 0.018315
0.347072 0.362267 0.018315
0.377274 0.362267 0.018315
0.404758 0.362267 0.018315
0.433542 0.362267 0.018315
0.463390 0.362267 0.018315
0.486967 0.362267 0.018315
0.505006 0.362267 0.018315
0.520635 0.362267 0.018315
0.532483 0.362267 0.018315
0.548230 0.362267 0.018315
0.561731 0.362267 0.018315
0.575730 0.362267 0.018315
0.591453 0.362267 0.018315
0.607247 0.362267 0.018315
0.622884 0.362267 0.018315
0.638584 0.362267 0.018315
0.650494 0.362267 0.018315
0.670038 0.362267 0.018315
0.685714 0.362267 0.018315
0.708653 0.362267 0.018315
0.735752 0.362267 0.018315
0.774580 0.362267 0.018315
0.825381 0.362267 0.018315
0.953602 0.362267 0.018315
0.045421 0.381811 0.018315
0.069243 0.381811 0.018315
0.112860 0.381811 0.018315
0.167569 0.381811 0.018315
0.214211 0.381811 0.018315
0.252787 0.381811 0.018315
0.288007 0.381811 0.018315
0.319469 0.381811 0.018315
0.347072 0.381811 0.018315
0.377274 0.381811 0.018315
0.404758 0.381811 0.018315
0.433542 0.381811 0.018315
0.463390 0.381811 0.018315
0.486967 0.381811 0.018315
0.505006 0.381811 0.018315
0.520635 0.381811 0.018315
0.532483 0.381811 0.018315
0.548230 0.381811 0.018315
0.561731 0.381811 0.018315
0.575730 0.381811 0.018315
0.591453 0.381811 0.018315
0.607247 0.381811 0.018315
0.622884 0.381811 0.018315
0.638584 0.381811 0.018315
0.650494 0.381811 0.018315
0.670038 0.381811 0.018315
0.685714 0.381811 0.018315
0.708653 0.381811 0.018315
0.735752 0.381811 0.018315
0.774580 0.381811 0.018315
0.825381 0.381811 0.018315
0.953602 0.381811 0.018315
0.045421 0.397448 0.018315
0.069243 0.397448 0.018315
0.112860 0.397448 0.018315
0.167569 0.397448 0.018315
0.214211 0.397448 0.018315
0.252787 0.397448 0.018315
0.288007 0.397448 0.018315
0.319469 0.397448 0.018315
0.347072 0.397448 0.018315
0.377274 0.397448 0.018315
0.404758 0.397448 0.018315
0.433542 0.397448 0.018315
0.463390 0.397448 0.018315
0.486967 0.397448 0.018315
0.505006 0.397448 0.018315
0.520635 0.397448 0.018315
0.532483 0.397448 0.018315
0.548230 0.397448 0.018315
0.561731 0.397448 0.018315
0.575730 0.397448 0.018315
0.591453 0.397448 0.018315
0.607247 0.397448 0.018315
0.622884 0.397448 0.018315
0.638584 0.397448 0.018315
0.650494 0.397448 0.018315
0.670038 0.397448 0.018315
0.685714 0.397448 0.018315
0.708653 0.397448 0.018315
0.735752 0.397448 0.018315
0.774580 0.397448 0.018315
0.825381 0.397448 0.018315
0.953602 0.397448 0.018315
0.045421 0.417094 0.018315
0.069243 0.417094 0.018315
0.112860 0.417094 0.018315
0.167569 0.417094 0.018315
0.214211 0.417094 0.018315
0.252787 0.417094 0.018315
0.288007 0.417094 0.018315
0.319469 0.417094 0.018315
0.347072 0.417094 0.018315
0.377274 0.417094 0.018315
0.404758 0.417094 0.018315
0.433542 0.417094 0.018315
0.463390 0.417094 0.018315
0.486967 0.417094 0.018315
0.505006 0.417094 0.018315
0.520635 0.417094 0.018315
0.532483 0.417094 0.018315
0.548230 0.417094 0.018315
0.561731 0.417094 0.018315
0.575730 0.417094 0.018315
0.591453 0.417094 0.018315
0.607247 0.417094 0.018315
0.622884 0.417094 0.018315
0.638584 0.417094 0.018315
0.650494 0.417094 0.018315
0.670038 0.417094 0.018315
0.685714 0.417094 0.018315
0.708653 0.417094 0.018315
0.735752 0.417094 0.018315
0.774580 0.417094 0.018315
0.825381 0.417094 0.018315
0.953602 0.417094 0.018315
0.045421 0.436630 0.018315
0.069243 0.436630 0.018315
0.112860 0.436630 0.018315
0.167569 0.436630 0.018315
0.214211 0.436630 0.018315
0.252787 0.436630 0.018315
0.288007 0.436630 0.018315
0.319469 0.436630 0.018315
0.347072 0.436630 0.018315
0.377274 0.436630 0.018315
0.404758 0.436630 0.018315
0.433542 0.436630 0.018315
0.463390 0.436630 0.018315
0.486967 0.436630 0.018315
0.505006 0.436630 0.018315
0.520635 0.436630 0.018315
0.532483 0.436630 0.018315
0.548230 0.436630 0.018315
0.561731 0.436630 0.018315
0.575730 0.436630 0.018315
0.591453 0.436630 0.018315
0.607247 0.436630 0.018315
0.622884 0.436630 0.018315
0.638584 0.436630 0.018315
0.650494 0.436630 0.018315
0.670038 0.436630 0.018315
0.685714 0.436630 0.018315
0.708653 0.436630 0.018315
0.735752 0.436630 0.018315
0.774580 0.436630 0.018315
0.825381 0.436630 0.018315
0.953602 0.436630 0.018315
0.045421 0.458687 0.018315
0.069243 0.458687 0.018315
0.112860 0.458687 0.018315
0.167569 0.458687 0.018315
0.214211 0.458687 0.018315
0.252787 0.458687 0.018315
0.288007 0.458687 0.018315
0.319469 0.458687 0.018315
0.347072 0.458687 0.018315
0.377274 0.458687 0.018315
0.404758 0.458687 0.018315
0.433542 0.458687 0.018315
0.463390 0.458687 0.018315
0.486967 0.458687 0.018315
0.505006 0.458687 0.018315
0.520635 0.458687 0.018315
0.532483 0.458687 0.018315
0.548230 0.458687 0.018315
0.561731 0.458687 0.018315
0.575730 0.458687 0.018315
0.591453 0.458687 0.018315
0.607247 0.458687 0.018315
0.622884 0.458687 0.018315
0.638584 0.458687 0.018315
0.650494 0.458687 0.018315
0.670038 0.458687 0.018315
0.685714 0.458687 0.018315
0.708653 0.458687 0.018315
0.735752 0.458687 0.018315
0.774580 0.458687 0.018315
0.825381 0.458687 0.018315
0.953602 0.458687 0.018315
0.045421 0.479609 0.018315
0.069243 0.479609 0.018315
0.112860 0.479609 0.018315
0.167569 0.479609 0.018315
0.214211 0.479609 0.018315
0.252787 0.479609 0.018315
0.288007 0.479609 0.018315
0.319469 0.479609 0.018315
0.347072 0.479609 0.018315
0.377274 0.479609 0.018315
0.404758 0.479609 0.018315
0.433542 0.479609 0.018315
0.463390 0.479609 0.018315
0.486967 0.479609 0.018315
0.505006 0.479609 0.018315
0.520635 0.479609 0.018315
0.532483 0.479609 0.018315
0.548230 0.479609 0.018315
0.561731 0.479609 0.018315
0.575730 0.479609 0.018315
0.591453 0.479609 0.018315
0.607247 0.479609 0.018315
0.622884 0.479609 0.018315
0.638584 0.479609 0.018315
0.650494 0.479609 0.018315
0.670038 0.479609 0.018315
0.685714 0.479609 0.018315
0.708653 0.479609 0.018315
0.735752 0.479609 0.018315
0.774580 0.479609 0.018315
0.825381 0.479609 0.018315
0.953602 0.479609 0.018315
0.045421 0.499319 0.018315
0.069243 0.499319 0.018315
0.112860 0.499319 0.018315
0.167569 0.499319 0.018315
0.214211 0.499319 0.018315
0.252787 0.499319 0.018315
0.288007 0.499319 0.018315
0.319469 0.499319 0.018315
0.347072 0.499319 0.018315
0.377274 0.499319 0.018315
0.404758 0.499319 0.018315
0.433542 0.499319 0.018315
0.463390 0.499319 0.018315
0.486967 0.499319 0.018315
0.505006 0.499319 0.018315
0.520635 0.499319 0.018315
0.532483 0.499319 0.018315
0.548230 0.499319 0.018315
0.561731 0.499319 0.018315
0.575730 0.499319 0.018315
0.591453 0.499319 0.018315
0.607247 0.499319 0.018315
0.622884 0.499319 0.018315
0.638584 0.499319 0.018315
0.650494 0.499319 0.018315
0.670038 0.499319 0.018315
0.685714 0.499319 0.018315
0.708653 0.499319 0.018315
0.735752 0.499319 0.018315
0.774580 0.499319 0.018315
0.825381 0.499319 0.018315
0.953602 0.499319 0.018315
0.045421 0.518862 0.018315
0.069243 0.518862 0.018315
0.112860 0.518862 0.018315
0.167569 0.518862 0.018315
0.214211 0.518862 0.018315
0.252787 0.518862 0.018315
0.288007 0.518862 0.018315
0.319469 0.518862 0.018315
0.347072 0.518862 0.018315
0.377274 0.518862 0.018315
0.404758 0.518862 0.018315
0.433542 0.518862 0.018315
0.463390 0.518862 0.018315
0.486967 0.518862 0.018315
0.505006 0.518862 0.018315
0.520635 0.518862 0.018315
0.532483 0.518862 0.018315
0.548230 0.518862 0.018315
0.561731 0.518862 0.018315
0.575730 0.518862 0.018315
0.591453 0.518862 0.018315
0.607247 0.518862 0.018315
0.622884 0.518862 0.018315
0.638584 0.518862 0.018315
0.650494 0.518862 0.018315
0.670038 0.518862 0.018315
0.685714 0.518862 0.018315
0.708653 0.518862 0.018315
0.735752 0.518862 0.018315
0.774580 0.518862 0.018315
0.825381 0.518862 0.018315
0.953602 0.518862 0.018315
0.045421 0.538406 0.018315
0.069243 0.538406 0.018315
0.112860 0.538406 0.018315
0.167569 0.538406 0.018315
0.214211 0.538406 0.018315
0.252787 0.538406 0.018315
0.288007 0.538406 0.018315
0.319469 0.538406 0.018315
0.347072 0.538406 0.018315
0.377274 0.538406 0.018315
0.404758 0.538406 0.018315
0.433542 0.538406 0.018315
0.463390 0.538406 0.018315
0.486967 0.538406 0.018315
0.505006 0.538406 0.018315
0.520635 0.538406 0.018315
0.532483 0.538406 0.018315
0.548230 0.538406 0.018315
0.561731 0.538406 0.018315
0.575730 0.538406 0.018315
0.591453 0.538406 0.018315
0.607247 0.538406 0.018315
0.622884 0.538406 0.018315
0.638584 0.538406 0.018315
0.650494 0.538406 0.018315
0.670038 0.538406 0.018315
0.685714 0.538406 0.018315
0.708653 0.538406 0.018315
0.735752 0.538406 0.018315
0.774580 0.538406 0.018315
0.825381 0.538406 0.018315
0.953602 0.538406 0.018315
0.045421 0.550892 0.018315
0.069243 0.550892 0.018315
0.112860 0.550892 0.018315
0.167569 0.550892 0.018315
0.214211 0.550892 0.018315
0.252787 0.550892 0.018315
0.288007 0.550892 0.018315
0.319469 0.550892 0.018315
0.347072 0.550892 0.018315
0.377274 0.550892 0.018315
0.404758 0.550892 0.018315
0.433542 0.550892 0.018315
0.463390 0.550892 0.018315
0.486967 0.550892 0.018315
0.505006 0.550892 0.018315
0.520635 0.550892 0.018315
0.532483 0.550892 0.018315
0.548230 0.550892 0.018315
0.561731 0.550892 0.018315
0.575730 0.550892 0.018315
0.591453 0.550892 0.018315
0.607247 0.550892 0.018315
0.622884 0.550892 0.018315
0.638584 0.550892 0.018315
0.650494 0.550892 0.018315
0.670038 0.550892 0.018315
0.685714 0.550892 0.018315
0.708653 0.550892 0.018315
0.735752 0.550892 0.018315
0.774580 0.550892 0.018315
0.825381 0.550892 0.018315
0.953602 0.550892 0.018315
0.045421 0.569089 0.018315
0.069243 0.569089 0.018315
0.112860 0.569089 0.018315
0.167569 0.569089 0.018315
0.214211 0.569089 0.018315
0.252787 0.569089 0.018315
0.288007 0.569089 0.018315
0.319469 0.569089 0.018315
0.347072 0.569089 0.018315
0.377274 0.569089 0.018315
0.404758 0.569089 0.018315
0.433542 0.569089 0.018315
0.463390 0.569089 0.018315
0.486967 0.569089 0.018315
0.505006 0.569089 0.018315
0.520635 0.569089 0.018315
0.532483 0.569089 0.018315
0.548230 0.569089 0.018315
0.561731 0.569089 0.018315
0.575730 0.569089 0.018315
0.591453 0.569089 0.018315
0.607247 0.569089 0.018315
0.622884 0.569089 0.018315
0.638584 0.569089 0.018315
0.650494 0.569089 0.018315
0.670038 0.569089 0.018315
0.685714 0.569089 0.018315
0.708653 0.569089 0.018315
0.735752 0.569089 0.018315
0.774580 0.569089 0.018315
0.825381 0.569089 0.018315
0.953602 0.569089 0.018315
0.045421 0.585561 0.018315
0.069243 0.585561 0.018315
0.112860 0.585561 0.018315
0.167569 0.585561 0.018315
0.214211 0.585561 0.018315
0.252787 0.585561 0.018315
0.288007 0.585561 0.018315
0.319469 0.585561 0.018315
0.347072 0.585561 0.018315
0.377274 0.585561 0.018315
0.404758 0.585561 0.018315
0.433542 0.585561 0.018315
0.463390 0.585561 0.018315
0.486967 0.585561 0.018315
0.505006 0.585561 0.018315
0.520635 0.585561 0.018315
0.532483 0.585561 0.018315
0.548230 0.585561 0.018315
