gsg/03_Cinematic/GSG_LUT_Cinematic_Royal_with_Cheese.cube
# GSG LUTs 1.0
# Copyright (c) 2016-2020 Greyscalegorilla
# See EULA for licensing and distribution information
# Converted by Briz LUT Converter
LUT_3D_SIZE 32
0.026129 0.024664 0.014652
0.034574 0.024664 0.014652
0.043767 0.024664 0.014652
0.053464 0.024664 0.014652
0.065871 0.024664 0.014652
0.080271 0.024664 0.014652
0.094064 0.024664 0.014652
0.110000 0.024664 0.014652
0.124243 0.024664 0.014652
0.141187 0.024664 0.014652
0.156194 0.024664 0.014652
0.171618 0.024664 0.014652
0.186341 0.024664 0.014652
0.199693 0.024664 0.014652
0.213344 0.024664 0.014652
0.224554 0.024664 0.014652
0.238450 0.024664 0.014652
0.252590 0.024664 0.014652
0.266871 0.024664 0.014652
0.281264 0.024664 0.014652
0.295813 0.024664 0.014652
0.313143 0.024664 0.014652
0.330718 0.024664 0.014652
0.350467 0.024664 0.014652
0.371310 0.024664 0.014652
0.392351 0.024664 0.014652
0.413447 0.024664 0.014652
0.437717 0.024664 0.014652
0.462169 0.024664 0.014652
0.498373 0.024664 0.014652
0.547395 0.024664 0.014652
0.664957 0.024664 0.014652
0.026129 0.034574 0.014652
0.034574 0.034574 0.014652
0.043767 0.034574 0.014652
0.053464 0.034574 0.014652
0.065871 0.034574 0.014652
0.080271 0.034574 0.014652
0.094064 0.034574 0.014652
0.110000 0.034574 0.014652
0.124243 0.034574 0.014652
0.141187 0.034574 0.014652
0.156194 0.034574 0.014652
0.171618 0.034574 0.014652
0.186341 0.034574 0.014652
0.199693 0.034574 0.014652
0.213344 0.034574 0.014652
0.224554 0.034574 0.014652
0.238450 0.034574 0.014652
0.252590 0.034574 0.014652
0.266871 0.034574 0.014652
0.281264 0.034574 0.014652
0.295813 0.034574 0.014652
0.313143 0.034574 0.014652
0.330718 0.034574 0.014652
0.350467 0.034574 0.014652
0.371310 0.034574 0.014652
0.392351 0.034574 0.014652
0.413447 0.034574 0.014652
0.437717 0.034574 0.014652
0.462169 0.034574 0.014652
0.498373 0.034574 0.014652
0.547395 0.034574 0.014652
0.664957 0.034574 0.014652
0.026129 0.042058 0.014652
0.034574 0.042058 0.014652
0.043767 0.042058 0.014652
0.053464 0.042058 0.014652
0.065871 0.042058 0.014652
0.080271 0.042058 0.014652
0.094064 0.042058 0.014652
0.110000 0.042058 0.014652
0.124243 0.042058 0.014652
0.141187 0.042058 0.014652
0.156194 0.042058 0.014652
0.171618 0.042058 0.014652
0.186341 0.042058 0.014652
0.199693 0.042058 0.014652
0.213344 0.042058 0.014652
0.224554 0.042058 0.014652
0.238450 0.042058 0.014652
0.252590 0.042058 0.014652
0.266871 0.042058 0.014652
0.281264 0.042058 0.014652
0.295813 0.042058 0.014652
0.313143 0.042058 0.014652
0.330718 0.042058 0.014652
0.350467 0.042058 0.014652
0.371310 0.042058 0.014652
0.392351 0.042058 0.014652
0.413447 0.042058 0.014652
0.437717 0.042058 0.014652
0.462169 0.042058 0.014652
0.498373 0.042058 0.014652
0.547395 0.042058 0.014652
0.664957 0.042058 0.014652
0.026129 0.049801 0.014652
0.034574 0.049801 0.014652
0.043767 0.049801 0.014652
0.053464 0.049801 0.014652
0.065871 0.049801 0.014652
0.080271 0.049801 0.014652
0.094064 0.049801 0.014652
0.110000 0.049801 0.014652
0.124243 0.049801 0.014652
0.141187 0.049801 0.014652
0.156194 0.049801 0.014652
0.171618 0.049801 0.014652
0.186341 0.049801 0.014652
0.199693 0.049801 0.014652
0.213344 0.049801 0.014652
0.224554 0.049801 0.014652
0.238450 0.049801 0.014652
0.252590 0.049801 0.014652
0.266871 0.049801 0.014652
0.281264 0.049801 0.014652
0.295813 0.049801 0.014652
0.313143 0.049801 0.014652
0.330718 0.049801 0.014652
0.350467 0.049801 0.014652
0.371310 0.049801 0.014652
0.392351 0.049801 0.014652
0.413447 0.049801 0.014652
0.437717 0.049801 0.014652
0.462169 0.049801 0.014652
0.498373 0.049801 0.014652
0.547395 0.049801 0.014652
0.664957 0.049801 0.014652
0.026129 0.057797 0.014652
0.034574 0.057797 0.014652
0.043767 0.057797 0.014652
0.053464 0.057797 0.014652
0.065871 0.057797 0.014652
0.080271 0.057797 0.014652
0.094064 0.057797 0.014652
0.110000 0.057797 0.014652
0.124243 0.057797 0.014652
0.141187 0.057797 0.014652
0.156194 0.057797 0.014652
0.171618 0.057797 0.014652
0.186341 0.057797 0.014652
0.199693 0.057797 0.014652
0.213344 0.057797 0.014652
0.224554 0.057797 0.014652
0.238450 0.057797 0.014652
0.252590 0.057797 0.014652
0.266871 0.057797 0.014652
0.281264 0.057797 0.014652
0.295813 0.057797 0.014652
0.313143 0.057797 0.014652
0.330718 0.057797 0.014652
0.350467 0.057797 0.014652
0.371310 0.057797 0.014652
0.392351 0.057797 0.014652
0.413447 0.057797 0.014652
0.437717 0.057797 0.014652
0.462169 0.057797 0.014652
0.498373 0.057797 0.014652
0.547395 0.057797 0.014652
0.664957 0.057797 0.014652
0.026129 0.066241 0.014652
0.034574 0.066241 0.014652
0.043767 0.066241 0.014652
0.053464 0.066241 0.014652
0.065871 0.066241 0.014652
0.080271 0.066241 0.014652
0.094064 0.066241 0.014652
0.110000 0.066241 0.014652
0.124243 0.066241 0.014652
0.141187 0.066241 0.014652
0.156194 0.066241 0.014652
0.171618 0.066241 0.014652
0.186341 0.066241 0.014652
0.199693 0.066241 0.014652
0.213344 0.066241 0.014652
0.224554 0.066241 0.014652
0.238450 0.066241 0.014652
0.252590 0.066241 0.014652
0.266871 0.066241 0.014652
0.281264 0.066241 0.014652
0.295813 0.066241 0.014652
0.313143 0.066241 0.014652
0.330718 0.066241 0.014652
0.350467 0.066241 0.014652
0.371310 0.066241 0.014652
0.392351 0.066241 0.014652
0.413447 0.066241 0.014652
0.437717 0.066241 0.014652
0.462169 0.066241 0.014652
0.498373 0.066241 0.014652
0.547395 0.066241 0.014652
0.664957 0.066241 0.014652
0.026129 0.073567 0.014652
0.034574 0.073567 0.014652
0.043767 0.073567 0.014652
0.053464 0.073567 0.014652
0.065871 0.073567 0.014652
0.080271 0.073567 0.014652
0.094064 0.073567 0.014652
0.110000 0.073567 0.014652
0.124243 0.073567 0.014652
0.141187 0.073567 0.014652
0.156194 0.073567 0.014652
0.171618 0.073567 0.014652
0.186341 0.073567 0.014652
0.199693 0.073567 0.014652
0.213344 0.073567 0.014652
0.224554 0.073567 0.014652
0.238450 0.073567 0.014652
0.252590 0.073567 0.014652
0.266871 0.073567 0.014652
0.281264 0.073567 0.014652
0.295813 0.073567 0.014652
0.313143 0.073567 0.014652
0.330718 0.073567 0.014652
0.350467 0.073567 0.014652
0.371310 0.073567 0.014652
0.392351 0.073567 0.014652
0.413447 0.073567 0.014652
0.437717 0.073567 0.014652
0.462169 0.073567 0.014652
0.498373 0.073567 0.014652
0.547395 0.073567 0.014652
0.664957 0.073567 0.014652
0.026129 0.082532 0.014652
0.034574 0.082532 0.014652
0.043767 0.082532 0.014652
0.053464 0.082532 0.014652
0.065871 0.082532 0.014652
0.080271 0.082532 0.014652
0.094064 0.082532 0.014652
0.110000 0.082532 0.014652
0.124243 0.082532 0.014652
0.141187 0.082532 0.014652
0.156194 0.082532 0.014652
0.171618 0.082532 0.014652
0.186341 0.082532 0.014652
0.199693 0.082532 0.014652
0.213344 0.082532 0.014652
0.224554 0.082532 0.014652
0.238450 0.082532 0.014652
0.252590 0.082532 0.014652
0.266871 0.082532 0.014652
0.281264 0.082532 0.014652
0.295813 0.082532 0.014652
0.313143 0.082532 0.014652
0.330718 0.082532 0.014652
0.350467 0.082532 0.014652
0.371310 0.082532 0.014652
0.392351 0.082532 0.014652
0.413447 0.082532 0.014652
0.437717 0.082532 0.014652
0.462169 0.082532 0.014652
0.498373 0.082532 0.014652
0.547395 0.082532 0.014652
0.664957 0.082532 0.014652
0.026129 0.093757 0.014652
0.034574 0.093757 0.014652
0.043767 0.093757 0.014652
0.053464 0.093757 0.014652
0.065871 0.093757 0.014652
0.080271 0.093757 0.014652
0.094064 0.093757 0.014652
0.110000 0.093757 0.014652
0.124243 0.093757 0.014652
0.141187 0.093757 0.014652
0.156194 0.093757 0.014652
0.171618 0.093757 0.014652
0.186341 0.093757 0.014652
0.199693 0.093757 0.014652
0.213344 0.093757 0.014652
0.224554 0.093757 0.014652
0.238450 0.093757 0.014652
0.252590 0.093757 0.014652
0.266871 0.093757 0.014652
0.281264 0.093757 0.014652
0.295813 0.093757 0.014652
0.313143 0.093757 0.014652
0.330718 0.093757 0.014652
0.350467 0.093757 0.014652
0.371310 0.093757 0.014652
0.392351 0.093757 0.014652
0.413447 0.093757 0.014652
0.437717 0.093757 0.014652
0.462169 0.093757 0.014652
0.498373 0.093757 0.014652
0.547395 0.093757 0.014652
0.664957 0.093757 0.014652
0.026129 0.105487 0.014652
0.034574 0.105487 0.014652
0.043767 0.105487 0.014652
0.053464 0.105487 0.014652
0.065871 0.105487 0.014652
0.080271 0.105487 0.014652
0.094064 0.105487 0.014652
0.110000 0.105487 0.014652
0.124243 0.105487 0.014652
0.141187 0.105487 0.014652
0.156194 0.105487 0.014652
0.171618 0.105487 0.014652
0.186341 0.105487 0.014652
0.199693 0.105487 0.014652
0.213344 0.105487 0.014652
0.224554 0.105487 0.014652
0.238450 0.105487 0.014652
0.252590 0.105487 0.014652
0.266871 0.105487 0.014652
0.281264 0.105487 0.014652
0.295813 0.105487 0.014652
0.313143 0.105487 0.014652
0.330718 0.105487 0.014652
0.350467 0.105487 0.014652
0.371310 0.105487 0.014652
0.392351 0.105487 0.014652
0.413447 0.105487 0.014652
0.437717 0.105487 0.014652
0.462169 0.105487 0.014652
0.498373 0.105487 0.014652
0.547395 0.105487 0.014652
0.664957 0.105487 0.014652
0.026129 0.118106 0.014652
0.034574 0.118106 0.014652
0.043767 0.118106 0.014652
0.053464 0.118106 0.014652
0.065871 0.118106 0.014652
0.080271 0.118106 0.014652
0.094064 0.118106 0.014652
0.110000 0.118106 0.014652
0.124243 0.118106 0.014652
0.141187 0.118106 0.014652
0.156194 0.118106 0.014652
0.171618 0.118106 0.014652
0.186341 0.118106 0.014652
0.199693 0.118106 0.014652
0.213344 0.118106 0.014652
0.224554 0.118106 0.014652
0.238450 0.118106 0.014652
0.252590 0.118106 0.014652
0.266871 0.118106 0.014652
0.281264 0.118106 0.014652
0.295813 0.118106 0.014652
0.313143 0.118106 0.014652
0.330718 0.118106 0.014652
0.350467 0.118106 0.014652
0.371310 0.118106 0.014652
0.392351 0.118106 0.014652
0.413447 0.118106 0.014652
0.437717 0.118106 0.014652
0.462169 0.118106 0.014652
0.498373 0.118106 0.014652
0.547395 0.118106 0.014652
0.664957 0.118106 0.014652
0.026129 0.131837 0.014652
0.034574 0.131837 0.014652
0.043767 0.131837 0.014652
0.053464 0.131837 0.014652
0.065871 0.131837 0.014652
0.080271 0.131837 0.014652
0.094064 0.131837 0.014652
0.110000 0.131837 0.014652
0.124243 0.131837 0.014652
0.141187 0.131837 0.014652
0.156194 0.131837 0.014652
0.171618 0.131837 0.014652
0.186341 0.131837 0.014652
0.199693 0.131837 0.014652
0.213344 0.131837 0.014652
0.224554 0.131837 0.014652
0.238450 0.131837 0.014652
0.252590 0.131837 0.014652
0.266871 0.131837 0.014652
0.281264 0.131837 0.014652
0.295813 0.131837 0.014652
0.313143 0.131837 0.014652
0.330718 0.131837 0.014652
0.350467 0.131837 0.014652
0.371310 0.131837 0.014652
0.392351 0.131837 0.014652
0.413447 0.131837 0.014652
0.437717 0.131837 0.014652
0.462169 0.131837 0.014652
0.498373 0.131837 0.014652
0.547395 0.131837 0.014652
0.664957 0.131837 0.014652
0.026129 0.145189 0.014652
0.034574 0.145189 0.014652
0.043767 0.145189 0.014652
0.053464 0.145189 0.014652
0.065871 0.145189 0.014652
0.080271 0.145189 0.014652
0.094064 0.145189 0.014652
0.110000 0.145189 0.014652
0.124243 0.145189 0.014652
0.141187 0.145189 0.014652
0.156194 0.145189 0.014652
0.171618 0.145189 0.014652
0.186341 0.145189 0.014652
0.199693 0.145189 0.014652
0.213344 0.145189 0.014652
0.224554 0.145189 0.014652
0.238450 0.145189 0.014652
0.252590 0.145189 0.014652
0.266871 0.145189 0.014652
0.281264 0.145189 0.014652
0.295813 0.145189 0.014652
0.313143 0.145189 0.014652
0.330718 0.145189 0.014652
0.350467 0.145189 0.014652
0.371310 0.145189 0.014652
0.392351 0.145189 0.014652
0.413447 0.145189 0.014652
0.437717 0.145189 0.014652
0.462169 0.145189 0.014652
0.498373 0.145189 0.014652
0.547395 0.145189 0.014652
0.664957 0.145189 0.014652
0.026129 0.159439 0.014652
0.034574 0.159439 0.014652
0.043767 0.159439 0.014652
0.053464 0.159439 0.014652
0.065871 0.159439 0.014652
0.080271 0.159439 0.014652
0.094064 0.159439 0.014652
0.110000 0.159439 0.014652
0.124243 0.159439 0.014652
0.141187 0.159439 0.014652
0.156194 0.159439 0.014652
0.171618 0.159439 0.014652
0.186341 0.159439 0.014652
0.199693 0.159439 0.014652
0.213344 0.159439 0.014652
0.224554 0.159439 0.014652
0.238450 0.159439 0.014652
0.252590 0.159439 0.014652
0.266871 0.159439 0.014652
0.281264 0.159439 0.014652
0.295813 0.159439 0.014652
0.313143 0.159439 0.014652
0.330718 0.159439 0.014652
0.350467 0.159439 0.014652
0.371310 0.159439 0.014652
0.392351 0.159439 0.014652
0.413447 0.159439 0.014652
0.437717 0.159439 0.014652
0.462169 0.159439 0.014652
0.498373 0.159439 0.014652
0.547395 0.159439 0.014652
0.664957 0.159439 0.014652
0.026129 0.169900 0.014652
0.034574 0.169900 0.014652
0.043767 0.169900 0.014652
0.053464 0.169900 0.014652
0.065871 0.169900 0.014652
0.080271 0.169900 0.014652
0.094064 0.169900 0.014652
0.110000 0.169900 0.014652
0.124243 0.169900 0.014652
0.141187 0.169900 0.014652
0.156194 0.169900 0.014652
0.171618 0.169900 0.014652
0.186341 0.169900 0.014652
0.199693 0.169900 0.014652
0.213344 0.169900 0.014652
0.224554 0.169900 0.014652
0.238450 0.169900 0.014652
0.252590 0.169900 0.014652
0.266871 0.169900 0.014652
0.281264 0.169900 0.014652
0.295813 0.169900 0.014652
0.313143 0.169900 0.014652
0.330718 0.169900 0.014652
0.350467 0.169900 0.014652
0.371310 0.169900 0.014652
0.392351 0.169900 0.014652
0.413447 0.169900 0.014652
0.437717 0.169900 0.014652
0.462169 0.169900 0.014652
0.498373 0.169900 0.014652
0.547395 0.169900 0.014652
0.664957 0.169900 0.014652
0.026129 0.181984 0.014652
0.034574 0.181984 0.014652
0.043767 0.181984 0.014652
0.053464 0.181984 0.014652
0.065871 0.181984 0.014652
0.080271 0.181984 0.014652
0.094064 0.181984 0.014652
0.110000 0.181984 0.014652
0.124243 0.181984 0.014652
0.141187 0.181984 0.014652
0.156194 0.181984 0.014652
0.171618 0.181984 0.014652
0.186341 0.181984 0.014652
0.199693 0.181984 0.014652
0.213344 0.181984 0.014652
0.224554 0.181984 0.014652
0.238450 0.181984 0.014652
0.252590 0.181984 0.014652
0.266871 0.181984 0.014652
0.281264 0.181984 0.014652
0.295813 0.181984 0.014652
0.313143 0.181984 0.014652
0.330718 0.181984 0.014652
0.350467 0.181984 0.014652
0.371310 0.181984 0.014652
0.392351 0.181984 0.014652
0.413447 0.181984 0.014652
0.437717 0.181984 0.014652
0.462169 0.181984 0.014652
0.498373 0.181984 0.014652
0.547395 0.181984 0.014652
0.664957 0.181984 0.014652
0.026129 0.194123 0.014652
0.034574 0.194123 0.014652
0.043767 0.194123 0.014652
0.053464 0.194123 0.014652
0.065871 0.194123 0.014652
0.080271 0.194123 0.014652
0.094064 0.194123 0.014652
0.110000 0.194123 0.014652
0.124243 0.194123 0.014652
0.141187 0.194123 0.014652
0.156194 0.194123 0.014652
0.171618 0.194123 0.014652
0.186341 0.194123 0.014652
0.199693 0.194123 0.014652
0.213344 0.194123 0.014652
0.224554 0.194123 0.014652
0.238450 0.194123 0.014652
0.252590 0.194123 0.014652
0.266871 0.194123 0.014652
0.281264 0.194123 0.014652
0.295813 0.194123 0.014652
0.313143 0.194123 0.014652
0.330718 0.194123 0.014652
0.350467 0.194123 0.014652
0.371310 0.194123 0.014652
0.392351 0.194123 0.014652
0.413447 0.194123 0.014652
0.437717 0.194123 0.014652
0.462169 0.194123 0.014652
0.498373 0.194123 0.014652
0.547395 0.194123 0.014652
0.664957 0.194123 0.014652
0.026129 0.208996 0.014652
0.034574 0.208996 0.014652
0.043767 0.208996 0.014652
0.053464 0.208996 0.014652
0.065871 0.208996 0.014652
0.080271 0.208996 0.014652
0.094064 0.208996 0.014652
0.110000 0.208996 0.014652
0.124243 0.208996 0.014652
0.141187 0.208996 0.014652
0.156194 0.208996 0.014652
0.171618 0.208996 0.014652
0.186341 0.208996 0.014652
0.199693 0.208996 0.014652
0.213344 0.208996 0.014652
0.224554 0.208996 0.014652
0.238450 0.208996 0.014652
0.252590 0.208996 0.014652
0.266871 0.208996 0.014652
0.281264 0.208996 0.014652
0.295813 0.208996 0.014652
0.313143 0.208996 0.014652
0.330718 0.208996 0.014652
0.350467 0.208996 0.014652
0.371310 0.208996 0.014652
0.392351 0.208996 0.014652
0.413447 0.208996 0.014652
0.437717 0.208996 0.014652
0.462169 0.208996 0.014652
0.498373 0.208996 0.014652
0.547395 0.208996 0.014652
0.664957 0.208996 0.014652
0.026129 0.223750 0.014652
0.034574 0.223750 0.014652
0.043767 0.223750 0.014652
0.053464 0.223750 0.014652
0.065871 0.223750 0.014652
0.080271 0.223750 0.014652
0.094064 0.223750 0.014652
0.110000 0.223750 0.014652
0.124243 0.223750 0.014652
0.141187 0.223750 0.014652
0.156194 0.223750 0.014652
0.171618 0.223750 0.014652
0.186341 0.223750 0.014652
0.199693 0.223750 0.014652
0.213344 0.223750 0.014652
0.224554 0.223750 0.014652
0.238450 0.223750 0.014652
0.252590 0.223750 0.014652
0.266871 0.223750 0.014652
0.281264 0.223750 0.014652
0.295813 0.223750 0.014652
0.313143 0.223750 0.014652
0.330718 0.223750 0.014652
0.350467 0.223750 0.014652
0.371310 0.223750 0.014652
0.392351 0.223750 0.014652
0.413447 0.223750 0.014652
0.437717 0.223750 0.014652
0.462169 0.223750 0.014652
0.498373 0.223750 0.014652
0.547395 0.223750 0.014652
0.664957 0.223750 0.014652
0.026129 0.239293 0.014652
0.034574 0.239293 0.014652
0.043767 0.239293 0.014652
0.053464 0.239293 0.014652
0.065871 0.239293 0.014652
0.080271 0.239293 0.014652
0.094064 0.239293 0.014652
0.110000 0.239293 0.014652
0.124243 0.239293 0.014652
0.141187 0.239293 0.014652
0.156194 0.239293 0.014652
0.171618 0.239293 0.014652
0.186341 0.239293 0.014652
0.199693 0.239293 0.014652
0.213344 0.239293 0.014652
0.224554 0.239293 0.014652
0.238450 0.239293 0.014652
0.252590 0.239293 0.014652
0.266871 0.239293 0.014652
0.281264 0.239293 0.014652
0.295813 0.239293 0.014652
0.313143 0.239293 0.014652
0.330718 0.239293 0.014652
0.350467 0.239293 0.014652
0.371310 0.239293 0.014652
0.392351 0.239293 0.014652
0.413447 0.239293 0.014652
0.437717 0.239293 0.014652
0.462169 0.239293 0.014652
0.498373 0.239293 0.014652
0.547395 0.239293 0.014652
0.664957 0.239293 0.014652
0.026129 0.255961 0.014652
0.034574 0.255961 0.014652
0.043767 0.255961 0.014652
0.053464 0.255961 0.014652
0.065871 0.255961 0.014652
0.080271 0.255961 0.014652
0.094064 0.255961 0.014652
0.110000 0.255961 0.014652
0.124243 0.255961 0.014652
0.141187 0.255961 0.014652
0.156194 0.255961 0.014652
0.171618 0.255961 0.014652
0.186341 0.255961 0.014652
0.199693 0.255961 0.014652
0.213344 0.255961 0.014652
0.224554 0.255961 0.014652
0.238450 0.255961 0.014652
0.252590 0.255961 0.014652
0.266871 0.255961 0.014652
0.281264 0.255961 0.014652
0.295813 0.255961 0.014652
0.313143 0.255961 0.014652
0.330718 0.255961 0.014652
0.350467 0.255961 0.014652
0.371310 0.255961 0.014652
0.392351 0.255961 0.014652
0.413447 0.255961 0.014652
0.437717 0.255961 0.014652
0.462169 0.255961 0.014652
0.498373 0.255961 0.014652
0.547395 0.255961 0.014652
0.664957 0.255961 0.014652
0.026129 0.272874 0.014652
0.034574 0.272874 0.014652
0.043767 0.272874 0.014652
0.053464 0.272874 0.014652
0.065871 0.272874 0.014652
0.080271 0.272874 0.014652
0.094064 0.272874 0.014652
0.110000 0.272874 0.014652
0.124243 0.272874 0.014652
0.141187 0.272874 0.014652
0.156194 0.272874 0.014652
0.171618 0.272874 0.014652
0.186341 0.272874 0.014652
0.199693 0.272874 0.014652
0.213344 0.272874 0.014652
0.224554 0.272874 0.014652
0.238450 0.272874 0.014652
0.252590 0.272874 0.014652
0.266871 0.272874 0.014652
0.281264 0.272874 0.014652
0.295813 0.272874 0.014652
0.313143 0.272874 0.014652
0.330718 0.272874 0.014652
0.350467 0.272874 0.014652
0.371310 0.272874 0.014652
0.392351 0.272874 0.014652
0.413447 0.272874 0.014652
0.437717 0.272874 0.014652
0.462169 0.272874 0.014652
0.498373 0.272874 0.014652
0.547395 0.272874 0.014652
0.664957 0.272874 0.014652
0.026129 0.290913 0.014652
0.034574 0.290913 0.014652
0.043767 0.290913 0.014652
0.053464 0.290913 0.014652
0.065871 0.290913 0.014652
0.080271 0.290913 0.014652
0.094064 0.290913 0.014652
0.110000 0.290913 0.014652
0.124243 0.290913 0.014652
0.141187 0.290913 0.014652
0.156194 0.290913 0.014652
0.171618 0.290913 0.014652
0.186341 0.290913 0.014652
0.199693 0.290913 0.014652
0.213344 0.290913 0.014652
0.224554 0.290913 0.014652
0.238450 0.290913 0.014652
0.252590 0.290913 0.014652
0.266871 0.290913 0.014652
0.281264 0.290913 0.014652
0.295813 0.290913 0.014652
0.313143 0.290913 0.014652
0.330718 0.290913 0.014652
0.350467 0.290913 0.014652
0.371310 0.290913 0.014652
0.392351 0.290913 0.014652
0.413447 0.290913 0.014652
0.437717 0.290913 0.014652
0.462169 0.290913 0.014652
0.498373 0.290913 0.014652
0.547395 0.290913 0.014652
0.664957 0.290913 0.014652
0.026129 0.310056 0.014652
0.034574 0.310056 0.014652
0.043767 0.310056 0.014652
0.053464 0.310056 0.014652
0.065871 0.310056 0.014652
0.080271 0.310056 0.014652
0.094064 0.310056 0.014652
0.110000 0.310056 0.014652
0.124243 0.310056 0.014652
0.141187 0.310056 0.014652
0.156194 0.310056 0.014652
0.171618 0.310056 0.014652
0.186341 0.310056 0.014652
0.199693 0.310056 0.014652
0.213344 0.310056 0.014652
0.224554 0.310056 0.014652
0.238450 0.310056 0.014652
0.252590 0.310056 0.014652
0.266871 0.310056 0.014652
0.281264 0.310056 0.014652
0.295813 0.310056 0.014652
0.313143 0.310056 0.014652
0.330718 0.310056 0.014652
0.350467 0.310056 0.014652
0.371310 0.310056 0.014652
0.392351 0.310056 0.014652
0.413447 0.310056 0.014652
0.437717 0.310056 0.014652
0.462169 0.310056 0.014652
0.498373 0.310056 0.014652
0.547395 0.310056 0.014652
0.664957 0.310056 0.014652
0.026129 0.330340 0.014652
0.034574 0.330340 0.014652
0.043767 0.330340 0.014652
0.053464 0.330340 0.014652
0.065871 0.330340 0.014652
0.080271 0.330340 0.014652
0.094064 0.330340 0.014652
0.110000 0.330340 0.014652
0.124243 0.330340 0.014652
0.141187 0.330340 0.014652
0.156194 0.330340 0.014652
0.171618 0.330340 0.014652
0.186341 0.330340 0.014652
0.199693 0.330340 0.014652
0.213344 0.330340 0.014652
0.224554 0.330340 0.014652
0.238450 0.330340 0.014652
0.252590 0.330340 0.014652
0.266871 0.330340 0.014652
0.281264 0.330340 0.014652
0.295813 0.330340 0.014652
0.313143 0.330340 0.014652
0.330718 0.330340 0.014652
0.350467 0.330340 0.014652
0.371310 0.330340 0.014652
0.392351 0.330340 0.014652
0.413447 0.330340 0.014652
0.437717 0.330340 0.014652
0.462169 0.330340 0.014652
0.498373 0.330340 0.014652
0.547395 0.330340 0.014652
0.664957 0.330340 0.014652
0.026129 0.353098 0.014652
0.034574 0.353098 0.014652
0.043767 0.353098 0.014652
0.053464 0.353098 0.014652
0.065871 0.353098 0.014652
0.080271 0.353098 0.014652
0.094064 0.353098 0.014652
0.110000 0.353098 0.014652
0.124243 0.353098 0.014652
0.141187 0.353098 0.014652
0.156194 0.353098 0.014652
0.171618 0.353098 0.014652
0.186341 0.353098 0.014652
0.199693 0.353098 0.014652
0.213344 0.353098 0.014652
0.224554 0.353098 0.014652
0.238450 0.353098 0.014652
0.252590 0.353098 0.014652
0.266871 0.353098 0.014652
0.281264 0.353098 0.014652
0.295813 0.353098 0.014652
0.313143 0.353098 0.014652
0.330718 0.353098 0.014652
0.350467 0.353098 0.014652
0.371310 0.353098 0.014652
0.392351 0.353098 0.014652
0.413447 0.353098 0.014652
0.437717 0.353098 0.014652
0.462169 0.353098 0.014652
0.498373 0.353098 0.014652
0.547395 0.353098 0.014652
0.664957 0.353098 0.014652
0.026129 0.376872 0.014652
0.034574 0.376872 0.014652
0.043767 0.376872 0.014652
0.053464 0.376872 0.014652
0.065871 0.376872 0.014652
0.080271 0.376872 0.014652
0.094064 0.376872 0.014652
0.110000 0.376872 0.014652
0.124243 0.376872 0.014652
0.141187 0.376872 0.014652
0.156194 0.376872 0.014652
0.171618 0.376872 0.014652
0.186341 0.376872 0.014652
0.199693 0.376872 0.014652
0.213344 0.376872 0.014652
0.224554 0.376872 0.014652
0.238450 0.376872 0.014652
0.252590 0.376872 0.014652
0.266871 0.376872 0.014652
0.281264 0.376872 0.014652
0.295813 0.376872 0.014652
0.313143 0.376872 0.014652
0.330718 0.376872 0.014652
0.350467 0.376872 0.014652
0.371310 0.376872 0.014652
0.392351 0.376872 0.014652
0.413447 0.376872 0.014652
0.437717 0.376872 0.014652
0.462169 0.376872 0.014652
0.498373 0.376872 0.014652
0.547395 0.376872 0.014652
0.664957 0.376872 0.014652
0.026129 0.403671 0.014652
0.034574 0.403671 0.014652
0.043767 0.403671 0.014652
0.053464 0.403671 0.014652
0.065871 0.403671 0.014652
0.080271 0.403671 0.014652
0.094064 0.403671 0.014652
0.110000 0.403671 0.014652
0.124243 0.403671 0.014652
0.141187 0.403671 0.014652
0.156194 0.403671 0.014652
0.171618 0.403671 0.014652
0.186341 0.403671 0.014652
0.199693 0.403671 0.014652
0.213344 0.403671 0.014652
0.224554 0.403671 0.014652
0.238450 0.403671 0.014652
0.252590 0.403671 0.014652
