gsg/03_Cinematic/GSG_LUT_Cinematic_MoonlightBay.cube
# GSG LUTs 1.0
# Copyright (c) 2016-2020 Greyscalegorilla
# See EULA for licensing and distribution information
# Converted by Briz LUT Converter
LUT_3D_SIZE 8
DOMAIN_MIN 0.000000 0.000000 0.000000
DOMAIN_MAX 0.903226 0.903226 0.903226
0.011477 0.045665 0.055922
0.039545 0.055804 0.064043
0.055110 0.059719 0.066493
0.083556 0.068589 0.073284
0.123250 0.078798 0.083926
0.175682 0.088999 0.095419
0.243239 0.098161 0.105975
0.329135 0.105132 0.114364
0.040655 0.096026 0.078475
0.065150 0.103899 0.084974
0.078199 0.105943 0.084997
0.103100 0.111658 0.088889
0.140430 0.119665 0.095553
0.190503 0.128048 0.102665
0.255945 0.135656 0.109023
0.340221 0.141069 0.113112
0.065918 0.156540 0.104321
0.088731 0.163102 0.107180
0.100193 0.163559 0.104549
0.123108 0.167017 0.105028
0.159289 0.173650 0.109142
0.206822 0.181291 0.113561
0.269320 0.188247 0.116208
0.351150 0.193367 0.116584
0.087022 0.229446 0.125850
0.109622 0.234999 0.125346
0.119642 0.234252 0.120572
0.140762 0.235701 0.118500
0.176517 0.239915 0.120200
0.223772 0.246059 0.124132
0.283947 0.253117 0.125915
0.362899 0.259968 0.124467
0.102737 0.317831 0.140336
0.125338 0.322698 0.136366
0.134167 0.320871 0.130111
0.154122 0.320429 0.126620
0.189147 0.322153 0.126572
0.238103 0.326766 0.130019
0.302851 0.336705 0.141708
0.378878 0.349758 0.152728
0.110520 0.424956 0.144165
0.133522 0.429671 0.136965
0.141368 0.427232 0.130150
0.161379 0.424729 0.128292
0.202807 0.425512 0.136001
0.259073 0.430384 0.148387
0.325180 0.438111 0.161928
0.399291 0.448375 0.176770
0.110512 0.553051 0.135649
0.140641 0.554418 0.131930
0.159184 0.547166 0.137677
0.188586 0.540263 0.149356
0.233923 0.536710 0.162924
0.292138 0.536681 0.179629
0.358513 0.540108 0.198314
0.430173 0.547363 0.218890
0.147276 0.673756 0.153074
0.193968 0.663941 0.167655
0.221854 0.653313 0.181411
0.250203 0.643217 0.194746
0.292800 0.636650 0.209918
0.346992 0.634266 0.227319
0.407814 0.635774 0.249896
0.472344 0.641175 0.276169
0.017252 0.054189 0.110985
0.045866 0.062858 0.117882
0.061861 0.065918 0.118949
0.090858 0.073504 0.123411
0.130931 0.084281 0.130993
0.182318 0.094467 0.142172
0.249100 0.102580 0.154114
0.334452 0.108453 0.163661
0.044381 0.104337 0.128886
0.069211 0.110918 0.134376
0.082559 0.112081 0.132543
0.107700 0.116330 0.134979
0.145620 0.123848 0.139469
0.195354 0.131106 0.146098
0.260748 0.136981 0.152181
0.345483 0.140805 0.155942
0.071646 0.164024 0.150490
0.094392 0.169549 0.152797
0.105278 0.169027 0.148432
0.126803 0.171401 0.147171
0.161659 0.176283 0.148460
0.209566 0.182232 0.150505
0.272802 0.187482 0.151435
0.355285 0.190660 0.149732
0.091988 0.235551 0.171838
0.113982 0.240033 0.169966
0.123249 0.238251 0.162920
0.142312 0.238850 0.157591
0.175778 0.242010 0.154468
0.223413 0.246612 0.154004
0.284133 0.252065 0.152473
0.363757 0.259458 0.152472
0.106140 0.322376 0.185388
0.128205 0.326098 0.179225
0.136140 0.323370 0.169754
0.152846 0.322371 0.160687
0.185686 0.323437 0.154182
0.236966 0.328200 0.157067
0.302852 0.338364 0.168774
0.378949 0.351070 0.180479
0.112146 0.427941 0.186443
0.134733 0.431519 0.175962
0.141783 0.428109 0.164386
0.160568 0.426215 0.159430
0.201811 0.427637 0.165764
0.258573 0.432286 0.177526
0.325299 0.439793 0.191265
0.399918 0.449774 0.208424
0.111112 0.554397 0.172539
0.144017 0.553231 0.168682
0.164784 0.545827 0.174427
0.193563 0.539452 0.184557
0.239122 0.536048 0.197766
0.296595 0.536469 0.213650
0.362071 0.540604 0.231736
0.432477 0.548398 0.251552
0.153314 0.669999 0.190282
0.200577 0.660954 0.203490
0.229660 0.650935 0.216211
0.257913 0.641602 0.228947
0.299610 0.635453 0.243196
0.352905 0.633692 0.260483
0.412618 0.635756 0.282761
0.475920 0.641504 0.308270
0.021986 0.061428 0.171555
0.050904 0.068754 0.178975
0.067210 0.070834 0.179298
0.097285 0.077443 0.182015
0.138620 0.087013 0.187695
0.189878 0.098296 0.195879
0.255219 0.107174 0.207948
0.340201 0.112025 0.220609
0.046327 0.111607 0.186978
0.071952 0.116854 0.192426
0.085730 0.117064 0.189493
0.111430 0.120026 0.191018
0.150470 0.126314 0.193677
0.200465 0.134566 0.197670
0.264847 0.140244 0.205010
0.349041 0.142841 0.211209
0.071708 0.171570 0.205648
0.095474 0.175713 0.207262
0.106880 0.174391 0.201294
0.128903 0.175603 0.199053
0.164070 0.179069 0.199652
0.212617 0.184110 0.200597
0.276269 0.187859 0.202015
0.359711 0.189406 0.201243
0.096201 0.241813 0.223828
0.118063 0.245287 0.221970
0.127013 0.242831 0.213614
0.145390 0.242562 0.207541
0.177209 0.244629 0.203601
0.223575 0.247825 0.200504
0.285791 0.251988 0.198217
0.367420 0.260259 0.202985
0.109693 0.327291 0.239169
0.131499 0.330138 0.232763
0.138980 0.326629 0.221655
0.154688 0.324809 0.211390
0.184737 0.325662 0.202650
0.236411 0.331707 0.205931
0.304018 0.341728 0.217203
0.381007 0.353792 0.228336
0.114347 0.431817 0.242019
0.136614 0.434377 0.230729
0.143713 0.430204 0.217662
0.164449 0.428210 0.215424
0.203624 0.431168 0.220041
0.259879 0.435826 0.229511
0.327935 0.442769 0.242884
0.402522 0.453001 0.258621
0.113123 0.556726 0.229006
0.149353 0.553406 0.228046
0.172638 0.546247 0.234035
0.201715 0.539947 0.241911
0.246560 0.537037 0.252550
0.303242 0.538064 0.265647
0.367784 0.542727 0.281087
0.437258 0.551348 0.298432
0.161448 0.667606 0.249727
0.209504 0.659546 0.260282
0.239629 0.650549 0.270477
0.267716 0.641736 0.280645
0.308675 0.636187 0.292501
0.360916 0.634854 0.308553
0.419592 0.637617 0.328842
0.481655 0.644111 0.352466
0.025436 0.067384 0.239190
0.054882 0.073425 0.248446
0.071669 0.074710 0.248722
0.102627 0.080310 0.250408
0.145487 0.088653 0.255055
0.198808 0.098767 0.261783
0.263075 0.109879 0.270123
0.346096 0.115838 0.284240
0.047335 0.117626 0.254378
0.073856 0.121769 0.260357
0.088015 0.121136 0.256850
0.114360 0.122886 0.258399
0.154667 0.127866 0.260009
0.206552 0.134794 0.262138
0.270051 0.142848 0.266210
0.353016 0.145274 0.274987
0.070163 0.178179 0.271156
0.094988 0.181109 0.272915
0.106631 0.179088 0.266140
0.129229 0.179133 0.263342
0.165437 0.181023 0.264024
0.215597 0.184852 0.263761
0.279272 0.189695 0.263788
0.362156 0.190554 0.266134
0.093802 0.249058 0.286536
0.117142 0.251306 0.284436
0.126731 0.247993 0.274889
0.145602 0.246608 0.268080
0.177864 0.247491 0.264328
0.224245 0.249198 0.261698
0.288226 0.253581 0.261875
0.372183 0.263550 0.270717
0.113014 0.332836 0.300412
0.134816 0.334771 0.294503
0.142079 0.330515 0.282817
0.157021 0.327761 0.272310
0.188280 0.329076 0.267335
0.239115 0.335957 0.272240
0.305620 0.345759 0.281252
0.384967 0.359163 0.292332
0.116854 0.436181 0.307344
0.138959 0.437735 0.296460
0.148177 0.433306 0.285825
0.170259 0.431529 0.284647
0.209231 0.434558 0.288993
0.265258 0.439268 0.296580
0.332894 0.446711 0.306999
0.408144 0.459128 0.320546
0.118486 0.557946 0.301508
0.157125 0.554342 0.301372
0.182082 0.547519 0.305160
0.211251 0.541744 0.310114
0.255511 0.539372 0.317247
0.311348 0.540927 0.327115
0.375019 0.546348 0.339305
0.444934 0.557137 0.354092
0.171082 0.666604 0.319858
0.219908 0.659389 0.327314
0.251112 0.651318 0.334533
0.280494 0.644435 0.342172
0.320754 0.639471 0.352016
0.371997 0.638750 0.365979
0.429622 0.642073 0.383663
0.490835 0.649538 0.404933
0.027847 0.072299 0.315207
0.057718 0.076844 0.327511
0.075088 0.077545 0.328687
0.106905 0.082089 0.330159
0.151556 0.089165 0.334539
0.207084 0.097827 0.340746
0.274095 0.107713 0.348237
0.354135 0.117861 0.357070
0.047012 0.122573 0.331994
0.074576 0.125460 0.339285
0.089087 0.124117 0.336314
0.116148 0.124671 0.338699
0.158052 0.128218 0.339909
0.212155 0.133741 0.341120
0.278109 0.140505 0.343545
0.358203 0.146914 0.348266
0.067335 0.183851 0.348672
0.093173 0.185734 0.351412
0.105200 0.182820 0.344525
0.128322 0.181677 0.342132
0.165676 0.182008 0.343614
0.218019 0.184222 0.342841
0.283869 0.188215 0.340710
0.365164 0.191892 0.341456
0.088115 0.255975 0.363086
0.112488 0.257048 0.361448
0.122438 0.252961 0.351407
0.141748 0.250438 0.344373
0.175199 0.249777 0.341034
0.223444 0.249745 0.339531
0.291134 0.255658 0.342298
0.374984 0.268553 0.350707
0.108957 0.339939 0.373790
0.132428 0.340573 0.368322
0.140493 0.335656 0.355823
0.156010 0.331915 0.345155
0.190424 0.333832 0.343884
0.242643 0.340940 0.350334
0.310165 0.351764 0.358917
0.390101 0.366590 0.367126
0.119721 0.440789 0.381627
0.141651 0.441672 0.372301
0.153688 0.437210 0.364254
0.176894 0.435842 0.363124
0.216432 0.438620 0.366140
0.272244 0.443527 0.371214
0.340817 0.453112 0.378428
0.415667 0.466879 0.388010
0.125058 0.559696 0.383610
0.166188 0.555903 0.383054
0.193110 0.549712 0.383591
0.222043 0.544448 0.384705
0.266858 0.543932 0.388399
0.322307 0.546308 0.394481
0.385273 0.552735 0.402909
0.454111 0.564496 0.415432
0.182102 0.666466 0.396755
0.231578 0.660074 0.400594
0.263656 0.652905 0.404979
0.292889 0.646887 0.409906
0.334183 0.644203 0.417348
0.384719 0.644313 0.428282
0.441344 0.648322 0.442752
0.501287 0.656417 0.461036
0.028729 0.075686 0.402371
0.059502 0.079192 0.417642
0.077128 0.079097 0.420781
0.110046 0.082524 0.422953
0.156383 0.088311 0.427994
0.214478 0.095436 0.434684
0.284619 0.103513 0.442420
0.368097 0.112473 0.450644
0.045409 0.126343 0.421746
0.074091 0.128024 0.431581
0.088868 0.125818 0.429935
0.116651 0.125216 0.433889
0.160256 0.127312 0.435802
0.216811 0.131253 0.436784
0.286001 0.136125 0.438879
0.368843 0.141746 0.441669
0.063065 0.188374 0.440105
0.089911 0.188980 0.444796
0.102262 0.185389 0.438709
0.125990 0.183025 0.437595
0.164730 0.181730 0.440957
0.219329 0.182188 0.440602
0.288386 0.184481 0.437557
0.371975 0.189211 0.436216
0.080635 0.261798 0.455008
0.106130 0.261621 0.455114
0.116334 0.256875 0.445367
0.136127 0.253222 0.438932
0.170794 0.250979 0.437029
0.221854 0.250085 0.438100
0.294068 0.257591 0.438653
0.378606 0.272774 0.440284
0.097890 0.347570 0.465490
0.122507 0.347003 0.461105
0.131053 0.341358 0.448306
0.148209 0.337176 0.438363
0.186735 0.339471 0.438325
0.243192 0.345984 0.441583
0.315237 0.357504 0.442928
0.394688 0.373294 0.445913
0.114301 0.447565 0.469708
0.139120 0.447246 0.462090
0.154980 0.443059 0.454459
0.179940 0.441787 0.451289
0.222692 0.443650 0.450322
0.281712 0.450143 0.450737
0.350206 0.460857 0.453339
0.424031 0.475245 0.458241
0.132797 0.561995 0.473119
0.177208 0.558145 0.470220
0.205160 0.552700 0.466591
0.233817 0.547978 0.463558
0.278111 0.548182 0.462837
0.334695 0.553077 0.464824
0.397057 0.560253 0.469054
0.463971 0.572701 0.479421
0.194155 0.667368 0.478364
0.243646 0.661746 0.479635
0.276657 0.655392 0.480448
0.305826 0.650029 0.481329
0.346507 0.648065 0.484840
0.398029 0.650443 0.492675
0.453999 0.655288 0.503652
0.512775 0.664120 0.518390
0.028138 0.078034 0.501036
0.059939 0.080066 0.520548
0.077996 0.079135 0.526537
0.111907 0.081563 0.530694
0.159991 0.086022 0.537441
0.220674 0.091398 0.545669
0.294305 0.097637 0.554791
0.382097 0.104360 0.564055
0.042451 0.128701 0.525110
0.072093 0.128961 0.538519
0.087336 0.126106 0.539466
0.115778 0.124045 0.546323
0.161053 0.124806 0.549796
0.220198 0.126995 0.551619
0.292976 0.129874 0.554321
0.379864 0.133970 0.555726
0.057149 0.191525 0.547152
0.085050 0.190827 0.555116
0.097639 0.186488 0.550965
0.122005 0.182867 0.552115
0.162944 0.180535 0.555142
0.220072 0.180177 0.552794
0.291804 0.181270 0.549158
0.377654 0.188199 0.544773
0.071155 0.266344 0.564930
0.097893 0.264860 0.567538
0.108256 0.259402 0.559226
0.128793 0.254709 0.553947
0.166679 0.251645 0.549756
0.224042 0.253153 0.543664
0.298395 0.263161 0.536756
0.381977 0.279659 0.532024
0.084435 0.354122 0.576620
0.112378 0.352136 0.571588
0.120787 0.345933 0.560321
0.142306 0.342375 0.549773
0.189275 0.346346 0.541725
0.251169 0.353537 0.534352
0.321927 0.364367 0.529603
0.399948 0.380417 0.527178
0.101996 0.455496 0.576392
0.135028 0.453477 0.567207
0.156335 0.449314 0.555636
0.186108 0.447450 0.545409
0.233333 0.450605 0.537584
0.292902 0.458151 0.532452
0.359111 0.467769 0.529803
0.431511 0.482536 0.529536
0.141739 0.564728 0.568847
0.189042 0.561135 0.560604
0.218102 0.556513 0.552437
0.246498 0.552295 0.544747
0.290402 0.553440 0.539083
0.346496 0.559060 0.536152
0.408910 0.568281 0.537443
0.474305 0.581469 0.544229
0.206491 0.668833 0.564591
0.256513 0.664248 0.561631
0.290342 0.658719 0.558249
0.319629 0.653981 0.554848
0.359504 0.652462 0.553766
0.410466 0.655713 0.557241
0.467204 0.662879 0.564854
0.524901 0.672618 0.575692
0.026421 0.078632 0.613084
0.058989 0.079573 0.638013
0.077545 0.077941 0.646946
0.112701 0.079672 0.651858
0.162649 0.083509 0.658309
0.225515 0.088527 0.665602
0.300989 0.095435 0.670634
0.389137 0.104166 0.674861
0.037883 0.129573 0.644087
0.069586 0.129182 0.658385
0.085743 0.125855 0.659656
0.116249 0.124249 0.662078
0.163042 0.125132 0.662929
0.223325 0.127218 0.663941
0.296829 0.130379 0.665112
0.384174 0.134778 0.665955
0.051002 0.193613 0.667830
0.082447 0.192471 0.672108
0.095954 0.187784 0.668469
0.122373 0.184459 0.665083
0.165375 0.182895 0.662575
0.222814 0.182441 0.660308
0.294522 0.183913 0.657601
0.380413 0.194993 0.649118
0.066446 0.269833 0.680871
0.097869 0.268116 0.678104
0.108447 0.262265 0.671514
0.130384 0.258296 0.665426
0.170063 0.255445 0.659251
0.230942 0.260487 0.647929
0.305169 0.272047 0.635686
0.386348 0.287902 0.625335
0.084816 0.358278 0.684950
0.115198 0.355782 0.679377
0.123253 0.349327 0.670413
0.150226 0.348931 0.656096
0.200105 0.354752 0.640750
0.261461 0.362642 0.627905
0.330959 0.373716 0.617653
0.406280 0.388670 0.609648
0.105644 0.459593 0.683493
0.144194 0.457449 0.670959
0.168187 0.454383 0.654691
0.199262 0.454579 0.638946
0.246459 0.459018 0.625580
0.305345 0.467005 0.614977
0.370378 0.476992 0.606933
0.440039 0.490619 0.600997
0.153899 0.567466 0.665955
0.202008 0.564717 0.652570
0.232097 0.561130 0.639637
0.261717 0.559137 0.626938
0.305418 0.561004 0.615940
0.360477 0.567320 0.608643
0.421434 0.577223 0.606574
0.484087 0.589499 0.608327
0.219554 0.671094 0.652664
0.269917 0.667323 0.645114
0.304941 0.662798 0.637269
0.334427 0.658977 0.629197
0.373463 0.657953 0.623147
0.423590 0.661733 0.621864
0.479570 0.669771 0.624687
0.537681 0.681455 0.631786
