gsg/03_Cinematic/GSG_LUT_Cinematic_BigDeep.cube
# GSG LUTs 1.0
# Copyright (c) 2016-2020 Greyscalegorilla
# See EULA for licensing and distribution information
# Converted by Briz LUT Converter
LUT_3D_SIZE 8
DOMAIN_MIN 0.000000 0.000000 0.000000
DOMAIN_MAX 0.903226 0.903226 0.903226
0.050794 0.061538 0.077167
0.062838 0.065422 0.078451
0.082957 0.073032 0.081390
0.115664 0.082020 0.087353
0.171090 0.090504 0.096372
0.252590 0.095151 0.105045
0.363992 0.091339 0.109347
0.511922 0.071409 0.104533
0.050794 0.087298 0.107669
0.051643 0.089941 0.105033
0.074718 0.092040 0.103029
0.114445 0.098148 0.106656
0.175416 0.106038 0.111852
0.259259 0.111699 0.116238
0.371368 0.112532 0.117751
0.518409 0.105048 0.111445
0.050794 0.120659 0.147702
0.050794 0.120863 0.149672
0.053186 0.129468 0.143392
0.108155 0.136602 0.138863
0.189248 0.146113 0.139683
0.282721 0.153910 0.139114
0.399110 0.160939 0.136497
0.546361 0.168679 0.126855
0.050794 0.178180 0.191989
0.050794 0.178687 0.193435
0.050794 0.181635 0.195466
0.081613 0.201378 0.183290
0.195952 0.213382 0.173217
0.309209 0.226090 0.171200
0.440444 0.241573 0.165499
0.586255 0.258818 0.152294
0.050794 0.262759 0.239009
0.050794 0.263760 0.240293
0.050794 0.264185 0.243176
0.053068 0.273983 0.240499
0.188779 0.300564 0.221761
0.315806 0.315103 0.204352
0.459730 0.337291 0.198566
0.621825 0.369652 0.188246
0.050794 0.372004 0.288936
0.050794 0.373012 0.290220
0.050794 0.373491 0.292631
0.050794 0.374517 0.296748
0.184930 0.394551 0.286337
0.336246 0.427388 0.261633
0.478055 0.449912 0.236545
0.640088 0.484808 0.230188
0.050794 0.513017 0.350396
0.050794 0.513286 0.351381
0.050794 0.513444 0.353649
0.054267 0.514112 0.357858
0.244138 0.518323 0.362802
0.380087 0.546036 0.344535
0.523130 0.577833 0.315280
0.659904 0.600816 0.289219
0.050794 0.669959 0.447911
0.050794 0.669959 0.449171
0.065671 0.670261 0.452625
0.253749 0.672064 0.460529
0.387656 0.671854 0.468549
0.498290 0.680860 0.472915
0.605049 0.701051 0.456684
0.722468 0.718422 0.432592
0.050794 0.064658 0.125385
0.051360 0.068293 0.127492
0.068565 0.077096 0.128898
0.105581 0.087066 0.135043
0.168641 0.094451 0.139250
0.253497 0.096758 0.140801
0.363434 0.089856 0.140722
0.508570 0.063695 0.135145
0.050794 0.089653 0.142964
0.050794 0.092190 0.146033
0.058409 0.096234 0.146307
0.104711 0.102217 0.146999
0.173878 0.108828 0.147751
0.260894 0.112790 0.148255
0.371246 0.110955 0.146962
0.516085 0.097683 0.140568
0.050794 0.124645 0.170058
0.050794 0.126288 0.175261
0.050936 0.132248 0.172861
0.101474 0.139657 0.169405
0.188232 0.147668 0.168751
0.281850 0.153891 0.166575
0.396262 0.158867 0.162858
0.542131 0.163360 0.154157
0.050794 0.183321 0.208332
0.050794 0.184359 0.213348
0.050794 0.186107 0.216170
0.074213 0.203242 0.205778
0.194485 0.214017 0.196596
0.308371 0.225706 0.194963
0.436199 0.238597 0.189407
0.581249 0.253825 0.177617
0.050794 0.268692 0.255279
0.050794 0.269040 0.256635
0.050794 0.269319 0.259077
0.051879 0.276097 0.258251
0.187143 0.301788 0.240754
0.316819 0.315939 0.224656
0.461071 0.337267 0.220232
0.622279 0.368269 0.212072
0.050794 0.376327 0.302646
0.050794 0.376678 0.303636
0.050794 0.377005 0.305799
0.050794 0.377808 0.309894
0.184692 0.395714 0.301792
0.336633 0.428368 0.278804
0.479653 0.450554 0.255457
0.641247 0.484662 0.250751
0.050794 0.515199 0.361487
0.050794 0.515010 0.362297
0.050794 0.515064 0.364380
0.052764 0.515828 0.368603
0.244046 0.519468 0.374422
0.380426 0.546583 0.358095
0.523131 0.577954 0.330215
0.660223 0.600622 0.305340
0.050794 0.670172 0.455885
0.050794 0.670356 0.457138
0.062626 0.670582 0.460485
0.247581 0.672446 0.468174
0.389266 0.674241 0.478547
0.499895 0.681533 0.483715
0.605101 0.701121 0.467358
0.722452 0.718464 0.443587
0.050794 0.071015 0.177589
0.050794 0.073796 0.180685
0.050981 0.081145 0.185938
0.086206 0.089181 0.191803
0.167898 0.089554 0.188521
0.257508 0.089304 0.189369
0.370460 0.077804 0.191645
0.515743 0.050916 0.186331
0.050794 0.093284 0.193351
0.050794 0.095715 0.196369
0.050794 0.099563 0.200138
0.085073 0.104679 0.201848
0.172288 0.106936 0.198519
0.265230 0.109397 0.199509
0.378717 0.102333 0.197963
0.523744 0.072136 0.191335
0.050794 0.129182 0.218143
0.050794 0.132209 0.220733
0.050794 0.138875 0.226266
0.082057 0.144016 0.224287
0.186204 0.149355 0.221356
0.285754 0.153414 0.217966
0.402366 0.154472 0.213237
0.548081 0.150822 0.204716
0.050794 0.191815 0.247940
0.050794 0.194984 0.250234
0.050794 0.200837 0.259119
0.062713 0.211836 0.255665
0.200341 0.221816 0.249304
0.317698 0.230282 0.246710
0.441888 0.237207 0.239324
0.586943 0.247930 0.228137
0.050794 0.279215 0.283327
0.050794 0.282303 0.286109
0.050794 0.286236 0.297921
0.051009 0.288417 0.300869
0.191277 0.312121 0.286635
0.328996 0.324670 0.273104
0.475164 0.343562 0.270102
0.631867 0.369604 0.263302
0.050794 0.388588 0.324709
0.050794 0.391008 0.332771
0.050794 0.392639 0.340539
0.050794 0.392882 0.344105
0.192307 0.404711 0.341108
0.344924 0.436893 0.320800
0.491114 0.457912 0.300617
0.650560 0.488760 0.298258
0.050794 0.526155 0.387057
0.050794 0.526925 0.391773
0.050794 0.526880 0.394365
0.052531 0.527045 0.398123
0.250045 0.528801 0.404549
0.386517 0.551838 0.392697
0.528879 0.582985 0.367753
0.667221 0.604881 0.345527
0.050794 0.675336 0.478681
0.050794 0.675176 0.479893
0.060705 0.675203 0.482950
0.239741 0.676846 0.490178
0.388450 0.678351 0.500077
0.502779 0.683331 0.508358
0.606950 0.702545 0.493723
0.724314 0.719807 0.471757
0.050794 0.078412 0.244697
0.050794 0.080917 0.247804
0.050794 0.085620 0.254630
0.056071 0.091937 0.260730
0.158999 0.096126 0.269187
0.264636 0.082573 0.265455
0.379000 0.052166 0.253359
0.520636 0.050794 0.249530
0.050794 0.099161 0.259683
0.050794 0.100409 0.261866
0.050794 0.103462 0.266845
0.056391 0.108688 0.271862
0.164989 0.113150 0.277525
0.272034 0.101960 0.270977
0.386445 0.070837 0.259826
0.529542 0.050912 0.255778
0.050794 0.134010 0.280781
0.050794 0.137306 0.284018
0.050794 0.143578 0.290214
0.056191 0.149982 0.295781
0.179460 0.154565 0.295979
0.289575 0.149408 0.286235
0.408714 0.142821 0.279724
0.554077 0.119741 0.270766
0.050794 0.200577 0.312951
0.050794 0.203934 0.315227
0.050794 0.212533 0.321250
0.053759 0.226263 0.330671
0.199251 0.230554 0.325614
0.319909 0.232032 0.317446
0.446662 0.232410 0.307338
0.591803 0.232642 0.294458
0.050794 0.292010 0.342916
0.050794 0.295491 0.344736
0.050794 0.303798 0.349776
0.050794 0.314275 0.362785
0.198067 0.328391 0.358457
0.348740 0.339146 0.348924
0.494133 0.351540 0.343859
0.638597 0.363364 0.331053
0.050794 0.401357 0.375338
0.050794 0.404647 0.377115
0.050794 0.411920 0.381907
0.050794 0.419001 0.399023
0.207160 0.421996 0.402426
0.359179 0.451273 0.386099
0.509672 0.469270 0.369484
0.665635 0.494727 0.368451
0.050794 0.536009 0.413842
0.050794 0.538343 0.415749
0.050794 0.543205 0.427910
0.050912 0.545914 0.445482
0.254641 0.546311 0.451498
0.397243 0.560791 0.447182
0.537978 0.590962 0.425240
0.678260 0.610580 0.405372
0.050794 0.682878 0.484772
0.050794 0.683143 0.492406
0.054269 0.683563 0.512794
0.213133 0.684361 0.525316
0.382425 0.685329 0.534193
0.504748 0.687091 0.544946
0.608963 0.704401 0.534563
0.727093 0.721622 0.514480
0.050794 0.086723 0.324495
0.050794 0.088274 0.327196
0.050794 0.091418 0.333050
0.050794 0.093880 0.342145
0.143407 0.095902 0.347851
0.274307 0.089385 0.358163
0.401632 0.053914 0.359303
0.545145 0.050794 0.349397
0.050794 0.105211 0.336752
0.050794 0.106374 0.338786
0.050794 0.108677 0.343503
0.050794 0.110988 0.351541
0.152101 0.114220 0.356928
0.281909 0.113224 0.365152
0.408996 0.078091 0.363909
0.551607 0.050794 0.351272
0.050794 0.143142 0.358110
0.050794 0.145700 0.360380
0.050794 0.149090 0.364811
0.050794 0.153629 0.372361
0.170208 0.160080 0.377971
0.300025 0.164768 0.382026
0.427681 0.143648 0.375029
0.567360 0.067773 0.356426
0.050794 0.205968 0.383286
0.050794 0.208938 0.385911
0.050794 0.217508 0.392918
0.050794 0.230938 0.403766
0.192827 0.240857 0.410955
0.327747 0.243605 0.407754
0.456045 0.226573 0.391179
0.595918 0.203101 0.371901
0.050794 0.302521 0.418130
0.050794 0.306141 0.420389
0.050794 0.315011 0.426014
0.050794 0.330525 0.435823
0.208779 0.350817 0.449014
0.363687 0.350994 0.439420
0.500239 0.345108 0.422700
0.641562 0.341414 0.403203
0.050794 0.416592 0.447795
0.050794 0.419985 0.449347
0.050794 0.427317 0.452634
0.050794 0.439904 0.459046
0.203305 0.454054 0.475809
0.380641 0.471480 0.471322
0.536101 0.484342 0.459447
0.684119 0.498664 0.453462
0.050794 0.547662 0.479204
0.050794 0.549455 0.479562
0.050794 0.554259 0.480811
0.050794 0.563462 0.487568
0.237463 0.571771 0.513305
0.413093 0.574387 0.517961
0.551439 0.602672 0.500130
0.693977 0.617668 0.484093
0.050794 0.688228 0.523526
0.050794 0.688918 0.524969
0.050794 0.690860 0.529894
0.070066 0.694079 0.548615
0.362640 0.695610 0.580055
0.501854 0.695358 0.590213
0.611452 0.706508 0.588488
0.730272 0.723878 0.570567
0.050794 0.094387 0.418410
0.050794 0.095174 0.420556
0.050794 0.096577 0.425333
0.050794 0.096122 0.433621
0.137995 0.089228 0.444533
0.287132 0.078074 0.449259
0.426748 0.052628 0.460731
0.580796 0.050794 0.473469
0.050794 0.112151 0.427480
0.050794 0.112847 0.429208
0.050794 0.114032 0.433454
0.050794 0.114461 0.441064
0.147241 0.110799 0.451443
0.295327 0.106134 0.455948
0.433921 0.087169 0.466242
0.585336 0.051123 0.476196
0.050794 0.152381 0.446885
0.050794 0.153326 0.448431
0.050794 0.155602 0.452334
0.050794 0.158530 0.459049
0.167771 0.160195 0.468958
0.316118 0.163691 0.473536
0.452996 0.163698 0.481055
0.600468 0.125676 0.485145
0.050794 0.215505 0.470552
0.050794 0.218818 0.473369
0.050794 0.227220 0.479145
0.050794 0.234577 0.486613
0.193102 0.241564 0.496650
0.347448 0.250680 0.502249
0.483664 0.257086 0.505612
0.623753 0.229913 0.496963
0.050794 0.310176 0.498279
0.050794 0.313152 0.500473
0.050794 0.320324 0.505558
0.050794 0.333353 0.515285
0.209993 0.350684 0.528687
0.379433 0.363395 0.537240
0.516479 0.362243 0.530851
0.649169 0.331504 0.504460
0.050794 0.429501 0.532775
0.050794 0.432405 0.534665
0.050794 0.439679 0.538974
0.050794 0.452725 0.547088
0.188289 0.473449 0.560384
0.414368 0.501418 0.579721
0.555649 0.495633 0.564212
0.687832 0.482157 0.538559
0.050794 0.562984 0.566939
0.050794 0.565090 0.567581
0.050794 0.570091 0.569159
0.050794 0.579161 0.572676
0.133699 0.591806 0.580169
0.429934 0.606093 0.604053
0.574002 0.620998 0.599600
0.714491 0.628874 0.588222
0.050794 0.697009 0.604103
0.050794 0.697563 0.603983
0.050794 0.699198 0.603636
0.050794 0.702149 0.604260
0.192875 0.706511 0.614268
0.495066 0.709391 0.650423
0.619708 0.710280 0.658177
0.736231 0.727448 0.643670
0.050794 0.100579 0.538509
0.050794 0.100201 0.540477
0.050794 0.098726 0.544211
0.050794 0.092884 0.550929
0.173566 0.074989 0.560306
0.337740 0.051233 0.570160
0.474039 0.050794 0.573082
0.609230 0.050794 0.579757
0.050794 0.119313 0.543801
0.050794 0.119131 0.545367
0.050794 0.118389 0.548858
0.050794 0.114894 0.554967
0.179237 0.103692 0.564178
0.342256 0.074877 0.573969
0.478468 0.053934 0.576619
0.612033 0.050875 0.582255
0.050794 0.162001 0.559041
0.050794 0.162273 0.560310
0.050794 0.163011 0.563331
0.050794 0.163235 0.568982
0.196402 0.160580 0.577363
0.358514 0.152142 0.587554
0.496552 0.147895 0.590358
0.627708 0.151156 0.594682
0.050794 0.232084 0.580240
0.050794 0.233655 0.581359
0.050794 0.235911 0.584322
0.050794 0.239470 0.590121
0.216151 0.243350 0.598393
0.381671 0.246071 0.609276
0.522625 0.253511 0.612247
0.650196 0.266171 0.614004
0.050794 0.324065 0.600235
0.050794 0.325631 0.601948
0.050794 0.329568 0.606226
0.050794 0.338604 0.613522
0.220621 0.347653 0.621872
0.398790 0.357057 0.632998
0.546978 0.370079 0.637789
0.673995 0.384856 0.637592
0.050794 0.443767 0.627355
0.050794 0.445432 0.628596
0.050794 0.449103 0.631414
0.050794 0.456617 0.637041
0.213946 0.470698 0.647240
0.420006 0.493765 0.663238
0.574532 0.511580 0.673188
0.696819 0.510591 0.662996
0.050794 0.574257 0.659822
0.050794 0.576000 0.660856
0.050794 0.580091 0.663463
0.050794 0.588180 0.668661
0.184561 0.601644 0.678106
0.436315 0.622436 0.693555
0.612179 0.649462 0.715690
0.725872 0.636704 0.695616
0.050794 0.705221 0.698801
0.050794 0.705957 0.699010
0.050794 0.708142 0.699518
0.050794 0.711541 0.700281
0.154047 0.716235 0.702308
0.441347 0.722226 0.710158
0.634522 0.726277 0.735072
0.749113 0.734034 0.732723
0.050794 0.104817 0.686990
0.050794 0.103032 0.688293
0.050794 0.096975 0.690258
0.068238 0.081094 0.694499
0.272574 0.053011 0.700652
0.421543 0.050794 0.708589
0.559749 0.050794 0.714567
0.685825 0.050794 0.715129
0.050794 0.128377 0.689826
0.050794 0.127313 0.691051
0.050794 0.123287 0.692975
0.068921 0.113387 0.696932
0.274603 0.089456 0.702754
0.423186 0.052676 0.710375
0.561446 0.050794 0.716515
0.687452 0.050794 0.716763
0.050794 0.177527 0.698324
0.050794 0.177096 0.699179
0.050794 0.175709 0.701038
0.071103 0.172376 0.705020
0.281465 0.164324 0.710355
0.430390 0.147443 0.717492
0.568852 0.124687 0.723781
0.694723 0.127773 0.723845
0.050794 0.250221 0.710361
0.050794 0.250568 0.711239
0.050794 0.251150 0.713029
0.068041 0.252013 0.716650
0.285700 0.252324 0.722070
0.438936 0.250540 0.728911
0.579303 0.249737 0.735921
0.706143 0.262733 0.735786
0.050794 0.345107 0.725342
0.050794 0.345737 0.726346
0.050794 0.348214 0.727714
0.052568 0.348989 0.730266
0.272361 0.353481 0.735134
0.439417 0.359071 0.741770
0.585596 0.367623 0.749875
0.716741 0.386355 0.750362
0.050794 0.467243 0.740541
0.050794 0.467169 0.741016
0.050794 0.466887 0.741907
0.050794 0.467796 0.744613
0.249965 0.474800 0.750143
0.438490 0.486453 0.757316
0.591742 0.502977 0.766842
0.728015 0.523183 0.769749
0.050794 0.596274 0.763115
0.050794 0.596593 0.763408
0.050794 0.597449 0.764174
0.052157 0.599815 0.765771
0.273562 0.605922 0.769509
0.460811 0.617648 0.775561
0.612716 0.637657 0.786094
0.743357 0.652797 0.792905
0.050794 0.710089 0.787548
0.050794 0.710583 0.787797
0.050794 0.711655 0.788397
0.077994 0.713998 0.790086
0.329923 0.719088 0.793756
0.497331 0.725647 0.798803
0.646692 0.734773 0.807051
0.780545 0.748869 0.822844
