gsg/03_Cinematic/GSG_LUT_Cinematic_OhBrother.cube
# GSG LUTs 1.0
# Copyright (c) 2016-2020 Greyscalegorilla
# See EULA for licensing and distribution information
# Converted by Briz LUT Converter
LUT_3D_SIZE 8
DOMAIN_MIN 0.000000 0.000000 0.000000
DOMAIN_MAX 0.903226 0.903226 0.903226
0.176313 0.128205 0.097192
0.246634 0.147284 0.107220
0.388956 0.186963 0.126842
0.521438 0.224735 0.144968
0.573272 0.239600 0.152279
0.603033 0.248147 0.156430
0.628225 0.255292 0.160219
0.651715 0.262106 0.163543
0.220765 0.194604 0.113057
0.291362 0.213683 0.122596
0.434204 0.253109 0.141983
0.567017 0.290626 0.160633
0.618914 0.305369 0.168238
0.648686 0.313813 0.172878
0.673867 0.320958 0.176911
0.697357 0.327743 0.180540
0.308267 0.316948 0.141337
0.378731 0.336090 0.150939
0.520714 0.375588 0.171689
0.651943 0.413273 0.193407
0.702218 0.428353 0.203666
0.729963 0.437200 0.211432
0.752271 0.444925 0.219906
0.770664 0.452765 0.231535
0.411548 0.459924 0.176596
0.479770 0.479779 0.188059
0.610808 0.522273 0.222718
0.711959 0.566946 0.286985
0.752255 0.584349 0.311669
0.775698 0.594194 0.325779
0.795612 0.602497 0.337500
0.814526 0.610184 0.348277
0.472449 0.553019 0.203379
0.529150 0.575896 0.230312
0.635039 0.624578 0.298680
0.736807 0.669581 0.360131
0.777898 0.686851 0.382975
0.801954 0.696672 0.395817
0.822663 0.704982 0.406349
0.842121 0.712561 0.416074
0.491355 0.613407 0.242373
0.542640 0.637780 0.275959
0.648327 0.686937 0.342588
0.751176 0.731963 0.400874
0.793123 0.749104 0.422033
0.817724 0.758848 0.433866
0.838954 0.766990 0.443389
0.859042 0.774414 0.452228
0.500414 0.657923 0.275080
0.551444 0.682571 0.308094
0.657245 0.731948 0.372788
0.761411 0.776998 0.428075
0.804107 0.794053 0.447800
0.829202 0.803627 0.458781
0.850751 0.811761 0.467552
0.871204 0.819119 0.475631
0.507062 0.694190 0.300776
0.557848 0.718702 0.333239
0.664201 0.768412 0.396018
0.769663 0.813321 0.448509
0.812990 0.830269 0.467045
0.838576 0.839788 0.477207
0.860412 0.847840 0.485383
0.881342 0.855197 0.492765
0.189035 0.136555 0.177723
0.255352 0.153239 0.145344
0.397393 0.192863 0.163496
0.530037 0.230718 0.181252
0.581740 0.245500 0.188412
0.611588 0.254047 0.192564
0.636693 0.261412 0.196164
0.660425 0.268029 0.199677
0.229477 0.200692 0.150528
0.299955 0.219456 0.160340
0.442861 0.259010 0.178124
0.575727 0.296546 0.196767
0.627413 0.311269 0.204402
0.657230 0.319789 0.209064
0.682335 0.326906 0.213114
0.705825 0.333686 0.216929
0.317247 0.322667 0.177494
0.387664 0.341802 0.187018
0.529229 0.381535 0.207935
0.660180 0.419326 0.230163
0.709342 0.434607 0.242424
0.736431 0.443524 0.251402
0.756103 0.451857 0.263599
0.774517 0.459658 0.275340
0.419922 0.465824 0.212986
0.488084 0.485774 0.224676
0.614193 0.529429 0.266455
0.715349 0.574017 0.331281
0.755672 0.591263 0.356191
0.779245 0.601110 0.370328
0.799208 0.609406 0.382197
0.818154 0.616995 0.393120
0.478991 0.559692 0.242346
0.532238 0.583093 0.274139
0.638110 0.631762 0.342982
0.740062 0.676646 0.404977
0.781299 0.693703 0.428021
0.805530 0.703494 0.440897
0.826243 0.711647 0.451597
0.845935 0.719210 0.461321
0.494411 0.620836 0.286211
0.545462 0.645071 0.320211
0.651180 0.694217 0.387415
0.754404 0.738919 0.445943
0.796552 0.755932 0.467399
0.821321 0.765624 0.479232
0.842616 0.773636 0.488921
0.862741 0.781060 0.497707
0.503037 0.665376 0.319162
0.553990 0.689856 0.352627
0.660058 0.739267 0.417750
0.764650 0.783906 0.473389
0.807534 0.800720 0.493411
0.832805 0.810292 0.504369
0.854572 0.818268 0.513189
0.875270 0.825587 0.521273
0.509602 0.701619 0.345134
0.560387 0.726322 0.378064
0.666990 0.775596 0.441176
0.772751 0.820229 0.494022
0.816450 0.837040 0.512685
0.842174 0.846437 0.522869
0.864264 0.854324 0.531267
0.885415 0.861614 0.538646
0.216960 0.155343 0.320887
0.296982 0.170011 0.263239
0.414043 0.204149 0.231881
0.545873 0.241805 0.248171
0.597731 0.256687 0.255307
0.627557 0.265211 0.259522
0.652684 0.272472 0.263262
0.676356 0.279123 0.266856
0.249541 0.221041 0.257644
0.315858 0.229508 0.280546
0.460234 0.269942 0.246283
0.591713 0.307603 0.263784
0.643373 0.322338 0.271736
0.673185 0.330863 0.276565
0.698232 0.337985 0.280838
0.721722 0.344693 0.284956
0.334041 0.333833 0.244968
0.403524 0.352995 0.254649
0.544934 0.392379 0.277148
0.674302 0.430668 0.300686
0.720375 0.446532 0.317792
0.743598 0.456387 0.332745
0.763172 0.464684 0.345339
0.781665 0.472458 0.357212
0.435487 0.477018 0.280697
0.502988 0.497093 0.293254
0.620501 0.542574 0.348267
0.721668 0.586951 0.414144
0.762092 0.604073 0.439504
0.785726 0.613777 0.453930
0.805914 0.622002 0.465878
0.825067 0.629494 0.476995
0.486375 0.572641 0.321392
0.537981 0.596581 0.356006
0.643633 0.645091 0.426121
0.746021 0.689500 0.489015
0.787667 0.706353 0.512396
0.812096 0.715932 0.525521
0.832966 0.723973 0.536344
0.852902 0.731324 0.546307
0.499634 0.634481 0.368490
0.550431 0.658696 0.402915
0.656365 0.707535 0.471156
0.760296 0.751725 0.530674
0.802920 0.768440 0.552366
0.828023 0.777947 0.564391
0.849519 0.785780 0.574217
0.869944 0.793059 0.583156
0.507866 0.679208 0.401884
0.558651 0.703667 0.435873
0.665053 0.752570 0.501980
0.770553 0.796566 0.558454
0.813913 0.813116 0.578708
0.839672 0.822493 0.589885
0.861562 0.830263 0.598913
0.882492 0.837443 0.607236
0.513971 0.715530 0.428327
0.564757 0.740013 0.461612
0.671902 0.788897 0.525727
0.778805 0.832762 0.579407
0.822979 0.849247 0.598428
0.849034 0.858536 0.608854
0.871462 0.866183 0.617258
0.892859 0.873418 0.624712
0.229343 0.163071 0.393257
0.325286 0.185311 0.386171
0.469239 0.226241 0.353565
0.567260 0.256397 0.335548
0.618630 0.271204 0.342337
0.648425 0.279655 0.346827
0.673583 0.286896 0.350650
0.697074 0.293489 0.354429
0.272030 0.236853 0.383239
0.330256 0.238299 0.393300
0.505606 0.281919 0.375321
0.613102 0.321805 0.351977
0.664100 0.336729 0.359845
0.693737 0.345190 0.365131
0.718678 0.352294 0.369751
0.742034 0.358908 0.374195
0.361803 0.362121 0.357501
0.411925 0.374228 0.375426
0.556537 0.400019 0.408342
0.689768 0.445452 0.399158
0.729380 0.463197 0.424556
0.752596 0.472986 0.439937
0.772241 0.481209 0.452884
0.790744 0.488873 0.465060
0.455384 0.492007 0.370143
0.518895 0.512784 0.387738
0.626960 0.559802 0.456312
0.729481 0.603501 0.525315
0.770455 0.620489 0.549326
0.794298 0.630045 0.564063
0.814715 0.637987 0.576354
0.834021 0.645403 0.587638
0.493765 0.590226 0.428247
0.544913 0.614072 0.463860
0.650621 0.662263 0.535704
0.753773 0.705978 0.599972
0.795898 0.722486 0.623908
0.820681 0.731867 0.637293
0.841829 0.739685 0.648356
0.862121 0.746843 0.658408
0.505928 0.652194 0.476584
0.556718 0.676348 0.511916
0.662948 0.724690 0.581707
0.768085 0.768057 0.642583
0.811343 0.784363 0.664726
0.836770 0.793600 0.677021
0.858553 0.801253 0.687065
0.879441 0.808311 0.696270
0.513524 0.697103 0.510875
0.564327 0.721382 0.545617
0.671444 0.769657 0.613251
0.778342 0.812730 0.670936
0.822468 0.828876 0.691656
0.848489 0.837890 0.703108
0.870881 0.845524 0.712341
0.892150 0.852494 0.720775
0.519280 0.733499 0.537918
0.570097 0.757864 0.572016
0.678162 0.806034 0.637475
0.786711 0.848890 0.692455
0.831540 0.864818 0.711814
0.858143 0.873859 0.722412
0.880973 0.881317 0.731057
0.902753 0.888145 0.738881
0.229666 0.162756 0.414589
0.324661 0.184529 0.416890
0.502569 0.236206 0.422452
0.598144 0.268694 0.419279
0.635956 0.283038 0.414685
0.665595 0.291570 0.419218
0.690661 0.298791 0.423420
0.714152 0.305373 0.427453
0.271708 0.235189 0.417419
0.324824 0.234125 0.422015
0.515255 0.280684 0.433996
0.637679 0.324503 0.436510
0.680940 0.348253 0.433460
0.710473 0.357042 0.439051
0.735169 0.364118 0.444195
0.757892 0.370908 0.450013
0.374337 0.377883 0.430265
0.409084 0.376495 0.438045
0.547766 0.393197 0.459302
0.700715 0.438115 0.491441
0.736625 0.476197 0.513636
0.759887 0.486547 0.529568
0.779582 0.494621 0.542795
0.798257 0.502191 0.555279
0.470672 0.514794 0.457303
0.511332 0.531326 0.480914
0.602561 0.569840 0.547540
0.728548 0.606469 0.626173
0.777344 0.632811 0.641396
0.801363 0.643184 0.656399
0.821918 0.651002 0.668971
0.841450 0.658269 0.680501
0.499281 0.604730 0.517819
0.549865 0.628540 0.554020
0.655167 0.676094 0.627194
0.759269 0.719475 0.693302
0.802708 0.735445 0.718143
0.827818 0.744706 0.731041
0.849368 0.752305 0.742352
0.869774 0.759321 0.752600
0.510754 0.666840 0.567067
0.561550 0.690811 0.603175
0.668316 0.738611 0.674468
0.774489 0.781197 0.736486
0.818260 0.797182 0.759077
0.844066 0.806152 0.771626
0.866244 0.813586 0.781899
0.887403 0.820412 0.791294
0.517996 0.711875 0.602080
0.568813 0.735846 0.637547
0.676696 0.783523 0.706589
0.784874 0.825817 0.765493
0.829501 0.841514 0.786578
0.856005 0.850406 0.798161
0.878692 0.857715 0.807586
0.900344 0.864406 0.816249
0.523337 0.748198 0.629805
0.574427 0.772382 0.664471
0.683417 0.819827 0.731245
0.793280 0.861771 0.787287
0.838768 0.877311 0.807090
0.865737 0.886023 0.818016
0.888940 0.893362 0.826765
0.910997 0.899963 0.834738
0.229863 0.162393 0.435441
0.318491 0.181534 0.434210
0.510453 0.235433 0.443594
0.611672 0.268880 0.449464
0.645805 0.284879 0.446611
0.672039 0.295994 0.446974
0.697144 0.303139 0.451262
0.720635 0.309875 0.455458
0.267229 0.229972 0.433801
0.317053 0.228386 0.437708
0.507295 0.273508 0.451053
0.642211 0.315636 0.463422
0.685354 0.341593 0.464269
0.716742 0.361227 0.467370
0.741079 0.368653 0.473311
0.763428 0.375513 0.479858
0.370941 0.377498 0.451991
0.398570 0.368025 0.455510
0.531129 0.380740 0.472827
0.698168 0.420909 0.507725
0.737804 0.457841 0.537784
0.762607 0.491176 0.563571
0.782441 0.499719 0.577289
0.801117 0.507252 0.589913
0.470629 0.527153 0.493709
0.498416 0.535332 0.511269
0.580586 0.560971 0.563985
0.720882 0.595639 0.644694
0.778207 0.614277 0.669863
0.804028 0.647553 0.691609
0.824688 0.655902 0.704447
0.844240 0.663077 0.716128
0.497617 0.614579 0.557197
0.535194 0.632931 0.585965
0.625143 0.674206 0.651462
0.739252 0.720747 0.727931
0.802371 0.735187 0.761831
0.830666 0.749032 0.767233
0.852195 0.757068 0.778433
0.872795 0.763969 0.788872
0.512473 0.672401 0.601820
0.562985 0.696223 0.638055
0.669605 0.743670 0.709699
0.776355 0.786146 0.772425
0.820579 0.802121 0.795565
0.846886 0.810777 0.808218
0.869218 0.818190 0.818311
0.890394 0.825017 0.827756
0.519729 0.717350 0.637150
0.570546 0.741321 0.672870
0.678706 0.788701 0.742454
0.787384 0.830694 0.801725
0.832360 0.846225 0.823062
0.858923 0.855016 0.834786
0.881753 0.862196 0.844303
0.903456 0.868975 0.852964
0.524826 0.753917 0.665029
0.576131 0.777857 0.700051
0.685404 0.825019 0.767252
0.795801 0.866575 0.823781
0.841616 0.882019 0.843787
0.868739 0.890625 0.854732
0.891928 0.897752 0.863545
0.914233 0.904313 0.871559
0.231147 0.162637 0.460648
0.313663 0.179794 0.459113
0.511706 0.233912 0.466407
0.616826 0.265963 0.466815
0.651660 0.281720 0.463843
0.677309 0.295707 0.464331
0.700831 0.305688 0.467061
0.724322 0.312374 0.471338
0.265209 0.226207 0.458308
0.312271 0.224568 0.461512
0.498209 0.267892 0.472709
0.641420 0.308207 0.480530
0.684012 0.328727 0.478742
0.717060 0.353133 0.482830
0.744362 0.371164 0.490014
0.765087 0.378408 0.498964
0.365780 0.372824 0.471440
0.390416 0.359178 0.475481
0.515824 0.369519 0.491024
0.692071 0.407183 0.519004
0.734893 0.432460 0.538046
0.761824 0.472451 0.569606
0.783982 0.502317 0.596848
0.802700 0.510148 0.609687
0.466438 0.530949 0.511644
0.490513 0.532767 0.525478
0.565062 0.548779 0.569819
0.712080 0.583084 0.653588
0.774316 0.593529 0.674445
0.803444 0.626964 0.699064
0.826255 0.658369 0.724612
0.845928 0.665816 0.736516
0.491985 0.621600 0.579416
0.518648 0.633550 0.599753
0.592424 0.665486 0.653393
0.718635 0.713302 0.736956
0.799585 0.730365 0.778413
0.832411 0.739315 0.786090
0.853853 0.759490 0.799124
0.874402 0.766572 0.809658
0.509618 0.677494 0.623053
0.548545 0.696317 0.651917
0.640828 0.738388 0.716226
0.754329 0.784673 0.786279
0.814233 0.805330 0.819178
0.846029 0.809640 0.833101
0.870919 0.820564 0.839249
0.892166 0.827569 0.848649
0.520506 0.720559 0.657103
0.571293 0.744414 0.693035
0.679362 0.791545 0.762809
0.788416 0.833339 0.822403
0.833648 0.848902 0.843983
0.860308 0.857693 0.855810
0.883332 0.864736 0.865399
0.905240 0.871434 0.874050
0.525663 0.757029 0.685305
0.576932 0.780975 0.720361
0.686452 0.827941 0.788023
0.797227 0.869346 0.844701
0.843200 0.884619 0.864831
0.870398 0.893184 0.875799
0.893734 0.900311 0.884719
0.916087 0.906886 0.892689
0.232455 0.162882 0.485612
0.308893 0.178151 0.484000
0.509840 0.232134 0.491790
0.621339 0.264699 0.492741
0.656634 0.278735 0.485218
0.681650 0.291985 0.479324
0.704187 0.304641 0.478265
0.726415 0.313852 0.481230
0.263519 0.222769 0.482992
0.308362 0.221405 0.485462
0.488661 0.263213 0.496247
0.641844 0.304395 0.505637
0.684205 0.320320 0.499877
0.714876 0.339789 0.495687
0.743731 0.363137 0.498676
0.766096 0.380119 0.510616
0.361084 0.366869 0.495232
0.384058 0.350776 0.498384
0.501665 0.359102 0.511985
0.685765 0.396935 0.539480
0.732216 0.414729 0.551041
0.758873 0.444828 0.568121
0.782669 0.485042 0.596883
0.803703 0.511639 0.621584
0.462555 0.532227 0.537973
0.486269 0.529673 0.549560
0.553353 0.537658 0.585484
0.703453 0.571423 0.670252
0.770760 0.578555 0.691123
0.799851 0.599428 0.701159
0.825157 0.639628 0.726197
0.846823 0.667362 0.748869
0.486274 0.626046 0.601591
0.509880 0.634923 0.620597
0.571129 0.658651 0.666133
0.703339 0.706351 0.755539
0.797405 0.726625 0.804602
0.831617 0.729920 0.806076
0.855550 0.749451 0.810234
0.875422 0.768145 0.822216
0.503281 0.681870 0.639142
0.530350 0.694958 0.660427
0.603116 0.728282 0.713908
0.722491 0.777075 0.792435
0.808002 0.804787 0.841974
0.844850 0.808026 0.857913
0.873387 0.814529 0.856013
0.893217 0.829084 0.861491
0.517405 0.723573 0.670104
0.557691 0.742774 0.699179
0.652985 0.785330 0.762805
0.767963 0.830891 0.829086
0.826509 0.851450 0.858844
0.855418 0.860296 0.873728
0.882610 0.863825 0.885941
0.906364 0.872856 0.886954
0.526133 0.758856 0.697491
0.577377 0.782774 0.732727
0.687011 0.829667 0.800391
0.797945 0.870949 0.857345
0.844144 0.886190 0.877561
0.871360 0.894809 0.888603
0.894658 0.901887 0.897544
0.917165 0.908407 0.905590
