gsg/03_Cinematic/GSG_LUT_Cinematic_Royal_with_Cheese.cube
# GSG LUTs 1.0
# Copyright (c) 2016-2020 Greyscalegorilla
# See EULA for licensing and distribution information
# Converted by Briz LUT Converter
LUT_3D_SIZE 8
DOMAIN_MIN 0.000000 0.000000 0.000000
DOMAIN_MAX 0.903226 0.903226 0.903226
0.026129 0.024664 0.014652
0.065871 0.024664 0.014652
0.124243 0.024664 0.014652
0.186341 0.024664 0.014652
0.238450 0.024664 0.014652
0.295813 0.024664 0.014652
0.371310 0.024664 0.014652
0.462169 0.024664 0.014652
0.026129 0.057797 0.014652
0.065871 0.057797 0.014652
0.124243 0.057797 0.014652
0.186341 0.057797 0.014652
0.238450 0.057797 0.014652
0.295813 0.057797 0.014652
0.371310 0.057797 0.014652
0.462169 0.057797 0.014652
0.026129 0.093757 0.014652
0.065871 0.093757 0.014652
0.124243 0.093757 0.014652
0.186341 0.093757 0.014652
0.238450 0.093757 0.014652
0.295813 0.093757 0.014652
0.371310 0.093757 0.014652
0.462169 0.093757 0.014652
0.026129 0.145189 0.014652
0.065871 0.145189 0.014652
0.124243 0.145189 0.014652
0.186341 0.145189 0.014652
0.238450 0.145189 0.014652
0.295813 0.145189 0.014652
0.371310 0.145189 0.014652
0.462169 0.145189 0.014652
0.026129 0.194123 0.014652
0.065871 0.194123 0.014652
0.124243 0.194123 0.014652
0.186341 0.194123 0.014652
0.238450 0.194123 0.014652
0.295813 0.194123 0.014652
0.371310 0.194123 0.014652
0.462169 0.194123 0.014652
0.026129 0.255961 0.014652
0.065871 0.255961 0.014652
0.124243 0.255961 0.014652
0.186341 0.255961 0.014652
0.238450 0.255961 0.014652
0.295813 0.255961 0.014652
0.371310 0.255961 0.014652
0.462169 0.255961 0.014652
0.026129 0.330340 0.014652
0.065871 0.330340 0.014652
0.124243 0.330340 0.014652
0.186341 0.330340 0.014652
0.238450 0.330340 0.014652
0.295813 0.330340 0.014652
0.371310 0.330340 0.014652
0.462169 0.330340 0.014652
0.026129 0.433337 0.014652
0.065871 0.433337 0.014652
0.124243 0.433337 0.014652
0.186341 0.433337 0.014652
0.238450 0.433337 0.014652
0.295813 0.433337 0.014652
0.371310 0.433337 0.014652
0.462169 0.433337 0.014652
0.026129 0.024664 0.033802
0.065871 0.024664 0.033802
0.124243 0.024664 0.033802
0.186341 0.024664 0.033802
0.238450 0.024664 0.033802
0.295813 0.024664 0.033802
0.371310 0.024664 0.033802
0.462169 0.024664 0.033802
0.026129 0.057797 0.033802
0.065871 0.057797 0.033802
0.124243 0.057797 0.033802
0.186341 0.057797 0.033802
0.238450 0.057797 0.033802
0.295813 0.057797 0.033802
0.371310 0.057797 0.033802
0.462169 0.057797 0.033802
0.026129 0.093757 0.033802
0.065871 0.093757 0.033802
0.124243 0.093757 0.033802
0.186341 0.093757 0.033802
0.238450 0.093757 0.033802
0.295813 0.093757 0.033802
0.371310 0.093757 0.033802
0.462169 0.093757 0.033802
0.026129 0.145189 0.033802
0.065871 0.145189 0.033802
0.124243 0.145189 0.033802
0.186341 0.145189 0.033802
0.238450 0.145189 0.033802
0.295813 0.145189 0.033802
0.371310 0.145189 0.033802
0.462169 0.145189 0.033802
0.026129 0.194123 0.033802
0.065871 0.194123 0.033802
0.124243 0.194123 0.033802
0.186341 0.194123 0.033802
0.238450 0.194123 0.033802
0.295813 0.194123 0.033802
0.371310 0.194123 0.033802
0.462169 0.194123 0.033802
0.026129 0.255961 0.033802
0.065871 0.255961 0.033802
0.124243 0.255961 0.033802
0.186341 0.255961 0.033802
0.238450 0.255961 0.033802
0.295813 0.255961 0.033802
0.371310 0.255961 0.033802
0.462169 0.255961 0.033802
0.026129 0.330340 0.033802
0.065871 0.330340 0.033802
0.124243 0.330340 0.033802
0.186341 0.330340 0.033802
0.238450 0.330340 0.033802
0.295813 0.330340 0.033802
0.371310 0.330340 0.033802
0.462169 0.330340 0.033802
0.026129 0.433337 0.033802
0.065871 0.433337 0.033802
0.124243 0.433337 0.033802
0.186341 0.433337 0.033802
0.238450 0.433337 0.033802
0.295813 0.433337 0.033802
0.371310 0.433337 0.033802
0.462169 0.433337 0.033802
0.026129 0.024664 0.079026
0.065871 0.024664 0.079026
0.124243 0.024664 0.079026
0.186341 0.024664 0.079026
0.238450 0.024664 0.079026
0.295813 0.024664 0.079026
0.371310 0.024664 0.079026
0.462169 0.024664 0.079026
0.026129 0.057797 0.079026
0.065871 0.057797 0.079026
0.124243 0.057797 0.079026
0.186341 0.057797 0.079026
0.238450 0.057797 0.079026
0.295813 0.057797 0.079026
0.371310 0.057797 0.079026
0.462169 0.057797 0.079026
0.026129 0.093757 0.079026
0.065871 0.093757 0.079026
0.124243 0.093757 0.079026
0.186341 0.093757 0.079026
0.238450 0.093757 0.079026
0.295813 0.093757 0.079026
0.371310 0.093757 0.079026
0.462169 0.093757 0.079026
0.026129 0.145189 0.079026
0.065871 0.145189 0.079026
0.124243 0.145189 0.079026
0.186341 0.145189 0.079026
0.238450 0.145189 0.079026
0.295813 0.145189 0.079026
0.371310 0.145189 0.079026
0.462169 0.145189 0.079026
0.026129 0.194123 0.079026
0.065871 0.194123 0.079026
0.124243 0.194123 0.079026
0.186341 0.194123 0.079026
0.238450 0.194123 0.079026
0.295813 0.194123 0.079026
0.371310 0.194123 0.079026
0.462169 0.194123 0.079026
0.026129 0.255961 0.079026
0.065871 0.255961 0.079026
0.124243 0.255961 0.079026
0.186341 0.255961 0.079026
0.238450 0.255961 0.079026
0.295813 0.255961 0.079026
0.371310 0.255961 0.079026
0.462169 0.255961 0.079026
0.026129 0.330340 0.079026
0.065871 0.330340 0.079026
0.124243 0.330340 0.079026
0.186341 0.330340 0.079026
0.238450 0.330340 0.079026
0.295813 0.330340 0.079026
0.371310 0.330340 0.079026
0.462169 0.330340 0.079026
0.026129 0.433337 0.079026
0.065871 0.433337 0.079026
0.124243 0.433337 0.079026
0.186341 0.433337 0.079026
0.238450 0.433337 0.079026
0.295813 0.433337 0.079026
0.371310 0.433337 0.079026
0.462169 0.433337 0.079026
0.026129 0.024664 0.116775
0.065871 0.024664 0.116775
0.124243 0.024664 0.116775
0.186341 0.024664 0.116775
0.238450 0.024664 0.116775
0.295813 0.024664 0.116775
0.371310 0.024664 0.116775
0.462169 0.024664 0.116775
0.026129 0.057797 0.116775
0.065871 0.057797 0.116775
0.124243 0.057797 0.116775
0.186341 0.057797 0.116775
0.238450 0.057797 0.116775
0.295813 0.057797 0.116775
0.371310 0.057797 0.116775
0.462169 0.057797 0.116775
0.026129 0.093757 0.116775
0.065871 0.093757 0.116775
0.124243 0.093757 0.116775
0.186341 0.093757 0.116775
0.238450 0.093757 0.116775
0.295813 0.093757 0.116775
0.371310 0.093757 0.116775
0.462169 0.093757 0.116775
0.026129 0.145189 0.116775
0.065871 0.145189 0.116775
0.124243 0.145189 0.116775
0.186341 0.145189 0.116775
0.238450 0.145189 0.116775
0.295813 0.145189 0.116775
0.371310 0.145189 0.116775
0.462169 0.145189 0.116775
0.026129 0.194123 0.116775
0.065871 0.194123 0.116775
0.124243 0.194123 0.116775
0.186341 0.194123 0.116775
0.238450 0.194123 0.116775
0.295813 0.194123 0.116775
0.371310 0.194123 0.116775
0.462169 0.194123 0.116775
0.026129 0.255961 0.116775
0.065871 0.255961 0.116775
0.124243 0.255961 0.116775
0.186341 0.255961 0.116775
0.238450 0.255961 0.116775
0.295813 0.255961 0.116775
0.371310 0.255961 0.116775
0.462169 0.255961 0.116775
0.026129 0.330340 0.116775
0.065871 0.330340 0.116775
0.124243 0.330340 0.116775
0.186341 0.330340 0.116775
0.238450 0.330340 0.116775
0.295813 0.330340 0.116775
0.371310 0.330340 0.116775
0.462169 0.330340 0.116775
0.026129 0.433337 0.116775
0.065871 0.433337 0.116775
0.124243 0.433337 0.116775
0.186341 0.433337 0.116775
0.238450 0.433337 0.116775
0.295813 0.433337 0.116775
0.371310 0.433337 0.116775
0.462169 0.433337 0.116775
0.026129 0.024664 0.161968
0.065871 0.024664 0.161968
0.124243 0.024664 0.161968
0.186341 0.024664 0.161968
0.238450 0.024664 0.161968
0.295813 0.024664 0.161968
0.371310 0.024664 0.161968
0.462169 0.024664 0.161968
0.026129 0.057797 0.161968
0.065871 0.057797 0.161968
0.124243 0.057797 0.161968
0.186341 0.057797 0.161968
0.238450 0.057797 0.161968
0.295813 0.057797 0.161968
0.371310 0.057797 0.161968
0.462169 0.057797 0.161968
0.026129 0.093757 0.161968
0.065871 0.093757 0.161968
0.124243 0.093757 0.161968
0.186341 0.093757 0.161968
0.238450 0.093757 0.161968
0.295813 0.093757 0.161968
0.371310 0.093757 0.161968
0.462169 0.093757 0.161968
0.026129 0.145189 0.161968
0.065871 0.145189 0.161968
0.124243 0.145189 0.161968
0.186341 0.145189 0.161968
0.238450 0.145189 0.161968
0.295813 0.145189 0.161968
0.371310 0.145189 0.161968
0.462169 0.145189 0.161968
0.026129 0.194123 0.161968
0.065871 0.194123 0.161968
0.124243 0.194123 0.161968
0.186341 0.194123 0.161968
0.238450 0.194123 0.161968
0.295813 0.194123 0.161968
0.371310 0.194123 0.161968
0.462169 0.194123 0.161968
0.026129 0.255961 0.161968
0.065871 0.255961 0.161968
0.124243 0.255961 0.161968
0.186341 0.255961 0.161968
0.238450 0.255961 0.161968
0.295813 0.255961 0.161968
0.371310 0.255961 0.161968
0.462169 0.255961 0.161968
0.026129 0.330340 0.161968
0.065871 0.330340 0.161968
0.124243 0.330340 0.161968
0.186341 0.330340 0.161968
0.238450 0.330340 0.161968
0.295813 0.330340 0.161968
0.371310 0.330340 0.161968
0.462169 0.330340 0.161968
0.026129 0.433337 0.161968
0.065871 0.433337 0.161968
0.124243 0.433337 0.161968
0.186341 0.433337 0.161968
0.238450 0.433337 0.161968
0.295813 0.433337 0.161968
0.371310 0.433337 0.161968
0.462169 0.433337 0.161968
0.026129 0.024664 0.215046
0.065871 0.024664 0.215046
0.124243 0.024664 0.215046
0.186341 0.024664 0.215046
0.238450 0.024664 0.215046
0.295813 0.024664 0.215046
0.371310 0.024664 0.215046
0.462169 0.024664 0.215046
0.026129 0.057797 0.215046
0.065871 0.057797 0.215046
0.124243 0.057797 0.215046
0.186341 0.057797 0.215046
0.238450 0.057797 0.215046
0.295813 0.057797 0.215046
0.371310 0.057797 0.215046
0.462169 0.057797 0.215046
0.026129 0.093757 0.215046
0.065871 0.093757 0.215046
0.124243 0.093757 0.215046
0.186341 0.093757 0.215046
0.238450 0.093757 0.215046
0.295813 0.093757 0.215046
0.371310 0.093757 0.215046
0.462169 0.093757 0.215046
0.026129 0.145189 0.215046
0.065871 0.145189 0.215046
0.124243 0.145189 0.215046
0.186341 0.145189 0.215046
0.238450 0.145189 0.215046
0.295813 0.145189 0.215046
0.371310 0.145189 0.215046
0.462169 0.145189 0.215046
0.026129 0.194123 0.215046
0.065871 0.194123 0.215046
0.124243 0.194123 0.215046
0.186341 0.194123 0.215046
0.238450 0.194123 0.215046
0.295813 0.194123 0.215046
0.371310 0.194123 0.215046
0.462169 0.194123 0.215046
0.026129 0.255961 0.215046
0.065871 0.255961 0.215046
0.124243 0.255961 0.215046
0.186341 0.255961 0.215046
0.238450 0.255961 0.215046
0.295813 0.255961 0.215046
0.371310 0.255961 0.215046
0.462169 0.255961 0.215046
0.026129 0.330340 0.215046
0.065871 0.330340 0.215046
0.124243 0.330340 0.215046
0.186341 0.330340 0.215046
0.238450 0.330340 0.215046
0.295813 0.330340 0.215046
0.371310 0.330340 0.215046
0.462169 0.330340 0.215046
0.026129 0.433337 0.215046
0.065871 0.433337 0.215046
0.124243 0.433337 0.215046
0.186341 0.433337 0.215046
0.238450 0.433337 0.215046
0.295813 0.433337 0.215046
0.371310 0.433337 0.215046
0.462169 0.433337 0.215046
0.026129 0.024664 0.302249
0.065871 0.024664 0.302249
0.124243 0.024664 0.302249
0.186341 0.024664 0.302249
0.238450 0.024664 0.302249
0.295813 0.024664 0.302249
0.371310 0.024664 0.302249
0.462169 0.024664 0.302249
0.026129 0.057797 0.302249
0.065871 0.057797 0.302249
0.124243 0.057797 0.302249
0.186341 0.057797 0.302249
0.238450 0.057797 0.302249
0.295813 0.057797 0.302249
0.371310 0.057797 0.302249
0.462169 0.057797 0.302249
0.026129 0.093757 0.302249
0.065871 0.093757 0.302249
0.124243 0.093757 0.302249
0.186341 0.093757 0.302249
0.238450 0.093757 0.302249
0.295813 0.093757 0.302249
0.371310 0.093757 0.302249
0.462169 0.093757 0.302249
0.026129 0.145189 0.302249
0.065871 0.145189 0.302249
0.124243 0.145189 0.302249
0.186341 0.145189 0.302249
0.238450 0.145189 0.302249
0.295813 0.145189 0.302249
0.371310 0.145189 0.302249
0.462169 0.145189 0.302249
0.026129 0.194123 0.302249
0.065871 0.194123 0.302249
0.124243 0.194123 0.302249
0.186341 0.194123 0.302249
0.238450 0.194123 0.302249
0.295813 0.194123 0.302249
0.371310 0.194123 0.302249
0.462169 0.194123 0.302249
0.026129 0.255961 0.302249
0.065871 0.255961 0.302249
0.124243 0.255961 0.302249
0.186341 0.255961 0.302249
0.238450 0.255961 0.302249
0.295813 0.255961 0.302249
0.371310 0.255961 0.302249
0.462169 0.255961 0.302249
0.026129 0.330340 0.302249
0.065871 0.330340 0.302249
0.124243 0.330340 0.302249
0.186341 0.330340 0.302249
0.238450 0.330340 0.302249
0.295813 0.330340 0.302249
0.371310 0.330340 0.302249
0.462169 0.330340 0.302249
0.026129 0.433337 0.302249
0.065871 0.433337 0.302249
0.124243 0.433337 0.302249
0.186341 0.433337 0.302249
0.238450 0.433337 0.302249
0.295813 0.433337 0.302249
0.371310 0.433337 0.302249
0.462169 0.433337 0.302249
0.026129 0.024664 0.779188
0.065871 0.024664 0.779188
0.124243 0.024664 0.779188
0.186341 0.024664 0.779188
0.238450 0.024664 0.779188
0.295813 0.024664 0.779188
0.371310 0.024664 0.779188
0.462169 0.024664 0.779188
0.026129 0.057797 0.779188
0.065871 0.057797 0.779188
0.124243 0.057797 0.779188
0.186341 0.057797 0.779188
0.238450 0.057797 0.779188
0.295813 0.057797 0.779188
0.371310 0.057797 0.779188
0.462169 0.057797 0.779188
0.026129 0.093757 0.779188
0.065871 0.093757 0.779188
0.124243 0.093757 0.779188
0.186341 0.093757 0.779188
0.238450 0.093757 0.779188
0.295813 0.093757 0.779188
0.371310 0.093757 0.779188
0.462169 0.093757 0.779188
0.026129 0.145189 0.779188
0.065871 0.145189 0.779188
0.124243 0.145189 0.779188
0.186341 0.145189 0.779188
0.238450 0.145189 0.779188
0.295813 0.145189 0.779188
0.371310 0.145189 0.779188
0.462169 0.145189 0.779188
0.026129 0.194123 0.779188
0.065871 0.194123 0.779188
0.124243 0.194123 0.779188
0.186341 0.194123 0.779188
0.238450 0.194123 0.779188
0.295813 0.194123 0.779188
0.371310 0.194123 0.779188
0.462169 0.194123 0.779188
0.026129 0.255961 0.779188
0.065871 0.255961 0.779188
0.124243 0.255961 0.779188
0.186341 0.255961 0.779188
0.238450 0.255961 0.779188
0.295813 0.255961 0.779188
0.371310 0.255961 0.779188
0.462169 0.255961 0.779188
0.026129 0.330340 0.779188
0.065871 0.330340 0.779188
0.124243 0.330340 0.779188
0.186341 0.330340 0.779188
0.238450 0.330340 0.779188
0.295813 0.330340 0.779188
0.371310 0.330340 0.779188
0.462169 0.330340 0.779188
0.026129 0.433337 0.779188
0.065871 0.433337 0.779188
0.124243 0.433337 0.779188
0.186341 0.433337 0.779188
0.238450 0.433337 0.779188
0.295813 0.433337 0.779188
0.371310 0.433337 0.779188
0.462169 0.433337 0.779188
