gsg/03_Cinematic/GSG_LUT_Cinematic_DustyStorm.cube
# GSG LUTs 1.0
# Copyright (c) 2016-2020 Greyscalegorilla
# See EULA for licensing and distribution information
# Converted by Briz LUT Converter
LUT_3D_SIZE 5
DOMAIN_MIN 0.000000 0.000000 0.000000
DOMAIN_MAX 0.903226 0.903226 0.903226
0.007814 0.007814 0.007814
0.118020 0.023191 0.016133
0.240545 0.040892 0.026255
0.403049 0.036669 0.043168
0.604222 0.000000 0.062492
0.035551 0.069211 0.018024
0.115973 0.080618 0.024392
0.237071 0.088097 0.034826
0.398710 0.084227 0.050813
0.595912 0.062416 0.064405
0.066367 0.127205 0.030824
0.132153 0.144145 0.035596
0.242010 0.159105 0.043163
0.400476 0.164445 0.053614
0.593561 0.163373 0.066521
0.082256 0.204270 0.036559
0.151605 0.222640 0.043442
0.262681 0.246048 0.048001
0.408634 0.269557 0.055971
0.598394 0.275649 0.062586
0.092339 0.295923 0.035567
0.167390 0.317958 0.040015
0.285323 0.346983 0.038375
0.434285 0.377548 0.041535
0.607005 0.408954 0.044119
0.025846 0.021238 0.064666
0.069695 0.024184 0.049026
0.173187 0.038450 0.036908
0.314816 0.045374 0.037093
0.494096 0.019896 0.055173
0.039300 0.076858 0.046201
0.154883 0.130031 0.107388
0.278310 0.134478 0.094801
0.445466 0.132576 0.087068
0.647696 0.118721 0.083808
0.071558 0.136748 0.053099
0.173880 0.206157 0.111083
0.291963 0.228583 0.100572
0.456393 0.233758 0.089088
0.656450 0.234450 0.084013
0.089315 0.213126 0.057869
0.192665 0.298420 0.113064
0.313602 0.328304 0.097161
0.465862 0.356463 0.082192
0.664628 0.364446 0.072685
0.094723 0.309011 0.052256
0.202254 0.410699 0.105934
0.332852 0.445248 0.084400
0.490378 0.477801 0.060795
0.671429 0.510915 0.040400
0.056001 0.026326 0.123581
0.063408 0.030699 0.105014
0.122301 0.040209 0.087248
0.238501 0.050561 0.073418
0.395980 0.043471 0.066681
0.055883 0.085140 0.095355
0.142947 0.138964 0.175740
0.224676 0.146936 0.157420
0.366900 0.146293 0.139703
0.547621 0.143538 0.126610
0.071517 0.146696 0.076243
0.176205 0.220765 0.152459
0.354962 0.310487 0.257589
0.524861 0.319287 0.231978
0.724897 0.322411 0.207741
0.093312 0.225223 0.076683
0.193995 0.316890 0.152087
0.380066 0.427374 0.266300
0.541287 0.461494 0.243908
0.742104 0.472383 0.214436
0.092723 0.322250 0.074502
0.203164 0.429987 0.150812
0.399031 0.554832 0.270134
0.567528 0.594735 0.245454
0.746280 0.629569 0.213946
0.079531 0.033700 0.198519
0.073318 0.038745 0.173420
0.113581 0.042077 0.145725
0.186699 0.047077 0.125374
0.313442 0.053883 0.110045
0.075633 0.090006 0.160729
0.130984 0.144576 0.273013
0.208117 0.152547 0.245040
0.301704 0.157373 0.216808
0.456861 0.158529 0.192277
0.084781 0.156765 0.128146
0.163298 0.234196 0.231878
0.330352 0.325778 0.378403
0.456552 0.340433 0.350728
0.638083 0.344888 0.314209
0.093194 0.237662 0.104196
0.194648 0.331703 0.197630
0.381509 0.450360 0.341253
0.616609 0.577899 0.514781
0.818772 0.589503 0.474735
0.097484 0.337107 0.102856
0.203043 0.447806 0.197448
0.399515 0.580766 0.345937
0.646728 0.718719 0.530388
0.828098 0.758041 0.500486
0.089826 0.040742 0.299831
0.088751 0.041075 0.263539
0.107678 0.044715 0.230861
0.166042 0.054013 0.199708
0.252983 0.057992 0.175210
0.089602 0.094970 0.250539
0.105645 0.150512 0.398008
0.180988 0.155186 0.367003
0.280167 0.162756 0.321732
0.388632 0.168745 0.287754
0.095015 0.166843 0.204244
0.144842 0.245088 0.344354
0.286300 0.335437 0.530297
0.424330 0.348152 0.492936
0.556696 0.359265 0.446690
0.109268 0.251266 0.167294
0.176650 0.351019 0.291189
0.345792 0.471257 0.471371
0.574857 0.596155 0.686406
0.735674 0.615861 0.649123
0.102543 0.352989 0.137040
0.202062 0.465954 0.251176
0.395071 0.602078 0.419384
0.644549 0.746490 0.637159
0.886538 0.878624 0.851337
