gsg/03_Cinematic/GSG_LUT_Cinematic_Take_the_Red_Pill.cube
# GSG LUTs 1.0
# Copyright (c) 2016-2020 Greyscalegorilla
# See EULA for licensing and distribution information
# Converted by Briz LUT Converter
LUT_3D_SIZE 32
0.000000 0.000000 0.000000
0.019938 0.003277 0.006554
0.040655 0.006570 0.013092
0.062129 0.010099 0.019418
0.084186 0.013659 0.025940
0.107283 0.017480 0.032203
0.131372 0.021513 0.038300
0.156351 0.025602 0.044547
0.182504 0.029950 0.050534
0.209579 0.034558 0.056261
0.237717 0.039348 0.061728
0.266375 0.044224 0.066934
0.295175 0.049171 0.071787
0.323455 0.053960 0.076120
0.351105 0.058750 0.079932
0.377738 0.063421 0.083225
0.403198 0.067833 0.085998
0.427618 0.072118 0.088385
0.451282 0.076261 0.090512
0.474426 0.080295 0.092229
0.496735 0.084170 0.093741
0.518500 0.087951 0.094923
0.539659 0.091733 0.095931
0.560400 0.095514 0.096758
0.580881 0.099106 0.097515
0.600906 0.102635 0.098074
0.620820 0.106164 0.098373
0.640521 0.109693 0.098625
0.660184 0.113222 0.098657
0.680074 0.116751 0.098428
0.699752 0.120280 0.098413
0.719658 0.123810 0.097924
0.001757 0.025499 0.012588
0.021694 0.029013 0.018622
0.042397 0.032314 0.024655
0.063672 0.035874 0.030665
0.085943 0.039655 0.036447
0.109001 0.043477 0.042228
0.132939 0.047564 0.047963
0.158114 0.051904 0.053490
0.184324 0.056444 0.058951
0.211511 0.061058 0.064155
0.239482 0.065926 0.069019
0.268140 0.070968 0.073543
0.297034 0.076012 0.077776
0.325464 0.080960 0.081438
0.353003 0.085754 0.084730
0.379503 0.090429 0.087503
0.404963 0.094966 0.089759
0.429517 0.099370 0.091759
0.453291 0.103522 0.093477
0.476290 0.107558 0.094827
0.498660 0.111592 0.095918
0.520509 0.115465 0.096753
0.541673 0.119248 0.097496
0.562417 0.123030 0.098060
0.582892 0.126805 0.098367
0.602921 0.130394 0.098605
0.622837 0.133924 0.098642
0.642538 0.137460 0.098428
0.662200 0.140990 0.098383
0.682083 0.144740 0.097924
0.701768 0.148292 0.097413
0.721675 0.151822 0.096900
0.003269 0.052267 0.024656
0.023207 0.055567 0.030170
0.043925 0.059112 0.035683
0.065398 0.062895 0.041172
0.087455 0.066692 0.046433
0.110552 0.070563 0.051692
0.134688 0.074839 0.056893
0.159813 0.079192 0.061846
0.185852 0.083792 0.066599
0.213103 0.088586 0.071207
0.241236 0.093471 0.075466
0.269899 0.098529 0.079529
0.298783 0.103669 0.083079
0.327219 0.108857 0.086221
0.354768 0.113797 0.088993
0.381267 0.118587 0.091245
0.406727 0.123132 0.093103
0.431281 0.127559 0.094576
0.455055 0.131955 0.095811
0.478199 0.136100 0.096749
0.500518 0.140139 0.097479
0.522279 0.144173 0.098048
0.543605 0.148033 0.098362
0.564418 0.151814 0.098586
0.584710 0.155418 0.098629
0.604876 0.159148 0.098416
0.624838 0.162737 0.098147
0.644539 0.166468 0.097879
0.664201 0.170041 0.097390
0.683863 0.173571 0.096870
0.703761 0.177337 0.096113
0.723676 0.180874 0.095341
0.004758 0.079861 0.036157
0.024719 0.083414 0.041174
0.045435 0.086959 0.046165
0.066890 0.090764 0.051112
0.088968 0.094800 0.055853
0.112064 0.098858 0.060554
0.136201 0.103005 0.065043
0.161377 0.107543 0.069476
0.187593 0.112149 0.073650
0.214785 0.117027 0.077627
0.242838 0.122147 0.081437
0.271567 0.127441 0.084744
0.300319 0.132658 0.087626
0.328841 0.137821 0.090238
0.356519 0.142891 0.092475
0.383032 0.147694 0.094207
0.408492 0.152370 0.095545
0.433046 0.156918 0.096635
0.456820 0.161314 0.097464
0.479949 0.165599 0.098036
0.502407 0.169742 0.098358
0.524109 0.173784 0.098570
0.545370 0.177644 0.098616
0.566182 0.181443 0.098411
0.586474 0.185230 0.098134
0.606641 0.189011 0.097661
0.626602 0.192792 0.097132
0.646304 0.196361 0.096604
0.665966 0.200110 0.095855
0.685650 0.203685 0.095074
0.705527 0.207429 0.094080
0.725440 0.210989 0.093048
0.006018 0.108787 0.046682
0.026200 0.112530 0.051398
0.046904 0.116107 0.055855
0.068203 0.119942 0.060075
0.090480 0.124006 0.064295
0.113577 0.128292 0.068476
0.137707 0.132630 0.072438
0.162858 0.137200 0.076326
0.189082 0.141888 0.079971
0.216352 0.146939 0.083341
0.244478 0.152082 0.086464
0.273158 0.157386 0.089229
0.302052 0.162783 0.091590
0.330482 0.168118 0.093589
0.358131 0.173177 0.095178
0.384765 0.178116 0.096404
0.410225 0.182922 0.097238
0.434779 0.187577 0.097929
0.458553 0.191991 0.098355
0.481566 0.196290 0.098555
0.503951 0.200575 0.098585
0.525803 0.204695 0.098376
0.547112 0.208577 0.098091
0.567915 0.212525 0.097625
0.588232 0.216386 0.097089
0.608405 0.220174 0.096355
0.628340 0.223955 0.095566
0.648064 0.227524 0.094777
0.667730 0.231273 0.093797
0.687591 0.235055 0.092759
0.707297 0.238630 0.091687
0.727205 0.242404 0.090433
0.007279 0.139234 0.056647
0.027423 0.142810 0.060803
0.048178 0.146607 0.064742
0.069672 0.150644 0.068479
0.091919 0.154744 0.072173
0.115050 0.159036 0.075800
0.139147 0.163441 0.079200
0.164158 0.168208 0.082387
0.190427 0.173091 0.085436
0.217775 0.178215 0.088146
0.245834 0.183536 0.090652
0.274631 0.188916 0.092752
0.303525 0.194383 0.094578
0.331971 0.199717 0.096032
0.359644 0.204923 0.097101
0.386278 0.209965 0.097910
0.411737 0.214880 0.098353
0.436291 0.219558 0.098543
0.460065 0.224113 0.098572
0.483209 0.228501 0.098365
0.505676 0.232786 0.097915
0.527528 0.236932 0.097370
0.548686 0.240978 0.096825
0.569457 0.244830 0.096099
0.589918 0.248801 0.095302
0.610130 0.252637 0.094308
0.629920 0.256418 0.093259
0.649767 0.260021 0.092210
0.669455 0.263776 0.091161
0.689154 0.267557 0.089884
0.709017 0.271338 0.088385
0.728930 0.275119 0.087077
0.008492 0.171027 0.065784
0.028483 0.174810 0.069262
0.049391 0.178652 0.072647
0.070870 0.182709 0.076055
0.092995 0.187000 0.079203
0.116263 0.191366 0.082123
0.140399 0.195913 0.084963
0.165576 0.200599 0.087584
0.191804 0.205652 0.089995
0.219095 0.210871 0.092241
0.247248 0.216353 0.094081
0.275922 0.221765 0.095645
0.304804 0.227329 0.096858
0.333345 0.232884 0.097696
0.361109 0.238203 0.098244
0.387743 0.243294 0.098532
0.413227 0.248233 0.098561
0.437804 0.253023 0.098329
0.461578 0.257671 0.097865
0.484722 0.262087 0.097312
0.507188 0.266391 0.096602
0.529008 0.270644 0.095797
0.550185 0.274775 0.094958
0.571086 0.278675 0.093958
0.591466 0.282621 0.092901
0.611643 0.286485 0.091685
0.631604 0.290275 0.090385
0.651306 0.294056 0.089076
0.670968 0.297838 0.087767
0.690814 0.301619 0.086274
0.710535 0.305400 0.084715
0.730442 0.309181 0.083201
0.009445 0.204435 0.073938
0.029629 0.208279 0.077032
0.050400 0.212312 0.079756
0.071897 0.216375 0.082592
0.094175 0.220741 0.085220
0.117271 0.225279 0.087587
0.141408 0.229874 0.089742
0.166596 0.234763 0.091829
0.192904 0.239868 0.093626
0.220300 0.245232 0.095206
0.248517 0.250796 0.096508
0.277273 0.256398 0.097464
0.306119 0.262053 0.098120
0.334688 0.267658 0.098524
0.362370 0.273016 0.098552
0.389003 0.278283 0.098320
0.414589 0.283324 0.097856
0.439261 0.288141 0.097161
0.463035 0.292788 0.096348
0.486179 0.297326 0.095501
0.508645 0.301741 0.094509
0.530369 0.305880 0.093444
0.551640 0.310087 0.092206
0.572453 0.314191 0.090888
0.592891 0.318078 0.089571
0.613100 0.322024 0.088254
0.633062 0.325888 0.086778
0.652763 0.329678 0.085217
0.672475 0.333459 0.083698
0.692142 0.337241 0.082134
0.712041 0.341022 0.080381
0.731955 0.344858 0.078751
0.010201 0.239663 0.081185
0.030391 0.243635 0.083575
0.051345 0.247733 0.085950
0.072843 0.251873 0.088089
0.095128 0.256410 0.090196
0.118280 0.260958 0.092043
0.142416 0.265643 0.093665
0.167633 0.270698 0.095153
0.194006 0.275852 0.096316
0.221308 0.281235 0.097310
0.249525 0.286904 0.098006
0.278349 0.292702 0.098401
0.307268 0.298429 0.098545
0.335812 0.304090 0.098313
0.363567 0.309659 0.097820
0.390231 0.314899 0.097098
0.415817 0.319941 0.096244
0.440458 0.324852 0.095259
0.464269 0.329529 0.094185
0.487401 0.334066 0.092962
0.509884 0.338603 0.091637
0.531715 0.342853 0.090311
0.553027 0.347035 0.088813
0.573886 0.351167 0.087282
0.594194 0.355217 0.085721
0.614361 0.359053 0.084143
0.634322 0.363039 0.082566
0.654023 0.366860 0.080830
0.673906 0.370641 0.079229
0.693592 0.374481 0.077482
0.713490 0.378266 0.075657
0.733404 0.382229 0.073646
0.010958 0.276569 0.087203
0.031145 0.280436 0.089073
0.052035 0.284722 0.090928
0.073599 0.289031 0.092539
0.095899 0.293577 0.094062
0.119158 0.298227 0.095389
0.143353 0.303123 0.096455
0.168530 0.308220 0.097301
0.194809 0.313532 0.098001
0.222246 0.319020 0.098340
0.250463 0.324818 0.098423
0.279311 0.330641 0.098307
0.308319 0.336484 0.097814
0.336884 0.342209 0.097091
0.364575 0.347796 0.096119
0.391327 0.353224 0.094999
0.416913 0.358302 0.093791
0.441467 0.363221 0.092419
0.465383 0.367988 0.091053
0.488523 0.372555 0.089570
0.511034 0.377092 0.087985
0.532830 0.381464 0.086399
0.554106 0.385627 0.084690
0.575047 0.389809 0.083002
0.595439 0.393887 0.081264
0.615564 0.397781 0.079499
0.635511 0.401721 0.077675
0.655275 0.405592 0.075899
0.675102 0.409382 0.074070
0.694781 0.413325 0.072299
0.714680 0.417118 0.070298
0.734594 0.420970 0.068282
0.011556 0.314774 0.092024
0.031817 0.318894 0.093374
0.052545 0.323184 0.094708
0.074205 0.327567 0.095790
0.096554 0.332136 0.096707
0.119690 0.336965 0.097513
0.144031 0.342006 0.098059
0.169225 0.347121 0.098346
0.195565 0.352539 0.098415
0.223002 0.358155 0.098304
0.251219 0.363978 0.097810
0.280101 0.369916 0.097085
0.309133 0.375871 0.096122
0.337713 0.381669 0.094951
0.365505 0.387392 0.093596
0.392256 0.392863 0.092082
0.417842 0.398031 0.090573
0.442440 0.402981 0.088846
0.466345 0.407807 0.087142
0.489558 0.412446 0.085398
0.512025 0.416984 0.083552
0.533877 0.421356 0.081760
0.555209 0.425641 0.079939
0.576021 0.429745 0.077971
0.596502 0.433778 0.076082
0.616590 0.437812 0.074300
0.636520 0.441706 0.072331
0.656434 0.445644 0.070458
0.676127 0.449447 0.068463
0.695790 0.453301 0.066601
0.716603 0.456554 0.065129
0.737808 0.459695 0.063917
0.011808 0.354106 0.095372
0.032151 0.358391 0.096288
0.052952 0.362693 0.097102
0.074473 0.367238 0.097679
0.096982 0.371885 0.098225
0.120180 0.376728 0.098511
0.144465 0.381843 0.098537
0.169747 0.386994 0.098303
0.196148 0.392562 0.097809
0.223610 0.398243 0.097080
0.251889 0.404120 0.096127
0.280712 0.410170 0.094940
0.309701 0.416159 0.093598
0.338383 0.422010 0.091959
0.366174 0.427807 0.090197
0.392926 0.433369 0.088343
0.418557 0.438581 0.086444
0.443239 0.443617 0.084462
0.467134 0.448478 0.082537
0.490315 0.453171 0.080533
0.512781 0.457742 0.078483
0.534633 0.462114 0.076573
0.555965 0.466399 0.074607
0.576777 0.470503 0.072590
0.597259 0.474536 0.070507
0.617480 0.478569 0.068598
0.637441 0.482603 0.066612
0.658186 0.485895 0.065123
0.679333 0.488815 0.063889
0.700515 0.491849 0.062840
0.723680 0.493679 0.062874
0.747694 0.494868 0.063453
0.011966 0.393934 0.097515
0.032156 0.398223 0.098068
0.053116 0.402615 0.098361
0.074716 0.407176 0.098418
0.097160 0.411978 0.098443
0.120485 0.416913 0.098224
0.144729 0.422099 0.097809
0.170048 0.427327 0.097076
0.196400 0.432936 0.096135
0.223908 0.438761 0.094931
0.252298 0.444704 0.093601
0.281155 0.450754 0.091957
0.310205 0.456804 0.090155
0.338887 0.462791 0.088132
0.366678 0.468601 0.086018
0.393430 0.474157 0.083904
0.419142 0.479450 0.081713
0.443814 0.484482 0.079526
0.467730 0.489314 0.077412
0.490976 0.494104 0.075264
0.513443 0.498736 0.073128
0.535295 0.503108 0.071014
0.556627 0.507393 0.068967
0.577439 0.511497 0.066880
0.598652 0.515091 0.065162
0.620383 0.518234 0.063926
0.642003 0.521212 0.062946
0.664928 0.523129 0.062833
0.688779 0.524362 0.063315
0.712726 0.525613 0.064140
0.736765 0.526782 0.064994
0.760959 0.527796 0.065942
0.011863 0.433455 0.098515
0.032156 0.437749 0.098548
0.053119 0.442293 0.098327
0.074759 0.446949 0.097970
0.097160 0.451770 0.097567
0.120509 0.456812 0.096851
0.144850 0.461921 0.096061
0.170082 0.467352 0.094924
0.196550 0.472961 0.093605
0.224058 0.478829 0.091986
0.252481 0.484879 0.090257
0.281424 0.490965 0.088230
0.310505 0.497081 0.086013
0.339229 0.503131 0.083682
0.367080 0.508961 0.081367
0.393832 0.514506 0.078993
0.419544 0.519853 0.076618
0.444216 0.524888 0.074300
0.468132 0.529801 0.071972
0.491378 0.534570 0.069747
0.513845 0.539163 0.067533
0.536043 0.543326 0.065473
0.558849 0.546713 0.064203
0.581564 0.549731 0.063138
0.605046 0.551969 0.062880
0.629351 0.553504 0.063248
0.653598 0.554706 0.064035
0.677585 0.555949 0.064862
0.701532 0.556989 0.065847
0.725480 0.558130 0.067047
0.749663 0.559148 0.068168
0.773863 0.560156 0.069629
0.011611 0.471976 0.098216
0.032045 0.476380 0.097846
0.052999 0.480933 0.097327
0.074520 0.485722 0.096595
0.097050 0.490543 0.095815
0.120399 0.495602 0.094693
0.144761 0.500831 0.093523
0.170082 0.506377 0.092069
0.196550 0.512014 0.090294
0.224058 0.517964 0.088416
0.252527 0.524014 0.086380
0.281516 0.530151 0.083997
0.310505 0.536358 0.081520
0.339289 0.542408 0.078988
0.367222 0.548237 0.076495
0.393974 0.553783 0.073914
0.419686 0.559203 0.071393
0.444418 0.564289 0.068946
0.468384 0.569206 0.066550
0.492509 0.573361 0.064698
0.516953 0.576703 0.063511
0.541386 0.579512 0.062841
0.566694 0.581292 0.063113
0.592126 0.582690 0.063813
0.617087 0.583985 0.064649
0.641624 0.585246 0.065608
0.665871 0.586301 0.066704
0.689954 0.587426 0.068039
0.713915 0.588452 0.069292
0.737863 0.589460 0.070882
0.762047 0.590468 0.072379
0.786246 0.591366 0.074134
0.011241 0.509197 0.096971
0.031675 0.513734 0.096341
0.052637 0.518287 0.095569
0.074268 0.523088 0.094439
0.096798 0.528016 0.093277
0.120147 0.533097 0.091895
0.144535 0.538438 0.090442
0.169963 0.543984 0.088629
0.196432 0.549655 0.086582
0.223940 0.555705 0.084409
0.252409 0.561755 0.082067
0.281439 0.567892 0.079504
0.310505 0.574145 0.076813
0.339239 0.580217 0.074093
0.367157 0.586032 0.071393
0.393974 0.591642 0.068681
0.419686 0.597001 0.066099
0.445658 0.601390 0.064227
0.472017 0.604880 0.063205
0.498635 0.607438 0.062940
0.525755 0.609069 0.063448
0.552398 0.610540 0.064281
0.578306 0.611879 0.065243
0.603749 0.613140 0.066337
0.628702 0.614308 0.067559
0.653236 0.615447 0.068912
0.677482 0.616480 0.070295
0.701682 0.617488 0.071890
0.725661 0.618496 0.073631
0.749719 0.619505 0.075395
0.773910 0.620398 0.077274
0.798109 0.621159 0.079278
0.010737 0.544992 0.095207
0.031171 0.549533 0.094186
0.052141 0.554209 0.093040
0.073890 0.559022 0.091756
0.096420 0.564063 0.090236
0.119768 0.569144 0.088683
0.144157 0.574485 0.086864
0.169585 0.580059 0.084819
0.196086 0.585796 0.082610
0.223687 0.591789 0.080176
0.252156 0.597928 0.077615
0.281232 0.604065 0.074877
0.310379 0.610318 0.072023
0.339113 0.616391 0.069198
0.367031 0.622262 0.066352
0.395006 0.627209 0.064189
0.423320 0.630877 0.063038
0.452025 0.633514 0.062857
0.481043 0.635312 0.063599
0.509258 0.636874 0.064538
0.536639 0.638229 0.065663
0.563323 0.639570 0.066847
0.589360 0.640868 0.068158
0.614747 0.642128 0.069642
0.639765 0.643200 0.071254
0.664327 0.644208 0.072897
0.688574 0.645111 0.074645
0.712773 0.646099 0.076411
0.736866 0.647107 0.078510
0.760936 0.647997 0.080428
0.785127 0.648761 0.082559
0.809453 0.649518 0.084950
0.010099 0.579629 0.092788
0.030533 0.584174 0.091524
0.051503 0.588964 0.090116
0.073265 0.593777 0.088558
0.095916 0.598818 0.086808
0.119264 0.603899 0.085100
0.143653 0.609240 0.083057
0.169111 0.614841 0.080847
0.195712 0.620673 0.078377
0.223301 0.626673 0.075718
0.251770 0.632845 0.073024
0.280846 0.639025 0.070164
0.310044 0.645197 0.067182
0.339584 0.650824 0.064674
0.369963 0.655156 0.063228
0.400990 0.658187 0.062924
0.432020 0.660191 0.063591
0.462184 0.661883 0.064624
0.491362 0.663445 0.065784
0.519650 0.664875 0.067059
0.547087 0.666178 0.068573
0.573776 0.667439 0.070149
0.599803 0.668604 0.071764
0.625283 0.669726 0.073596
0.650337 0.670763 0.075499
0.674899 0.671771 0.077401
0.699258 0.672687 0.079509
0.723362 0.673561 0.081451
0.747544 0.674431 0.083674
0.771640 0.675198 0.085965
0.795833 0.675954 0.088365
0.820143 0.676710 0.090882
0.009343 0.613203 0.089874
0.029781 0.617885 0.088459
0.050888 0.622546 0.086793
0.072648 0.627492 0.085015
0.095288 0.632534 0.083104
0.118760 0.637615 0.081154
0.143149 0.642956 0.078971
0.168632 0.648556 0.076615
0.195289 0.654417 0.073958
0.222838 0.660467 0.071250
0.251408 0.666596 0.068330
0.280635 0.672761 0.065475
0.311467 0.677935 0.063457
0.344429 0.681407 0.062971
0.377809 0.683775 0.063439
0.410577 0.685646 0.064488
0.441908 0.687463 0.065716
0.472126 0.689094 0.067123
0.501304 0.690524 0.068612
0.529592 0.691827 0.070314
0.557100 0.693088 0.072186
0.583828 0.694252 0.074097
0.609877 0.695394 0.076008
0.635343 0.696338 0.078100
0.660388 0.697310 0.080263
0.685065 0.698318 0.082426
0.709425 0.699208 0.084674
0.733551 0.699980 0.086854
0.757738 0.700737 0.089238
0.781937 0.701493 0.091748
0.806137 0.702249 0.094406
0.830478 0.703005 0.096932
0.008586 0.645925 0.086699
0.029028 0.650562 0.085029
0.050234 0.655266 0.083255
0.071984 0.660168 0.081327
0.094545 0.665229 0.079291
0.118106 0.670440 0.077080
0.142524 0.675781 0.074657
0.168094 0.681382 0.072191
0.194674 0.687204 0.069558
0.222321 0.693186 0.066785
0.251677 0.698890 0.064194
0.283905 0.703160 0.062946
0.318070 0.706282 0.063025
0.353145 0.708386 0.064090
0.387239 0.710273 0.065308
0.420056 0.712047 0.066796
0.451440 0.713657 0.068491
0.481657 0.715215 0.070231
0.510922 0.716586 0.072126
0.539273 0.717846 0.074166
0.566781 0.719010 0.076279
0.593509 0.720052 0.078450
0.619631 0.721127 0.080621
0.645162 0.722093 0.082974
0.670219 0.722961 0.085281
0.694857 0.723936 0.087670
0.719248 0.724739 0.090094
0.743472 0.725495 0.092517
0.767671 0.726252 0.095161
0.791870 0.727008 0.097836
0.816070 0.727619 0.100603
0.840514 0.728371 0.103281
0.007830 0.677656 0.083107
0.028267 0.682353 0.081337
0.049331 0.687001 0.079404
0.071228 0.691961 0.077373
0.093789 0.697014 0.075182
0.117350 0.702196 0.072874
0.141786 0.707669 0.070353
0.167447 0.713270 0.067797
0.194222 0.718986 0.065172
0.223405 0.723960 0.063249
0.256466 0.727352 0.062915
0.291481 0.729859 0.063431
0.327024 0.731965 0.064640
0.362223 0.733998 0.066129
0.396337 0.735822 0.067825
0.429144 0.737506 0.069705
0.460609 0.739018 0.071758
0.490827 0.740455 0.073890
0.520147 0.741734 0.076080
0.548537 0.742928 0.078392
0.576045 0.744031 0.080790
0.602880 0.745039 0.083221
0.629052 0.746048 0.085653
0.654537 0.746939 0.088148
0.679578 0.747839 0.090602
0.704267 0.748701 0.093230
0.728749 0.749474 0.095782
0.752988 0.750230 0.098440
0.777187 0.750844 0.101201
0.801386 0.751585 0.103974
0.825586 0.752105 0.106899
0.850030 0.752854 0.109835
0.006909 0.708582 0.079326
0.027348 0.713204 0.077553
0.048483 0.717933 0.075526
0.070322 0.722975 0.073331
0.093032 0.728016 0.071062
0.116594 0.733136 0.068754
0.141030 0.738682 0.066201
0.167308 0.743872 0.063828
0.197163 0.747623 0.062846
0.229745 0.750593 0.062949
0.264542 0.752808 0.063983
0.300031 0.754878 0.065307
0.335681 0.756895 0.066897
0.370917 0.758842 0.068854
0.405116 0.760542 0.070995
0.437929 0.762093 0.073183
0.469438 0.763520 0.075496
0.499736 0.764823 0.077935
0.529056 0.766073 0.080471
0.557446 0.767199 0.083028
0.585061 0.768238 0.085656
0.611901 0.769247 0.088235
0.638048 0.770137 0.090873
0.663591 0.771039 0.093565
0.688653 0.771899 0.096256
0.713411 0.772673 0.099011
0.737910 0.773429 0.101718
0.762149 0.774042 0.104478
0.786348 0.774705 0.107401
0.810548 0.775454 0.110344
0.834747 0.775974 0.113204
0.859191 0.776557 0.116389
0.005900 0.738816 0.075545
0.026510 0.743361 0.073599
0.047559 0.748167 0.071566
0.069478 0.753208 0.069298
0.092103 0.758250 0.067007
0.115888 0.763230 0.064631
0.142191 0.767613 0.062969
0.171962 0.770634 0.062845
0.204159 0.772888 0.063371
0.237969 0.775029 0.064428
0.272796 0.777163 0.065895
0.308378 0.779062 0.067710
0.344078 0.781011 0.069814
0.379314 0.782819 0.072112
0.413627 0.784474 0.074559
0.446540 0.785986 0.077091
0.478050 0.787372 0.079754
0.508386 0.788538 0.082454
0.537705 0.789720 0.085194
0.566202 0.790831 0.087924
0.593823 0.791839 0.090669
0.620693 0.792730 0.093511
0.646871 0.793632 0.096317
0.672472 0.794491 0.099219
0.697554 0.795266 0.102036
0.722313 0.796022 0.104949
0.746812 0.796633 0.107755
0.771050 0.797299 0.110679
0.795250 0.797890 0.113695
0.819449 0.798629 0.116720
0.843817 0.799149 0.119676
0.868266 0.799653 0.122943
0.004892 0.768270 0.071763
0.025576 0.772996 0.069566
0.046725 0.777790 0.067533
0.068551 0.782662 0.065247
0.091743 0.787423 0.063064
0.119185 0.790190 0.062818
0.148414 0.792694 0.062928
0.179645 0.794762 0.063913
0.212226 0.796778 0.065106
0.246036 0.798813 0.066577
0.280885 0.800796 0.068414
0.316579 0.802647 0.070662
0.352397 0.804569 0.073118
0.387632 0.806257 0.075676
0.421896 0.807807 0.078465
0.454836 0.809231 0.081303
0.486439 0.810524 0.084169
0.516775 0.811651 0.087129
0.546095 0.812696 0.090089
0.574635 0.813730 0.093049
0.602354 0.814739 0.096009
0.629189 0.815582 0.099011
0.655331 0.816511 0.101992
0.681067 0.817338 0.104998
0.706196 0.817954 0.107974
0.730954 0.818670 0.110985
0.755453 0.819373 0.113957
0.779692 0.819961 0.116972
0.803891 0.820637 0.119997
0.828260 0.821218 0.123022
0.852533 0.821726 0.126222
0.876978 0.822230 0.129316
0.003884 0.797322 0.067793
0.024570 0.801922 0.065532
0.045946 0.806614 0.063585
0.070543 0.809793 0.062751
0.097224 0.812407 0.062681
0.126070 0.814393 0.063411
0.156052 0.816251 0.064400
0.187333 0.818225 0.065811
0.219963 0.820095 0.067330
0.253913 0.822057 0.069163
0.288824 0.823861 0.071415
0.324601 0.825645 0.073965
0.360410 0.827445 0.076754
0.395762 0.829107 0.079689
0.429997 0.830534 0.082767
0.462933 0.831825 0.085869
0.494569 0.833085 0.088963
0.525008 0.834212 0.092079
0.554413 0.835220 0.095214
0.582953 0.836228 0.098434
0.610591 0.837115 0.101532
0.637467 0.838018 0.104685
0.663650 0.838875 0.107771
0.689432 0.839647 0.110936
0.714577 0.840214 0.114010
0.739336 0.840915 0.117035
0.763835 0.841513 0.120060
0.788238 0.842191 0.123249
0.812462 0.842769 0.126299
0.836713 0.843279 0.129501
0.861099 0.843783 0.132774
0.885549 0.844476 0.135807
0.002875 0.825917 0.063760
0.025448 0.829401 0.062738
0.050381 0.831727 0.062595
0.076926 0.833692 0.063144
0.104738 0.835683 0.064061
0.133633 0.837489 0.065092
0.163614 0.839262 0.066525
0.194940 0.841109 0.068126
0.227686 0.843039 0.070108
0.261588 0.844838 0.072364
0.296593 0.846603 0.074915
0.332324 0.848298 0.077726
0.368246 0.849859 0.080796
0.403631 0.851400 0.084024
0.437956 0.852891 0.087363
0.470999 0.854164 0.090725
0.502635 0.855323 0.093978
0.533105 0.856450 0.097337
0.562535 0.857458 0.100681
0.591075 0.858346 0.103958
0.618677 0.859120 0.107205
0.645571 0.860042 0.110465
0.671911 0.860877 0.113709
0.697605 0.861487 0.116826
0.722851 0.862156 0.120015
0.747654 0.862742 0.123244
0.772153 0.863421 0.126307
0.796433 0.863998 0.129544
0.820817 0.864508 0.132779
0.845035 0.865012 0.135867
0.869471 0.865707 0.139131
0.893923 0.866265 0.142361
0.006782 0.851125 0.062594
0.031453 0.853125 0.062913
0.057426 0.854890 0.063791
0.084241 0.856658 0.064591
0.112096 0.858458 0.065837
0.140990 0.860223 0.067314
0.171011 0.861987 0.069038
0.202467 0.863761 0.070872
0.235131 0.865556 0.073163
0.269164 0.867261 0.075714
0.304253 0.868880 0.078591
0.340108 0.870558 0.081801
0.375981 0.872071 0.085132
0.411327 0.873497 0.088620
0.445791 0.874798 0.092127
0.478861 0.876061 0.095736
0.510497 0.877195 0.099330
0.540967 0.878223 0.102727
0.570397 0.879231 0.106141
0.598937 0.880090 0.109630
0.626671 0.880846 0.112986
0.653637 0.881629 0.116402
0.680011 0.882398 0.119745
0.705684 0.883125 0.122993
0.730954 0.883712 0.126259
0.755768 0.884391 0.129536
0.780267 0.884967 0.132609
0.804684 0.885478 0.135846
0.828946 0.886167 0.139123
0.853149 0.886691 0.142363
0.877585 0.887233 0.145638
0.902036 0.887739 0.148915
0.013526 0.874300 0.063579
0.038725 0.875852 0.064318
0.064737 0.877616 0.065544
0.091551 0.879360 0.066766
0.119406 0.880933 0.068277
0.148335 0.882697 0.070015
0.178501 0.884421 0.071861
0.209855 0.886014 0.074127
0.242664 0.887723 0.076679
0.276726 0.889321 0.079552
0.311828 0.890994 0.082784
0.347710 0.892528 0.086136
0.383650 0.894041 0.089727
0.419119 0.895451 0.093476
0.453606 0.896711 0.097225
0.486675 0.897869 0.100989
0.518311 0.898893 0.104754
0.548781 0.899902 0.108368
