gsg/03_Cinematic/GSG_LUT_Cinematic_Napalm_in_the_Morning.cube
# GSG LUTs 1.0
# Copyright (c) 2016-2020 Greyscalegorilla
# See EULA for licensing and distribution information
# Converted by Briz LUT Converter
LUT_3D_SIZE 5
DOMAIN_MIN 0.000000 0.000000 0.000000
DOMAIN_MAX 0.903226 0.903226 0.903226
0.045421 0.060806 0.018315
0.319469 0.060806 0.018315
0.505006 0.060806 0.018315
0.607247 0.060806 0.018315
0.735752 0.060806 0.018315
0.045421 0.201765 0.018315
0.319469 0.201765 0.018315
0.505006 0.201765 0.018315
0.607247 0.201765 0.018315
0.735752 0.201765 0.018315
0.045421 0.346520 0.018315
0.319469 0.346520 0.018315
0.505006 0.346520 0.018315
0.607247 0.346520 0.018315
0.735752 0.346520 0.018315
0.045421 0.479609 0.018315
0.319469 0.479609 0.018315
0.505006 0.479609 0.018315
0.607247 0.479609 0.018315
0.735752 0.479609 0.018315
0.045421 0.608634 0.018315
0.319469 0.608634 0.018315
0.505006 0.608634 0.018315
0.607247 0.608634 0.018315
0.735752 0.608634 0.018315
0.045421 0.060806 0.097491
0.319469 0.060806 0.097491
0.505006 0.060806 0.097491
0.607247 0.060806 0.097491
0.735752 0.060806 0.097491
0.045421 0.201765 0.097491
0.319469 0.201765 0.097491
0.505006 0.201765 0.097491
0.607247 0.201765 0.097491
0.735752 0.201765 0.097491
0.045421 0.346520 0.097491
0.319469 0.346520 0.097491
0.505006 0.346520 0.097491
0.607247 0.346520 0.097491
0.735752 0.346520 0.097491
0.045421 0.479609 0.097491
0.319469 0.479609 0.097491
0.505006 0.479609 0.097491
0.607247 0.479609 0.097491
0.735752 0.479609 0.097491
0.045421 0.608634 0.097491
0.319469 0.608634 0.097491
0.505006 0.608634 0.097491
0.607247 0.608634 0.097491
0.735752 0.608634 0.097491
0.045421 0.060806 0.166600
0.319469 0.060806 0.166600
0.505006 0.060806 0.166600
0.607247 0.060806 0.166600
0.735752 0.060806 0.166600
0.045421 0.201765 0.166600
0.319469 0.201765 0.166600
0.505006 0.201765 0.166600
0.607247 0.201765 0.166600
0.735752 0.201765 0.166600
0.045421 0.346520 0.166600
0.319469 0.346520 0.166600
0.505006 0.346520 0.166600
0.607247 0.346520 0.166600
0.735752 0.346520 0.166600
0.045421 0.479609 0.166600
0.319469 0.479609 0.166600
0.505006 0.479609 0.166600
0.607247 0.479609 0.166600
0.735752 0.479609 0.166600
0.045421 0.608634 0.166600
0.319469 0.608634 0.166600
0.505006 0.608634 0.166600
0.607247 0.608634 0.166600
0.735752 0.608634 0.166600
0.045421 0.060806 0.282540
0.319469 0.060806 0.282540
0.505006 0.060806 0.282540
0.607247 0.060806 0.282540
0.735752 0.060806 0.282540
0.045421 0.201765 0.282540
0.319469 0.201765 0.282540
0.505006 0.201765 0.282540
0.607247 0.201765 0.282540
0.735752 0.201765 0.282540
0.045421 0.346520 0.282540
0.319469 0.346520 0.282540
0.505006 0.346520 0.282540
0.607247 0.346520 0.282540
0.735752 0.346520 0.282540
0.045421 0.479609 0.282540
0.319469 0.479609 0.282540
0.505006 0.479609 0.282540
0.607247 0.479609 0.282540
0.735752 0.479609 0.282540
0.045421 0.608634 0.282540
0.319469 0.608634 0.282540
0.505006 0.608634 0.282540
0.607247 0.608634 0.282540
0.735752 0.608634 0.282540
0.045421 0.060806 0.756532
0.319469 0.060806 0.756532
0.505006 0.060806 0.756532
0.607247 0.060806 0.756532
0.735752 0.060806 0.756532
0.045421 0.201765 0.756532
0.319469 0.201765 0.756532
0.505006 0.201765 0.756532
0.607247 0.201765 0.756532
0.735752 0.201765 0.756532
0.045421 0.346520 0.756532
0.319469 0.346520 0.756532
0.505006 0.346520 0.756532
0.607247 0.346520 0.756532
0.735752 0.346520 0.756532
0.045421 0.479609 0.756532
0.319469 0.479609 0.756532
0.505006 0.479609 0.756532
0.607247 0.479609 0.756532
0.735752 0.479609 0.756532
0.045421 0.608634 0.756532
0.319469 0.608634 0.756532
0.505006 0.608634 0.756532
0.607247 0.608634 0.756532
0.735752 0.608634 0.756532
