gsg/03_Cinematic/GSG_LUT_Cinematic_LosAngelesHaze.cube
# GSG LUTs 1.0
# Copyright (c) 2016-2020 Greyscalegorilla
# See EULA for licensing and distribution information
# Converted by Briz LUT Converter
LUT_3D_SIZE 8
DOMAIN_MIN 0.000000 0.000000 0.000000
DOMAIN_MAX 0.903226 0.903226 0.903226
0.050794 0.050794 0.050794
0.129481 0.058553 0.050794
0.223097 0.063697 0.050794
0.325952 0.070227 0.050794
0.430564 0.075844 0.050794
0.546158 0.055835 0.050794
0.661759 0.055378 0.050794
0.778408 0.050794 0.050794
0.055851 0.111426 0.050794
0.133834 0.133949 0.050794
0.230677 0.146629 0.050794
0.331900 0.161839 0.050794
0.438270 0.174597 0.050794
0.550816 0.182901 0.050794
0.668674 0.187366 0.050794
0.785397 0.191948 0.050794
0.068368 0.190059 0.050794
0.148795 0.211485 0.050794
0.231801 0.235301 0.050794
0.336892 0.253451 0.050794
0.446602 0.267150 0.050794
0.560063 0.279907 0.050794
0.676438 0.293570 0.050794
0.794054 0.304540 0.050794
0.062137 0.275489 0.050794
0.158114 0.298884 0.050794
0.249267 0.323619 0.050794
0.345951 0.347352 0.050794
0.451802 0.365590 0.050794
0.566011 0.382264 0.050794
0.683663 0.397277 0.050794
0.804304 0.412370 0.050794
0.051172 0.361645 0.050794
0.165983 0.385903 0.050794
0.259380 0.412646 0.050794
0.360255 0.439894 0.050794
0.460050 0.465036 0.050794
0.574252 0.483335 0.050794
0.692352 0.501111 0.050794
0.812593 0.517495 0.050794
0.050794 0.451928 0.050794
0.163453 0.478010 0.050794
0.273175 0.506048 0.050794
0.374092 0.532980 0.050794
0.477309 0.560032 0.050794
0.580914 0.587585 0.050794
0.700728 0.607354 0.050794
0.821464 0.625874 0.050794
0.050794 0.549663 0.050794
0.157867 0.573760 0.050794
0.279227 0.602763 0.050794
0.386084 0.631224 0.050794
0.492079 0.659562 0.050794
0.598500 0.688657 0.050794
0.707713 0.715946 0.050794
0.827634 0.735523 0.050794
0.050794 0.645248 0.050794
0.126035 0.672289 0.050794
0.276944 0.701355 0.050794
0.397186 0.730916 0.050794
0.507134 0.759471 0.050794
0.615878 0.787662 0.050794
0.726299 0.816359 0.050794
0.834822 0.844603 0.050794
0.054701 0.070857 0.096640
0.079190 0.055384 0.070835
0.167482 0.064060 0.068414
0.267742 0.070342 0.068148
0.373562 0.070339 0.067716
0.481064 0.068298 0.068080
0.597007 0.059846 0.061346
0.712666 0.051636 0.052636
0.054086 0.093525 0.081967
0.154483 0.142784 0.136586
0.247813 0.159023 0.135776
0.349238 0.173596 0.134204
0.458123 0.182747 0.135658
0.570969 0.195041 0.131804
0.687650 0.200817 0.128571
0.808488 0.201396 0.121992
0.061632 0.168317 0.080127
0.168812 0.223664 0.134131
0.250521 0.248159 0.136546
0.361540 0.262714 0.135592
0.466637 0.279373 0.130913
0.581267 0.292884 0.129325
0.698919 0.306119 0.123968
0.818011 0.317754 0.114302
0.056512 0.250762 0.076993
0.173200 0.310760 0.131790
0.268262 0.335512 0.131749
0.365403 0.360437 0.127708
0.473845 0.378044 0.124923
0.589334 0.395569 0.117865
0.709297 0.411105 0.110646
0.827262 0.425202 0.098939
0.056535 0.335746 0.065665
0.184177 0.397698 0.122845
0.282253 0.424236 0.122144
0.381177 0.452339 0.115874
0.480881 0.477436 0.107729
0.596689 0.496252 0.096225
0.716344 0.513565 0.083406
0.835937 0.530155 0.065526
0.050794 0.426335 0.054054
0.187814 0.490973 0.107547
0.293406 0.520497 0.101570
0.397750 0.547041 0.089613
0.499026 0.574254 0.074194
0.603148 0.600903 0.064090
0.724404 0.620840 0.055907
0.844119 0.639349 0.053993
0.050794 0.520655 0.050794
0.183978 0.587667 0.067840
0.299870 0.616150 0.065856
0.410209 0.645585 0.057923
0.513149 0.673980 0.055297
0.622268 0.701703 0.053190
0.729368 0.730016 0.051669
0.850515 0.749585 0.050837
0.050794 0.617692 0.050794
0.166409 0.685376 0.051873
0.301521 0.715724 0.053427
0.420224 0.745467 0.052086
0.529467 0.773569 0.051050
0.638494 0.801972 0.050794
0.749918 0.830579 0.050794
0.857898 0.858926 0.050794
0.056095 0.105762 0.159573
0.082641 0.080240 0.124974
0.123369 0.059299 0.097430
0.215786 0.063780 0.095314
0.314831 0.069243 0.096816
0.420859 0.070248 0.093922
0.534156 0.066573 0.092479
0.647323 0.056983 0.086524
0.054180 0.123381 0.145324
0.156146 0.175916 0.198160
0.197170 0.152096 0.171287
0.296540 0.164037 0.168998
0.399677 0.177708 0.169739
0.509671 0.189893 0.168410
0.626202 0.197532 0.166525
0.742241 0.201814 0.164099
0.053863 0.148264 0.131127
0.154167 0.205130 0.186675
0.272907 0.260005 0.241927
0.376335 0.275013 0.241156
0.484974 0.289715 0.241301
0.599584 0.304380 0.240748
0.716900 0.317585 0.239359
0.838179 0.329309 0.236902
0.053606 0.227142 0.128053
0.168636 0.286177 0.186467
0.287119 0.346846 0.242336
0.387848 0.373663 0.245195
0.496310 0.391510 0.243805
0.612966 0.408029 0.242631
0.730799 0.423732 0.241305
0.850585 0.439022 0.238138
0.051320 0.311202 0.127051
0.178757 0.373647 0.183559
0.302028 0.436727 0.238611
0.404158 0.465621 0.241361
0.503467 0.490551 0.238293
0.619461 0.510820 0.235142
0.739374 0.527008 0.232291
0.860012 0.545594 0.228708
0.051450 0.400927 0.113822
0.180932 0.465473 0.176566
0.312721 0.531378 0.233943
0.419714 0.560949 0.235383
0.520737 0.588798 0.230930
0.626434 0.615624 0.226898
0.747613 0.634818 0.222551
0.868190 0.654127 0.215800
0.050794 0.494122 0.100237
0.173303 0.562517 0.163958
0.320946 0.629668 0.223881
0.433074 0.660273 0.223300
0.537788 0.688134 0.218943
0.644798 0.715847 0.212810
0.754657 0.744743 0.204826
0.875896 0.764434 0.198414
0.050794 0.590616 0.064617
0.158096 0.658745 0.144632
0.323522 0.728613 0.209265
0.443752 0.759613 0.208613
0.552829 0.787958 0.202191
0.663130 0.816448 0.191211
0.772554 0.845362 0.181080
0.882775 0.874002 0.170613
0.055567 0.141282 0.227784
0.086639 0.112363 0.193825
0.125437 0.083065 0.161634
0.164181 0.062159 0.130944
0.258084 0.068119 0.128756
0.362294 0.068189 0.129099
0.470462 0.066731 0.127493
0.581500 0.061056 0.125128
0.055979 0.162379 0.209978
0.157785 0.217390 0.270175
0.199484 0.188580 0.237302
0.243135 0.160210 0.205307
0.339018 0.170331 0.202568
0.448721 0.180728 0.201656
0.560861 0.191790 0.201902
0.676260 0.198782 0.201529
0.053644 0.182136 0.195519
0.163292 0.238427 0.254881
0.276320 0.295529 0.312441
0.324818 0.268096 0.283574
0.426926 0.282493 0.280578
0.538879 0.296914 0.281719
0.656238 0.310790 0.279561
0.774671 0.321555 0.279874
0.053059 0.207498 0.181374
0.162052 0.264808 0.239879
0.280369 0.326559 0.301695
0.406171 0.387128 0.360456
0.513847 0.403487 0.359295
0.630754 0.420280 0.359443
0.751529 0.434114 0.359324
0.870826 0.450742 0.357643
0.051166 0.286540 0.178490
0.169563 0.347389 0.237247
0.292258 0.411740 0.299681
0.424867 0.476489 0.360159
0.527929 0.504635 0.363949
0.644612 0.522939 0.363375
0.765778 0.541725 0.362258
0.884907 0.559357 0.360611
0.050794 0.375834 0.174677
0.168955 0.439597 0.234871
0.304706 0.505696 0.297688
0.439620 0.573016 0.358062
0.545313 0.602990 0.361789
0.652019 0.629834 0.360590
0.772822 0.649410 0.358360
0.893930 0.668893 0.355401
0.050794 0.467646 0.168688
0.168479 0.534036 0.231177
0.315839 0.603238 0.291963
0.455677 0.673212 0.354115
0.563095 0.702881 0.357446
0.669539 0.730970 0.355212
0.779417 0.759157 0.351877
0.900557 0.779044 0.348727
0.050794 0.561132 0.156450
0.153940 0.629546 0.219511
0.319294 0.701780 0.285064
0.467696 0.771495 0.347098
0.580285 0.802968 0.349717
0.687054 0.832448 0.347600
0.797503 0.861767 0.343490
0.908203 0.888100 0.339993
0.051424 0.180495 0.293221
0.091891 0.149000 0.258031
0.132085 0.118601 0.226730
0.169912 0.087309 0.192185
0.207607 0.065554 0.162347
0.303123 0.068009 0.160753
0.410426 0.069668 0.159296
0.520266 0.063658 0.160077
0.053373 0.198824 0.276718
0.165425 0.253985 0.337252
0.209225 0.225732 0.304006
0.246313 0.194182 0.270171
0.287993 0.165739 0.238464
0.388222 0.174565 0.236253
0.499062 0.185617 0.236532
0.611768 0.195164 0.234206
0.052380 0.220510 0.261199
0.166462 0.278467 0.324064
0.282065 0.336118 0.382512
0.329177 0.304630 0.351342
0.372963 0.276651 0.318029
0.478582 0.288385 0.315960
0.592895 0.302455 0.315860
0.708747 0.314817 0.315222
0.050891 0.242497 0.246044
0.164062 0.300072 0.306178
0.284576 0.363191 0.371255
0.411384 0.422710 0.431903
0.463804 0.398546 0.405334
0.573449 0.410548 0.401600
0.692056 0.427342 0.401988
0.810707 0.442766 0.401276
0.051721 0.267688 0.231169
0.158157 0.327113 0.292313
0.285567 0.390802 0.354821
0.417985 0.457926 0.422848
0.545992 0.518413 0.482231
0.661587 0.535751 0.482277
0.782096 0.553703 0.481870
0.904351 0.570450 0.481156
0.050794 0.348710 0.229973
0.160870 0.413492 0.289403
0.295875 0.478659 0.353612
0.432580 0.548338 0.419759
0.566579 0.614072 0.482715
0.675353 0.644376 0.488080
0.796852 0.664048 0.486717
0.918081 0.682497 0.485966
0.050794 0.440594 0.224977
0.162364 0.506405 0.288189
0.306164 0.574743 0.352025
0.446877 0.647270 0.419351
0.584429 0.713999 0.480839
0.694502 0.745844 0.485781
0.805420 0.773094 0.484691
0.925174 0.794197 0.483448
0.050794 0.533641 0.219788
0.147035 0.602796 0.281582
0.311752 0.673621 0.346914
0.460871 0.745743 0.415030
0.601298 0.814575 0.477974
0.712472 0.847104 0.481629
0.823004 0.875289 0.479588
0.932593 0.903269 0.478650
0.050794 0.215164 0.364481
0.081442 0.187953 0.329120
0.136175 0.156595 0.293728
0.176949 0.122654 0.259356
0.211374 0.094116 0.225198
0.254731 0.066725 0.196639
0.351564 0.068223 0.192969
0.457658 0.068876 0.192202
0.051796 0.238511 0.349224
0.164333 0.293704 0.410324
0.215665 0.262899 0.376195
0.253952 0.231702 0.340675
0.291747 0.199142 0.304285
0.335600 0.170103 0.272716
0.438655 0.178570 0.270910
0.548499 0.189190 0.269882
0.051176 0.258157 0.331036
0.164927 0.318874 0.396733
0.290071 0.376601 0.457854
0.338457 0.346449 0.424581
0.377592 0.312171 0.388693
0.422474 0.283238 0.355298
0.527713 0.293872 0.351680
0.644129 0.307341 0.351861
0.050794 0.280481 0.315162
0.160340 0.341412 0.379205
0.291654 0.405637 0.444836
0.419309 0.465377 0.508431
0.468304 0.436897 0.477453
0.516567 0.405094 0.442912
0.626164 0.417987 0.439295
0.743639 0.433161 0.439901
0.050794 0.302392 0.299487
0.157608 0.364229 0.362335
0.287799 0.428933 0.427747
0.423680 0.495879 0.497982
0.552803 0.555493 0.558154
0.609566 0.530796 0.530466
0.722202 0.544284 0.527591
0.842644 0.561907 0.527787
0.050794 0.329764 0.283463
0.156765 0.393697 0.347240
0.286729 0.457969 0.411550
0.422208 0.527386 0.481711
0.558333 0.595497 0.550171
0.693162 0.657253 0.610670
0.813368 0.676084 0.611520
0.935524 0.694695 0.611519
0.050794 0.414565 0.281284
0.155557 0.480048 0.344237
0.295353 0.546933 0.409313
0.437155 0.618368 0.478439
0.574502 0.688556 0.548057
0.715115 0.757152 0.612968
0.829397 0.788503 0.619117
0.950440 0.808651 0.617920
0.050794 0.507661 0.277489
0.138430 0.575634 0.342277
0.300395 0.645378 0.407598
0.449034 0.716945 0.477656
0.591533 0.788669 0.546222
0.734833 0.857727 0.610963
0.847334 0.891273 0.617391
0.957730 0.918349 0.617073
0.050794 0.254756 0.437347
0.076995 0.223224 0.402142
0.137635 0.191078 0.363063
0.180426 0.160005 0.328026
0.219753 0.130893 0.294113
0.258006 0.096914 0.260411
0.298164 0.070206 0.228270
0.398308 0.066049 0.226418
0.050794 0.276198 0.420896
0.166008 0.334263 0.485172
0.215779 0.304426 0.451712
0.259134 0.272157 0.412850
0.300283 0.238862 0.377334
0.337170 0.205295 0.341177
0.383265 0.175012 0.307225
0.486232 0.183058 0.305185
0.050794 0.298053 0.404063
0.167258 0.359432 0.471829
0.293222 0.419525 0.533988
0.340887 0.387906 0.501276
0.386380 0.353863 0.463664
0.426117 0.319412 0.425268
0.472466 0.288213 0.391487
0.581090 0.297672 0.388261
0.050794 0.320620 0.386709
0.163675 0.382699 0.453126
0.295428 0.448001 0.521869
0.426700 0.510295 0.587366
0.477672 0.479807 0.555014
0.519567 0.444458 0.516392
0.567753 0.412332 0.480816
0.677321 0.424392 0.477192
0.050794 0.341847 0.371664
0.153055 0.405646 0.436269
0.291463 0.471875 0.503856
0.429251 0.541422 0.575929
0.560450 0.601019 0.638237
0.612997 0.572269 0.606321
0.661223 0.539032 0.570731
0.775369 0.551606 0.567095
0.050794 0.365813 0.354603
0.145643 0.429972 0.419183
0.288076 0.495453 0.486640
0.428009 0.565123 0.557156
0.565474 0.634810 0.628046
0.699253 0.696678 0.691647
0.760905 0.671604 0.662509
0.875472 0.685901 0.660635
0.050794 0.393199 0.337838
0.144605 0.458192 0.403674
0.286872 0.525246 0.470151
0.425860 0.596101 0.540968
0.564299 0.665412 0.611187
0.708665 0.737656 0.683499
0.847047 0.801621 0.745509
0.968684 0.821002 0.748001
0.050794 0.479741 0.335252
0.131135 0.547296 0.400780
0.295058 0.615126 0.466737
0.439253 0.688336 0.538609
0.580846 0.758955 0.608520
0.726391 0.832511 0.681126
0.869006 0.901903 0.749795
0.980929 0.933016 0.755578
0.050794 0.292576 0.513104
0.054001 0.262308 0.475965
0.135150 0.230816 0.436234
0.183552 0.196077 0.399563
0.224210 0.165134 0.363859
0.266127 0.133463 0.327511
0.302219 0.101665 0.293585
0.344454 0.070640 0.260732
0.050794 0.316201 0.497332
0.155912 0.375620 0.562367
0.215767 0.344676 0.527005
0.265705 0.310854 0.488123
0.308473 0.277132 0.449809
0.347075 0.243395 0.412522
0.388268 0.210299 0.375272
0.429282 0.177609 0.343452
0.050794 0.337853 0.478955
0.159173 0.399992 0.547405
0.293482 0.460573 0.611881
0.347017 0.429262 0.578148
0.391382 0.395066 0.539272
0.435607 0.360278 0.498758
0.476543 0.324433 0.461813
0.521128 0.293613 0.426935
0.050794 0.361080 0.460923
0.152585 0.424720 0.529201
0.297221 0.490778 0.599622
0.432859 0.553591 0.664743
0.485235 0.523356 0.633219
0.527163 0.488343 0.592562
0.571819 0.450460 0.554021
0.618869 0.418065 0.517938
0.050794 0.383945 0.444178
0.148245 0.447822 0.510965
0.294593 0.514839 0.581273
0.435329 0.586020 0.654235
0.568388 0.646169 0.718468
0.621394 0.616406 0.686117
0.666489 0.578406 0.646594
0.714148 0.545473 0.608985
0.050794 0.406875 0.426406
0.140871 0.471740 0.494150
0.290943 0.539555 0.564239
0.433803 0.609083 0.635448
0.572889 0.680156 0.708178
0.708949 0.742916 0.772084
0.764099 0.712843 0.740867
0.812642 0.678397 0.702966
0.050794 0.429498 0.409329
0.132268 0.497072 0.475128
0.286057 0.562892 0.544736
0.429886 0.636068 0.617318
0.570520 0.706122 0.688681
0.715913 0.778275 0.762521
0.854263 0.841635 0.827299
0.912411 0.816069 0.799430
0.050794 0.459384 0.391875
0.122863 0.524965 0.459810
0.283148 0.593235 0.528790
0.428032 0.665807 0.600272
0.568957 0.736516 0.671887
0.715000 0.809435 0.744782
0.861906 0.882206 0.819414
0.988745 0.945142 0.882337
