gsg/03_Cinematic/GSG_LUT_Cinematic_MoonlightBay.cube
# GSG LUTs 1.0
# Copyright (c) 2016-2020 Greyscalegorilla
# See EULA for licensing and distribution information
# Converted by Briz LUT Converter
LUT_3D_SIZE 5
DOMAIN_MIN 0.000000 0.000000 0.000000
DOMAIN_MAX 0.903226 0.903226 0.903226
0.011477 0.045665 0.055922
0.050510 0.058395 0.065611
0.101871 0.073630 0.078270
0.191130 0.091355 0.098279
0.329135 0.105132 0.114364
0.060121 0.140281 0.097893
0.091771 0.147930 0.100370
0.135066 0.155349 0.103185
0.216765 0.168837 0.111647
0.348353 0.179062 0.115488
0.095782 0.271511 0.134255
0.125502 0.275906 0.127841
0.164402 0.277102 0.123531
0.245071 0.285431 0.128032
0.370095 0.302929 0.137146
0.110701 0.455268 0.142920
0.140760 0.458263 0.130044
0.184407 0.453456 0.134869
0.281067 0.458874 0.157505
0.405593 0.473520 0.184828
0.147276 0.673756 0.153074
0.216395 0.656079 0.177969
0.269639 0.639414 0.201998
0.361732 0.634353 0.232470
0.472344 0.641175 0.276169
0.020978 0.059727 0.155800
0.061286 0.069006 0.163181
0.115035 0.081256 0.169294
0.202619 0.100293 0.184279
0.338745 0.111187 0.205698
0.065402 0.153842 0.186175
0.098208 0.158117 0.185098
0.140323 0.161754 0.183444
0.223139 0.171184 0.187130
0.356493 0.176180 0.189427
0.103138 0.281035 0.218876
0.131233 0.282376 0.207779
0.163951 0.281184 0.193751
0.242985 0.286518 0.186513
0.372248 0.305334 0.201006
0.113411 0.460493 0.225103
0.143690 0.460264 0.204787
0.187717 0.456643 0.207592
0.283525 0.462529 0.225688
0.409002 0.476955 0.254427
0.159197 0.668053 0.233671
0.231150 0.652989 0.253181
0.283838 0.638127 0.272500
0.372881 0.634708 0.300334
0.480006 0.643294 0.340468
0.026838 0.070148 0.275804
0.068692 0.075844 0.287046
0.125380 0.084997 0.290606
0.218331 0.101024 0.301316
0.349501 0.117476 0.318686
0.063483 0.164978 0.304258
0.098498 0.166111 0.303125
0.142476 0.165931 0.300774
0.230087 0.172146 0.300735
0.361275 0.178721 0.304131
0.102436 0.292599 0.329093
0.132818 0.291158 0.317255
0.165440 0.286893 0.302243
0.246005 0.292434 0.301845
0.379887 0.313400 0.318785
0.117251 0.467537 0.343271
0.151844 0.465169 0.327924
0.199255 0.462011 0.330483
0.294791 0.468433 0.341499
0.419930 0.487699 0.360833
0.176454 0.666454 0.357601
0.250838 0.653963 0.367500
0.305657 0.643476 0.379515
0.392000 0.641975 0.400420
0.495885 0.652877 0.432817
0.028650 0.076443 0.425972
0.072691 0.079249 0.445012
0.132518 0.084915 0.450876
0.232754 0.096442 0.462649
0.371602 0.110568 0.477096
0.057497 0.172805 0.460845
0.094862 0.170725 0.464282
0.141093 0.166694 0.466055
0.235432 0.167909 0.466793
0.373311 0.173652 0.464323
0.086593 0.304518 0.486868
0.119649 0.300037 0.477158
0.154100 0.292335 0.463041
0.247699 0.298951 0.464011
0.385941 0.324093 0.463493
0.114098 0.477510 0.495455
0.161114 0.473520 0.483706
0.212535 0.470056 0.475421
0.312403 0.480074 0.473656
0.435537 0.502304 0.479353
0.197180 0.667620 0.499634
0.273068 0.657848 0.499773
0.327691 0.649431 0.500195
0.415072 0.653054 0.511149
0.515791 0.666151 0.532808
0.026421 0.078632 0.613084
0.072567 0.078307 0.645466
0.135993 0.081516 0.654817
0.243169 0.090031 0.667226
0.389137 0.104166 0.674861
0.047333 0.176370 0.663461
0.089837 0.172274 0.667887
0.140818 0.167602 0.663634
0.239468 0.167641 0.661210
0.381184 0.175514 0.655319
0.075371 0.312553 0.683590
0.114174 0.305865 0.673693
0.155986 0.300920 0.657490
0.261618 0.313336 0.634051
0.394665 0.337851 0.616508
0.114136 0.486487 0.680705
0.177833 0.482125 0.654374
0.234979 0.482339 0.628701
0.333814 0.494907 0.610651
0.450499 0.515827 0.600354
0.219554 0.671094 0.652664
0.297507 0.663985 0.639280
0.352169 0.657808 0.625552
0.437235 0.663332 0.622123
0.537681 0.681455 0.631786
