gsg/03_Cinematic/GSG_LUT_Cinematic_Take_the_Red_Pill.cube
# GSG LUTs 1.0
# Copyright (c) 2016-2020 Greyscalegorilla
# See EULA for licensing and distribution information
# Converted by Briz LUT Converter
LUT_3D_SIZE 5
DOMAIN_MIN 0.000000 0.000000 0.000000
DOMAIN_MAX 0.903226 0.903226 0.903226
0.000000 0.000000 0.000000
0.156351 0.025602 0.044547
0.351105 0.058750 0.079932
0.518500 0.087951 0.094923
0.660184 0.113222 0.098657
0.009445 0.204435 0.073938
0.166596 0.234763 0.091829
0.362370 0.273016 0.098552
0.530369 0.305880 0.093444
0.672475 0.333459 0.083698
0.011611 0.471976 0.098216
0.170082 0.506377 0.092069
0.367222 0.548237 0.076495
0.541386 0.579512 0.062841
0.713915 0.588452 0.069292
0.006909 0.708582 0.079326
0.167308 0.743872 0.063828
0.405116 0.760542 0.070995
0.611901 0.769247 0.088235
0.786348 0.774705 0.107401
0.020584 0.896798 0.065280
0.217344 0.908147 0.077902
0.461200 0.918322 0.102601
0.669550 0.924590 0.128489
0.845061 0.928615 0.151971
0.002497 0.009610 0.167726
0.158903 0.035798 0.209067
0.353901 0.069392 0.241301
0.521358 0.099082 0.254077
0.663224 0.124408 0.256423
0.010465 0.215920 0.236039
0.167815 0.246661 0.251626
0.363835 0.285179 0.256167
0.531934 0.318081 0.250289
0.674116 0.345622 0.240541
0.011202 0.485037 0.255678
0.169880 0.519442 0.248811
0.367162 0.561158 0.233580
0.554446 0.583944 0.229549
0.727810 0.591626 0.240660
0.005388 0.722266 0.236392
0.175657 0.751081 0.227742
0.417820 0.764150 0.242833
0.625005 0.771882 0.264067
0.799784 0.776734 0.285773
0.032014 0.901603 0.234653
0.229336 0.911694 0.251707
0.473706 0.920844 0.280476
0.682384 0.926531 0.308672
0.858045 0.930358 0.333300
0.004994 0.021663 0.372437
0.161700 0.048407 0.410163
0.356892 0.082721 0.438350
0.524507 0.112730 0.448816
0.666498 0.138280 0.449699
0.011343 0.230092 0.433911
0.168967 0.261208 0.446869
0.365133 0.300066 0.449366
0.533428 0.333113 0.442872
0.675652 0.360471 0.433540
0.010304 0.501101 0.448696
0.169287 0.535419 0.441463
0.368958 0.575525 0.428277
0.570932 0.588373 0.437180
0.744580 0.594891 0.452947
0.003458 0.738879 0.429607
0.190561 0.756621 0.433911
0.433418 0.767892 0.455768
0.640923 0.774643 0.481251
0.815951 0.778818 0.505452
0.046130 0.906676 0.444883
0.243990 0.915634 0.466634
0.488989 0.923579 0.499680
0.697984 0.928615 0.530104
0.873916 0.932144 0.556052
0.006759 0.032085 0.544795
0.163598 0.059244 0.579529
0.359085 0.094084 0.604632
0.526803 0.124353 0.613250
0.668896 0.150112 0.613266
0.011777 0.242223 0.600756
0.169635 0.273678 0.611795
0.366041 0.312631 0.612940
0.534422 0.345636 0.606137
0.677379 0.372413 0.597725
0.009362 0.514624 0.612092
0.168592 0.548915 0.604742
0.378654 0.582165 0.598951
0.584737 0.591576 0.615029
0.758651 0.597345 0.634366
0.007110 0.749182 0.596988
0.203052 0.760786 0.610654
0.446394 0.770692 0.637654
0.654275 0.776730 0.666147
0.829580 0.780470 0.692208
0.057962 0.910363 0.624743
0.256314 0.918449 0.650008
0.501777 0.925716 0.685912
0.711054 0.930363 0.717970
0.887252 0.933428 0.744557
0.008059 0.040907 0.688487
0.165124 0.068518 0.720729
0.360750 0.103664 0.743653
0.528567 0.134153 0.750923
0.670661 0.159991 0.750167
0.011966 0.252401 0.740100
0.169892 0.284121 0.749797
0.366567 0.323133 0.749843
0.534972 0.356042 0.743232
0.683466 0.379482 0.738537
0.008374 0.525889 0.749104
0.167862 0.560069 0.741872
0.389770 0.585442 0.745285
0.596129 0.593922 0.765309
0.770296 0.599010 0.787269
0.016952 0.753405 0.742290
0.213470 0.763801 0.760077
0.457178 0.772744 0.790787
0.665430 0.778256 0.821555
0.840877 0.781630 0.848810
0.067840 0.913403 0.776491
0.266659 0.920533 0.804330
0.512450 0.927260 0.842343
0.721841 0.931634 0.875514
0.898176 0.934497 0.902643
