gsg/03_Cinematic/GSG_LUT_Cinematic_AlienMovie.cube
# GSG LUTs 1.0
# Copyright (c) 2016-2020 Greyscalegorilla
# See EULA for licensing and distribution information
# Converted by Briz LUT Converter
LUT_3D_SIZE 32
0.007570 0.037851 0.053724
0.011611 0.040624 0.057521
0.015912 0.043397 0.061791
0.020450 0.046170 0.065847
0.025050 0.048974 0.070133
0.030092 0.051999 0.074457
0.035181 0.055024 0.079042
0.040585 0.058104 0.083832
0.046382 0.061381 0.088621
0.052322 0.064729 0.093552
0.058781 0.068258 0.098846
0.065674 0.071787 0.104226
0.073016 0.075505 0.109866
0.080933 0.079538 0.115767
0.089330 0.083682 0.121927
0.098507 0.087967 0.128347
0.108464 0.092505 0.135153
0.119335 0.097294 0.142345
0.131246 0.102367 0.149939
0.144346 0.107810 0.158053
0.158903 0.113671 0.166686
0.175186 0.119887 0.175840
0.193462 0.126535 0.185860
0.214179 0.133704 0.196558
0.237686 0.141392 0.207964
0.264445 0.149600 0.220347
0.295199 0.158533 0.233771
0.330324 0.168033 0.248021
0.370310 0.178053 0.263051
0.414550 0.188365 0.278404
0.446170 0.195392 0.288818
0.466911 0.199756 0.295238
0.008579 0.046682 0.061302
0.012864 0.049439 0.065328
0.017165 0.051983 0.069361
0.021703 0.054780 0.073417
0.026310 0.057773 0.077695
0.031346 0.060585 0.082020
0.036441 0.063656 0.086556
0.041845 0.066873 0.091142
0.047706 0.070028 0.095931
0.053826 0.073483 0.100792
0.060286 0.076844 0.105909
0.067181 0.080460 0.111284
0.074528 0.084241 0.116830
0.082448 0.088125 0.122577
0.090957 0.092265 0.128733
0.100264 0.096664 0.135035
0.110225 0.101201 0.141711
0.121100 0.106007 0.148899
0.133010 0.111053 0.156351
0.146260 0.116397 0.164358
0.160917 0.122253 0.172831
0.177203 0.128465 0.181892
0.195484 0.135114 0.191731
0.216204 0.142282 0.202350
0.239899 0.149970 0.213565
0.266911 0.158179 0.225887
0.297718 0.167112 0.238899
0.332845 0.176612 0.252851
0.372838 0.186632 0.267621
0.417307 0.196944 0.282942
0.448942 0.203970 0.293111
0.469692 0.208334 0.299523
0.009587 0.055772 0.069353
0.013872 0.058301 0.073142
0.018173 0.061074 0.077174
0.022734 0.063869 0.081194
0.027526 0.066850 0.085271
0.032405 0.069676 0.089582
0.037689 0.072701 0.094072
0.043105 0.075781 0.098468
0.048966 0.079058 0.103253
0.055091 0.082401 0.108102
0.061562 0.085919 0.113143
0.068541 0.089535 0.118353
0.076041 0.093316 0.123888
0.084060 0.097200 0.129536
0.092599 0.101240 0.135548
0.101784 0.105511 0.141841
0.111867 0.110048 0.148395
0.122857 0.114852 0.155460
0.134784 0.120028 0.162896
0.148040 0.125472 0.170751
0.162840 0.131175 0.179133
0.179214 0.137304 0.188024
0.197668 0.143952 0.197613
0.218469 0.151121 0.207976
0.242168 0.158809 0.219126
0.269192 0.167017 0.231232
0.300188 0.175950 0.244179
0.335377 0.185450 0.257923
0.375574 0.195470 0.272434
0.420079 0.205782 0.287496
0.451731 0.212809 0.297420
0.472701 0.217173 0.303809
0.010595 0.065123 0.077191
0.014880 0.067651 0.080979
0.019182 0.070424 0.084975
0.023743 0.073197 0.088824
0.028564 0.076001 0.093056
0.033609 0.079026 0.097164
0.038765 0.082051 0.101639
0.044366 0.085131 0.106043
0.050226 0.088408 0.110739
0.056418 0.091685 0.115429
0.063051 0.095041 0.120454
0.070030 0.098657 0.125582
0.077530 0.102438 0.130970
0.085559 0.106322 0.136608
0.094112 0.110465 0.142503
0.103407 0.114750 0.148671
0.113502 0.119276 0.155213
0.124518 0.124067 0.162128
0.136681 0.129137 0.169317
0.150033 0.134570 0.177062
0.164701 0.140289 0.185435
0.181157 0.146426 0.194171
0.199702 0.153057 0.203670
0.220678 0.160219 0.213839
0.244437 0.167907 0.224906
0.271645 0.176116 0.236638
0.302513 0.185049 0.249285
0.338068 0.194549 0.262967
0.378138 0.204569 0.277248
0.422837 0.214880 0.292049
0.454724 0.221907 0.301958
0.475474 0.226271 0.308118
0.011603 0.074733 0.085257
0.015889 0.077293 0.089039
0.020190 0.080064 0.092833
0.024754 0.082811 0.096837
0.029603 0.085639 0.100870
0.034684 0.088637 0.104943
0.040025 0.091662 0.109270
0.045626 0.094742 0.113734
0.051487 0.098019 0.118161
0.057679 0.101296 0.122927
0.064321 0.104652 0.127796
0.071322 0.108267 0.132913
0.078822 0.112049 0.138268
0.086930 0.115932 0.143808
0.095607 0.120076 0.149578
0.104919 0.124361 0.155714
0.115145 0.128772 0.162125
0.126283 0.133578 0.168813
0.138446 0.138619 0.175903
0.151798 0.143960 0.183493
0.166628 0.149800 0.191748
0.183174 0.156005 0.200473
0.201875 0.162502 0.209793
0.222915 0.169609 0.219725
0.246698 0.177273 0.230540
0.273939 0.185499 0.242190
0.304998 0.194412 0.254646
0.340588 0.203907 0.268045
0.380886 0.213927 0.282091
0.425610 0.224239 0.296634
0.457497 0.231266 0.306496
0.478278 0.235630 0.312655
0.012572 0.084643 0.093363
0.016859 0.087415 0.097105
0.021198 0.090136 0.100886
0.025783 0.092737 0.104691
0.030824 0.095700 0.108724
0.035905 0.098547 0.112791
0.041246 0.101572 0.117043
0.046847 0.104652 0.121383
0.052718 0.107929 0.125921
0.058939 0.111206 0.130518
0.065650 0.114561 0.135358
0.072795 0.118163 0.140399
0.080310 0.121934 0.145535
0.088353 0.125825 0.151001
0.097020 0.129946 0.156753
0.106471 0.134231 0.162669
0.116786 0.138663 0.168971
0.128008 0.143466 0.175637
0.140194 0.148490 0.182709
0.153587 0.153830 0.190169
0.168544 0.159534 0.198179
0.185178 0.165662 0.206787
0.203891 0.172311 0.215916
0.224961 0.179479 0.225775
0.248919 0.186979 0.236395
0.276380 0.195297 0.247816
0.307513 0.204098 0.260165
0.343144 0.213565 0.273181
0.383639 0.223585 0.287136
0.428382 0.233897 0.301440
0.460270 0.240923 0.311041
0.481264 0.245287 0.317192
0.013329 0.095073 0.101682
0.017668 0.097792 0.105219
0.022162 0.100374 0.109000
0.026791 0.103147 0.112800
0.031833 0.105945 0.116791
0.036914 0.108929 0.120824
0.042255 0.111954 0.124904
0.047866 0.115034 0.129234
0.053826 0.118311 0.133735
0.060199 0.121588 0.138272
0.066911 0.124944 0.142952
0.074072 0.128490 0.147962
0.081679 0.132220 0.153080
0.089838 0.136122 0.158364
0.098625 0.140124 0.163884
0.108189 0.144409 0.169774
0.118422 0.148922 0.176052
0.129568 0.153715 0.182583
0.141872 0.158667 0.189535
0.155477 0.164008 0.196946
0.170411 0.169711 0.204805
0.187128 0.175840 0.213171
0.205942 0.182455 0.222073
0.227177 0.189610 0.231837
0.251224 0.197146 0.242286
0.278695 0.205309 0.253585
0.310000 0.214203 0.265572
0.345843 0.223695 0.278481
0.386364 0.233715 0.292202
0.431152 0.244027 0.306246
0.463089 0.251054 0.315633
0.484036 0.255418 0.321730
0.014140 0.105967 0.110056
0.018616 0.108496 0.113591
0.022986 0.111269 0.117319
0.027794 0.114042 0.121100
0.032793 0.116814 0.124912
0.037922 0.119627 0.128937
0.043274 0.122652 0.132971
0.048962 0.125732 0.137256
0.055032 0.129009 0.141590
0.061421 0.132286 0.146087
0.068171 0.135641 0.150703
0.075403 0.139238 0.155560
0.083081 0.142983 0.160566
0.091236 0.146787 0.165812
0.100113 0.150821 0.171358
0.109673 0.155107 0.177113
0.120036 0.159518 0.183232
0.131308 0.164293 0.189641
0.143637 0.169342 0.196447
0.157241 0.174672 0.203631
0.172339 0.180354 0.211379
0.189145 0.186482 0.219591
0.208098 0.192997 0.228430
0.229432 0.200069 0.238007
0.253645 0.207744 0.248306
0.281161 0.215952 0.259262
0.312512 0.224680 0.271126
0.348363 0.234141 0.283807
0.388935 0.244161 0.297268
0.433964 0.254472 0.311103
0.466054 0.261499 0.320424
0.486864 0.265863 0.326322
0.015085 0.117185 0.118689
0.019378 0.119713 0.122157
0.023932 0.122486 0.125759
0.028727 0.125259 0.129481
0.033637 0.128032 0.133286
0.038930 0.130844 0.137235
0.044318 0.133869 0.141151
0.050130 0.136949 0.145372
0.056103 0.140210 0.149608
0.062547 0.143458 0.153964
0.069432 0.146859 0.158560
0.076663 0.150388 0.163307
0.084415 0.154012 0.168191
0.092686 0.157895 0.173411
0.101505 0.162010 0.178920
0.111087 0.166261 0.184553
0.121549 0.170672 0.190445
0.132924 0.175378 0.196762
0.145375 0.180443 0.203422
0.159044 0.185749 0.210501
0.174247 0.191382 0.218085
0.191141 0.197468 0.226208
0.210115 0.204096 0.234957
0.231588 0.211084 0.244358
0.255900 0.218709 0.254315
0.283481 0.226917 0.265135
0.315003 0.235645 0.276776
0.350939 0.245106 0.289196
0.391689 0.255126 0.302397
0.436914 0.265438 0.316149
0.468894 0.272403 0.325283
0.489889 0.276766 0.331112
0.015771 0.128922 0.127512
0.020135 0.131519 0.130871
0.024688 0.134223 0.134504
0.029501 0.136996 0.138116
0.034574 0.139769 0.141833
0.039879 0.142581 0.145642
0.045327 0.145606 0.149616
0.051180 0.148686 0.153649
0.057293 0.151900 0.157745
0.063736 0.155067 0.162081
0.070644 0.158573 0.166568
0.077924 0.162080 0.171192
0.085675 0.165749 0.176076
0.093976 0.169603 0.181190
0.102919 0.173627 0.186521
0.112600 0.177817 0.192062
0.123098 0.182229 0.197860
0.134507 0.186995 0.204105
0.147064 0.192004 0.210627
0.160920 0.197345 0.217586
0.176122 0.203049 0.225027
0.193099 0.209060 0.233037
0.212182 0.215602 0.241506
0.233676 0.222569 0.250696
0.258128 0.230194 0.260617
0.285895 0.238402 0.271234
0.317512 0.247131 0.282614
0.353618 0.256591 0.294775
0.394455 0.266547 0.307779
0.439686 0.276852 0.321211
0.471842 0.283711 0.330256
0.492843 0.288070 0.335901
0.016354 0.141258 0.136413
0.020891 0.143947 0.139935
0.025444 0.146554 0.143238
0.030265 0.149261 0.146922
0.035409 0.152105 0.150482
0.040742 0.154917 0.154264
0.046335 0.157942 0.158077
0.052188 0.161005 0.162047
0.058321 0.164178 0.166143
0.064823 0.167380 0.170428
0.071762 0.170800 0.174767
0.079133 0.174276 0.179338
0.086935 0.178006 0.184191
0.095309 0.181787 0.189184
0.104388 0.185789 0.194336
0.114112 0.190074 0.199790
0.124700 0.194486 0.205547
0.136236 0.199157 0.211608
0.148828 0.204088 0.218016
0.162685 0.209429 0.224821
0.178049 0.215133 0.232113
0.195116 0.221208 0.239925
0.214321 0.227658 0.248312
0.235924 0.234632 0.257187
0.260396 0.242217 0.266937
0.288228 0.250408 0.277332
0.320071 0.259136 0.288519
0.356217 0.268597 0.300432
0.397211 0.278467 0.313332
0.442533 0.288763 0.326359
0.474694 0.295713 0.335208
0.495695 0.300075 0.340848
0.017023 0.154287 0.145575
0.021563 0.156900 0.149012
0.026200 0.159579 0.152383
0.031037 0.162219 0.155831
0.036331 0.165135 0.159392
0.041664 0.167947 0.163159
0.047257 0.170972 0.166868
0.053129 0.173997 0.170704
0.059372 0.177085 0.174778
0.065997 0.180362 0.178999
0.072910 0.183717 0.183284
0.080287 0.187246 0.187712
0.088196 0.190870 0.192446
0.096606 0.194651 0.197301
0.105770 0.198614 0.202403
0.115580 0.202894 0.207696
0.126212 0.207350 0.213323
0.137839 0.212021 0.219331
0.150556 0.216952 0.225614
0.164449 0.222240 0.232229
0.179920 0.227910 0.239316
0.197105 0.233873 0.246899
0.216399 0.240331 0.255144
0.238150 0.247389 0.263870
0.262732 0.254866 0.273382
0.290716 0.263019 0.283587
0.322730 0.271748 0.294596
0.358979 0.281133 0.306337
0.400063 0.291142 0.318911
0.445547 0.301453 0.331750
0.477719 0.308328 0.340505
0.498720 0.312687 0.346055
0.017527 0.168026 0.155091
0.022073 0.170696 0.158278
0.026868 0.173233 0.161706
0.031784 0.176005 0.165086
0.037005 0.178778 0.168549
0.042420 0.181590 0.172224
0.048031 0.184615 0.175861
0.053994 0.187640 0.179621
0.060286 0.190728 0.183654
0.066938 0.194005 0.187731
0.073969 0.197361 0.191949
0.081453 0.200890 0.196288
0.089398 0.204514 0.200859
0.097932 0.208295 0.205648
0.107160 0.212186 0.210615
0.117011 0.216410 0.215857
0.127725 0.220899 0.221354
0.139404 0.225570 0.227188
0.152200 0.230501 0.233337
0.166177 0.235693 0.239789
0.181746 0.241301 0.246755
0.199070 0.247265 0.254197
0.218528 0.253834 0.262145
0.240395 0.260822 0.270771
0.265123 0.268258 0.280088
0.293219 0.276411 0.290160
0.325251 0.285139 0.300807
0.361719 0.294387 0.312399
0.402978 0.304376 0.324591
0.448478 0.314687 0.337302
0.480741 0.321623 0.345898
0.501745 0.325984 0.351286
0.018031 0.182701 0.164922
0.022577 0.185222 0.167955
0.027382 0.187758 0.171241
0.032433 0.190531 0.174650
0.037617 0.193304 0.177959
0.043090 0.196100 0.181511
0.048816 0.199039 0.185179
0.054889 0.202064 0.188878
0.061145 0.205152 0.192805
0.067840 0.208429 0.196762
0.074977 0.211785 0.200841
0.082497 0.215314 0.205094
0.090567 0.218937 0.209555
0.099193 0.222719 0.214219
0.108488 0.226610 0.219119
0.118421 0.230761 0.224229
0.129188 0.235173 0.229595
0.140998 0.239844 0.235219
0.153835 0.244775 0.241254
0.167946 0.249967 0.247643
0.183643 0.255575 0.254406
0.201054 0.261538 0.261690
0.220544 0.268036 0.269465
0.242598 0.274993 0.277882
0.267471 0.282429 0.286951
0.295711 0.290583 0.296763
0.327858 0.299225 0.307235
0.364473 0.308546 0.318584
0.405843 0.318455 0.330515
0.451353 0.328757 0.343062
0.483761 0.335646 0.351549
0.504872 0.340006 0.356832
0.018425 0.198157 0.174973
0.023081 0.200681 0.178003
0.027886 0.203317 0.181173
0.032951 0.205987 0.184450
0.038259 0.208760 0.187744
0.043728 0.211550 0.191177
0.049573 0.214463 0.194732
0.055678 0.217488 0.198425
0.062043 0.220547 0.202206
0.068738 0.223743 0.206026
0.075911 0.227098 0.209981
0.083556 0.230627 0.214148
0.091717 0.234251 0.218563
0.100389 0.238032 0.223074
0.109748 0.241924 0.227860
0.119735 0.246075 0.232841
0.130631 0.250486 0.238078
0.142511 0.255097 0.243570
0.155494 0.259979 0.249413
0.169798 0.265170 0.255623
0.185529 0.270779 0.262240
0.203025 0.276742 0.269302
0.222639 0.283138 0.277018
0.244830 0.290055 0.285234
0.269849 0.297491 0.294034
0.298210 0.305555 0.303586
0.330590 0.314150 0.313918
0.367246 0.323493 0.325029
0.408744 0.333378 0.336700
0.454474 0.343676 0.349119
0.486896 0.350596 0.357355
0.508039 0.354957 0.362598
0.018677 0.214628 0.185427
0.023467 0.217157 0.188452
0.028280 0.219914 0.191485
0.033455 0.222459 0.194651
0.038781 0.225231 0.197928
0.044366 0.228044 0.201226
0.050211 0.231046 0.204656
0.056342 0.233975 0.208213
0.062829 0.237031 0.211903
0.069613 0.240214 0.215684
0.076829 0.243532 0.219544
0.084564 0.246981 0.223622
0.092771 0.250605 0.227880
0.101522 0.254386 0.232345
0.110944 0.258277 0.236939
0.121060 0.262429 0.241782
0.132087 0.266840 0.246888
0.144023 0.271377 0.252259
0.157084 0.276198 0.257878
0.171517 0.281390 0.263925
0.187380 0.286998 0.270466
0.205003 0.292962 0.277316
0.224751 0.299274 0.284772
0.247069 0.306156 0.292827
0.272209 0.313593 0.301493
0.300705 0.321549 0.310811
0.333223 0.330230 0.320882
0.370106 0.339478 0.331734
0.411635 0.349360 0.343144
0.457616 0.359660 0.355303
0.490055 0.366564 0.363394
0.511182 0.370924 0.368648
0.018803 0.232526 0.196266
0.023597 0.235050 0.199165
0.028540 0.237686 0.202190
0.033834 0.240230 0.205226
0.039175 0.243003 0.208389
0.044870 0.245795 0.211666
0.050715 0.248691 0.214966
0.056875 0.251621 0.218394
0.063492 0.254709 0.221953
0.070406 0.257949 0.225641
0.077711 0.261177 0.229460
0.085491 0.264626 0.233408
0.093828 0.268201 0.237487
0.102656 0.271905 0.241798
0.112135 0.275797 0.246335
0.122321 0.279948 0.251048
0.133412 0.284294 0.256024
0.145479 0.288840 0.261265
0.158669 0.293718 0.266753
0.173233 0.298909 0.272671
0.189226 0.304436 0.279000
0.206979 0.310355 0.285675
0.226857 0.316667 0.292911
0.249305 0.323456 0.300706
0.274576 0.330860 0.309112
0.303303 0.338816 0.318272
0.335870 0.347497 0.328107
0.372973 0.356745 0.338698
0.414762 0.366513 0.349963
0.460766 0.376683 0.361756
0.493206 0.383702 0.369822
0.514459 0.388066 0.374950
0.018803 0.251849 0.207491
0.023735 0.254240 0.210272
0.028783 0.256891 0.213288
0.033965 0.259435 0.216188
0.039442 0.262208 0.219245
0.045240 0.264981 0.222500
0.051111 0.267801 0.225665
0.057379 0.270826 0.228967
0.064031 0.273879 0.232392
0.071078 0.277025 0.235992
0.078467 0.280259 0.239730
0.086289 0.283698 0.243507
0.094754 0.287227 0.247540
0.103714 0.290858 0.251722
0.113322 0.294750 0.256121
0.123581 0.298901 0.260639
0.134742 0.303186 0.265485
0.146938 0.307740 0.270587
0.160251 0.312593 0.275962
0.174945 0.317728 0.281725
0.191067 0.323179 0.287794
0.208953 0.329056 0.294289
0.229052 0.335357 0.301398
0.251574 0.342153 0.308972
0.276948 0.349457 0.317129
0.305896 0.357383 0.326020
0.338733 0.366064 0.335592
0.375879 0.375312 0.345923
0.417882 0.385080 0.357034
0.464035 0.395140 0.368718
0.496612 0.402151 0.376648
0.517870 0.406515 0.381638
0.018662 0.272614 0.219260
0.023703 0.275036 0.221899
0.028754 0.277665 0.224908
0.033975 0.280328 0.227691
0.039553 0.282973 0.230601
0.045373 0.285746 0.233715
0.051384 0.288566 0.236788
0.057774 0.291591 0.240065
0.064563 0.294616 0.243368
0.071692 0.297712 0.246822
0.079127 0.300989 0.250423
0.087046 0.304352 0.254075
0.095553 0.307881 0.258017
0.104640 0.311513 0.262093
0.114380 0.315404 0.266296
0.124768 0.319487 0.270700
0.136059 0.323699 0.275416
0.148386 0.328252 0.280311
0.161763 0.333042 0.285490
0.176525 0.338131 0.291126
0.192781 0.343582 0.296990
0.210888 0.349362 0.303320
0.231147 0.355640 0.310193
0.253806 0.362422 0.317602
0.279412 0.369633 0.325622
0.308531 0.377534 0.334188
0.341581 0.386096 0.343479
0.378886 0.395321 0.353673
0.421035 0.405089 0.364542
0.467305 0.415148 0.376039
0.499996 0.422159 0.383851
0.521257 0.426382 0.388869
0.018410 0.295388 0.231510
0.023451 0.297909 0.234191
0.028518 0.300435 0.237046
0.033975 0.303045 0.239693
0.039553 0.305597 0.242613
0.045414 0.308370 0.245508
0.051637 0.311190 0.248551
0.058049 0.314215 0.251707
0.064918 0.317240 0.254946
0.072090 0.320292 0.258183
0.079664 0.323463 0.261712
0.087705 0.326827 0.265274
0.096309 0.330356 0.268996
0.105439 0.333987 0.272937
0.115306 0.337879 0.277013
0.125899 0.341912 0.281262
0.137319 0.346071 0.285771
0.149703 0.350542 0.290488
0.163213 0.355351 0.295561
0.178129 0.360411 0.300971
0.194606 0.365804 0.306652
0.212872 0.371515 0.312845
0.233270 0.377727 0.319524
0.256159 0.384418 0.326652
0.281909 0.391719 0.334399
0.311255 0.399533 0.342826
0.344479 0.407980 0.351885
0.382028 0.417189 0.361908
0.424302 0.426821 0.372530
0.470722 0.436866 0.383812
0.503423 0.443877 0.391611
0.524834 0.448147 0.396581
0.017842 0.320501 0.244492
0.022889 0.322864 0.247102
0.028115 0.325385 0.249717
0.033675 0.327921 0.252402
0.039395 0.330595 0.255110
0.045272 0.333231 0.257923
0.051604 0.336051 0.260917
0.058143 0.339040 0.263835
0.065053 0.341984 0.266967
0.072370 0.345126 0.270205
0.080062 0.348230 0.273572
0.088243 0.351593 0.276994
0.096969 0.355122 0.280557
0.106196 0.358688 0.284278
0.116105 0.362488 0.288219
0.126871 0.366521 0.292371
0.138422 0.370680 0.296701
0.150978 0.375099 0.301296
0.164685 0.379829 0.306186
0.179700 0.384804 0.311347
0.196376 0.390161 0.316956
0.214838 0.395872 0.322871
0.235354 0.402017 0.329306
0.258457 0.408681 0.336248
0.284517 0.415932 0.343751
0.314010 0.423656 0.351994
0.347332 0.432085 0.360944
0.385115 0.441156 0.370595
0.427564 0.450683 0.381078
0.474235 0.460719 0.392204
0.507104 0.467578 0.399992
0.528457 0.471937 0.404868
0.017086 0.348119 0.258183
0.022136 0.350556 0.260538
0.027456 0.352917 0.263064
0.033180 0.355461 0.265674
0.038999 0.358202 0.268355
0.045019 0.360763 0.270996
0.051369 0.363551 0.273835
0.058015 0.366424 0.276663
0.065075 0.369409 0.279708
0.072457 0.372492 0.282815
0.080230 0.375596 0.285974
0.088582 0.378901 0.289279
0.097341 0.382323 0.292702
0.106760 0.385922 0.296333
0.116862 0.389693 0.300150
0.127669 0.393635 0.304130
0.139436 0.397794 0.308330
0.152156 0.402214 0.312793
0.166059 0.406893 0.317508
0.181314 0.411832 0.322495
0.198109 0.417082 0.327826
0.216773 0.422734 0.333507
0.237488 0.428879 0.339707
0.260826 0.435420 0.346453
0.287085 0.442562 0.353846
0.316751 0.450266 0.361866
0.350382 0.458556 0.370628
0.388294 0.467525 0.380102
0.430982 0.477041 0.390413
0.477758 0.487077 0.401442
0.510877 0.493852 0.409064
0.534633 0.497381 0.411619
0.015983 0.378857 0.272567
0.021206 0.381202 0.274843
0.026531 0.383654 0.277353
0.032329 0.386182 0.279719
0.038181 0.388789 0.282303
0.044421 0.391472 0.284864
0.050804 0.394100 0.287603
0.057608 0.396928 0.290252
0.064774 0.399953 0.293143
0.072334 0.402978 0.296168
0.080255 0.406025 0.299215
0.088722 0.409247 0.302375
0.097661 0.412663 0.305679
0.107178 0.416188 0.309132
0.117428 0.419969 0.312813
0.128426 0.423785 0.316628
0.140363 0.427855 0.320608
0.153295 0.432274 0.324849
0.167332 0.436852 0.329349
0.182807 0.441719 0.334216
0.199812 0.446918 0.339415
0.218708 0.452542 0.344922
0.239683 0.458564 0.350887
0.263153 0.464997 0.357501
0.289701 0.472118 0.364606
0.319648 0.479682 0.372484
0.353460 0.487873 0.381020
0.391700 0.496829 0.390302
0.434660 0.506189 0.400520
0.482109 0.516046 0.411054
0.522561 0.520293 0.411355
0.550341 0.522652 0.410312
0.014361 0.413336 0.287731
0.019841 0.415613 0.290002
0.025342 0.418122 0.292331
0.031157 0.420473 0.294624
0.037181 0.423026 0.297121
0.043513 0.425759 0.299494
0.050061 0.428327 0.302103
0.056963 0.431114 0.304784
0.064288 0.433999 0.307433
0.071974 0.437024 0.310271
0.080074 0.440049 0.313167
0.088630 0.443183 0.316214
0.097759 0.446571 0.319375
0.107443 0.450087 0.322678
0.117925 0.453763 0.326130
0.129088 0.457545 0.329812
0.141156 0.461484 0.333719
0.154261 0.465816 0.337787
0.168517 0.470353 0.342132
0.184222 0.475079 0.346747
0.201488 0.480208 0.351806
0.220521 0.485832 0.357142
0.241826 0.491675 0.362976
0.265556 0.498035 0.369301
0.292401 0.505016 0.376202
0.322624 0.512482 0.383902
0.356789 0.520659 0.392343
0.395368 0.529457 0.401552
0.439416 0.538402 0.410779
0.497920 0.544591 0.410670
0.542077 0.547735 0.407645
0.570838 0.549600 0.405774
0.012407 0.451904 0.303864
0.017959 0.454364 0.306126
0.023703 0.456698 0.308212
0.029543 0.459149 0.310486
0.035795 0.461506 0.312805
0.042167 0.464105 0.315113
0.048963 0.466796 0.317608
0.056032 0.469416 0.320020
0.063454 0.472252 0.322604
0.071299 0.475277 0.325377
0.079566 0.478302 0.328168
0.088400 0.481346 0.330998
0.097643 0.484596 0.333995
0.107495 0.488125 0.337193
0.118137 0.491679 0.340470
0.129525 0.495356 0.344026
0.141820 0.499263 0.347738
0.155155 0.503461 0.351680
0.169671 0.507913 0.355887
0.185637 0.512600 0.360345
0.203163 0.517705 0.365111
0.222541 0.523073 0.370271
0.244058 0.528883 0.375950
0.268152 0.535139 0.382126
0.295306 0.542022 0.388995
0.325790 0.549322 0.396492
0.360267 0.557303 0.404725
0.402410 0.564864 0.410610
0.457053 0.570442 0.409958
0.520174 0.575052 0.405777
0.564575 0.578172 0.402846
0.593084 0.579976 0.401237
0.010193 0.495616 0.321037
0.015747 0.497932 0.323101
0.021570 0.500204 0.325133
0.027784 0.502536 0.327383
0.034111 0.505014 0.329473
0.040663 0.507542 0.331750
0.047555 0.510103 0.334058
0.054871 0.512679 0.336382
0.062460 0.515464 0.338915
0.070403 0.518343 0.341484
0.078845 0.521304 0.344118
0.087824 0.524265 0.346890
0.097368 0.527530 0.349700
0.107578 0.530856 0.352716
0.118358 0.534271 0.355987
0.129900 0.537918 0.359312
0.142455 0.541825 0.362866
0.156050 0.545884 0.366673
0.170826 0.550223 0.370645
0.187052 0.554789 0.374997
0.204838 0.559690 0.379692
0.224514 0.565047 0.384679
0.246410 0.570785 0.390256
0.270846 0.576812 0.396270
0.298274 0.583478 0.402935
0.329177 0.590689 0.410343
0.372211 0.595806 0.410592
0.423166 0.600423 0.408494
0.481535 0.604750 0.404602
0.544705 0.609264 0.400699
0.588709 0.612383 0.398429
0.617149 0.614384 0.397093
0.007515 0.544787 0.339249
0.013280 0.547056 0.341266
0.019308 0.549325 0.343272
0.025610 0.551597 0.345134
0.031969 0.553933 0.347182
0.038774 0.556454 0.349418
0.045886 0.558974 0.351514
0.053417 0.561504 0.353792
0.061148 0.564118 0.356154
0.069467 0.566903 0.358675
0.078155 0.569769 0.361208
0.087290 0.572782 0.363843
0.096980 0.575847 0.366615
0.107479 0.578999 0.369507
0.118498 0.582386 0.372573
0.130373 0.585934 0.375738
0.143294 0.589736 0.379161
0.157149 0.593769 0.382843
0.172186 0.597967 0.386766
0.188672 0.602418 0.390973
0.206718 0.607139 0.395589
0.226793 0.612300 0.400544
0.249048 0.617807 0.405960
0.275126 0.623271 0.410663
0.309950 0.627510 0.410674
0.350526 0.631584 0.409164
0.397424 0.635261 0.405977
0.450250 0.639222 0.402586
0.508425 0.643476 0.399377
0.571316 0.647989 0.396226
0.615013 0.651109 0.394536
0.643239 0.653157 0.393674
0.004530 0.600268 0.358714
0.010548 0.602324 0.360511
0.016627 0.604593 0.362320
0.023169 0.606861 0.364287
0.029918 0.609134 0.366115
0.036798 0.611435 0.368194
0.044171 0.613778 0.370395
0.051952 0.616298 0.372492
0.059868 0.618827 0.374769
0.068320 0.621442 0.377070
0.077267 0.624225 0.379440
0.086724 0.627106 0.382047
0.096703 0.630131 0.384820
0.107332 0.633258 0.387606
0.118708 0.636550 0.390508
0.130978 0.639962 0.393651
0.144180 0.643524 0.397054
0.158295 0.647235 0.400600
