gsg/03_Cinematic/GSG_LUT_Cinematic_Ill_Be_Back.cube
# GSG LUTs 1.0
# Copyright (c) 2016-2020 Greyscalegorilla
# See EULA for licensing and distribution information
# Converted by Briz LUT Converter
LUT_3D_SIZE 5
DOMAIN_MIN 0.000000 0.000000 0.000000
DOMAIN_MAX 0.903226 0.903226 0.903226
0.000000 0.000000 0.000000
0.067651 0.013494 0.020363
0.143999 0.035819 0.056079
0.250219 0.087116 0.141644
0.326693 0.146300 0.243216
0.022860 0.081878 0.045752
0.083709 0.097247 0.077889
0.152466 0.121990 0.127822
0.250315 0.176273 0.233446
0.327454 0.236811 0.346399
0.056725 0.182236 0.138430
0.109928 0.200622 0.183213
0.170961 0.228816 0.246818
0.264315 0.287766 0.367557
0.350692 0.350251 0.481345
0.124503 0.354398 0.362488
0.169262 0.379832 0.416009
0.225783 0.416393 0.483548
0.350428 0.484408 0.553229
0.516711 0.547237 0.547222
0.202206 0.537020 0.552389
0.267276 0.569312 0.554022
0.356422 0.613772 0.548971
0.532230 0.695364 0.521022
0.730074 0.771381 0.475251
0.004262 0.004805 0.066241
0.070637 0.019575 0.084485
0.145251 0.043500 0.117539
0.249675 0.096892 0.198871
0.325887 0.157651 0.296903
0.027666 0.087282 0.108012
0.087281 0.104073 0.138283
0.154664 0.130131 0.185708
0.251398 0.186471 0.287429
0.329267 0.248163 0.396991
0.062160 0.188941 0.195981
0.114319 0.208493 0.238914
0.174540 0.237854 0.300352
0.267901 0.298448 0.417616
0.356434 0.361616 0.528489
0.130401 0.363850 0.412698
0.174954 0.390227 0.464861
0.231742 0.427693 0.530704
0.366268 0.495460 0.584071
0.535972 0.558139 0.579281
0.215424 0.549130 0.583302
0.280920 0.582142 0.584869
0.370579 0.627169 0.580814
0.548016 0.709012 0.557946
0.748088 0.784322 0.520565
0.009965 0.011785 0.148545
0.074465 0.028130 0.164260
0.147174 0.053832 0.194278
0.249321 0.110004 0.270523
0.325448 0.172531 0.364378
0.034071 0.095293 0.185521
0.092045 0.113471 0.213450
0.157716 0.141275 0.258058
0.253274 0.200019 0.355385
0.332442 0.263043 0.461308
0.069353 0.198235 0.267665
0.120256 0.219175 0.308728
0.179410 0.250130 0.367720
0.273079 0.312624 0.481393
0.364788 0.376494 0.589392
0.138277 0.376639 0.476474
0.182491 0.404128 0.527291
0.239730 0.442722 0.591621
0.387251 0.510006 0.625149
0.561058 0.572208 0.623975
0.232537 0.565221 0.624220
0.298209 0.599136 0.626437
0.388452 0.644780 0.624806
0.567970 0.726685 0.610464
0.770836 0.800877 0.585973
0.020206 0.025830 0.283580
0.081872 0.044765 0.295356
0.151172 0.073741 0.320556
0.249809 0.134414 0.389515
0.326716 0.199370 0.477900
0.045728 0.110952 0.313057
0.100994 0.131634 0.337509
0.164125 0.162419 0.377966
0.258098 0.224901 0.469250
0.340466 0.289389 0.571126
0.082165 0.216330 0.386908
0.131087 0.239538 0.425208
0.188905 0.272999 0.481148
0.283892 0.338198 0.590724
0.389138 0.401215 0.683727
0.152121 0.400536 0.586002
0.196102 0.429707 0.635513
0.263044 0.468721 0.682708
0.424890 0.535440 0.702288
0.605820 0.596281 0.712465
0.261484 0.594651 0.700098
0.327494 0.629553 0.706112
0.418693 0.676053 0.711748
0.601251 0.757342 0.717647
0.808439 0.828761 0.720269
0.030651 0.041325 0.399968
0.089503 0.062586 0.408736
0.155976 0.094351 0.430438
0.252133 0.158565 0.494624
0.330657 0.225090 0.580440
0.057035 0.127764 0.423567
0.110129 0.150612 0.445678
0.171124 0.183759 0.483651
0.264491 0.249084 0.571850
0.350814 0.314110 0.672802
0.094655 0.235188 0.492150
0.142027 0.260252 0.528951
0.198808 0.295666 0.583536
0.296115 0.362672 0.692394
0.424787 0.422695 0.756018
0.165126 0.424396 0.687636
0.211016 0.454674 0.733949
0.293316 0.492646 0.756596
0.460806 0.559129 0.783723
0.647841 0.617832 0.810385
0.287161 0.623317 0.779442
0.353245 0.658894 0.791491
0.445064 0.705487 0.807616
0.630074 0.785433 0.838575
0.841074 0.853552 0.871892
