gsg/03_Cinematic/GSG_LUT_Cinematic_Ripley.cube
# GSG LUTs 1.0
# Copyright (c) 2016-2020 Greyscalegorilla
# See EULA for licensing and distribution information
# Converted by Briz LUT Converter
LUT_3D_SIZE 5
DOMAIN_MIN 0.000000 0.000000 0.000000
DOMAIN_MAX 0.903226 0.903226 0.903226
0.034432 0.034432 0.034432
0.079050 0.045398 0.055276
0.120737 0.057230 0.075277
0.163890 0.069849 0.095742
0.211391 0.083666 0.117783
0.020237 0.106408 0.074654
0.063445 0.119138 0.095254
0.105132 0.134146 0.117240
0.150380 0.151650 0.141833
0.203695 0.171909 0.170029
0.004333 0.186750 0.115964
0.047485 0.206600 0.140172
0.090858 0.231250 0.168435
0.140931 0.261432 0.202072
0.226938 0.289532 0.223152
0.000000 0.295419 0.165284
0.027868 0.332813 0.198115
0.092205 0.371917 0.220332
0.196876 0.410621 0.225214
0.350159 0.457859 0.227429
0.000000 0.463902 0.214652
0.052671 0.518329 0.218859
0.155758 0.588123 0.221524
0.308290 0.673417 0.219733
0.563151 0.766135 0.209807
0.031691 0.038639 0.094222
0.075820 0.049793 0.113014
0.117508 0.061949 0.132979
0.160826 0.075198 0.155227
0.209169 0.089393 0.180346
0.017307 0.111116 0.132490
0.060450 0.124475 0.154434
0.102367 0.140495 0.179613
0.148371 0.158949 0.209293
0.203144 0.180467 0.245546
0.001103 0.193808 0.178038
0.044255 0.215284 0.207351
0.088070 0.241832 0.243272
0.139428 0.274267 0.288500
0.246436 0.298462 0.304718
0.000000 0.308346 0.239663
0.023427 0.349278 0.283659
0.103728 0.385242 0.301479
0.215579 0.427596 0.315776
0.383515 0.478695 0.329217
0.000000 0.482448 0.295083
0.062381 0.542577 0.308638
0.171913 0.618488 0.322533
0.338999 0.709465 0.334139
0.622570 0.801187 0.339837
0.028950 0.042845 0.152901
0.072835 0.054244 0.172524
0.114278 0.066730 0.194565
0.157840 0.080381 0.220135
0.207092 0.095241 0.250555
0.014321 0.115853 0.193777
0.057296 0.130105 0.219139
0.099444 0.146986 0.249597
0.146214 0.166615 0.287384
0.202736 0.189232 0.335698
0.000000 0.201161 0.247819
0.040567 0.224369 0.284977
0.084997 0.252990 0.332753
0.148676 0.283442 0.381900
0.267615 0.307857 0.405934
0.000000 0.322329 0.328276
0.027178 0.362693 0.377818
0.115758 0.399665 0.402047
0.235718 0.445549 0.431027
0.420532 0.500578 0.461952
0.000000 0.502690 0.394567
0.071897 0.568592 0.422764
0.188866 0.650927 0.454497
0.373118 0.745401 0.487066
0.685194 0.834199 0.517494
0.025964 0.047052 0.215188
0.069605 0.058732 0.236906
0.111048 0.071633 0.262476
0.154967 0.085730 0.293450
0.205089 0.101067 0.332294
0.011091 0.120830 0.261499
0.053987 0.135967 0.292197
0.096286 0.153641 0.330898
0.143970 0.174357 0.380901
0.202122 0.198247 0.447460
0.000000 0.209102 0.328603
0.036639 0.233991 0.377717
0.081490 0.264633 0.443555
0.162350 0.291492 0.493133
0.290639 0.317307 0.534744
0.000000 0.337321 0.437916
0.035492 0.374672 0.488284
0.128093 0.414792 0.530003
0.257178 0.464400 0.580436
0.461303 0.523371 0.636096
0.000000 0.524392 0.521265
0.081435 0.596426 0.570788
0.206864 0.684877 0.627720
0.411020 0.780196 0.687593
0.746796 0.865052 0.739960
0.022978 0.051014 0.283509
0.066131 0.063145 0.308835
0.107574 0.076364 0.339730
0.151869 0.090969 0.379046
0.203064 0.106794 0.430126
0.007562 0.126007 0.338527
0.050471 0.141778 0.377296
0.093056 0.160410 0.428147
0.141343 0.182118 0.496349
0.204940 0.206007 0.584291
0.000000 0.217291 0.425142
0.032087 0.243904 0.492192
0.079487 0.275814 0.580448
0.176797 0.299425 0.633224
0.315765 0.326813 0.698205
0.000000 0.352429 0.574841
0.043509 0.387228 0.627284
0.140884 0.430772 0.692532
0.280366 0.484425 0.767734
0.506810 0.547662 0.839110
0.000000 0.547781 0.682172
0.090751 0.626116 0.756693
0.226522 0.719784 0.830729
0.454410 0.814170 0.893920
0.806892 0.895212 0.940045
