gsg/03_Cinematic/GSG_LUT_Cinematic_DustyStorm.cube
# GSG LUTs 1.0
# Copyright (c) 2016-2020 Greyscalegorilla
# See EULA for licensing and distribution information
# Converted by Briz LUT Converter
LUT_3D_SIZE 32
0.007814 0.007814 0.007814
0.030738 0.010075 0.010075
0.045185 0.012123 0.012029
0.057387 0.014621 0.012730
0.072984 0.016732 0.011312
0.088400 0.017858 0.015140
0.103840 0.019812 0.015140
0.118020 0.023191 0.016133
0.131443 0.027792 0.019410
0.147820 0.029627 0.019544
0.165702 0.031722 0.021624
0.183930 0.034251 0.024310
0.201639 0.037276 0.025413
0.220158 0.039789 0.024869
0.240545 0.040892 0.026255
0.260388 0.040671 0.029840
0.281059 0.041806 0.033369
0.303226 0.042420 0.036307
0.325440 0.040624 0.039269
0.348474 0.040852 0.040742
0.375383 0.040096 0.041341
0.403049 0.036669 0.043168
0.429501 0.031250 0.046729
0.455898 0.023932 0.051306
0.486715 0.013470 0.054016
0.515633 0.008823 0.055638
0.542999 0.006869 0.057765
0.573626 0.000851 0.061735
0.604222 0.000000 0.062492
0.635866 0.000000 0.065028
0.668100 0.000000 0.069455
0.699878 0.000000 0.075458
0.014510 0.019134 0.011997
0.033149 0.020914 0.011800
0.046195 0.023372 0.012838
0.058458 0.024871 0.014481
0.074141 0.024311 0.015074
0.087450 0.026859 0.014736
0.101674 0.029777 0.016532
0.116188 0.032015 0.018046
0.131564 0.033440 0.018624
0.149702 0.035312 0.021256
0.165274 0.037132 0.022794
0.181759 0.040511 0.023799
0.200835 0.044123 0.025365
0.220861 0.045364 0.027609
0.240935 0.046276 0.029166
0.260369 0.045739 0.031010
0.280909 0.045125 0.033388
0.302966 0.045234 0.036578
0.325171 0.045147 0.040175
0.347614 0.045279 0.041984
0.374784 0.042217 0.044497
0.402941 0.038345 0.047031
0.429445 0.036099 0.048676
0.455870 0.034844 0.050337
0.484028 0.027288 0.051959
0.512954 0.018115 0.055247
0.542360 0.010657 0.058590
0.572279 0.006433 0.059933
0.603813 0.001738 0.064284
0.635324 0.000105 0.067006
0.667068 0.000001 0.069503
0.699878 0.000000 0.075442
0.017819 0.029659 0.012911
0.033685 0.031138 0.013250
0.047267 0.033079 0.013767
0.059954 0.034447 0.014547
0.073323 0.034225 0.015889
0.088006 0.035121 0.016401
0.102670 0.037572 0.017660
0.117303 0.039598 0.018994
0.132635 0.040328 0.019937
0.149829 0.042102 0.021335
0.166176 0.043678 0.023193
0.182178 0.046747 0.024143
0.199613 0.049955 0.025414
0.219905 0.050608 0.028532
0.240520 0.050968 0.030491
0.259758 0.051146 0.032155
0.280193 0.051094 0.034022
0.302485 0.051375 0.036643
0.324399 0.051957 0.039882
0.347091 0.051550 0.042602
0.374528 0.048438 0.045816
0.401979 0.044970 0.048268
0.427627 0.042408 0.049204
0.454960 0.039937 0.049927
0.482776 0.034490 0.053021
0.511477 0.027539 0.056362
0.541050 0.019529 0.058752
0.570976 0.010779 0.059618
0.602264 0.004060 0.064889
0.633070 0.001026 0.067273
0.664814 0.000043 0.069069
0.699878 0.000000 0.074906
0.021907 0.039237 0.012572
0.034710 0.039725 0.013914
0.048576 0.041018 0.014464
0.061379 0.043170 0.014685
0.072544 0.044968 0.015759
0.087913 0.043799 0.017586
0.103120 0.045213 0.018250
0.117957 0.047291 0.019391
0.132640 0.048551 0.021127
0.148448 0.049798 0.021716
0.166591 0.051455 0.023406
0.183274 0.053497 0.025019
0.199132 0.055520 0.026569
0.218839 0.056176 0.028774
0.239808 0.056048 0.031061
0.259394 0.056875 0.033273
0.280052 0.057859 0.034701
0.302383 0.057959 0.036263
0.324075 0.057893 0.038973
0.346932 0.057390 0.042274
0.374111 0.055935 0.045430
0.400559 0.053781 0.047841
0.425565 0.050580 0.049502
0.453838 0.045199 0.050975
0.482075 0.040168 0.054943
0.510569 0.035820 0.057511
0.539627 0.029612 0.058979
0.568942 0.018465 0.061311
0.599761 0.009269 0.065161
0.630445 0.003389 0.067412
0.662960 0.000403 0.069455
0.699878 0.000000 0.073804
0.027862 0.048344 0.013959
0.038205 0.046434 0.013996
0.050050 0.047706 0.015211
0.061857 0.051103 0.016618
0.072816 0.054796 0.016948
0.086243 0.052902 0.017171
0.100643 0.054009 0.018756
0.115530 0.056332 0.019947
0.130206 0.057625 0.020918
0.146064 0.058191 0.023768
0.164730 0.060254 0.024260
0.183146 0.061540 0.026041
0.200236 0.061892 0.028562
0.218719 0.062642 0.029078
0.239588 0.062725 0.031446
0.260008 0.063434 0.034149
0.280553 0.064239 0.034958
0.302392 0.063235 0.035623
0.324408 0.061542 0.038450
0.347089 0.061552 0.041432
0.372910 0.061589 0.043910
0.398753 0.061325 0.046663
0.424216 0.060056 0.049818
0.452836 0.055281 0.053127
0.481593 0.049258 0.056046
0.509892 0.042884 0.057741
0.538236 0.037371 0.059766
0.566441 0.033737 0.063871
0.597285 0.019646 0.066087
0.629225 0.008763 0.068549
0.662924 0.002701 0.070834
0.699878 0.000473 0.072039
0.026964 0.054417 0.016031
0.041623 0.054315 0.016251
0.051844 0.056405 0.017042
0.061343 0.059581 0.018347
0.073685 0.062029 0.019448
0.088025 0.061088 0.019514
0.101588 0.062350 0.020136
0.115491 0.064381 0.021600
0.130111 0.065883 0.023175
0.145475 0.067253 0.023972
0.163226 0.067959 0.026040
0.182272 0.068435 0.027149
0.201034 0.068937 0.028024
0.219108 0.069670 0.030377
0.238170 0.070456 0.032205
0.257977 0.070456 0.034288
0.278602 0.071448 0.036305
0.300790 0.072443 0.038276
0.324209 0.070855 0.040829
0.347098 0.068456 0.043273
0.372579 0.067160 0.044944
0.398565 0.067172 0.047006
0.423971 0.066940 0.049709
0.451249 0.064615 0.051835
0.479201 0.059469 0.055579
0.507598 0.052410 0.058340
0.536738 0.046754 0.060101
0.566267 0.045755 0.062202
0.597058 0.032480 0.064831
0.628826 0.023095 0.067368
0.662606 0.015692 0.069652
0.699523 0.005751 0.071763
0.031029 0.061980 0.016992
0.043426 0.062378 0.018331
0.054896 0.064345 0.019055
0.065152 0.067029 0.019388
0.074593 0.069454 0.020539
0.089331 0.069652 0.021781
0.102206 0.071028 0.022112
0.115355 0.072596 0.022686
0.130048 0.074021 0.024103
0.145591 0.075857 0.024901
0.163600 0.076922 0.026595
0.181288 0.077298 0.028521
0.199280 0.077152 0.029906
0.218749 0.077699 0.031175
0.236953 0.079282 0.033370
0.256261 0.079851 0.035255
0.277407 0.079908 0.037222
0.299942 0.079794 0.039537
0.323692 0.078537 0.042062
0.347697 0.077055 0.045085
0.373064 0.076613 0.047551
0.399048 0.075249 0.049565
0.424800 0.073094 0.051341
0.451095 0.072336 0.052605
0.478449 0.068911 0.055272
0.506906 0.063150 0.057900
0.536248 0.058105 0.060168
0.566208 0.056985 0.061962
0.596745 0.046798 0.064247
0.627580 0.039220 0.066753
0.660566 0.031874 0.068992
0.697302 0.019914 0.070330
0.035551 0.069211 0.018024
0.045752 0.070485 0.019047
0.057571 0.071974 0.020013
0.068759 0.074032 0.020707
0.077640 0.076613 0.021358
0.091480 0.077901 0.022606
0.103189 0.079412 0.023652
0.115973 0.080618 0.024392
0.131356 0.081969 0.025034
0.146706 0.084352 0.026177
0.163913 0.086419 0.027402
0.180387 0.087120 0.029971
0.197884 0.086364 0.032214
0.218328 0.086393 0.032692
0.237071 0.088097 0.034826
0.256412 0.089051 0.036392
0.277993 0.088409 0.038271
0.300639 0.087164 0.041114
0.323538 0.086091 0.043489
0.347661 0.085579 0.045517
0.372511 0.086109 0.048186
0.398710 0.084227 0.050813
0.425789 0.080688 0.052769
0.451830 0.079947 0.054682
0.478563 0.077627 0.056625
0.506658 0.074287 0.058509
0.535941 0.071044 0.059990
0.566168 0.067908 0.061099
0.595912 0.062416 0.064405
0.626209 0.055723 0.066926
0.658806 0.047623 0.068967
0.695726 0.037008 0.071488
0.038324 0.075639 0.020166
0.049671 0.078743 0.018868
0.059908 0.080236 0.020225
0.070698 0.081413 0.022236
0.083223 0.083620 0.023326
0.094503 0.085902 0.022665
0.104829 0.087755 0.024663
0.117630 0.089020 0.026766
0.133891 0.090274 0.027262
0.148497 0.092815 0.027820
0.163842 0.095029 0.029792
0.180355 0.096256 0.031812
0.198689 0.095874 0.033299
0.218225 0.095330 0.034792
0.237744 0.096412 0.036296
0.257703 0.097085 0.037092
0.279317 0.096801 0.039230
0.301721 0.095964 0.042950
0.323651 0.094903 0.045292
0.346332 0.094184 0.045253
0.370742 0.094738 0.046515
0.397648 0.093863 0.049711
0.425748 0.091352 0.053265
0.452457 0.089493 0.056531
0.479173 0.086897 0.059109
0.506768 0.085545 0.060331
0.535571 0.084034 0.060360
0.565398 0.079495 0.060347
0.594922 0.077402 0.065515
0.625495 0.070746 0.067896
0.658600 0.061463 0.069790
0.695726 0.052574 0.074765
0.044121 0.083627 0.022616
0.052909 0.087116 0.021779
0.063187 0.089331 0.021782
0.074439 0.090667 0.023073
0.086615 0.091609 0.025425
0.096684 0.094487 0.025534
0.107556 0.096660 0.026512
0.120270 0.098075 0.028210
0.134609 0.099098 0.029572
0.148970 0.100993 0.029804
0.164924 0.102602 0.031875
0.181717 0.104224 0.032990
0.199436 0.104936 0.033239
0.218045 0.104833 0.034976
0.236788 0.105874 0.036836
0.257295 0.106873 0.038209
0.278759 0.106531 0.039864
0.300715 0.105847 0.042452
0.323201 0.105896 0.045070
0.345075 0.106380 0.046993
0.370681 0.106443 0.047699
0.397809 0.105379 0.049815
0.424507 0.103734 0.053393
0.452624 0.102601 0.055959
0.480397 0.100460 0.058049
0.507848 0.097564 0.060081
0.535642 0.094512 0.061688
0.563517 0.092180 0.063201
0.595170 0.088541 0.066535
0.625498 0.083095 0.068898
0.657525 0.076707 0.070593
0.695088 0.069605 0.072063
0.049998 0.092702 0.024885
0.057038 0.096189 0.024470
0.065880 0.098345 0.024315
0.076074 0.100018 0.024415
0.087115 0.101641 0.024905
0.098073 0.103493 0.027207
0.111172 0.104818 0.028446
0.124290 0.106196 0.029901
0.136613 0.108308 0.031625
0.151139 0.110462 0.031325
0.166605 0.112580 0.031629
0.182250 0.114818 0.033011
0.199429 0.115503 0.034695
0.218754 0.114602 0.035968
0.237816 0.115810 0.038021
0.258412 0.116514 0.039924
0.279924 0.116343 0.041310
0.301328 0.116771 0.043160
0.323212 0.117240 0.045732
0.345753 0.116855 0.047598
0.370821 0.116958 0.048412
0.397213 0.116902 0.050293
0.423941 0.116074 0.053541
0.451566 0.114709 0.056341
0.479335 0.113064 0.058671
0.507323 0.110064 0.060616
0.535655 0.106427 0.062060
0.564257 0.104147 0.063410
0.595422 0.102109 0.065713
0.624877 0.098248 0.068602
0.655932 0.093101 0.070753
0.692662 0.087707 0.070172
0.056308 0.101083 0.026894
0.062814 0.104903 0.026395
0.070180 0.106620 0.026564
0.078740 0.108016 0.026423
0.088502 0.110745 0.025397
0.099658 0.112410 0.028562
0.113630 0.113355 0.030274
0.127152 0.114484 0.031452
0.139226 0.116702 0.032554
0.154098 0.119808 0.032533
0.168864 0.122418 0.032701
0.183272 0.124763 0.034354
0.199854 0.125768 0.036646
0.219860 0.125238 0.037864
0.239190 0.126143 0.039963
0.259876 0.125939 0.041405
0.281034 0.125939 0.043015
0.301888 0.127379 0.045579
0.323685 0.128301 0.047746
0.346241 0.127687 0.048572
0.371273 0.127831 0.050188
0.397425 0.128187 0.052417
0.423786 0.127365 0.054658
0.450640 0.125582 0.057096
0.479031 0.124322 0.059017
0.506842 0.122367 0.060857
0.534623 0.119955 0.062463
0.563858 0.118474 0.063631
0.594077 0.117479 0.066144
0.624473 0.114972 0.068963
0.656028 0.111642 0.070932
0.690149 0.109016 0.071054
0.061412 0.109465 0.027272
0.067859 0.112677 0.026899
0.075276 0.114131 0.028080
0.083078 0.115747 0.028982
0.091356 0.118899 0.028432
0.102904 0.120825 0.030445
0.115849 0.122315 0.032497
0.128721 0.123458 0.033408
0.141428 0.125269 0.032949
0.156048 0.128765 0.033554
0.170952 0.131149 0.035212
0.185330 0.133335 0.036689
0.201490 0.135292 0.037924
0.221103 0.136185 0.039883
0.240033 0.136781 0.041932
0.260724 0.136256 0.042789
0.281101 0.136402 0.044513
0.301736 0.138024 0.047423
0.324580 0.139485 0.049099
0.346509 0.140327 0.049984
0.372521 0.139829 0.052242
0.399354 0.139115 0.054504
0.424518 0.138455 0.056017
0.450994 0.136940 0.057427
0.479531 0.135728 0.058787
0.506895 0.134612 0.060745
0.534032 0.133908 0.062796
0.563330 0.134308 0.064095
0.593118 0.132752 0.067841
0.624585 0.130307 0.070054
0.657193 0.128146 0.070996
0.690590 0.127228 0.072409
0.063579 0.119028 0.027500
0.070674 0.120509 0.027637
0.078685 0.122314 0.029493
0.086719 0.124808 0.031329
0.094424 0.127841 0.031504
0.107317 0.129366 0.032467
0.119098 0.131124 0.034389
0.130713 0.133348 0.035475
0.143321 0.136064 0.034697
0.157342 0.138560 0.034738
0.172717 0.140617 0.036641
0.187941 0.142920 0.037756
0.203779 0.145230 0.038530
0.222108 0.146654 0.041027
0.240799 0.147740 0.042699
0.260813 0.148457 0.044070
0.280516 0.149100 0.045330
0.301605 0.150190 0.046657
0.325433 0.151857 0.048183
0.347733 0.153791 0.050337
0.373879 0.152483 0.052029
0.400934 0.150957 0.053737
0.426064 0.151113 0.055959
0.451826 0.150699 0.057749
0.478813 0.149750 0.060083
0.506802 0.148233 0.061830
0.535608 0.147394 0.062794
0.564817 0.149103 0.063330
0.594466 0.147422 0.067431
0.624952 0.143860 0.069787
0.657447 0.140222 0.070652
0.693182 0.138217 0.071165
0.066367 0.127205 0.030824
0.075371 0.129734 0.029692
0.082934 0.131281 0.030345
0.090573 0.133015 0.032138
0.099296 0.135280 0.033679
0.110248 0.138810 0.033347
0.120533 0.141589 0.034011
0.132153 0.144145 0.035596
0.146293 0.146816 0.036627
0.160203 0.149206 0.036338
0.175816 0.150971 0.038320
0.191586 0.153043 0.039379
0.206958 0.155726 0.039971
0.223658 0.157856 0.042305
0.242010 0.159105 0.043163
0.261122 0.161081 0.044523
0.280361 0.162431 0.045841
0.301737 0.162926 0.046860
0.325580 0.164448 0.048454
0.348196 0.166501 0.050465
0.373641 0.165830 0.051826
0.400476 0.164445 0.053614
0.426348 0.164285 0.056307
0.451964 0.164758 0.058814
0.478849 0.164235 0.061587
0.506989 0.163214 0.063405
0.535697 0.162976 0.064079
0.563728 0.165328 0.063749
0.593561 0.163373 0.066521
0.624793 0.159449 0.068983
0.657474 0.155864 0.070977
0.692379 0.154949 0.072189
0.071803 0.136941 0.034149
0.077335 0.140617 0.032538
0.086293 0.141259 0.032251
0.095884 0.141964 0.033359
0.103985 0.144726 0.035058
0.113029 0.149203 0.035146
0.122784 0.152421 0.034759
0.134593 0.154711 0.035931
0.149132 0.156679 0.038228
0.164068 0.158936 0.038617
0.179193 0.161432 0.039774
0.195252 0.163769 0.040613
0.210990 0.166315 0.041701
0.226455 0.169142 0.043512
0.244934 0.171138 0.044153
0.263980 0.173687 0.044909
0.282829 0.175940 0.046173
0.303359 0.176837 0.047804
0.325905 0.177642 0.049633
0.348670 0.179186 0.051303
0.373981 0.179566 0.052427
0.400542 0.178803 0.054060
0.426715 0.178101 0.056521
0.452529 0.178301 0.059350
0.480117 0.177864 0.061147
0.508060 0.177972 0.062737
0.535828 0.178745 0.064351
0.563861 0.179670 0.065406
0.593626 0.177680 0.067083
0.624560 0.174691 0.068981
0.656879 0.172115 0.071350
0.691575 0.171799 0.074324
0.074450 0.147276 0.036417
0.078242 0.150834 0.035059
0.088021 0.151745 0.034707
0.098921 0.152889 0.034688
0.107070 0.156317 0.034940
0.115716 0.159876 0.036906
0.125707 0.162858 0.037032
0.137248 0.164961 0.037240
0.150649 0.166734 0.038464
0.165775 0.169491 0.040036
0.180494 0.172646 0.040412
0.197533 0.174881 0.041454
0.214800 0.176776 0.043112
0.229898 0.180185 0.044081
0.247800 0.183441 0.045560
0.266074 0.186177 0.046372
0.284923 0.188560 0.047702
0.305466 0.190152 0.049820
0.327011 0.191128 0.051357
0.349301 0.192672 0.052274
0.374367 0.193053 0.053789
0.401050 0.192460 0.055739
0.427703 0.191929 0.057355
0.453944 0.192072 0.059012
0.481532 0.192188 0.060224
0.508938 0.193077 0.062033
0.536267 0.193784 0.064355
0.565227 0.192583 0.067068
0.594911 0.191650 0.068518
0.624877 0.190812 0.069542
0.656887 0.189227 0.070756
0.692962 0.185915 0.073063
0.075245 0.157541 0.038166
0.081258 0.160239 0.036693
0.089746 0.162150 0.036425
0.099853 0.164281 0.035811
0.110035 0.167285 0.034772
0.117935 0.170310 0.037833
0.128417 0.173219 0.038739
0.139932 0.175521 0.038405
0.152178 0.177849 0.038358
0.166575 0.181268 0.040560
0.181642 0.184214 0.040943
0.198791 0.186421 0.042310
0.216503 0.188553 0.043971
0.232965 0.191748 0.044233
0.250510 0.195129 0.046558
0.267607 0.198180 0.048093
0.286500 0.200542 0.049329
0.307359 0.202678 0.051182
0.328193 0.205006 0.052408
0.350454 0.206817 0.052607
0.375478 0.206664 0.054983
0.402083 0.206401 0.057580
0.428893 0.206840 0.058497
0.455077 0.207340 0.058597
0.481962 0.208027 0.060408
0.508984 0.208872 0.062604
0.536703 0.209035 0.064510
0.566275 0.207471 0.066206
0.595917 0.206855 0.067396
0.625649 0.207396 0.068438
0.657757 0.206537 0.069257
0.694663 0.201449 0.070015
0.079089 0.168632 0.038970
0.084467 0.170888 0.037652
0.091850 0.172765 0.037823
0.101755 0.174816 0.037589
0.113049 0.177639 0.036321
0.119932 0.180787 0.038978
0.131249 0.183745 0.039864
0.143503 0.186389 0.039601
0.155241 0.189156 0.039485
0.169337 0.192397 0.041106
0.184713 0.195300 0.041769
0.200534 0.198411 0.043148
0.217320 0.201521 0.044522
0.236010 0.204131 0.044897
0.254625 0.206844 0.047240
0.271863 0.210047 0.048940
0.290424 0.212913 0.049729
0.310250 0.215768 0.051023
0.329994 0.219007 0.052381
0.352665 0.220678 0.052637
0.378140 0.220956 0.055247
0.404041 0.221746 0.057819
0.429778 0.223014 0.058498
0.455391 0.223561 0.058312
0.482231 0.223862 0.060411
0.509496 0.224408 0.062397
0.537548 0.224760 0.063235
0.566899 0.224147 0.063355
0.596400 0.222655 0.064368
0.626254 0.222395 0.066282
0.658372 0.222189 0.068274
0.694569 0.220340 0.069636
0.081279 0.178676 0.038324
0.086426 0.182266 0.038031
0.093213 0.183693 0.038983
0.102265 0.184881 0.039509
0.113179 0.188045 0.038532
0.121268 0.191674 0.039846
0.133686 0.194622 0.041273
0.147038 0.197241 0.042128
0.159083 0.200140 0.041486
0.171861 0.203869 0.040852
0.186824 0.207581 0.041668
0.203260 0.210997 0.043727
0.220816 0.213633 0.045516
0.239373 0.216273 0.046311
0.258116 0.219400 0.048413
0.276162 0.222675 0.049943
0.294563 0.225390 0.050805
0.314060 0.228062 0.051487
0.334169 0.231115 0.051777
0.355262 0.233171 0.052250
0.379619 0.235049 0.054892
0.404918 0.236780 0.056792
0.430029 0.238080 0.056927
0.455973 0.239377 0.057574
0.483602 0.239131 0.060437
0.511455 0.239718 0.061899
0.539227 0.240560 0.061690
0.566804 0.240214 0.061583
0.596324 0.239460 0.063492
0.626443 0.238142 0.066401
0.658432 0.237476 0.069096
0.693513 0.239104 0.070440
0.080302 0.191626 0.036591
0.089737 0.194806 0.039547
0.096493 0.196222 0.040558
0.104178 0.197662 0.040168
0.114987 0.200404 0.039105
0.124656 0.203868 0.040182
0.135877 0.206829 0.042461
0.149520 0.209512 0.043495
0.163842 0.212533 0.042649
0.174695 0.216683 0.042900
0.190536 0.221001 0.042586
0.207996 0.224509 0.043638
0.225011 0.226620 0.045313
0.242379 0.228918 0.046384
0.260475 0.232589 0.048817
0.278719 0.236131 0.049882
0.297365 0.239628 0.050646
0.317444 0.242626 0.051235
0.338492 0.245002 0.050608
0.358858 0.247966 0.051471
0.381605 0.251406 0.054089
0.406559 0.253179 0.055999
0.432209 0.253806 0.056511
0.457869 0.256103 0.056418
0.484164 0.255784 0.059695
0.512209 0.255568 0.061566
0.540400 0.256014 0.061565
0.566716 0.255869 0.061873
0.596638 0.257970 0.063212
0.627351 0.257631 0.065878
0.659590 0.257104 0.068652
0.694301 0.259301 0.069715
0.082256 0.204270 0.036559
0.092948 0.206951 0.040992
0.099573 0.209301 0.042023
0.106423 0.211406 0.040781
0.117133 0.213566 0.039370
0.128473 0.216254 0.041124
0.138649 0.219467 0.043009
0.151605 0.222640 0.043442
0.167130 0.225685 0.042985
0.178354 0.229641 0.044871
0.194860 0.233733 0.044005
0.212081 0.237280 0.044177
0.228211 0.239946 0.045402
0.245253 0.242618 0.045947
0.262681 0.246048 0.048001
0.280889 0.249454 0.048756
0.300096 0.253488 0.049386
0.320513 0.257258 0.050432
0.341466 0.260078 0.050508
0.361584 0.263501 0.051319
0.384053 0.267419 0.053689
0.408634 0.269557 0.055971
0.433931 0.270453 0.056805
0.459663 0.272959 0.055747
0.485210 0.273006 0.058683
0.512563 0.273061 0.060837
0.540935 0.273608 0.061260
0.568377 0.273557 0.061712
0.598394 0.275649 0.062586
0.629343 0.276030 0.064338
0.661447 0.276285 0.066572
0.695490 0.278246 0.069109
0.088022 0.214920 0.038434
0.095796 0.218386 0.040974
0.101832 0.221150 0.042479
0.108327 0.223803 0.042087
0.117371 0.226589 0.040306
0.130705 0.228769 0.042474
0.141691 0.232451 0.043333
0.153849 0.236016 0.043152
0.168297 0.238773 0.042926
0.181811 0.242524 0.044420
0.197987 0.246121 0.044480
0.214313 0.249407 0.045000
0.230620 0.252807 0.045934
0.248156 0.256528 0.045978
0.265399 0.259649 0.046747
0.283708 0.262652 0.047392
0.303565 0.266506 0.048470
0.323981 0.270694 0.049984
0.344125 0.274365 0.050993
0.363862 0.278057 0.051381
0.386826 0.281884 0.053538
0.410875 0.284906 0.055555
0.435075 0.287145 0.055766
0.461320 0.289519 0.055189
0.487282 0.289977 0.057827
0.513798 0.291218 0.059130
0.541523 0.292869 0.059160
0.570857 0.292914 0.059871
0.600554 0.292705 0.061644
0.630952 0.292914 0.062868
0.662534 0.293738 0.064664
0.695900 0.295719 0.068589
0.093308 0.226704 0.039978
0.100632 0.229881 0.039229
0.106567 0.231778 0.041694
0.111654 0.234861 0.043042
0.117168 0.240403 0.040965
0.131614 0.242454 0.042035
0.144313 0.246095 0.043198
0.156397 0.249596 0.043216
0.169219 0.252337 0.041905
0.184544 0.256316 0.042134
0.200408 0.259708 0.043366
0.216078 0.262711 0.044151
0.232565 0.265976 0.044838
0.250947 0.269896 0.045784
0.269344 0.273595 0.045422
0.287742 0.276971 0.045986
0.307501 0.280753 0.048181
0.327880 0.284537 0.049753
0.347599 0.287996 0.049942
0.368372 0.292590 0.050190
0.390799 0.296698 0.052465
0.414280 0.300222 0.053171
0.438725 0.303976 0.052228
0.463778 0.307625 0.053360
0.488652 0.307958 0.056645
0.515043 0.308640 0.056778
0.542605 0.310481 0.055347
0.571198 0.312477 0.056269
0.600762 0.312171 0.059245
0.630450 0.312848 0.061646
0.661846 0.314195 0.063445
0.696514 0.315830 0.065296
0.092804 0.241514 0.039537
0.098252 0.244138 0.041262
0.104759 0.246473 0.042198
0.112353 0.249623 0.041774
0.121372 0.254117 0.040363
0.135045 0.255962 0.042476
0.146411 0.259380 0.043578
0.157798 0.262916 0.043356
0.170652 0.265884 0.042630
0.185766 0.269895 0.044037
0.201410 0.273926 0.043866
0.218471 0.276785 0.043941
0.236079 0.279253 0.044889
0.253210 0.283099 0.045613
0.271737 0.287388 0.045999
0.290819 0.291702 0.045585
0.310091 0.295288 0.047130
0.330157 0.298470 0.048517
0.351124 0.302059 0.047393
0.372686 0.305740 0.048478
0.395454 0.310499 0.050932
0.418557 0.314973 0.050768
0.441953 0.318491 0.049447
0.466022 0.321339 0.051366
0.489254 0.325055 0.053529
0.515181 0.327755 0.053707
0.543524 0.329194 0.053283
0.572654 0.330080 0.054159
0.602502 0.330937 0.056362
0.632568 0.331401 0.059096
0.663988 0.332113 0.061290
0.698216 0.333601 0.062523
0.092111 0.255370 0.038135
0.096403 0.257694 0.041847
0.104299 0.260259 0.043031
0.113992 0.263587 0.042079
0.123667 0.267500 0.040348
0.136296 0.269180 0.042853
0.147783 0.272958 0.043597
0.159811 0.276747 0.042746
0.173759 0.279417 0.042050
0.189230 0.283264 0.043667
0.204369 0.287677 0.043272
0.220717 0.291333 0.043467
0.238748 0.293983 0.044634
0.256852 0.297215 0.045110
0.274627 0.301611 0.045673
0.293649 0.305386 0.045171
0.313519 0.308712 0.045618
0.333553 0.312772 0.046004
0.354291 0.317027 0.044945
0.375842 0.320404 0.046524
0.398477 0.325624 0.047997
0.421701 0.330427 0.048206
0.445344 0.333284 0.048353
0.469578 0.335886 0.049001
0.492505 0.341172 0.050613
0.517017 0.345638 0.051181
0.544119 0.348031 0.050889
0.573311 0.349075 0.050818
0.603779 0.349930 0.052582
0.633878 0.350423 0.055652
0.665487 0.351114 0.058550
0.700232 0.352208 0.060254
0.093497 0.268116 0.037646
0.097670 0.270393 0.040603
0.106259 0.272974 0.042819
0.116168 0.276557 0.042605
0.124865 0.280649 0.040058
0.136908 0.282336 0.041697
0.149396 0.286463 0.042665
0.162198 0.290776 0.042091
0.176219 0.293836 0.040542
0.192570 0.297470 0.040972
0.208393 0.301493 0.041619
0.223947 0.305781 0.042509
0.241368 0.309315 0.043469
0.260688 0.312403 0.043661
0.278024 0.316614 0.043206
0.296846 0.319188 0.043601
0.317415 0.322360 0.044488
0.337536 0.327579 0.044051
0.357467 0.332279 0.043193
0.378393 0.336379 0.044415
0.400796 0.341805 0.045195
0.424759 0.346342 0.045869
0.449606 0.349163 0.046862
0.474213 0.352309 0.046392
0.497787 0.356936 0.048285
0.521353 0.361715 0.048778
0.546361 0.365987 0.047305
0.574310 0.369095 0.045924
0.604404 0.369566 0.048079
0.634241 0.370417 0.051681
0.665681 0.371383 0.055343
0.701430 0.371570 0.057576
0.096751 0.280295 0.039096
0.101468 0.283868 0.040317
0.107155 0.287042 0.041008
0.116130 0.290185 0.040394
0.129060 0.293682 0.037990
0.140738 0.296130 0.037769
0.152565 0.299331 0.041071
0.163652 0.304112 0.042489
0.175062 0.309842 0.039909
0.191221 0.313387 0.039079
0.210970 0.315872 0.040270
0.230199 0.319091 0.041560
0.246538 0.323519 0.041705
0.262767 0.328047 0.040351
0.280819 0.332593 0.038525
0.300342 0.335383 0.039881
0.319695 0.338534 0.043743
0.339617 0.343052 0.044488
