gsg/03_Cinematic/GSG_LUT_Cinematic_SciFi_Horror.cube
# GSG LUTs 1.0
# Copyright (c) 2016-2020 Greyscalegorilla
# See EULA for licensing and distribution information
# Converted by Briz LUT Converter
LUT_3D_SIZE 32
0.027839 0.053236 0.061050
0.038930 0.053228 0.061798
0.049864 0.052991 0.062303
0.058411 0.052991 0.062830
0.067265 0.052960 0.063555
0.080145 0.052708 0.064059
0.094986 0.052503 0.064563
0.112151 0.052448 0.065068
0.130742 0.052196 0.065572
0.151081 0.051944 0.066076
0.172744 0.051692 0.066580
0.195447 0.051440 0.066998
0.219331 0.051093 0.067344
0.244248 0.050691 0.067746
0.270322 0.050439 0.068108
0.297365 0.050187 0.068494
0.325220 0.049809 0.068872
0.353886 0.049439 0.069243
0.383379 0.049187 0.069495
0.413770 0.048785 0.069747
0.444775 0.048438 0.069999
0.476443 0.048186 0.070251
0.508803 0.047761 0.070503
0.541683 0.047438 0.070755
0.575273 0.047186 0.071007
0.609445 0.046737 0.071259
0.644342 0.046437 0.071306
0.679594 0.046185 0.071519
0.715546 0.045933 0.071551
0.751593 0.045681 0.071779
0.788586 0.045429 0.071795
0.825641 0.045177 0.071795
0.025318 0.070385 0.062058
0.036685 0.070369 0.062807
0.048116 0.070133 0.063311
0.056923 0.070133 0.063839
0.066036 0.070101 0.064563
0.079091 0.069849 0.065068
0.093734 0.069597 0.065572
0.110954 0.069398 0.066076
0.129735 0.069329 0.066580
0.150081 0.069077 0.067084
0.171822 0.068749 0.067586
0.194780 0.068337 0.068001
0.218922 0.068085 0.068352
0.243991 0.067829 0.068754
0.270070 0.067573 0.069117
0.297117 0.067206 0.069503
0.325101 0.066828 0.069755
0.353890 0.066572 0.070136
0.383528 0.066183 0.070500
0.414022 0.065827 0.070755
0.445032 0.065419 0.071007
0.476868 0.065078 0.071259
0.509307 0.064823 0.071511
0.542375 0.064396 0.071758
0.576035 0.064077 0.072008
0.610400 0.063823 0.072069
0.645342 0.063571 0.072269
0.680601 0.063113 0.072307
0.716554 0.062830 0.072527
0.752830 0.062578 0.072551
0.789838 0.062326 0.072551
0.826901 0.062310 0.072551
0.022782 0.088030 0.063067
0.034661 0.087778 0.063799
0.046353 0.087542 0.064304
0.055435 0.087542 0.064845
0.064776 0.087510 0.065558
0.077868 0.087258 0.066076
0.092709 0.087006 0.066580
0.109933 0.086758 0.067084
0.128784 0.086518 0.067584
0.149302 0.086261 0.068077
0.171066 0.085998 0.068507
0.194108 0.085746 0.068851
0.218402 0.085494 0.069345
0.243577 0.085146 0.069747
0.269809 0.084754 0.070109
0.296979 0.084493 0.070495
0.325094 0.084123 0.070747
0.354019 0.083752 0.071008
0.383765 0.083493 0.071400
0.414268 0.083101 0.071748
0.445437 0.082750 0.072000
0.477356 0.082338 0.072252
0.509807 0.082001 0.072493
0.543054 0.081744 0.072571
0.576959 0.081315 0.072764
0.611199 0.081011 0.073003
0.646099 0.080759 0.073061
0.681563 0.080494 0.073063
0.717561 0.080239 0.073269
0.753838 0.080002 0.073292
0.790846 0.079751 0.073292
0.828146 0.079499 0.073292
0.020032 0.109504 0.064051
0.032401 0.109276 0.064579
0.044369 0.109039 0.065098
0.053947 0.109037 0.065810
0.063516 0.108987 0.066364
0.076608 0.108756 0.067061
0.091449 0.108504 0.067565
0.108724 0.108301 0.068069
0.127699 0.108220 0.068516
0.148198 0.107904 0.068857
0.170294 0.107495 0.069353
0.193351 0.107243 0.069763
0.217655 0.106991 0.070116
0.242940 0.106729 0.070513
0.269408 0.106364 0.070878
0.296715 0.105991 0.071251
0.324960 0.105739 0.071516
0.354009 0.105353 0.071900
0.383778 0.104990 0.072252
0.414417 0.104738 0.072504
0.445681 0.104329 0.072756
0.477624 0.103990 0.072992
0.510245 0.103581 0.073080
0.543558 0.103248 0.073268
0.577481 0.102989 0.073502
0.611911 0.102737 0.073571
0.646855 0.102485 0.073760
0.682319 0.102041 0.073796
0.718524 0.101761 0.073796
0.754845 0.101715 0.073796
0.791855 0.101500 0.073796
0.829154 0.101249 0.073772
0.017480 0.131655 0.064839
0.030141 0.131648 0.065556
0.042412 0.131411 0.066062
0.052430 0.131391 0.066616
0.062255 0.131194 0.067313
0.075348 0.131133 0.067817
0.090189 0.130907 0.068321
0.107471 0.130655 0.068825
0.126527 0.130403 0.069329
0.147190 0.130151 0.069833
0.169357 0.129899 0.070259
0.192575 0.129647 0.070598
0.216996 0.129395 0.071007
0.242436 0.129053 0.071362
0.268918 0.128678 0.071755
0.296349 0.128410 0.072008
0.324708 0.128142 0.072369
0.353878 0.127773 0.072724
0.383893 0.127425 0.072976
0.414522 0.127154 0.073229
0.445855 0.126752 0.073481
0.478026 0.126425 0.073589
0.510740 0.126173 0.073772
0.544062 0.125763 0.074001
0.578156 0.125456 0.074056
0.612635 0.125204 0.074253
0.647606 0.124952 0.074300
0.683075 0.124700 0.074300
0.719308 0.124448 0.074300
0.755810 0.124196 0.074300
0.792862 0.124180 0.074269
0.830163 0.123967 0.074024
0.014747 0.155469 0.065808
0.027849 0.155461 0.066312
0.040613 0.155225 0.066832
0.050746 0.155225 0.067565
0.060961 0.155193 0.068069
0.074081 0.154981 0.068573
0.088897 0.154933 0.069077
0.106259 0.154690 0.069581
0.125490 0.154468 0.070085
0.146181 0.154216 0.070590
0.168361 0.153964 0.071015
0.191681 0.153712 0.071354
0.216322 0.153460 0.071763
0.241909 0.153208 0.072101
0.268510 0.152956 0.072490
0.296057 0.152605 0.072764
0.324457 0.152247 0.073016
0.353665 0.151973 0.073268
0.383804 0.151703 0.073520
0.414676 0.151326 0.073772
0.446107 0.150995 0.074024
0.478278 0.150742 0.074250
0.511171 0.150490 0.074489
0.544567 0.150238 0.074560
0.578660 0.149986 0.074560
0.613171 0.149734 0.074725
0.648328 0.149482 0.074765
0.683866 0.149264 0.074765
0.720261 0.149017 0.074765
0.756616 0.148802 0.074765
0.793863 0.148751 0.074528
0.831171 0.148749 0.074276
0.012179 0.180109 0.066564
0.025390 0.180103 0.067068
0.038626 0.179913 0.067588
0.049196 0.179908 0.068321
0.059522 0.179840 0.068825
0.072787 0.179668 0.069329
0.087471 0.179621 0.069833
0.104998 0.179424 0.070338
0.124282 0.179361 0.070842
0.145140 0.179109 0.071332
0.167419 0.178857 0.071739
0.190895 0.178622 0.072093
0.215584 0.178400 0.072491
0.241286 0.178148 0.072772
0.268027 0.177896 0.073113
0.295600 0.177644 0.073473
0.324211 0.177392 0.073725
0.353644 0.177032 0.073977
0.383804 0.176691 0.074229
0.414802 0.176439 0.074481
0.446342 0.176187 0.074733
0.478562 0.175934 0.074820
0.511582 0.175682 0.074960
0.545059 0.175430 0.075052
0.579201 0.175215 0.075064
0.613888 0.174973 0.075064
0.649084 0.174721 0.075064
0.684801 0.174682 0.075023
0.721037 0.174504 0.075017
0.757564 0.174441 0.074973
0.794825 0.174247 0.074733
0.832132 0.174241 0.074481
0.009406 0.205790 0.067320
0.023130 0.205735 0.067825
0.036626 0.205735 0.068341
0.047480 0.205716 0.069027
0.058261 0.205546 0.069581
0.071527 0.205546 0.070085
0.086211 0.205498 0.070590
0.103738 0.205302 0.071094
0.123036 0.205238 0.071584
0.143991 0.205002 0.071992
0.166428 0.204789 0.072362
0.190011 0.204604 0.072780
0.214904 0.204496 0.073105
0.240749 0.204277 0.073473
0.267612 0.204025 0.073750
0.295320 0.203773 0.074032
0.323959 0.203521 0.074284
0.353530 0.203299 0.074506
0.383804 0.203072 0.074733
0.414835 0.202820 0.074985
0.446524 0.202568 0.075202
0.478948 0.202353 0.075306
0.511930 0.202119 0.075324
0.545512 0.201867 0.075464
0.579857 0.201804 0.075513
0.614589 0.201607 0.075513
0.649832 0.201401 0.075467
0.685557 0.201371 0.075293
0.721843 0.201321 0.075219
0.758376 0.201190 0.074985
0.795636 0.201182 0.074733
0.832943 0.201182 0.074481
0.006696 0.232384 0.068077
0.020871 0.232203 0.068581
0.034688 0.232203 0.069085
0.045815 0.232203 0.069607
0.056946 0.232203 0.070283
0.070267 0.232203 0.070842
0.084950 0.232168 0.071346
0.102492 0.232008 0.071836
0.121887 0.231912 0.072244
0.142983 0.231778 0.072596
0.165501 0.231699 0.073055
0.189255 0.231469 0.073473
0.214172 0.231328 0.073725
0.240135 0.231187 0.074003
0.267136 0.230963 0.074374
0.294970 0.230746 0.074725
0.323740 0.230494 0.074945
0.353444 0.230375 0.075067
0.383841 0.230234 0.075237
0.414976 0.230020 0.075451
0.446754 0.229792 0.075562
0.479242 0.229706 0.075707
0.512379 0.229532 0.075765
0.546063 0.229327 0.075765
0.580425 0.229232 0.075765
0.615156 0.229071 0.075714
0.650557 0.229036 0.075550
0.686313 0.229036 0.075466
0.722770 0.228873 0.075237
0.759380 0.229025 0.074985
0.796644 0.229097 0.074672
0.833952 0.229162 0.074418
0.004104 0.259569 0.068762
0.018617 0.259640 0.069266
0.032874 0.259640 0.069775
0.044310 0.259640 0.070345
0.055528 0.259640 0.070872
0.069006 0.259651 0.071527
0.083690 0.259711 0.072031
0.101272 0.259672 0.072496
0.120827 0.259519 0.072848
0.141995 0.259467 0.073249
0.164600 0.259411 0.073607
0.188478 0.259268 0.073977
0.213557 0.259155 0.074229
0.239631 0.258977 0.074554
0.266714 0.258844 0.074906
0.294682 0.258721 0.075159
0.323618 0.258506 0.075321
0.353444 0.258387 0.075451
0.383946 0.258287 0.075671
0.415089 0.258171 0.075773
0.446987 0.258031 0.075885
0.479640 0.257970 0.075994
0.512863 0.257797 0.075967
0.546701 0.257726 0.075946
0.581110 0.257592 0.075946
0.615899 0.257552 0.075749
0.651373 0.257552 0.075643
0.687140 0.257614 0.075418
0.723597 0.257623 0.075166
0.760377 0.257690 0.074914
0.797653 0.257862 0.074426
0.835031 0.258112 0.074095
0.001489 0.287534 0.069345
0.016359 0.287702 0.069849
0.030958 0.287778 0.070364
0.042750 0.287786 0.071023
0.054268 0.287857 0.071527
0.067746 0.287884 0.072031
0.082429 0.288038 0.072535
0.100030 0.288101 0.073040
0.119690 0.288058 0.073481
0.141037 0.287936 0.073804
0.163734 0.287936 0.074229
0.187672 0.287849 0.074481
0.213005 0.287692 0.074733
0.239160 0.287692 0.074985
0.266289 0.287617 0.075237
0.294378 0.287526 0.075489
0.323493 0.287400 0.075701
0.353409 0.287282 0.075824
0.383992 0.287282 0.075956
0.415323 0.287181 0.076025
0.447379 0.287116 0.076025
0.480001 0.287116 0.076137
0.513317 0.286999 0.076073
0.547264 0.286951 0.075967
0.581693 0.286951 0.075885
0.616685 0.286951 0.075734
0.652287 0.287017 0.075431
0.688138 0.287174 0.075166
0.724605 0.287266 0.074843
0.761385 0.287502 0.074510
0.798813 0.287594 0.073940
0.836291 0.287920 0.073433
0.000000 0.316365 0.070015
0.014103 0.316373 0.070519
0.029118 0.316615 0.071023
0.041113 0.316711 0.071527
0.053007 0.316865 0.072031
0.066485 0.316954 0.072535
0.081169 0.317058 0.073040
0.098826 0.317185 0.073524
0.118681 0.317207 0.073921
0.140054 0.317271 0.074283
0.162894 0.317271 0.074647
0.187002 0.317215 0.074899
0.212399 0.317114 0.075151
0.238725 0.317114 0.075403
0.266028 0.317114 0.075655
0.294293 0.317114 0.075865
0.323452 0.317032 0.075991
0.353421 0.316956 0.076119
0.384174 0.316956 0.076190
0.415676 0.316956 0.076190
0.447746 0.316956 0.076190
0.480511 0.317015 0.076190
0.513908 0.317043 0.076129
0.547977 0.317043 0.075923
0.582516 0.317110 0.075671
0.617591 0.317199 0.075546
0.653143 0.317348 0.075192
0.689125 0.317449 0.074839
0.725770 0.317759 0.074277
0.762566 0.318020 0.073602
0.800399 0.318356 0.072767
0.837898 0.318855 0.072078
0.000000 0.345953 0.070519
0.011846 0.346052 0.071023
0.027223 0.346213 0.071527
0.039634 0.346451 0.072031
0.051841 0.346567 0.072535
0.065304 0.346819 0.073040
0.079927 0.347024 0.073544
0.097696 0.347046 0.073993
0.117673 0.347157 0.074283
0.139119 0.347296 0.074674
0.162188 0.347363 0.074993
0.186437 0.347397 0.075245
0.211895 0.347458 0.075461
0.238261 0.347458 0.075655
0.265761 0.347458 0.075907
0.294244 0.347503 0.076041
0.323534 0.347552 0.076118
0.353630 0.347552 0.076190
0.384481 0.347607 0.076190
0.416023 0.347647 0.076190
0.448255 0.347647 0.076190
0.481216 0.347812 0.076126
0.514664 0.347891 0.075923
0.548734 0.347961 0.075671
0.583468 0.348174 0.075418
0.618549 0.348426 0.075090
0.654220 0.348553 0.074741
0.690310 0.348781 0.074178
0.727252 0.349254 0.073356
0.764167 0.349618 0.072274
0.802250 0.350112 0.071076
0.840167 0.350711 0.069873
0.000000 0.376108 0.071023
0.009693 0.376355 0.071527
0.025481 0.376470 0.072031
0.038253 0.376732 0.072535
0.050744 0.377077 0.073026
0.064272 0.377329 0.073441
0.078798 0.377553 0.073945
0.096688 0.377691 0.074394
0.116691 0.377880 0.074647
0.138257 0.377951 0.074969
0.161465 0.378157 0.075395
0.185836 0.378277 0.075611
0.211430 0.378408 0.075742
0.237965 0.378471 0.075864
0.265611 0.378517 0.076057
0.294167 0.378642 0.076190
0.323587 0.378768 0.076190
0.353815 0.378818 0.076190
0.384880 0.378959 0.076190
0.416527 0.379125 0.076128
0.448856 0.379230 0.076022
0.481939 0.379363 0.075820
0.515493 0.379481 0.075568
0.549668 0.379692 0.075240
0.584544 0.380023 0.074882
0.619863 0.380299 0.074328
0.655669 0.380637 0.073632
0.691995 0.380905 0.072793
0.728969 0.381470 0.071710
0.766216 0.381984 0.070368
0.804367 0.382588 0.068864
0.842538 0.383237 0.067250
0.000000 0.406972 0.071527
0.007688 0.407334 0.071921
0.023852 0.407586 0.072425
0.037003 0.407862 0.072929
0.049612 0.408334 0.073416
0.063264 0.408586 0.073786
0.077811 0.408838 0.074197
0.095790 0.409091 0.074647
0.115858 0.409308 0.074899
0.137611 0.409461 0.075190
0.160865 0.409713 0.075537
0.185371 0.409917 0.075741
0.211134 0.410083 0.075864
0.237883 0.410279 0.075946
0.265661 0.410404 0.076057
0.294277 0.410530 0.076190
0.323827 0.410713 0.076134
0.354177 0.410892 0.076080
0.385324 0.411084 0.076016
0.417166 0.411336 0.075888
0.449581 0.411588 0.075678
0.482760 0.411749 0.075352
0.516460 0.411958 0.075064
0.550864 0.412292 0.074549
0.585890 0.412676 0.073846
0.621348 0.413047 0.073006
0.657485 0.413526 0.071838
0.693993 0.414009 0.070698
0.731185 0.414631 0.069356
0.768719 0.415251 0.067753
0.806858 0.415999 0.066233
0.845169 0.416621 0.064477
0.000000 0.438686 0.071913
0.005802 0.439068 0.072173
0.022356 0.439434 0.072677
0.035779 0.439710 0.073181
0.048722 0.440198 0.073670
0.062373 0.440553 0.074051
0.076947 0.440828 0.074427
0.095033 0.441175 0.074807
0.115167 0.441458 0.075151
0.137141 0.441798 0.075368
0.160479 0.442050 0.075537
0.185075 0.442302 0.075747
0.211052 0.442554 0.075874
0.237932 0.442806 0.075946
0.265840 0.443001 0.076003
0.294586 0.443184 0.076015
0.324266 0.443497 0.075889
0.354746 0.443806 0.075763
0.385947 0.444058 0.075568
0.418025 0.444311 0.075393
0.450665 0.444639 0.075038
0.483967 0.444933 0.074536
0.517788 0.445269 0.073954
0.552413 0.445649 0.073149
0.587609 0.446025 0.072173
0.623192 0.446596 0.071069
0.659577 0.447123 0.069629
0.696231 0.447840 0.068226
0.733680 0.448375 0.066623
0.771350 0.449108 0.064871
0.809626 0.449978 0.063228
0.847824 0.450739 0.062058
0.000000 0.471078 0.072165
0.004049 0.471464 0.072425
0.020986 0.471961 0.072921
0.034681 0.472342 0.073307
0.047982 0.472732 0.073796
0.061743 0.473217 0.074177
0.076292 0.473622 0.074553
0.094334 0.474100 0.074933
0.114663 0.474480 0.075244
0.136710 0.474856 0.075368
0.160268 0.475198 0.075496
0.184994 0.475495 0.075621
0.211101 0.475828 0.075748
0.238111 0.476080 0.075820
0.266149 0.476389 0.075763
0.295086 0.476710 0.075637
0.324897 0.477089 0.075511
0.355514 0.477459 0.075316
0.386902 0.477784 0.075064
0.419111 0.478089 0.074657
0.451962 0.478499 0.073993
0.485439 0.478923 0.073146
0.519569 0.479389 0.072084
0.554398 0.479805 0.070945
0.589723 0.480279 0.069807
0.625538 0.480980 0.068471
0.662077 0.481531 0.066876
0.698862 0.482248 0.065343
0.736441 0.482898 0.063610
0.774123 0.483643 0.062199
0.812155 0.484635 0.061313
0.850093 0.485525 0.061050
0.000000 0.504147 0.072283
0.002431 0.504652 0.072543
0.019750 0.505156 0.073032
0.033831 0.505649 0.073307
0.047375 0.506071 0.073794
0.061239 0.506692 0.074164
0.075791 0.507196 0.074550
0.093869 0.507700 0.074891
0.114315 0.508176 0.075080
0.136508 0.508559 0.075151
0.160231 0.508933 0.075324
0.185127 0.509362 0.075363
0.211280 0.509772 0.075434
0.238419 0.510080 0.075378
0.266648 0.510520 0.075251
0.295846 0.510906 0.075060
0.325856 0.511284 0.074796
0.356677 0.511728 0.074397
0.388247 0.512182 0.073869
0.420587 0.512619 0.073123
0.453653 0.513080 0.072228
0.487310 0.513585 0.071094
0.521746 0.514089 0.069833
0.556682 0.514593 0.068474
0.592203 0.515201 0.067075
0.628278 0.515824 0.065479
0.664965 0.516462 0.063736
0.701768 0.517200 0.062418
0.739091 0.518078 0.061566
0.776510 0.518847 0.061079
0.814427 0.519839 0.061309
0.852109 0.520848 0.061452
0.000000 0.537926 0.072283
0.001068 0.538430 0.072539
0.018655 0.538943 0.072899
0.033113 0.539580 0.073294
0.047012 0.540116 0.073656
0.060877 0.540833 0.074049
0.075450 0.541364 0.074387
0.093624 0.541983 0.074639
0.114152 0.542487 0.074828
0.136549 0.542961 0.074857
0.160408 0.543393 0.074930
0.185430 0.543897 0.074930
0.211729 0.544361 0.074875
0.239061 0.544803 0.074745
0.267486 0.545307 0.074622
0.296866 0.545762 0.074239
0.327136 0.546213 0.073641
0.358217 0.546717 0.072907
0.390066 0.547221 0.072004
0.422592 0.547725 0.070952
0.455864 0.548230 0.069797
0.489781 0.548734 0.068477
0.524276 0.549338 0.067070
0.559413 0.549884 0.065587
0.595092 0.550577 0.063965
0.631281 0.551251 0.062452
0.667752 0.551987 0.061575
0.704386 0.552743 0.061103
0.741392 0.553720 0.061178
0.778676 0.554500 0.061457
0.816555 0.555493 0.061948
0.854268 0.556643 0.062633
0.000000 0.572303 0.072283
0.000545 0.572812 0.072531
0.017822 0.573477 0.072654
0.032676 0.574224 0.073134
0.046780 0.574875 0.073398
0.060774 0.575486 0.073733
0.075377 0.576163 0.073985
0.093694 0.576898 0.074237
0.114301 0.577518 0.074426
0.136772 0.578022 0.074426
0.160858 0.578574 0.074378
0.186071 0.579180 0.074223
0.212630 0.579684 0.074032
0.240222 0.580188 0.073757
0.268861 0.580692 0.073338
0.298373 0.581197 0.072685
0.328826 0.581701 0.071852
0.360167 0.582205 0.070807
0.392249 0.582796 0.069644
0.425045 0.583363 0.068332
0.458498 0.583867 0.067013
0.492622 0.584473 0.065486
0.527232 0.585092 0.063925
0.562424 0.585735 0.062524
0.598001 0.586467 0.061672
0.633915 0.587223 0.061142
0.670156 0.587979 0.061176
0.706668 0.588866 0.061460
0.743661 0.589727 0.061855
0.780945 0.590632 0.062490
0.818725 0.591779 0.063293
0.856387 0.592887 0.064445
0.000000 0.607247 0.071968
0.000531 0.607917 0.072217
0.017393 0.608673 0.072391
0.032469 0.609429 0.072724
0.046992 0.610174 0.072976
0.060932 0.610855 0.073229
0.075552 0.611611 0.073481
0.094017 0.612368 0.073697
0.114869 0.613101 0.073764
0.137412 0.613722 0.073718
0.161708 0.614305 0.073528
0.187130 0.614975 0.073220
0.213990 0.615540 0.072805
0.241746 0.616141 0.072222
0.270716 0.616645 0.071353
0.300529 0.617149 0.070358
0.331193 0.617653 0.069313
0.362708 0.618244 0.068085
0.394924 0.618869 0.066753
0.427902 0.619410 0.065343
0.461530 0.620016 0.063887
0.495667 0.620741 0.062453
0.530212 0.621324 0.061634
0.565199 0.622010 0.061162
0.600638 0.622766 0.061172
0.636378 0.623649 0.061462
0.672583 0.624436 0.061860
0.709094 0.625405 0.062487
0.746087 0.626335 0.063296
0.783223 0.627335 0.064207
0.820993 0.628427 0.065514
0.858561 0.629595 0.066934
0.000000 0.642948 0.071629
0.000522 0.643704 0.071711
0.017163 0.644460 0.071803
0.032589 0.645232 0.072055
0.047506 0.646138 0.072307
0.061515 0.646921 0.072559
0.076167 0.647816 0.072779
0.094805 0.648572 0.072805
0.115876 0.649328 0.072677
0.138690 0.650014 0.072558
0.163154 0.650597 0.072135
0.188861 0.651266 0.071626
0.215962 0.651865 0.070887
0.243956 0.652519 0.069975
0.273130 0.653023 0.068892
0.303171 0.653607 0.067675
0.334010 0.654197 0.066370
0.365737 0.654744 0.064934
0.398174 0.655380 0.063467
0.431156 0.656055 0.062292
0.464563 0.656674 0.061612
0.498554 0.657371 0.061177
0.532893 0.658072 0.061167
0.567742 0.658805 0.061461
0.603159 0.659561 0.061863
0.638899 0.660381 0.062483
0.675103 0.661291 0.063158
0.711615 0.662287 0.064190
0.748608 0.663295 0.065359
0.785663 0.664458 0.066693
0.823427 0.665477 0.068515
0.860995 0.666895 0.070369
0.000000 0.679168 0.071031
0.000531 0.679930 0.071031
0.017452 0.680854 0.071047
0.033212 0.681634 0.071282
0.048390 0.682633 0.071377
0.062618 0.683580 0.071629
0.077285 0.684541 0.071801
0.096026 0.685297 0.071606
0.117316 0.686053 0.071327
0.140476 0.686789 0.070828
0.165293 0.687439 0.070022
0.191286 0.687991 0.069252
0.218559 0.688590 0.068289
0.246795 0.689243 0.067208
0.276128 0.689826 0.065911
0.306285 0.690459 0.064556
0.337343 0.691089 0.063169
0.369057 0.691677 0.062037
0.401295 0.692323 0.061441
0.434117 0.692973 0.061132
0.467391 0.693617 0.061162
0.501327 0.694348 0.061458
0.535733 0.695104 0.061866
0.570609 0.695860 0.062478
0.605892 0.696751 0.063161
0.641593 0.697546 0.064181
0.677943 0.698507 0.065295
0.714332 0.699516 0.066684
0.751302 0.700680 0.068280
0.788357 0.701772 0.070126
0.825954 0.702952 0.072301
0.863516 0.704455 0.074843
0.000000 0.716011 0.070093
0.000553 0.716775 0.070093
0.018165 0.717779 0.070097
0.034355 0.718729 0.070156
0.049793 0.719737 0.070164
0.064270 0.720716 0.070230
0.079089 0.721560 0.070200
0.097886 0.722462 0.069761
0.119437 0.723219 0.069259
0.142878 0.723922 0.068478
0.168005 0.724530 0.067432
0.194259 0.725157 0.066344
0.221765 0.725755 0.065265
0.250171 0.726409 0.063968
0.279636 0.727024 0.062573
0.309746 0.727662 0.061717
0.340597 0.728292 0.061359
0.372185 0.728914 0.061107
0.404309 0.729560 0.061260
0.437071 0.730278 0.061523
0.470345 0.731009 0.061868
0.504281 0.731766 0.062473
0.538737 0.732522 0.063292
0.573634 0.733278 0.064217
0.609002 0.734223 0.065301
0.644582 0.735181 0.066679
0.680804 0.736177 0.068278
0.717272 0.737185 0.070125
0.754092 0.738414 0.072232
0.791130 0.739616 0.074599
0.828658 0.740872 0.077226
0.866036 0.742195 0.080358
0.000000 0.753255 0.069085
0.000590 0.754209 0.068896
0.019332 0.755217 0.068884
0.036036 0.756225 0.068689
0.051905 0.757233 0.068493
0.066642 0.758202 0.068268
0.081710 0.759006 0.067820
0.100716 0.759916 0.067120
0.122527 0.760526 0.066358
0.146174 0.761266 0.065391
0.171427 0.761984 0.064303
0.197873 0.762653 0.063063
0.225444 0.763252 0.062057
0.253810 0.763906 0.061518
0.283023 0.764520 0.061201
0.312991 0.765158 0.061142
0.343842 0.765788 0.061337
0.375295 0.766514 0.061636
0.407444 0.767136 0.062090
0.440285 0.767813 0.062676
0.473681 0.768569 0.063354
0.507556 0.769453 0.064219
0.541951 0.770271 0.065344
0.576848 0.771027 0.066687
0.612265 0.771972 0.068275
0.647808 0.772980 0.070123
0.683965 0.773989 0.072230
0.720313 0.775162 0.074598
0.757231 0.776415 0.077225
0.794104 0.777675 0.080113
0.831437 0.779119 0.083443
0.868746 0.780385 0.087101
0.000000 0.791154 0.067486
0.000656 0.791965 0.067235
0.021400 0.792973 0.067016
0.038441 0.793982 0.066561
0.054797 0.794990 0.066106
0.069762 0.795959 0.065611
0.084963 0.796724 0.064894
0.104389 0.797508 0.064094
0.126409 0.798228 0.063071
0.150096 0.798927 0.061974
0.175240 0.799543 0.061344
0.201387 0.800283 0.061170
0.228831 0.800932 0.061108
0.257174 0.801548 0.061133
0.286394 0.802188 0.061336
0.316436 0.802813 0.061657
0.347316 0.803545 0.062214
0.378739 0.804301 0.062899
0.410894 0.805030 0.063606
0.443759 0.805766 0.064464
0.477191 0.806523 0.065550
0.511048 0.807311 0.066878
0.545425 0.808222 0.068467
0.580322 0.809035 0.070315
0.615587 0.809981 0.072270
0.651244 0.810989 0.074594
0.687439 0.812162 0.077222
0.723567 0.813415 0.080110
0.760325 0.814676 0.083258
0.797133 0.815936 0.086850
0.834409 0.817433 0.090767
0.871519 0.818898 0.095144
0.000000 0.829422 0.065517
0.002942 0.830186 0.064842
0.024709 0.831181 0.064177
0.042014 0.831998 0.063653
0.058647 0.832980 0.062938
0.073687 0.833804 0.062216
0.089038 0.834732 0.061539
0.108339 0.835488 0.061243
0.130185 0.836244 0.061070
0.153720 0.836929 0.060949
0.178899 0.837512 0.061077
0.205105 0.838269 0.061302
0.232518 0.838930 0.061539
0.260861 0.839537 0.061853
0.290102 0.840275 0.062409
0.320170 0.840911 0.063103
0.351050 0.841561 0.063839
0.382585 0.842318 0.064820
0.414833 0.843074 0.065999
0.447698 0.843830 0.067327
0.480997 0.844586 0.068784
0.514921 0.845481 0.070560
0.549219 0.846477 0.072523
0.584056 0.847304 0.074832
0.619284 0.848408 0.077430
0.654969 0.849462 0.080310
0.691002 0.850504 0.083458
0.727055 0.851731 0.086867
0.763764 0.853176 0.090720
0.800376 0.854457 0.094897
0.837638 0.855953 0.099535
0.874497 0.857671 0.104691
0.000000 0.867738 0.063075
0.006583 0.868495 0.061893
0.028879 0.869282 0.061180
0.046204 0.870041 0.061112
0.062681 0.870853 0.061014
0.077692 0.871800 0.060917
0.092891 0.872624 0.060872
0.112151 0.873552 0.061019
0.134011 0.874253 0.061073
0.157613 0.874842 0.061364
0.182654 0.875576 0.061767
0.208961 0.876332 0.062170
0.236512 0.876994 0.062779
0.264855 0.877601 0.063353
0.294096 0.878357 0.064187
0.324164 0.879098 0.065266
0.355153 0.879728 0.066461
0.386813 0.880381 0.067691
