gsg/03_Cinematic/GSG_LUT_Cinematic_SiberianWinter.cube
# GSG LUTs 1.0
# Copyright (c) 2016-2020 Greyscalegorilla
# See EULA for licensing and distribution information
# Converted by Briz LUT Converter
LUT_3D_SIZE 5
DOMAIN_MIN 0.000000 0.000000 0.000000
DOMAIN_MAX 0.903226 0.903226 0.903226
0.031502 0.050794 0.057143
0.070889 0.062925 0.063059
0.132743 0.068108 0.069707
0.262444 0.063634 0.064445
0.457537 0.048478 0.045910
0.088905 0.174540 0.110497
0.140886 0.179168 0.102596
0.211471 0.185482 0.096151
0.349941 0.188062 0.058760
0.528838 0.192916 0.042081
0.089314 0.359266 0.093789
0.174524 0.356169 0.076108
0.275875 0.352877 0.064448
0.419792 0.358923 0.044094
0.573842 0.362664 0.055866
0.128024 0.565489 0.096388
0.224414 0.565005 0.076736
0.320828 0.551519 0.073358
0.440969 0.537075 0.099431
0.570397 0.533467 0.137130
0.174706 0.786868 0.121383
0.291898 0.760873 0.147983
0.374971 0.730576 0.171366
0.478223 0.711174 0.205695
0.597243 0.705817 0.254104
0.036331 0.067076 0.184718
0.093042 0.070806 0.182665
0.164066 0.078726 0.186032
0.293353 0.072616 0.213202
0.479604 0.057531 0.227487
0.090050 0.196405 0.235322
0.146544 0.195951 0.239020
0.236371 0.191360 0.231819
0.376974 0.193013 0.227253
0.547511 0.201591 0.225924
0.099786 0.372633 0.272531
0.185076 0.368199 0.254524
0.287165 0.363096 0.236632
0.430978 0.365349 0.227643
0.572313 0.365981 0.237328
0.137699 0.576626 0.280866
0.235478 0.572991 0.262171
0.327154 0.551292 0.256748
0.442995 0.536678 0.268134
0.569373 0.533843 0.292145
0.185758 0.783607 0.308296
0.304176 0.758965 0.320913
0.384815 0.728999 0.329669
0.482857 0.709376 0.350187
0.599293 0.705394 0.388675
0.030218 0.068998 0.361668
0.104038 0.064538 0.364007
0.197151 0.061875 0.365239
0.331533 0.061704 0.380413
0.497885 0.063264 0.393876
0.067130 0.208334 0.410729
0.150164 0.202198 0.405367
0.249933 0.196777 0.398499
0.391573 0.200063 0.399886
0.564410 0.209039 0.405404
0.107191 0.381606 0.438602
0.195595 0.375799 0.426964
0.297990 0.370019 0.414965
0.435562 0.369067 0.411003
0.571534 0.370809 0.415242
0.145307 0.585821 0.460089
0.246407 0.577398 0.447175
0.334948 0.552361 0.436246
0.447340 0.538761 0.436963
0.571247 0.537194 0.449714
0.197752 0.781409 0.490244
0.318215 0.759292 0.493621
0.397674 0.730466 0.490567
0.490394 0.710273 0.496205
0.602578 0.706293 0.518028
0.035181 0.072780 0.517011
0.115213 0.067021 0.523010
0.213187 0.061924 0.529662
0.349860 0.063587 0.543552
0.515018 0.068069 0.560691
0.075600 0.214776 0.562712
0.160738 0.208588 0.563766
0.261856 0.203082 0.564692
0.405298 0.206524 0.573851
0.579076 0.216660 0.587026
0.115176 0.388775 0.604829
0.205868 0.382668 0.600556
0.307948 0.376045 0.595275
0.438723 0.373110 0.590394
0.572759 0.377639 0.589918
0.152477 0.593547 0.640964
0.258545 0.579162 0.629503
0.344833 0.555404 0.612316
0.454354 0.543483 0.606196
0.576843 0.544409 0.612105
0.211469 0.781008 0.668298
0.334465 0.762179 0.666162
0.414741 0.735858 0.656348
0.502870 0.716242 0.652545
0.612327 0.713655 0.665282
0.045035 0.078806 0.654079
0.126832 0.072614 0.668565
0.225649 0.066974 0.683251
0.364142 0.068155 0.705691
0.531642 0.072165 0.731395
0.084196 0.220576 0.716103
0.170691 0.214423 0.725496
0.273283 0.209101 0.734625
0.418728 0.212905 0.752431
0.589790 0.225315 0.770893
0.122843 0.395344 0.774842
0.215920 0.389156 0.778538
0.316173 0.381092 0.777294
0.442574 0.378845 0.767442
0.576510 0.387167 0.764292
0.160156 0.599638 0.824901
0.272366 0.582345 0.809493
0.357355 0.561066 0.788155
0.464590 0.551342 0.777371
0.585842 0.555242 0.779038
0.227248 0.782912 0.845539
0.353331 0.768002 0.840499
0.435470 0.744894 0.826594
0.519606 0.726528 0.816162
0.627017 0.726090 0.822960
