gsg/03_Cinematic/GSG_LUT_Cinematic_Take_the_Red_Pill.cube
# GSG LUTs 1.0
# Copyright (c) 2016-2020 Greyscalegorilla
# See EULA for licensing and distribution information
# Converted by Briz LUT Converter
LUT_3D_SIZE 8
DOMAIN_MIN 0.000000 0.000000 0.000000
DOMAIN_MAX 0.903226 0.903226 0.903226
0.000000 0.000000 0.000000
0.084186 0.013659 0.025940
0.182504 0.029950 0.050534
0.295175 0.049171 0.071787
0.403198 0.067833 0.085998
0.496735 0.084170 0.093741
0.580881 0.099106 0.097515
0.660184 0.113222 0.098657
0.006018 0.108787 0.046682
0.090480 0.124006 0.064295
0.189082 0.141888 0.079971
0.302052 0.162783 0.091590
0.410225 0.182922 0.097238
0.503951 0.200575 0.098585
0.588232 0.216386 0.097089
0.667730 0.231273 0.093797
0.010201 0.239663 0.081185
0.095128 0.256410 0.090196
0.194006 0.275852 0.096316
0.307268 0.298429 0.098545
0.415817 0.319941 0.096244
0.509884 0.338603 0.091637
0.594194 0.355217 0.085721
0.673906 0.370641 0.079229
0.011966 0.393934 0.097515
0.097160 0.411978 0.098443
0.196400 0.432936 0.096135
0.310205 0.456804 0.090155
0.419142 0.479450 0.081713
0.513443 0.498736 0.073128
0.598652 0.515091 0.065162
0.688779 0.524362 0.063315
0.010737 0.544992 0.095207
0.096420 0.564063 0.090236
0.196086 0.585796 0.082610
0.310379 0.610318 0.072023
0.423320 0.630877 0.063038
0.536639 0.638229 0.065663
0.639765 0.643200 0.071254
0.736866 0.647107 0.078510
0.007830 0.677656 0.083107
0.093789 0.697014 0.075182
0.194222 0.718986 0.065172
0.327024 0.731965 0.064640
0.460609 0.739018 0.071758
0.576045 0.744031 0.080790
0.679578 0.747839 0.090602
0.777187 0.750844 0.101201
0.003884 0.797322 0.067793
0.097224 0.812407 0.062681
0.219963 0.820095 0.067330
0.360410 0.827445 0.076754
0.494569 0.833085 0.088963
0.610591 0.837115 0.101532
0.714577 0.840214 0.114010
0.812462 0.842769 0.126299
0.020584 0.896798 0.065280
0.126716 0.903339 0.071051
0.250006 0.909677 0.080714
0.391225 0.915751 0.094718
0.526125 0.920458 0.110284
0.642570 0.923983 0.124960
0.746848 0.926525 0.138808
0.845061 0.928615 0.151971
0.001284 0.005073 0.090756
0.085683 0.018977 0.115684
0.183851 0.035511 0.139265
0.296554 0.054827 0.159636
0.404710 0.073638 0.172807
0.498389 0.090145 0.179999
0.582458 0.105108 0.183253
0.661956 0.119272 0.183851
0.006995 0.114593 0.135815
0.091457 0.129868 0.152633
0.190082 0.147963 0.167277
0.303060 0.168990 0.177928
0.411358 0.189233 0.183088
0.505172 0.206901 0.183757
0.589460 0.222719 0.182013
0.668955 0.237648 0.178669
0.010713 0.245988 0.168325
0.095633 0.262744 0.176737
0.194564 0.282438 0.182312
0.307951 0.305069 0.183701
0.416534 0.326631 0.181163
0.510599 0.345265 0.176311
0.595066 0.361787 0.170576
0.674628 0.377268 0.163984
0.011966 0.400761 0.183253
0.097160 0.418912 0.183623
0.196550 0.439960 0.181002
0.310355 0.463812 0.174866
0.419347 0.486328 0.166559
0.513658 0.505550 0.158108
0.601736 0.520259 0.152080
0.696357 0.526529 0.153829
0.010335 0.552208 0.179999
0.095959 0.571167 0.175033
0.195838 0.592990 0.167320
0.310134 0.617402 0.157074
0.428908 0.634312 0.152055
0.543928 0.640327 0.157020
0.647087 0.644846 0.163977
0.744307 0.648531 0.172288
0.007077 0.685127 0.167939
0.093251 0.704337 0.160183
0.195999 0.724674 0.151881
0.333865 0.734291 0.155792
0.467601 0.740948 0.164641
0.583130 0.745608 0.174951
0.686820 0.749214 0.185845
0.784511 0.752082 0.197156
0.002930 0.804711 0.152932
0.103735 0.815184 0.152839
0.226533 0.822374 0.159299
0.367131 0.829367 0.170363
0.501490 0.834681 0.184012
0.617576 0.838416 0.197448
0.721660 0.841412 0.210661
0.819606 0.843734 0.223539
0.026878 0.899526 0.156506
0.133042 0.905621 0.163787
0.256583 0.911687 0.174833
0.397908 0.917267 0.190182
0.532939 0.921728 0.206794
0.649415 0.924991 0.222154
0.753904 0.927533 0.236359
0.852125 0.929623 0.250004
0.002812 0.011186 0.195644
0.087179 0.025334 0.219496
0.185514 0.041932 0.241774
0.298302 0.061428 0.260885
0.406342 0.080396 0.273142
0.500013 0.097001 0.279475
0.584223 0.112050 0.282146
0.663728 0.126362 0.282463
0.008003 0.121226 0.238410
0.092465 0.136745 0.254397
0.191105 0.155036 0.268023
0.304281 0.176123 0.277798
0.412541 0.196503 0.282043
0.506424 0.214266 0.282362
0.590750 0.230108 0.280313
0.670253 0.245017 0.276761
0.011178 0.253354 0.269045
0.096120 0.270172 0.276669
0.195088 0.290047 0.281464
0.308569 0.312742 0.282310
0.417250 0.334327 0.279325
0.511355 0.352916 0.274402
0.595836 0.369500 0.268699
0.675395 0.384925 0.262304
0.011871 0.408760 0.282240
0.097160 0.426919 0.282226
0.196550 0.447971 0.279277
0.310505 0.471822 0.272940
0.419536 0.494317 0.264693
0.514064 0.513264 0.256734
0.608326 0.524113 0.254886
0.705212 0.528699 0.259387
0.009815 0.560581 0.278191
0.095547 0.579527 0.273125
0.195518 0.601229 0.265546
0.310459 0.625123 0.255921
0.437151 0.636864 0.256745
0.552302 0.642564 0.263472
0.655500 0.646765 0.271920
0.752731 0.650140 0.281386
0.006144 0.693521 0.266013
0.092382 0.712710 0.258561
0.201835 0.728873 0.254729
0.341754 0.736777 0.261946
0.475617 0.742936 0.272580
0.591339 0.747404 0.284328
0.695132 0.750620 0.296237
0.792895 0.753338 0.308439
0.006079 0.810712 0.254039
0.111111 0.818047 0.257932
0.234178 0.824904 0.266289
0.374904 0.831384 0.279136
0.509459 0.836281 0.294231
0.625703 0.839883 0.308787
0.729785 0.842559 0.322647
0.827863 0.844791 0.336222
0.034030 0.902359 0.262886
0.140439 0.907955 0.271563
0.264200 0.913654 0.284174
0.405673 0.918957 0.301019
0.540717 0.923131 0.318615
0.657424 0.926246 0.334712
0.761842 0.928596 0.349447
0.860280 0.930616 0.363348
0.004246 0.018244 0.314057
0.088676 0.032404 0.336784
0.187152 0.049304 0.357839
0.300004 0.069069 0.375622
0.408177 0.088202 0.386876
0.501965 0.104864 0.392351
0.586126 0.120076 0.394509
0.665501 0.134477 0.394479
0.008898 0.128898 0.354732
0.093472 0.144606 0.369615
0.192312 0.162953 0.382109
0.305422 0.184270 0.390915
0.413856 0.204763 0.394441
0.507727 0.222608 0.394198
0.592123 0.238508 0.391941
0.671669 0.253551 0.388116
0.011565 0.261752 0.383047
0.096554 0.278752 0.389938
0.195670 0.298562 0.393972
0.309213 0.321391 0.394181
0.417878 0.343046 0.390912
0.512072 0.361678 0.385985
0.596558 0.378236 0.380263
0.676157 0.393530 0.374188
0.011590 0.417834 0.394473
0.097066 0.435980 0.394036
0.196550 0.457080 0.390782
0.310505 0.480912 0.384459
0.419686 0.503208 0.376442
0.517426 0.520211 0.370674
0.618094 0.526753 0.373859
0.715021 0.530970 0.380083
0.009051 0.570072 0.389673
0.094984 0.588904 0.384584
0.194949 0.610548 0.377229
0.314312 0.631701 0.370667
0.446326 0.639677 0.376522
0.561637 0.644820 0.385321
0.665005 0.648771 0.395083
0.762422 0.651789 0.405850
0.005136 0.703179 0.377770
0.091938 0.721815 0.370860
0.210587 0.732055 0.373565
0.350733 0.739435 0.383286
0.484703 0.745115 0.396024
0.600583 0.749151 0.409073
0.704407 0.752166 0.422102
0.802244 0.754610 0.435131
0.013565 0.814691 0.371980
0.119516 0.821120 0.378260
0.242776 0.827561 0.388543
0.383749 0.833442 0.403418
0.518374 0.838066 0.419986
0.634796 0.841380 0.435590
0.739060 0.843839 0.450189
0.837141 0.845884 0.464268
0.042097 0.905164 0.384560
0.148757 0.910610 0.394825
0.272751 0.915811 0.409048
0.414392 0.920711 0.427235
0.549653 0.924643 0.445976
0.666375 0.927505 0.462813
0.770917 0.929623 0.478108
0.869385 0.931640 0.492300
0.005498 0.024932 0.426287
0.090055 0.039340 0.447824
0.188554 0.056380 0.467770
0.301501 0.076277 0.484375
0.409673 0.095577 0.494553
0.503494 0.112479 0.499471
0.587754 0.127583 0.501088
0.667261 0.141943 0.500650
0.009618 0.136350 0.464894
0.094421 0.152062 0.478824
0.193211 0.170661 0.490317
0.306433 0.192036 0.498201
0.414928 0.212667 0.501012
0.508866 0.230549 0.500419
0.593179 0.246464 0.497861
0.672869 0.261493 0.494161
0.011785 0.269731 0.491235
0.096956 0.286868 0.497376
0.196037 0.306785 0.500665
0.309654 0.329650 0.500426
0.418439 0.351351 0.496924
0.512637 0.369885 0.491897
0.597188 0.386387 0.486404
0.678088 0.400957 0.481324
0.011288 0.426389 0.501115
0.096779 0.444632 0.500316
0.196455 0.465688 0.496863
0.310505 0.489409 0.490497
0.419761 0.511650 0.482861
0.524390 0.524221 0.481752
0.627290 0.529048 0.487700
0.724292 0.532908 0.495546
0.008287 0.578975 0.495703
0.094238 0.597794 0.490621
0.194384 0.619252 0.483580
0.321698 0.635305 0.482420
0.455036 0.642077 0.491187
0.570525 0.646863 0.501697
0.674045 0.650441 0.512854
0.771503 0.653247 0.524623
0.004128 0.712201 0.483926
0.096391 0.727364 0.480705
0.218772 0.734897 0.487472
0.359134 0.741725 0.499364
0.493309 0.746969 0.513802
0.609287 0.750708 0.528155
0.713289 0.753547 0.542159
0.811162 0.755705 0.555911
0.021261 0.817863 0.485245
0.127403 0.823876 0.493374
0.250914 0.829830 0.505398
0.392057 0.835340 0.521998
0.526908 0.839551 0.539820
0.643370 0.842643 0.556383
0.747765 0.845029 0.571563
0.845981 0.846831 0.586172
0.049793 0.907831 0.500847
0.156690 0.912884 0.512559
0.280828 0.917705 0.528108
0.422681 0.922305 0.547582
0.558046 0.925968 0.567257
0.674924 0.928606 0.584592
0.779621 0.930631 0.600291
0.878081 0.932427 0.614833
0.006507 0.030738 0.522604
0.091181 0.045237 0.543101
0.189625 0.062460 0.562188
0.302753 0.082540 0.577723
0.410926 0.101989 0.587157
0.504808 0.118973 0.591454
0.589098 0.134184 0.592757
0.668557 0.148600 0.592092
0.010244 0.142625 0.559376
0.095046 0.158504 0.572448
0.193880 0.177273 0.583251
0.307164 0.198724 0.590286
0.415692 0.219487 0.592709
0.509690 0.237374 0.591786
0.594110 0.253283 0.589134
0.673664 0.268324 0.585469
0.011966 0.276672 0.583968
0.097081 0.293855 0.589585
0.196352 0.313844 0.592483
0.309970 0.336705 0.591828
0.418835 0.358420 0.588157
0.513113 0.376989 0.583199
0.597654 0.393353 0.577874
0.681547 0.405956 0.574887
0.010983 0.433810 0.592635
0.096494 0.452086 0.591594
0.196250 0.473055 0.588057
0.310410 0.496768 0.581822
0.421610 0.517740 0.575608
0.532152 0.526403 0.578913
0.635169 0.530923 0.586475
0.732269 0.534492 0.595404
0.007599 0.586640 0.586937
0.093665 0.605341 0.581908
0.194514 0.626414 0.575526
0.329058 0.637686 0.579822
0.462612 0.644040 0.590504
0.578109 0.648476 0.602276
0.681758 0.651784 0.614496
0.779219 0.654386 0.627227
0.003119 0.719942 0.575604
0.102954 0.730334 0.577392
0.225830 0.737146 0.586082
0.366335 0.743585 0.599730
0.500708 0.748530 0.615634
0.616800 0.752008 0.630961
0.720851 0.754587 0.645676
0.818812 0.756658 0.660036
0.027918 0.820395 0.583442
0.134267 0.826059 0.593013
0.257919 0.831611 0.606465
0.399167 0.836784 0.624393
0.534196 0.840860 0.643217
0.650699 0.843661 0.660404
0.755190 0.845866 0.676206
0.853425 0.847706 0.691087
0.056450 0.909937 0.601394
0.163387 0.914645 0.614171
0.287787 0.919202 0.630866
0.429785 0.923557 0.651306
0.565221 0.927000 0.671659
0.682206 0.929564 0.689480
0.787042 0.931628 0.705485
0.885502 0.933270 0.720185
0.007515 0.035866 0.608177
0.091952 0.050534 0.628122
0.190571 0.068022 0.646233
0.303761 0.088135 0.660874
0.411934 0.107732 0.669660
0.505873 0.124778 0.673425
0.590106 0.140045 0.674576
0.669652 0.154461 0.673646
0.010753 0.148356 0.643554
0.095529 0.164366 0.655946
0.194432 0.183160 0.665989
0.307789 0.204774 0.672523
0.416348 0.225548 0.674505
0.510394 0.243409 0.673373
0.594872 0.259380 0.670600
0.674418 0.274294 0.667001
0.011966 0.282785 0.666689
0.097160 0.300067 0.671821
0.196473 0.320154 0.674280
0.310248 0.343037 0.673434
0.419147 0.364750 0.669673
0.513380 0.383200 0.664910
0.598712 0.399194 0.660120
0.688613 0.407969 0.661024
0.010590 0.440401 0.674481
0.096243 0.458662 0.673201
0.196030 0.479631 0.669628
0.310324 0.503210 0.663455
0.424957 0.521980 0.659624
0.539062 0.528182 0.666316
0.642139 0.532433 0.675011
0.739318 0.535696 0.685006
0.006877 0.593481 0.668431
0.093049 0.612178 0.663594
0.197257 0.630999 0.659438
0.335500 0.639664 0.667327
0.469222 0.645579 0.679525
0.584796 0.649830 0.692526
0.688484 0.652862 0.705717
0.786088 0.655294 0.719010
0.004978 0.725007 0.659116
0.109071 0.732582 0.664317
0.232030 0.739122 0.674593
0.372750 0.745112 0.689745
0.507192 0.749779 0.706718
0.623442 0.753027 0.722974
0.727528 0.755441 0.738261
0.825519 0.757478 0.753052
0.033967 0.822655 0.671653
0.140325 0.828003 0.682280
0.264091 0.833191 0.697036
0.405579 0.838035 0.716052
0.540636 0.841869 0.735723
0.657324 0.844547 0.753416
0.761820 0.846619 0.769624
0.860084 0.848371 0.784770
0.062329 0.911686 0.691465
0.169426 0.916183 0.705271
0.293938 0.920515 0.722771
0.435945 0.924577 0.744041
0.571610 0.927896 0.765056
0.688652 0.930381 0.783166
0.793422 0.932253 0.799381
0.892122 0.933937 0.814278
0.008059 0.040907 0.688487
0.092712 0.055575 0.707637
0.191415 0.073118 0.724952
0.304526 0.093442 0.738903
0.412943 0.113017 0.746957
0.506881 0.130119 0.750435
0.591114 0.145575 0.751317
0.670661 0.159991 0.750167
0.011052 0.153725 0.722352
0.095956 0.169879 0.734195
0.194919 0.188741 0.743668
0.308292 0.210387 0.749634
0.416957 0.231208 0.751273
0.510935 0.249102 0.749902
0.595412 0.265125 0.747110
0.675135 0.280037 0.743550
0.011966 0.288631 0.744385
0.097160 0.306038 0.748951
0.196550 0.326036 0.751168
0.310323 0.349033 0.749985
0.419291 0.370688 0.746258
0.513602 0.389161 0.741494
0.600588 0.403991 0.737961
0.695427 0.409528 0.742504
0.010217 0.446579 0.751138
0.095920 0.464773 0.749722
0.195809 0.485730 0.746149
0.310108 0.509327 0.740223
0.430505 0.524448 0.740217
0.545541 0.529764 0.748660
0.648623 0.533761 0.758560
0.745897 0.536941 0.769482
0.006220 0.599803 0.745066
0.092508 0.618477 0.740365
0.201678 0.634117 0.739460
0.341549 0.641433 0.749901
0.475409 0.647010 0.763541
0.591101 0.650943 0.777514
0.694893 0.653869 0.791495
0.792616 0.656169 0.805374
0.008973 0.728355 0.739045
0.114724 0.734580 0.746444
0.237911 0.740758 0.758071
0.378752 0.746521 0.774499
0.513382 0.750847 0.792590
0.629571 0.753934 0.809461
0.733837 0.756225 0.825303
0.831832 0.758043 0.840563
0.039529 0.824483 0.754773
0.145970 0.829580 0.766496
0.269901 0.834456 0.782335
0.411437 0.839211 0.802340
0.546688 0.842697 0.822687
0.663374 0.845311 0.840939
0.767915 0.847333 0.857403
0.866325 0.849100 0.872809
0.067840 0.913403 0.776491
0.175029 0.917484 0.791093
0.299744 0.921592 0.809388
0.441971 0.925574 0.831352
0.577660 0.928761 0.852760
0.694702 0.931130 0.871236
0.799667 0.932929 0.887530
0.898176 0.934497 0.902643
