gsg/03_Cinematic/GSG_LUT_Cinematic_ArcticSplendor.cube
# GSG LUTs 1.0
# Copyright (c) 2016-2020 Greyscalegorilla
# See EULA for licensing and distribution information
# Converted by Briz LUT Converter
LUT_3D_SIZE 8
DOMAIN_MIN 0.000000 0.000000 0.000000
DOMAIN_MAX 0.903226 0.903226 0.903226
0.000000 0.000000 0.003175
0.041404 0.022348 0.037883
0.174438 0.048816 0.061082
0.268636 0.065643 0.074977
0.354051 0.079412 0.086857
0.437497 0.090063 0.097546
0.522919 0.097593 0.108063
0.613187 0.103423 0.118445
0.000000 0.039726 0.006026
0.003412 0.061538 0.027720
0.145418 0.089889 0.056915
0.241770 0.102308 0.071259
0.328844 0.111583 0.083280
0.415665 0.119701 0.094687
0.506117 0.127637 0.105739
0.602289 0.135392 0.115730
0.000000 0.123936 0.022876
0.001511 0.138413 0.040119
0.124678 0.160573 0.066005
0.225515 0.171648 0.081452
0.313687 0.178596 0.092519
0.402380 0.184331 0.101398
0.495830 0.190002 0.109290
0.596087 0.195793 0.116734
0.000000 0.227492 0.049234
0.002432 0.237449 0.064307
0.113802 0.251604 0.083105
0.214644 0.260829 0.095947
0.302572 0.265706 0.103461
0.392696 0.269985 0.109427
0.488513 0.274505 0.115199
0.591368 0.280812 0.124001
0.000000 0.343936 0.080342
0.020914 0.350569 0.091244
0.110593 0.356460 0.100333
0.207939 0.363384 0.109361
0.293592 0.366168 0.113543
0.384660 0.369696 0.119857
0.483422 0.377106 0.136898
0.584769 0.388896 0.160624
0.000000 0.467557 0.107968
0.046929 0.471819 0.115148
0.128490 0.473896 0.119137
0.207745 0.475450 0.124343
0.298181 0.479320 0.139677
0.394832 0.486730 0.161755
0.493470 0.497420 0.186998
0.593966 0.512081 0.215646
0.000000 0.594273 0.130521
0.074431 0.597543 0.138256
0.167115 0.602010 0.155703
0.244942 0.604789 0.175934
0.333622 0.610855 0.199058
0.427370 0.620387 0.225247
0.524448 0.633778 0.255443
0.624192 0.651500 0.291323
0.016172 0.728418 0.169262
0.133364 0.739572 0.200429
0.239654 0.747812 0.232578
0.319038 0.752830 0.258678
0.401513 0.758833 0.286246
0.492378 0.770278 0.319368
0.586790 0.786635 0.357207
0.683601 0.808281 0.400406
0.000000 0.000000 0.085667
0.035941 0.025436 0.111288
0.172004 0.052094 0.128488
0.266438 0.068636 0.135948
0.351365 0.080878 0.140950
0.434566 0.089735 0.144802
0.520209 0.095891 0.148418
0.610745 0.100484 0.152726
0.000000 0.042963 0.074496
0.002849 0.062535 0.088144
0.140691 0.089830 0.110614
0.237233 0.101704 0.118508
0.324076 0.110218 0.123927
0.410909 0.117787 0.129294
0.501812 0.125209 0.135124
0.598798 0.132883 0.142190
0.000000 0.124904 0.078128
0.001047 0.137881 0.088214
0.118053 0.158272 0.106454
0.219135 0.168891 0.115855
0.307204 0.175327 0.121650
0.396238 0.180865 0.127365
0.490228 0.186317 0.133932
0.591336 0.192241 0.141386
0.000000 0.226377 0.091412
0.002165 0.235514 0.099770
0.107286 0.248057 0.112424
0.207612 0.257016 0.121878
0.295545 0.261729 0.127849
0.385867 0.265990 0.133753
0.482393 0.270602 0.140831
0.584716 0.278461 0.154645
0.000000 0.341124 0.110700
0.019234 0.347622 0.118358
0.106532 0.352851 0.125296
0.201021 0.359148 0.133523
0.286492 0.362045 0.138666
0.379075 0.366471 0.150299
0.477900 0.374890 0.171780
0.578850 0.387619 0.199358
0.000000 0.463949 0.133332
0.045240 0.468515 0.140452
0.127418 0.470793 0.145541
0.205632 0.472333 0.155377
0.296260 0.476849 0.175208
0.392123 0.484654 0.200867
0.490162 0.496164 0.229716
0.590339 0.511821 0.261757
0.000000 0.590351 0.156231
0.076216 0.595173 0.170603
0.171109 0.600692 0.193266
0.248063 0.603659 0.216610
0.334795 0.609815 0.242837
0.427657 0.619716 0.272397
0.524566 0.633844 0.306363
0.623624 0.653043 0.344830
0.022471 0.727386 0.208151
0.139444 0.739032 0.242633
0.246972 0.747565 0.278344
0.329003 0.752714 0.308903
0.408954 0.759067 0.338544
0.498249 0.771234 0.373368
0.591478 0.788692 0.412778
0.687434 0.811608 0.457105
0.000000 0.000441 0.205947
0.031794 0.031825 0.221497
0.173469 0.059333 0.233305
0.267824 0.074993 0.234305
0.352405 0.085762 0.232681
0.435425 0.092795 0.230270
0.520862 0.097419 0.228138
0.611666 0.100910 0.226923
0.000000 0.049904 0.180455
0.002880 0.067607 0.186551
0.139608 0.093582 0.202118
0.236232 0.104722 0.204141
0.323008 0.112659 0.204027
0.409922 0.119567 0.203924
0.500894 0.126306 0.204828
0.598511 0.133459 0.207024
0.000000 0.129481 0.171104
0.001182 0.141312 0.174790
0.115685 0.159837 0.186212
0.216440 0.169828 0.190314
0.304275 0.175578 0.190986
0.393256 0.180519 0.191961
0.487465 0.185495 0.193864
0.588967 0.190864 0.197198
0.000000 0.229076 0.172726
0.002446 0.237319 0.175611
0.103869 0.248008 0.181715
0.203871 0.256458 0.186480
0.291148 0.260587 0.187658
0.381345 0.264352 0.189283
0.478065 0.268953 0.192798
0.579340 0.278102 0.205242
0.000000 0.342038 0.181470
0.021174 0.347985 0.184308
0.106126 0.352362 0.186052
0.196836 0.357583 0.189218
0.281588 0.359968 0.190460
0.375607 0.365095 0.200954
0.473710 0.374131 0.218384
0.573642 0.387121 0.240462
0.000000 0.463420 0.194404
0.046185 0.467701 0.197306
0.128655 0.469809 0.198769
0.205931 0.471125 0.206959
0.296056 0.475697 0.222788
0.390278 0.483518 0.242675
0.486821 0.494899 0.266309
0.585789 0.510646 0.294480
0.000000 0.588523 0.208790
0.080109 0.594632 0.223327
0.176497 0.600573 0.243176
0.251882 0.603212 0.260426
0.336039 0.608610 0.280880
0.427498 0.618287 0.306359
0.522675 0.632384 0.337119
0.620422 0.651826 0.373723
0.030094 0.727543 0.259402
0.146798 0.738966 0.288181
0.253739 0.747688 0.318367
0.336416 0.752317 0.344939
0.413559 0.757845 0.370797
0.500212 0.769833 0.402773
0.591588 0.787266 0.440661
0.686193 0.810605 0.484298
0.000000 0.012895 0.358360
0.024570 0.039962 0.361770
0.178243 0.069912 0.369308
0.272131 0.084036 0.363021
0.356107 0.092969 0.354418
0.438641 0.098336 0.345388
0.524030 0.101577 0.336952
0.615030 0.103786 0.329988
0.000000 0.060163 0.317703
0.003385 0.075807 0.315528
0.141471 0.100252 0.323757
0.238095 0.110574 0.319422
0.324472 0.117588 0.313255
0.411261 0.123758 0.307568
0.502414 0.129743 0.303131
0.600142 0.136325 0.300446
0.000000 0.137218 0.294321
0.001728 0.147621 0.291150
0.116041 0.164123 0.295415
0.216472 0.173369 0.293766
0.303731 0.178327 0.289106
0.392502 0.182535 0.285032
0.486732 0.186849 0.282365
0.588463 0.191755 0.281549
0.000000 0.234479 0.283420
0.004662 0.241832 0.280425
0.102227 0.250256 0.279596
0.202615 0.258234 0.279649
0.289155 0.261731 0.276176
0.379040 0.264931 0.273588
0.475631 0.269940 0.274971
0.576424 0.280614 0.285122
0.000000 0.345565 0.281046
0.025461 0.350904 0.278869
0.108629 0.354325 0.275667
0.195012 0.358220 0.273679
0.280560 0.360623 0.273119
0.374896 0.366466 0.281161
0.472497 0.376193 0.294697
0.571774 0.389960 0.312427
0.000000 0.465257 0.284206
0.049223 0.469238 0.282924
0.133863 0.471464 0.283090
0.210025 0.472756 0.288525
0.298826 0.477404 0.300023
0.391790 0.485502 0.315205
0.487217 0.497343 0.334392
0.585206 0.513779 0.358437
0.000000 0.589896 0.293736
0.087726 0.596780 0.306678
0.184698 0.603272 0.322510
0.259189 0.606021 0.335043
0.342098 0.611074 0.350734
0.432273 0.620688 0.371581
0.525759 0.635186 0.397442
0.621724 0.655028 0.428925
0.040293 0.730584 0.340150
0.157756 0.742139 0.364556
0.264884 0.751119 0.389503
0.347845 0.756144 0.410921
0.423553 0.760790 0.431361
0.508195 0.772467 0.458189
0.596973 0.789952 0.490590
0.689438 0.813299 0.528889
0.000000 0.029493 0.539328
0.029359 0.053220 0.531938
0.185521 0.083115 0.532182
0.278686 0.095404 0.517857
0.361881 0.102257 0.501337
0.443956 0.105754 0.484992
0.529195 0.107417 0.469728
0.620155 0.108299 0.456364
0.000000 0.073008 0.481711
0.004261 0.086894 0.471039
0.145581 0.109188 0.470752
0.242187 0.118658 0.459540
0.328041 0.124715 0.446668
0.414436 0.129858 0.434583
0.505577 0.135121 0.424262
0.603455 0.140695 0.415929
0.000000 0.147221 0.443172
0.002675 0.156227 0.432399
0.119056 0.170640 0.428818
0.218519 0.178914 0.420701
0.305022 0.182944 0.410083
0.393430 0.186159 0.400394
0.487537 0.189694 0.392493
0.589352 0.194009 0.387128
0.000000 0.242058 0.418373
0.011887 0.248450 0.408804
0.105040 0.254969 0.401103
0.203195 0.261874 0.395145
0.288755 0.264477 0.386310
0.378248 0.266967 0.378942
0.475102 0.273404 0.378641
0.575352 0.285671 0.386084
0.000000 0.351079 0.403578
0.031531 0.355634 0.395747
0.113177 0.358155 0.387026
0.194977 0.360361 0.379379
0.282158 0.363360 0.377101
0.376682 0.370228 0.382251
0.473787 0.380813 0.391931
0.572530 0.395842 0.405862
0.000000 0.468783 0.395733
0.054072 0.472257 0.389744
0.141394 0.475049 0.388772
0.216768 0.476658 0.391090
0.304098 0.481691 0.398312
0.395905 0.490199 0.409332
0.490684 0.502823 0.424497
0.587879 0.521135 0.444468
0.000000 0.593336 0.399932
0.097861 0.601190 0.410936
0.195334 0.608405 0.422801
0.269524 0.611602 0.431174
0.350873 0.616500 0.441819
0.441092 0.626643 0.457945
0.533529 0.641974 0.479376
0.627687 0.662759 0.506233
0.053031 0.735905 0.441629
0.171793 0.747679 0.461959
0.279765 0.757251 0.481707
0.363008 0.763145 0.497947
0.436217 0.767708 0.512618
0.520320 0.779302 0.534644
0.608122 0.797157 0.562667
0.698312 0.821019 0.596362
0.000000 0.048572 0.745559
0.039532 0.069715 0.727286
0.194880 0.098153 0.718600
0.287258 0.108395 0.695226
0.369467 0.112978 0.670288
0.450896 0.114696 0.645810
0.535779 0.114814 0.623050
0.626500 0.114034 0.602410
0.000000 0.088215 0.669488
0.012380 0.100057 0.649505
0.151066 0.119917 0.639761
0.248048 0.128615 0.620973
0.333218 0.133518 0.600517
0.419204 0.137479 0.581293
0.509930 0.141754 0.564196
0.607801 0.146316 0.549477
0.000000 0.159375 0.614055
0.010082 0.166914 0.595107
0.123892 0.178942 0.582804
0.222221 0.186073 0.567512
0.307754 0.188876 0.549994
0.395549 0.191119 0.533876
0.489426 0.193638 0.520087
0.590608 0.198549 0.510436
0.000000 0.251471 0.573877
0.021181 0.256647 0.557069
0.109729 0.261291 0.541679
0.205228 0.266894 0.528803
0.289580 0.268321 0.513887
0.378881 0.270729 0.502091
0.476409 0.278974 0.499724
0.576588 0.292914 0.504221
0.000000 0.357982 0.545118
0.039089 0.361689 0.530843
0.119545 0.363235 0.516033
0.197504 0.364150 0.502895
0.286188 0.368229 0.498575
0.380765 0.376191 0.500467
0.477466 0.387878 0.506560
0.575900 0.404360 0.516391
0.000000 0.473489 0.524828
0.060813 0.476736 0.514412
0.151021 0.480579 0.511847
0.225996 0.482828 0.510907
0.311791 0.488329 0.513788
0.402843 0.497550 0.520777
0.497884 0.511958 0.530594
0.594154 0.532212 0.545470
0.000732 0.598460 0.523431
0.110135 0.607694 0.532227
0.208165 0.615859 0.540387
0.282824 0.619733 0.544567
0.362729 0.624787 0.549878
0.452094 0.635732 0.560275
0.544487 0.652224 0.576192
0.637889 0.674617 0.598321
0.068014 0.743354 0.560289
0.188681 0.755661 0.575960
0.297990 0.766248 0.590232
0.381764 0.773192 0.601210
0.452630 0.778039 0.610158
0.535014 0.790035 0.626501
0.622422 0.808517 0.649472
0.712317 0.833285 0.678848
0.000000 0.070093 0.974044
0.053234 0.088801 0.944651
0.205870 0.114796 0.925469
0.297371 0.122649 0.892295
0.378421 0.125172 0.857937
0.459152 0.124810 0.824456
0.543376 0.123179 0.793201
0.633973 0.121029 0.764580
0.000000 0.105328 0.877928
0.026063 0.115056 0.847757
0.158485 0.132415 0.827785
0.255496 0.140015 0.800482
0.339718 0.143620 0.771601
0.424976 0.146380 0.744375
0.515320 0.149429 0.719618
0.612788 0.152564 0.697648
0.000000 0.173012 0.803964
0.022531 0.178947 0.775955
0.130244 0.188585 0.754114
0.227047 0.194319 0.730724
0.311481 0.195884 0.705342
0.398524 0.196890 0.682031
0.491860 0.198412 0.661547
0.592678 0.205408 0.648728
0.000000 0.262192 0.746661
0.031713 0.266086 0.721815
0.116306 0.268905 0.697981
0.208345 0.272788 0.677395
0.291183 0.273066 0.655539
0.381612 0.276511 0.640334
0.479579 0.286874 0.635457
0.580132 0.302577 0.636895
0.000000 0.366040 0.702386
0.047640 0.368786 0.680880
0.127463 0.369245 0.659091
0.203458 0.369878 0.642101
0.292736 0.375197 0.635026
0.387446 0.384853 0.632044
0.483851 0.398604 0.632927
0.581554 0.417264 0.638151
0.000000 0.479081 0.667837
0.070747 0.482998 0.655158
0.163124 0.488138 0.650129
0.237591 0.491183 0.645244
0.322566 0.497452 0.643232
0.414896 0.508779 0.642514
0.509244 0.525499 0.646106
0.603897 0.546859 0.657141
0.011313 0.605979 0.662703
0.124597 0.616469 0.668005
0.223860 0.625603 0.672183
0.301076 0.630283 0.670946
0.379902 0.636020 0.669845
0.467841 0.648124 0.674247
0.558923 0.665956 0.684530
0.651615 0.690092 0.701210
0.085184 0.753074 0.693492
0.208616 0.766052 0.703424
0.319665 0.777870 0.711589
0.404291 0.786187 0.717095
0.473003 0.791581 0.720648
0.553453 0.804228 0.731297
0.639726 0.823509 0.748649
0.729185 0.849328 0.772515
0.000000 0.094797 1.000000
0.074456 0.114357 1.000000
0.222622 0.141051 1.000000
0.310269 0.146183 1.000000
0.388330 0.145165 0.999939
0.466753 0.141416 0.996858
0.550060 0.136314 0.968172
0.640025 0.131514 0.934042
0.000000 0.124036 1.000000
0.042451 0.132335 0.999928
0.169925 0.149039 0.998232
0.265026 0.155256 0.984694
0.347151 0.156788 0.949618
0.431260 0.157786 0.916012
0.520658 0.158826 0.884558
0.617763 0.160572 0.855727
0.000000 0.188119 0.996476
0.036313 0.192307 0.972273
0.138246 0.199811 0.936823
0.233886 0.204832 0.901634
0.316281 0.204616 0.869626
0.401964 0.203879 0.839769
0.494790 0.204388 0.813224
0.595492 0.216220 0.798481
0.000000 0.274098 0.934229
0.043273 0.276546 0.900314
0.124764 0.277452 0.867381
0.212718 0.279681 0.835833
0.294420 0.279516 0.803933
0.386788 0.285994 0.786716
0.484949 0.299739 0.777750
0.584379 0.319058 0.773518
0.000000 0.374926 0.872466
0.056879 0.376525 0.842829
0.135962 0.375912 0.813525
0.212404 0.377691 0.793089
0.303942 0.385881 0.777419
0.399138 0.399134 0.764927
0.493965 0.415402 0.761654
0.589978 0.436422 0.763580
0.000000 0.485383 0.822000
0.082486 0.490875 0.808381
0.178331 0.497849 0.799760
0.255100 0.502397 0.786990
0.341119 0.510680 0.775309
0.432199 0.524218 0.768246
0.524630 0.543019 0.767050
0.617683 0.566514 0.774201
0.027033 0.615524 0.814988
0.143405 0.626932 0.814531
0.249593 0.637238 0.808684
0.329103 0.643866 0.800736
0.404982 0.650790 0.794188
0.490339 0.664553 0.793584
0.579382 0.684225 0.798918
0.670314 0.710005 0.810464
0.109648 0.763909 0.836309
0.238315 0.777909 0.837468
0.349642 0.791767 0.839568
0.434119 0.802069 0.840447
0.500302 0.808417 0.838932
0.578356 0.822012 0.844227
0.662875 0.842422 0.856263
0.750901 0.869552 0.875056
