gsg/03_Cinematic/GSG_LUT_Cinematic_Ripley.cube
# GSG LUTs 1.0
# Copyright (c) 2016-2020 Greyscalegorilla
# See EULA for licensing and distribution information
# Converted by Briz LUT Converter
LUT_3D_SIZE 32
0.034432 0.034432 0.034432
0.041372 0.035921 0.037654
0.047824 0.037426 0.040632
0.054275 0.039143 0.043609
0.060696 0.040632 0.046587
0.066895 0.042160 0.049525
0.072850 0.043854 0.052298
0.079050 0.045398 0.055276
0.085005 0.047076 0.058009
0.090961 0.048635 0.060987
0.096916 0.050297 0.063886
0.102871 0.052030 0.066698
0.108827 0.053763 0.069581
0.114782 0.055496 0.072409
0.120737 0.057230 0.075277
0.126693 0.058963 0.078120
0.132892 0.060696 0.081098
0.138848 0.062563 0.084076
0.145047 0.064303 0.086809
0.151247 0.066139 0.089787
0.157604 0.068029 0.092765
0.163890 0.069849 0.095742
0.170263 0.071755 0.098893
0.176959 0.073741 0.101942
0.183599 0.075726 0.104919
0.190303 0.077711 0.108141
0.197251 0.079696 0.111324
0.204199 0.081681 0.114554
0.211391 0.083666 0.117783
0.218811 0.085880 0.121013
0.226255 0.087881 0.124487
0.234188 0.090110 0.127717
0.032447 0.045342 0.040388
0.039151 0.046587 0.043365
0.045838 0.048076 0.046343
0.052260 0.049565 0.049313
0.058459 0.051084 0.052290
0.064658 0.052787 0.055030
0.070621 0.054275 0.058001
0.076576 0.055819 0.060743
0.082532 0.057497 0.063713
0.088487 0.059230 0.066622
0.094442 0.060798 0.069424
0.100398 0.062539 0.072318
0.106353 0.064188 0.075143
0.112308 0.066021 0.078113
0.118371 0.067762 0.080984
0.124455 0.069507 0.083832
0.130415 0.071366 0.086809
0.136610 0.073229 0.089787
0.142711 0.074977 0.092765
0.149014 0.076962 0.095742
0.155366 0.078948 0.098725
0.161818 0.080696 0.101942
0.168275 0.082681 0.104927
0.174729 0.084667 0.108147
0.181614 0.086835 0.111316
0.188318 0.088879 0.114546
0.195274 0.090866 0.117775
0.202465 0.093065 0.121013
0.209878 0.095088 0.124480
0.217322 0.097317 0.127732
0.225003 0.099539 0.131199
0.232951 0.101776 0.134909
0.030218 0.055520 0.046343
0.037158 0.057008 0.049297
0.043609 0.058482 0.052054
0.050060 0.059972 0.055016
0.056237 0.061475 0.057765
0.062423 0.062964 0.060727
0.068392 0.064685 0.063661
0.074347 0.066186 0.066438
0.080302 0.067919 0.069357
0.086258 0.069479 0.072161
0.092213 0.071220 0.075127
0.098168 0.072961 0.078024
0.104108 0.074711 0.080854
0.110070 0.076452 0.083832
0.116035 0.078324 0.086809
0.122100 0.080177 0.089787
0.128182 0.082036 0.092765
0.134373 0.083910 0.095742
0.140486 0.085895 0.098720
0.146782 0.087881 0.101853
0.153145 0.089866 0.104930
0.159597 0.091851 0.108068
0.166059 0.093852 0.111297
0.172756 0.096018 0.114538
0.179629 0.098066 0.117768
0.186577 0.100251 0.121013
0.193541 0.102296 0.124471
0.200945 0.104526 0.127746
0.208389 0.106755 0.131206
0.216063 0.109213 0.134909
0.223774 0.111450 0.138399
0.231959 0.113703 0.142117
0.028233 0.065698 0.052054
0.035173 0.067163 0.055001
0.041624 0.068652 0.057764
0.047832 0.070164 0.060698
0.054036 0.071653 0.063473
0.060207 0.073366 0.066395
0.066163 0.074875 0.069183
0.072118 0.076608 0.072141
0.078073 0.078341 0.074899
0.084029 0.079918 0.077869
0.089984 0.081658 0.080830
0.095916 0.083549 0.083730
0.101871 0.085368 0.086565
0.107826 0.087132 0.089543
0.113805 0.089107 0.092520
0.119867 0.090858 0.095628
0.125949 0.092843 0.098720
0.132149 0.094828 0.101711
0.138349 0.096837 0.104919
0.144708 0.098822 0.108056
0.151160 0.101043 0.111143
0.157612 0.103037 0.114364
0.164236 0.105266 0.117760
0.170946 0.107438 0.120996
0.177888 0.109675 0.124463
0.184860 0.111930 0.127717
0.192052 0.114171 0.131210
0.199456 0.116457 0.134909
0.207123 0.118910 0.138406
0.214841 0.121391 0.142125
0.222804 0.123652 0.145866
0.231210 0.126133 0.149805
0.026248 0.075844 0.057734
0.032950 0.077333 0.060498
0.039594 0.078824 0.063445
0.045823 0.080342 0.066207
0.052023 0.082047 0.069156
0.057978 0.083564 0.071921
0.064146 0.085297 0.074867
0.070101 0.087030 0.077845
0.075844 0.088771 0.080610
0.081799 0.090505 0.083587
0.087755 0.092329 0.086565
0.093699 0.094080 0.089543
0.099634 0.096065 0.092520
0.105602 0.098050 0.095498
0.111576 0.099939 0.098490
0.117634 0.101911 0.101698
0.123731 0.104006 0.104707
0.130047 0.106022 0.107914
0.136272 0.108149 0.111137
0.142723 0.110237 0.114360
0.149175 0.112466 0.117615
0.155648 0.114648 0.120982
0.162345 0.116885 0.124243
0.169231 0.119209 0.127717
0.176179 0.121604 0.131191
0.183323 0.123873 0.134868
0.190768 0.126354 0.138409
0.198239 0.128835 0.142128
0.205908 0.131348 0.145830
0.213878 0.133830 0.149797
0.222064 0.136548 0.153555
0.230525 0.139068 0.157556
0.024262 0.086014 0.063437
0.030958 0.087504 0.066170
0.037410 0.089031 0.069135
0.043617 0.090728 0.071882
0.049793 0.092284 0.074833
0.055953 0.093992 0.077632
0.061909 0.095726 0.080570
0.067864 0.097507 0.083548
0.073767 0.099287 0.086473
0.079570 0.101173 0.089299
0.085525 0.103013 0.092342
0.091481 0.104998 0.095498
0.097436 0.106983 0.098476
0.103391 0.108985 0.101470
0.109439 0.110993 0.104693
0.115546 0.113096 0.107791
0.121727 0.115228 0.111020
0.127927 0.117458 0.114270
0.134287 0.119603 0.117500
0.140738 0.121840 0.120848
0.147190 0.124189 0.124243
0.153819 0.126559 0.127717
0.160609 0.128895 0.131191
0.167498 0.131317 0.134694
0.174690 0.133829 0.138413
0.181914 0.136319 0.142093
0.189318 0.139005 0.145819
0.197007 0.141560 0.149611
0.204951 0.144287 0.153555
0.213137 0.147001 0.157562
0.221561 0.149774 0.161777
0.230281 0.152507 0.165993
0.022277 0.096231 0.068943
0.028973 0.097719 0.071874
0.035409 0.099453 0.074651
0.041609 0.101008 0.077585
0.047761 0.102747 0.080537
0.053763 0.104494 0.083343
0.059719 0.106394 0.086321
0.065627 0.108220 0.089299
0.071582 0.110205 0.092276
0.077480 0.111993 0.095254
0.083296 0.113978 0.098310
0.089251 0.116033 0.101453
0.095207 0.118193 0.104555
0.101162 0.120198 0.107673
0.107336 0.122429 0.110896
0.113412 0.124660 0.114144
0.119642 0.126890 0.117390
0.125850 0.129168 0.120722
0.132301 0.131514 0.124196
0.138753 0.133874 0.127473
0.145379 0.136279 0.131104
0.152113 0.138808 0.134665
0.159061 0.141290 0.138186
0.166009 0.144015 0.141904
0.173238 0.146686 0.145811
0.180637 0.149269 0.149584
0.188318 0.152035 0.153555
0.196227 0.154933 0.157525
0.204210 0.157714 0.161720
0.212628 0.160692 0.165985
0.221302 0.163715 0.170209
0.230281 0.166694 0.174721
0.020237 0.106408 0.074654
0.026750 0.108143 0.077571
0.033195 0.109878 0.080366
0.039398 0.111613 0.083288
0.045579 0.113427 0.086266
0.051534 0.115327 0.089054
0.057489 0.117153 0.092069
0.063445 0.119138 0.095254
0.069345 0.121138 0.098232
0.075300 0.123164 0.101225
0.081067 0.125227 0.104431
0.087022 0.127398 0.107531
0.093050 0.129629 0.110759
0.099145 0.131860 0.114010
0.105132 0.134146 0.117240
0.111332 0.136469 0.120622
0.117657 0.138852 0.123999
0.123865 0.141242 0.127473
0.130316 0.143756 0.130946
0.136939 0.146260 0.134454
0.143641 0.148986 0.138174
0.150380 0.151650 0.141833
0.157501 0.154382 0.145575
0.164701 0.157155 0.149529
0.171956 0.159943 0.153310
0.179597 0.162921 0.157525
0.187294 0.165740 0.161541
0.195454 0.168900 0.165765
0.203695 0.171909 0.170029
0.212183 0.174942 0.174477
0.221104 0.178217 0.178999
0.230336 0.181441 0.183709
0.018063 0.117074 0.080302
0.024759 0.118809 0.083274
0.031136 0.120615 0.086077
0.037337 0.122360 0.089054
0.043349 0.124345 0.092032
0.049305 0.126330 0.095010
0.055260 0.128328 0.097987
0.061215 0.130364 0.101209
0.067155 0.132458 0.104203
0.073063 0.134596 0.107427
0.079018 0.136870 0.110528
0.084974 0.139122 0.113758
0.090954 0.141423 0.117137
0.096947 0.143829 0.120462
0.103147 0.146205 0.123754
0.109347 0.148717 0.127228
0.115672 0.151231 0.130702
0.121943 0.153956 0.134339
0.128575 0.156580 0.137931
0.135201 0.159337 0.141651
0.141943 0.162110 0.145434
0.148891 0.164906 0.149340
0.156012 0.167884 0.153310
0.163275 0.170861 0.157281
0.170860 0.173902 0.161454
0.178605 0.176931 0.165725
0.186545 0.180154 0.169958
0.194762 0.183441 0.174477
0.203255 0.186671 0.178944
0.212171 0.190185 0.183702
0.221340 0.193659 0.188420
0.230832 0.197196 0.193446
0.016007 0.127811 0.086077
0.022529 0.129552 0.088983
0.028965 0.131537 0.091961
0.035101 0.133522 0.094946
0.041120 0.135578 0.097987
0.047076 0.137564 0.100965
0.053031 0.139653 0.104047
0.058986 0.141888 0.107181
0.064923 0.144141 0.110405
0.070826 0.146378 0.113679
0.076781 0.148804 0.116980
0.082762 0.151168 0.120210
0.088763 0.153649 0.123683
0.094921 0.156202 0.127085
0.101028 0.158888 0.130663
0.107235 0.161443 0.134176
0.113687 0.164205 0.137811
0.120139 0.167064 0.141534
0.126762 0.169869 0.145299
0.133507 0.172847 0.149096
0.140429 0.175824 0.153066
0.147402 0.178873 0.157085
0.154645 0.182044 0.161301
0.162039 0.185272 0.165473
0.169727 0.188554 0.169806
0.177670 0.191855 0.174233
0.185856 0.195329 0.178759
0.194265 0.198874 0.183472
0.203010 0.202418 0.188256
0.212155 0.206137 0.193202
0.221584 0.209923 0.198233
0.231329 0.213888 0.203442
0.013770 0.138808 0.091788
0.020300 0.140793 0.094765
0.026747 0.142778 0.097743
0.032864 0.144842 0.100816
0.038891 0.147003 0.103943
0.044846 0.149235 0.107026
0.050802 0.151545 0.110253
0.056757 0.153815 0.113480
0.062692 0.156131 0.116728
0.068589 0.158612 0.120013
0.074570 0.161172 0.123431
0.080578 0.163740 0.126905
0.086598 0.166410 0.130410
0.092802 0.169138 0.133932
0.099043 0.171945 0.137559
0.105250 0.174832 0.141283
0.111702 0.177809 0.145047
0.118323 0.180787 0.148927
0.125024 0.183843 0.152822
0.131774 0.187001 0.156942
0.138879 0.190279 0.161058
0.146079 0.193509 0.165275
0.153358 0.196866 0.169570
0.161026 0.200370 0.173989
0.168924 0.204033 0.178644
0.176928 0.207626 0.183229
0.185332 0.211333 0.188160
0.193992 0.215146 0.192958
0.202993 0.219174 0.198149
0.212244 0.223144 0.203435
0.222143 0.227269 0.208728
0.232148 0.231486 0.214266
0.011533 0.150223 0.097743
0.018071 0.152210 0.100721
0.024426 0.154295 0.103704
0.030620 0.156532 0.106920
0.036662 0.158856 0.110005
0.042617 0.161324 0.113246
0.048572 0.163592 0.116476
0.054441 0.166143 0.119914
0.060396 0.168687 0.123179
0.066352 0.171375 0.126653
0.072394 0.174103 0.130214
0.078405 0.176888 0.133688
0.084495 0.179708 0.137406
0.090698 0.182619 0.141033
0.097019 0.185592 0.144795
0.103265 0.188769 0.148689
0.109885 0.191836 0.152578
0.116460 0.195100 0.156682
0.123287 0.198464 0.160813
0.130285 0.201841 0.165030
0.137390 0.205341 0.169334
0.144677 0.208980 0.173745
0.152233 0.212620 0.178384
0.159991 0.216402 0.182986
0.167998 0.220332 0.187908
0.176382 0.224372 0.192713
0.184909 0.228431 0.197895
0.193816 0.232628 0.203182
0.203056 0.236937 0.208484
0.212714 0.241246 0.214024
0.223562 0.245461 0.219059
0.237993 0.248840 0.221663
0.009295 0.161976 0.103698
0.015747 0.164060 0.106679
0.022183 0.166440 0.109904
0.028247 0.168782 0.113129
0.034338 0.171263 0.116354
0.040293 0.173760 0.119673
0.046248 0.176339 0.122927
0.052204 0.179067 0.126401
0.058159 0.181866 0.129970
0.064114 0.184663 0.133444
0.070100 0.187491 0.137162
0.076173 0.190502 0.140783
0.082377 0.193635 0.144543
0.088621 0.196802 0.148450
0.094911 0.200027 0.152334
0.101398 0.203419 0.156304
0.107976 0.206743 0.160518
0.114724 0.210312 0.164717
0.121604 0.213927 0.169097
0.128701 0.217598 0.173500
0.135901 0.221474 0.178028
0.143410 0.225294 0.182742
0.151058 0.229359 0.187550
0.158998 0.233535 0.192469
0.167256 0.237712 0.197621
0.175735 0.242144 0.202715
0.184544 0.246485 0.208225
0.193785 0.251152 0.213699
0.203982 0.255562 0.218804
0.217605 0.259096 0.221488
0.234366 0.261833 0.222159
0.252070 0.264658 0.222750
0.006814 0.173989 0.109756
0.013510 0.176466 0.112978
0.019717 0.178810 0.116200
0.025901 0.181535 0.119445
0.031870 0.184030 0.122764
0.037914 0.186845 0.126149
0.043869 0.189618 0.129725
0.049825 0.192453 0.133199
0.055780 0.195431 0.136812
0.061877 0.198511 0.140535
0.067866 0.201733 0.144291
0.073941 0.204900 0.148017
0.080184 0.208232 0.152027
0.086474 0.211706 0.156060
0.092843 0.215226 0.160196
0.099413 0.218806 0.164415
0.106117 0.222527 0.168687
0.112923 0.226351 0.173154
0.119953 0.230257 0.177723
0.127213 0.234330 0.182378
0.134479 0.238494 0.187160
0.142170 0.242782 0.192123
0.150065 0.247107 0.197188
0.158187 0.251676 0.202471
0.166591 0.256355 0.207893
0.175359 0.261038 0.213435
0.184980 0.265802 0.218534
0.197878 0.269595 0.221346
0.213862 0.272449 0.222007
0.230652 0.275426 0.222655
0.248451 0.278404 0.223391
0.267155 0.281484 0.223892
0.004333 0.186750 0.115964
0.011028 0.189235 0.119193
0.017236 0.191839 0.122652
0.023420 0.194572 0.125897
0.029619 0.197416 0.129385
0.035574 0.200394 0.132955
0.041530 0.203482 0.136476
0.047485 0.206600 0.140172
0.053440 0.209855 0.144010
0.059428 0.213084 0.147765
0.065595 0.216594 0.151735
0.071708 0.220143 0.155744
0.077955 0.223727 0.159828
0.084407 0.227413 0.164046
0.090858 0.231250 0.168435
0.097428 0.235220 0.172837
0.104185 0.239247 0.177360
0.111140 0.243454 0.182005
0.118280 0.247737 0.186908
0.125613 0.252137 0.191737
0.133168 0.256647 0.196857
0.140931 0.261432 0.202072
0.149002 0.266218 0.207397
0.157304 0.271180 0.212966
0.166442 0.276083 0.218243
0.178760 0.280072 0.221071
0.193990 0.283215 0.221893
0.210020 0.286423 0.222507
0.226938 0.289532 0.223152
0.244737 0.292868 0.223884
0.263544 0.296333 0.224389
0.283359 0.299673 0.225129
0.001851 0.199772 0.122415
0.008543 0.202623 0.125759
0.014754 0.205475 0.129127
0.020938 0.208452 0.132711
0.026910 0.211565 0.136200
0.032994 0.214770 0.139922
0.039048 0.218039 0.143644
0.045004 0.221387 0.147513
0.050959 0.224892 0.151450
0.057069 0.228524 0.155364
0.063193 0.232210 0.159542
0.069400 0.236094 0.163675
0.075726 0.240062 0.167939
0.082177 0.244129 0.172405
0.088739 0.248295 0.176990
0.095443 0.252631 0.181575
0.102391 0.257033 0.186411
0.109339 0.261617 0.191374
0.116599 0.266344 0.196406
0.123991 0.271180 0.201568
0.131837 0.276219 0.206901
0.139736 0.281304 0.212478
0.148428 0.286465 0.217762
0.160068 0.290628 0.220768
0.174572 0.294006 0.221642
0.190019 0.297452 0.222364
0.206169 0.300800 0.223007
0.223105 0.304392 0.223648
0.241011 0.307984 0.224376
0.259829 0.311812 0.224885
0.279881 0.315530 0.225617
0.301075 0.319375 0.226122
0.000000 0.213667 0.128993
0.005821 0.216645 0.132467
0.012139 0.219756 0.135941
0.018331 0.222994 0.139659
0.024412 0.226350 0.143290
0.030367 0.229824 0.147116
0.036346 0.233424 0.150987
0.042425 0.237171 0.154985
0.048478 0.241019 0.159053
0.054588 0.244901 0.163304
0.060711 0.248912 0.167561
0.067076 0.253136 0.171909
0.073370 0.257403 0.176502
0.079948 0.261995 0.181212
0.086575 0.266519 0.185980
0.093458 0.271299 0.190878
0.100406 0.276143 0.195906
0.107487 0.281175 0.201063
0.114932 0.286268 0.206454
0.122502 0.291605 0.211989
0.130754 0.296982 0.217367
0.141810 0.301346 0.220417
0.155776 0.305022 0.221356
0.170569 0.308589 0.222016
0.185902 0.312340 0.222663
0.202080 0.316137 0.223404
0.219138 0.319989 0.224125
0.237047 0.323959 0.224641
0.255988 0.327937 0.225381
0.276159 0.332144 0.225877
0.297361 0.336370 0.226374
0.320060 0.340714 0.226870
0.000000 0.228193 0.135697
0.003096 0.231419 0.139415
0.009406 0.234787 0.143030
0.015597 0.238395 0.146764
0.021687 0.242034 0.150735
0.027752 0.245760 0.154612
0.033708 0.249756 0.158701
0.039797 0.253749 0.162834
0.045897 0.257973 0.167191
0.052023 0.262326 0.171625
0.058230 0.266714 0.176049
0.064682 0.271314 0.180724
0.071133 0.276077 0.185486
0.077641 0.280926 0.190382
0.084341 0.285958 0.195405
0.091228 0.291230 0.200559
0.098356 0.296522 0.205908
0.105613 0.302115 0.211441
0.113456 0.307694 0.216791
0.123967 0.312346 0.219942
0.137359 0.316239 0.220938
0.151479 0.319965 0.221643
0.166348 0.323920 0.222348
0.181772 0.327929 0.223097
0.197994 0.332034 0.223760
0.215122 0.336335 0.224396
0.232969 0.340691 0.225137
0.252021 0.345047 0.225633
0.272192 0.349647 0.226240
0.293512 0.354248 0.226736
0.316341 0.359085 0.227232
0.340557 0.363827 0.227484
0.000000 0.243468 0.142786
0.000503 0.247088 0.146508
0.006569 0.250715 0.150238
0.012771 0.254583 0.154209
0.018819 0.258695 0.158321
0.024916 0.262823 0.162535
0.030974 0.267068 0.166694
0.036961 0.271544 0.171161
0.043166 0.276104 0.175627
0.049370 0.280793 0.180236
0.055607 0.285729 0.184992
0.061956 0.290787 0.189885
0.068565 0.295947 0.194848
0.075206 0.301343 0.200055
0.082051 0.307008 0.205412
0.089049 0.312613 0.210871
0.096464 0.318585 0.216325
0.106582 0.323339 0.219386
0.119445 0.327484 0.220450
0.132932 0.331514 0.221190
0.147087 0.335717 0.221931
0.161883 0.339903 0.222671
0.177435 0.344368 0.223412
0.193614 0.348800 0.224089
0.210792 0.353461 0.224728
0.228757 0.358206 0.225389
0.247809 0.363064 0.225971
0.268082 0.368152 0.226484
0.289545 0.373242 0.226980
0.312377 0.378493 0.227248
0.336838 0.383843 0.227729
0.362811 0.389200 0.227839
0.000000 0.259640 0.149986
0.000015 0.263665 0.153953
0.003547 0.267645 0.157927
0.009751 0.272014 0.162047
0.015842 0.276395 0.166280
0.022041 0.280886 0.170664
0.027996 0.285646 0.175131
0.034196 0.290427 0.179631
0.040214 0.295545 0.184388
0.046528 0.300689 0.189212
0.052873 0.306102 0.194288
0.059325 0.311716 0.199368
0.065926 0.317515 0.204729
0.072662 0.323376 0.210130
0.079725 0.329481 0.215714
0.089500 0.334597 0.218876
0.101642 0.338863 0.219961
0.114777 0.343160 0.220702
0.128426 0.347529 0.221442
0.142621 0.352105 0.222183
0.157417 0.356721 0.222923
0.172869 0.361503 0.223616
0.189176 0.366477 0.224333
0.206326 0.371595 0.224971
0.224489 0.376712 0.225607
0.243549 0.382074 0.226137
0.263862 0.387561 0.226728
0.285313 0.393159 0.227012
0.308262 0.399007 0.227476
0.332717 0.404780 0.227735
0.358843 0.410729 0.227839
0.386971 0.416984 0.227839
0.000000 0.276978 0.157588
0.000000 0.281206 0.161566
0.000618 0.285744 0.165783
0.006664 0.290464 0.170168
0.012727 0.295337 0.174635
0.018833 0.300250 0.179127
0.024892 0.305392 0.183772
0.031096 0.310800 0.188649
0.037237 0.316422 0.193611
0.043506 0.322226 0.198757
0.049896 0.328095 0.204017
0.056434 0.334264 0.209532
0.063165 0.340626 0.215032
0.072531 0.345972 0.218330
0.084399 0.350553 0.219473
0.096924 0.355009 0.220213
0.110111 0.359639 0.220954
0.123754 0.364512 0.221623
0.137910 0.369385 0.222369
0.152793 0.374408 0.223114
0.168316 0.379691 0.223728
0.184576 0.385061 0.224471
0.201813 0.390604 0.225107
0.219866 0.396225 0.225713
0.238962 0.402091 0.226232
0.259366 0.408115 0.226728
0.280850 0.414211 0.227092
0.303800 0.420548 0.227339
0.328497 0.427059 0.227595
0.354627 0.433668 0.227676
0.382762 0.440430 0.227681
0.413061 0.447288 0.227437
0.000000 0.295419 0.165284
0.000000 0.300059 0.169672
0.000020 0.305182 0.173984
0.003277 0.310315 0.178605
0.009477 0.315497 0.183237
0.015471 0.321126 0.187987
0.021663 0.326771 0.192982
0.027868 0.332813 0.198115
0.034073 0.338977 0.203269
0.040418 0.345347 0.208776
0.046806 0.351908 0.214353
0.055891 0.357542 0.217680
0.067296 0.362377 0.218883
0.079523 0.367079 0.219583
0.092205 0.371917 0.220332
0.105269 0.376960 0.221000
0.118839 0.382093 0.221743
0.133034 0.387436 0.222486
0.147829 0.393060 0.223229
0.163496 0.398786 0.223860
0.179807 0.404632 0.224499
0.196876 0.410621 0.225214
0.215030 0.416912 0.225736
0.234208 0.423282 0.226232
0.254522 0.429879 0.226600
0.276206 0.436630 0.226995
0.299171 0.443496 0.227311
0.323798 0.450741 0.227350
0.350159 0.457859 0.227429
0.378382 0.465383 0.227201
0.408686 0.472908 0.227025
0.441506 0.480688 0.226531
0.000000 0.315042 0.173642
0.000000 0.320428 0.178040
0.000000 0.325829 0.182586
0.000429 0.331474 0.187476
0.005852 0.337532 0.192375
0.011997 0.343515 0.197365
0.018171 0.349870 0.202578
0.024373 0.356501 0.207980
0.030620 0.363323 0.213612
0.039307 0.369326 0.217029
0.050415 0.374273 0.218252
0.062270 0.379249 0.218881
0.074560 0.384391 0.219627
0.087243 0.389706 0.220373
0.100224 0.395124 0.221119
0.113876 0.400840 0.221865
0.128071 0.406651 0.222487
0.142866 0.412667 0.223230
0.158360 0.418802 0.223859
0.174670 0.425353 0.224499
0.191913 0.431889 0.224995
0.210011 0.438693 0.225562
0.229246 0.445691 0.226059
0.249559 0.452842 0.226355
0.271244 0.460341 0.226673
0.294210 0.467909 0.226919
0.318905 0.475706 0.226933
0.345278 0.483715 0.226933
0.373656 0.491763 0.226760
0.404212 0.500122 0.226287
0.437039 0.508593 0.225862
0.472386 0.517374 0.224948
0.000000 0.336421 0.182079
0.000000 0.342251 0.186734
0.000000 0.348218 0.191634
0.000006 0.354547 0.196614
0.002127 0.361203 0.201827
0.008303 0.367871 0.207231
0.014452 0.374953 0.212726
0.022734 0.381222 0.216305
0.033597 0.386561 0.217536
0.045256 0.391705 0.218278
0.057174 0.396986 0.218878
0.069353 0.402632 0.219624
0.082036 0.408278 0.220370
0.095041 0.414350 0.221041
0.108704 0.420450 0.221781
0.122771 0.426825 0.222489
0.137627 0.433431 0.223144
0.153145 0.440251 0.223758
0.169454 0.447107 0.224291
0.186593 0.454347 0.224814
0.204679 0.461821 0.225310
0.223857 0.469452 0.225806
0.244171 0.477264 0.226059
0.265856 0.485455 0.226192
0.289053 0.493756 0.226437
0.313676 0.502316 0.226437
0.340136 0.510877 0.226255
0.368514 0.519926 0.225853
0.399091 0.529032 0.225383
0.432085 0.538312 0.224869
0.467498 0.547798 0.223955
0.505723 0.557588 0.222782
0.000000 0.359313 0.190949
0.000000 0.365899 0.196101
0.000000 0.372551 0.201076
0.000000 0.379637 0.206483
0.000088 0.386798 0.211894
0.006180 0.393475 0.215614
0.016831 0.398950 0.216842
0.028244 0.404352 0.217540
0.039868 0.409957 0.218127
0.051778 0.415676 0.218874
0.063957 0.421803 0.219560
0.076639 0.428032 0.220300
0.089616 0.434466 0.221007
0.103273 0.441223 0.221639
0.117365 0.448163 0.222277
0.132167 0.455300 0.222920
0.147686 0.462632 0.223514
0.163890 0.470244 0.224041
0.181062 0.478073 0.224562
0.199147 0.486295 0.224908
0.218276 0.494620 0.225310
0.238651 0.503127 0.225452
0.260207 0.511970 0.225696
0.283364 0.521037 0.225696
0.308072 0.530451 0.225550
0.334641 0.540008 0.225355
0.363057 0.549791 0.224869
0.393665 0.559635 0.224380
0.426689 0.569914 0.223687
0.462282 0.580223 0.222542
0.500584 0.590776 0.221354
0.541896 0.601575 0.219922
0.000000 0.384158 0.200323
0.000000 0.391507 0.205733
0.000000 0.398915 0.211147
0.000000 0.405879 0.214863
0.000626 0.411550 0.216101
0.011367 0.417197 0.216637
0.022742 0.423103 0.217338
0.034401 0.429065 0.218079
0.046173 0.435433 0.218638
0.058498 0.442034 0.219386
0.070983 0.448761 0.220056
0.083926 0.455859 0.220796
0.097599 0.463080 0.221311
0.111651 0.470672 0.222033
0.126356 0.478396 0.222577
0.141810 0.486486 0.223073
0.158091 0.494725 0.223569
0.175158 0.503289 0.224066
0.193210 0.512151 0.224365
0.212375 0.521268 0.224617
0.232741 0.530601 0.224742
0.254267 0.540296 0.224759
0.277463 0.550126 0.224759
0.302159 0.560235 0.224613
0.328570 0.570662 0.224318
0.357157 0.581229 0.223718
0.387758 0.592051 0.223018
0.420858 0.603283 0.222271
0.456624 0.614582 0.221088
0.495168 0.625920 0.219667
0.536495 0.637719 0.218181
0.581031 0.649533 0.216251
0.000000 0.411225 0.210201
0.000000 0.418479 0.214167
0.000000 0.424386 0.215361
0.000000 0.430301 0.215857
0.005664 0.436452 0.216598
0.017078 0.442863 0.217100
0.028697 0.449321 0.217834
0.040411 0.456198 0.218416
0.052590 0.463364 0.219081
0.065201 0.470739 0.219812
0.078215 0.478454 0.220347
0.091687 0.486315 0.221048
0.105637 0.494514 0.221584
0.120421 0.502887 0.222080
0.135852 0.511621 0.222577
0.151929 0.520698 0.222974
0.169092 0.529941 0.223364
0.187046 0.539629 0.223617
0.206107 0.549475 0.223750
0.226405 0.559690 0.223892
0.248090 0.570056 0.223806
0.271056 0.580808 0.223766
0.295754 0.591850 0.223388
0.322362 0.603114 0.222931
0.350752 0.614607 0.222435
0.381551 0.626429 0.221537
0.414632 0.638464 0.220544
0.450431 0.650547 0.219347
0.489011 0.662874 0.217925
0.530768 0.675442 0.216007
0.575371 0.688009 0.214068
0.623191 0.700421 0.212076
0.000000 0.437497 0.214621
0.000000 0.443640 0.215117
0.000000 0.450059 0.215615
0.000463 0.456714 0.216161
0.011123 0.463602 0.216854
0.022577 0.470797 0.217412
0.034456 0.478183 0.218118
0.046634 0.485888 0.218827
0.059096 0.493828 0.219355
0.072038 0.502200 0.219851
0.085494 0.510817 0.220570
0.099445 0.519628 0.221088
0.114144 0.528748 0.221371
0.129437 0.538338 0.221868
0.145622 0.548058 0.222236
0.162551 0.558266 0.222513
0.180479 0.568624 0.222758
0.199534 0.579344 0.222774
