gsg/03_Cinematic/GSG_LUT_Cinematic_Ill_Be_Back.cube
# GSG LUTs 1.0
# Copyright (c) 2016-2020 Greyscalegorilla
# See EULA for licensing and distribution information
# Converted by Briz LUT Converter
LUT_3D_SIZE 8
DOMAIN_MIN 0.000000 0.000000 0.000000
DOMAIN_MAX 0.903226 0.903226 0.903226
0.000000 0.000000 0.000000
0.038103 0.007090 0.010390
0.077797 0.016015 0.024207
0.120737 0.028036 0.043200
0.170436 0.046004 0.072559
0.234747 0.077624 0.125519
0.289826 0.114853 0.189176
0.326693 0.146300 0.243216
0.012163 0.045437 0.022128
0.048178 0.053074 0.036189
0.085706 0.062767 0.053984
0.126015 0.075489 0.077668
0.172870 0.094207 0.112357
0.234231 0.126839 0.172470
0.287928 0.164788 0.241979
0.325476 0.196510 0.299024
0.026894 0.094608 0.055331
0.060562 0.102950 0.073252
0.095577 0.113254 0.095262
0.133506 0.126771 0.123361
0.177785 0.146489 0.163443
0.236567 0.180369 0.230275
0.289883 0.219189 0.304376
0.328993 0.251048 0.363301
0.045303 0.150238 0.104667
0.076541 0.159439 0.126701
0.109125 0.170744 0.152846
0.144409 0.185340 0.185526
0.186341 0.206327 0.230629
0.243208 0.241662 0.302895
0.297761 0.281555 0.379676
0.340176 0.313741 0.438601
0.071070 0.220245 0.183079
0.099445 0.230730 0.209146
0.129378 0.243390 0.239435
0.162210 0.259500 0.276257
0.202111 0.282234 0.325324
0.259115 0.319942 0.400418
0.317934 0.361451 0.475625
0.367040 0.394289 0.529789
0.112742 0.325078 0.322329
0.138154 0.337978 0.351703
0.165465 0.353264 0.384678
0.196644 0.372254 0.422854
0.236475 0.398522 0.471223
0.300375 0.440310 0.536588
0.394863 0.481764 0.553733
0.479832 0.513151 0.551820
0.157257 0.439576 0.472008
0.181299 0.455568 0.499546
0.208224 0.474254 0.528983
0.247112 0.496236 0.549267
0.308790 0.524501 0.553873
0.409713 0.568419 0.550503
0.524383 0.614259 0.537487
0.622191 0.649011 0.521113
0.202206 0.537020 0.552389
0.237591 0.554590 0.553978
0.277971 0.574644 0.553819
0.326762 0.599156 0.551478
0.392996 0.631698 0.544804
0.500927 0.681705 0.527321
0.624462 0.732953 0.500878
0.730074 0.771381 0.475251
0.002292 0.002537 0.036606
0.040088 0.009902 0.046260
0.079263 0.019378 0.059475
0.121651 0.031825 0.077777
0.170695 0.050423 0.106014
0.234346 0.082686 0.157659
0.289094 0.120603 0.219788
0.326201 0.152378 0.272787
0.014695 0.048218 0.057446
0.050195 0.056296 0.070936
0.087235 0.066300 0.088180
0.127085 0.079524 0.111080
0.173604 0.098783 0.144757
0.234347 0.132070 0.203549
0.287953 0.170615 0.271578
0.325732 0.202612 0.327780
0.029493 0.097633 0.089361
0.062822 0.106327 0.106739
0.097571 0.117059 0.128150
0.134950 0.131087 0.155525
0.178911 0.151255 0.194711
0.237228 0.185747 0.260109
0.290669 0.225058 0.332908
0.330072 0.257277 0.390965
0.048233 0.153633 0.137296
0.079073 0.163110 0.158667
0.111251 0.174849 0.184254
0.146276 0.189838 0.216288
0.187822 0.211303 0.260445
0.244586 0.247216 0.331480
0.299573 0.287504 0.407159
0.342560 0.319948 0.465053
0.074095 0.224034 0.213856
0.102209 0.234921 0.239403
0.131796 0.247933 0.269157
0.164530 0.264478 0.305364
0.204254 0.287670 0.353531
0.261435 0.325792 0.427553
0.321071 0.367554 0.501683
0.371814 0.400378 0.553592
0.115935 0.330033 0.350553
0.141179 0.343159 0.379485
0.168404 0.358736 0.411890
0.199582 0.378046 0.449638
0.239631 0.404654 0.497284
0.305933 0.446565 0.558329
0.404039 0.487810 0.570632
0.489993 0.519115 0.568882
0.160533 0.445571 0.498128
0.184572 0.461863 0.525315
0.211811 0.480769 0.554233
0.254088 0.502568 0.567593
0.316869 0.530908 0.570655
0.418592 0.575154 0.567569
0.534191 0.620870 0.555716
0.633015 0.655359 0.541042
0.209532 0.543566 0.569317
0.244946 0.561408 0.570687
0.285549 0.581708 0.570739
0.334572 0.606329 0.568603
0.400834 0.639020 0.562353
0.509284 0.689258 0.546538
0.633604 0.740466 0.522615
0.740139 0.778642 0.499610
0.004829 0.005561 0.076639
0.042160 0.013470 0.085691
0.081019 0.023277 0.098018
0.122659 0.036371 0.115593
0.171287 0.055393 0.142652
0.234188 0.088596 0.192602
0.288605 0.127205 0.253478
0.325710 0.159415 0.305461
0.017480 0.051550 0.096168
0.052629 0.059925 0.108964
0.089188 0.070417 0.125393
0.128520 0.084141 0.147486
0.174520 0.103904 0.180215
0.234709 0.138085 0.237445
0.288162 0.177359 0.304132
0.326070 0.209629 0.359265
0.032518 0.101209 0.126708
0.065417 0.110203 0.143393
0.099645 0.121481 0.164024
0.136607 0.135936 0.190678
0.180086 0.156730 0.228826
0.238064 0.191941 0.292874
0.291690 0.231812 0.364326
0.331621 0.264174 0.421568
0.051392 0.157556 0.172932
0.081839 0.167450 0.193789
0.113741 0.179558 0.218702
0.148374 0.195081 0.250015
0.189610 0.216970 0.293141
0.246406 0.253588 0.362935
0.301687 0.294255 0.437422
0.345411 0.326905 0.494505
0.077521 0.228588 0.247571
0.105360 0.239754 0.272609
0.134726 0.253110 0.301784
0.167154 0.270111 0.337264
0.206704 0.293805 0.384647
0.264175 0.332469 0.457550
0.324588 0.374564 0.530669
0.378713 0.407087 0.577614
0.119587 0.335452 0.381740
0.144672 0.348968 0.410299
0.171823 0.364947 0.442063
0.202915 0.384607 0.479223
0.243218 0.411520 0.526367
0.313417 0.453347 0.580702
0.414333 0.494517 0.589593
0.501518 0.525696 0.588253
0.164158 0.452410 0.526984
0.188169 0.468924 0.553893
0.217663 0.487956 0.578398
0.262713 0.509632 0.586889
0.326073 0.538183 0.589694
0.428516 0.582488 0.587192
0.545245 0.628182 0.576989
0.644765 0.662652 0.564189
0.217636 0.551128 0.588332
0.253221 0.569022 0.589678
0.293880 0.589629 0.589794
0.342967 0.614433 0.588004
0.409629 0.647371 0.582775
0.518648 0.697612 0.569067
0.643852 0.748608 0.548252
0.751026 0.786492 0.528204
0.008098 0.009414 0.122336
0.044673 0.017625 0.130466
0.082989 0.028091 0.142147
0.124062 0.041640 0.158620
0.171893 0.061524 0.184584
0.234188 0.095545 0.232772
0.288151 0.135035 0.291969
0.325448 0.167640 0.342803
0.020844 0.055595 0.140324
0.055485 0.064441 0.152474
0.091458 0.075433 0.168031
0.130256 0.089701 0.189204
0.175546 0.110189 0.220773
0.235229 0.145200 0.276351
0.288547 0.185117 0.341478
0.326855 0.217874 0.395578
0.036126 0.105644 0.169254
0.068503 0.115112 0.185210
0.102193 0.126890 0.205078
0.138749 0.141812 0.230855
0.181712 0.163275 0.267982
0.239341 0.199330 0.330483
0.293121 0.239720 0.400607
0.333643 0.272394 0.456811
0.055205 0.162377 0.213754
0.085248 0.172705 0.233928
0.116728 0.185292 0.258105
0.150928 0.201332 0.288596
0.191815 0.223837 0.330875
0.248511 0.261118 0.399234
0.304351 0.302272 0.472470
0.349029 0.335057 0.528668
0.081587 0.234007 0.286241
0.109050 0.245620 0.310661
0.138120 0.259473 0.339238
0.170269 0.276915 0.374023
0.209777 0.301037 0.420551
0.267512 0.340329 0.492253
0.329066 0.382696 0.564372
0.387594 0.414843 0.604776
0.123873 0.342093 0.417742
0.148789 0.355981 0.445654
0.175816 0.372271 0.477049
0.206956 0.392409 0.513670
0.247499 0.419735 0.560003
0.323008 0.461260 0.605518
0.426621 0.502255 0.612220
0.515154 0.533279 0.611718
0.168435 0.460548 0.560818
0.192531 0.477492 0.587242
0.226275 0.496118 0.603385
0.272948 0.517941 0.609488
0.336756 0.546742 0.612294
0.440149 0.591315 0.610991
0.558062 0.636871 0.603130
0.658758 0.670866 0.592864
0.226980 0.559998 0.610698
0.262744 0.578203 0.612292
0.303405 0.599071 0.612694
0.352743 0.624142 0.611600
0.419793 0.657095 0.607633
0.529550 0.707395 0.596679
0.655486 0.758058 0.580054
0.763557 0.795502 0.563955
0.012108 0.014557 0.179519
0.048178 0.023546 0.186758
0.085589 0.034520 0.197298
0.125883 0.048895 0.212557
0.172870 0.069621 0.237077
0.234233 0.104961 0.283390
0.287928 0.145386 0.340604
0.325448 0.178428 0.390059
0.025247 0.061247 0.195707
0.059222 0.070728 0.206848
0.094445 0.082293 0.221450
0.132604 0.097239 0.241471
0.177121 0.118660 0.271699
0.236069 0.154773 0.325499
0.289443 0.195376 0.388898
0.328281 0.228529 0.441708
0.040718 0.111583 0.222545
0.072585 0.121730 0.237763
0.105682 0.134066 0.256679
0.141529 0.149774 0.281487
0.183898 0.171941 0.317256
0.241279 0.208979 0.378077
0.295301 0.250126 0.446612
0.336659 0.282949 0.501772
0.060223 0.169018 0.264965
0.089673 0.179873 0.284434
0.120563 0.193077 0.307715
0.154364 0.209680 0.337318
0.194817 0.232921 0.378467
0.251574 0.271033 0.445331
0.308260 0.312762 0.517231
0.354227 0.345604 0.572580
0.086914 0.241477 0.334986
0.113971 0.253449 0.358775
0.142611 0.267883 0.386615
0.174489 0.285911 0.420634
0.213961 0.310690 0.466218
0.272217 0.350613 0.536729
0.335196 0.393252 0.607861
0.402380 0.424365 0.634712
0.129410 0.351021 0.463468
0.154157 0.365355 0.490945
0.181116 0.382062 0.521746
0.212312 0.402661 0.557800
0.253335 0.430465 0.603598
0.336710 0.471414 0.636058
0.442678 0.512244 0.642426
0.532849 0.543070 0.643483
0.173878 0.471506 0.604259
0.200549 0.488475 0.625808
0.238333 0.506898 0.634610
0.286129 0.528794 0.639027
0.350572 0.557903 0.642545
0.455184 0.602631 0.643231
0.574497 0.647897 0.639025
0.676532 0.681545 0.632541
0.239088 0.571724 0.640462
0.274717 0.590132 0.642293
0.315646 0.611380 0.643455
0.365202 0.636569 0.643477
0.432603 0.669817 0.641674
0.543216 0.720047 0.635000
0.670376 0.770263 0.624195
0.779415 0.807159 0.613562
0.018441 0.023309 0.261814
0.053574 0.033093 0.267845
0.089833 0.045084 0.276931
0.129048 0.060615 0.290630
0.174719 0.082540 0.313172
0.234763 0.119516 0.356714
0.288274 0.161180 0.411548
0.326315 0.194998 0.459412
0.032014 0.070412 0.275540
0.064928 0.080794 0.285460
0.099294 0.093273 0.298750
0.136391 0.109316 0.317279
0.179881 0.131923 0.345663
0.237960 0.169495 0.396968
0.291485 0.211257 0.458254
0.331371 0.244765 0.509753
0.047997 0.121375 0.299697
0.078813 0.132417 0.313726
0.111128 0.145607 0.331506
0.146151 0.162354 0.354901
0.187716 0.185561 0.389083
0.244542 0.223917 0.447817
0.299476 0.265922 0.514626
0.342348 0.299107 0.568746
0.067870 0.179519 0.339306
0.096533 0.191306 0.357710
0.126747 0.205271 0.379976
0.159857 0.222789 0.408326
0.199866 0.247068 0.448148
0.256695 0.286368 0.513331
0.314899 0.328636 0.583891
0.363028 0.361493 0.638571
0.094962 0.253159 0.406113
0.121407 0.266013 0.429179
0.149670 0.281197 0.456136
0.181110 0.299969 0.489171
0.220596 0.325642 0.533832
0.279845 0.366434 0.603075
0.348927 0.408766 0.666600
0.426008 0.438481 0.680161
0.138005 0.364945 0.531105
0.162333 0.379910 0.557994
0.189207 0.397360 0.588348
0.220678 0.418471 0.623912
0.265650 0.446357 0.663033
0.358627 0.486636 0.681682
0.467371 0.527271 0.690435
0.559968 0.557525 0.694810
0.184448 0.488003 0.665574
0.217680 0.504499 0.674802
0.257759 0.523131 0.680079
0.306044 0.545524 0.685186
0.371324 0.574902 0.690408
0.477643 0.619563 0.695670
0.599104 0.664312 0.698111
0.702914 0.697167 0.698449
0.256844 0.589783 0.687015
0.292696 0.608657 0.689990
0.333646 0.630114 0.692767
0.383449 0.655653 0.695198
0.451433 0.688990 0.697343
0.563181 0.738948 0.698407
0.691983 0.788357 0.697739
0.802365 0.824210 0.696148
0.025310 0.033148 0.341739
0.059159 0.043783 0.346433
0.094559 0.056790 0.354201
0.132553 0.073229 0.366426
0.177113 0.096502 0.387309
0.236083 0.135098 0.428615
0.289472 0.177743 0.481590
0.328221 0.211848 0.528468
0.039159 0.080681 0.352940
0.071179 0.091972 0.361695
0.104533 0.105455 0.373920
0.140651 0.122399 0.391111
0.183158 0.146193 0.418076
0.240577 0.185105 0.467470
0.294453 0.227813 0.527316
0.335659 0.261572 0.578185
0.055504 0.132341 0.374800
0.085628 0.144173 0.387811
0.116945 0.158241 0.404530
0.151166 0.175761 0.426917
0.191997 0.200189 0.459827
0.248744 0.239608 0.517099
0.304606 0.282336 0.582868
0.349425 0.315587 0.636448
0.075781 0.191280 0.411979
0.103829 0.203774 0.429461
0.133309 0.218551 0.451022
0.165857 0.236926 0.478488
0.205428 0.262119 0.517361
0.262745 0.302271 0.581549
0.322750 0.344943 0.651573
0.374543 0.377445 0.704018
0.103415 0.266032 0.476356
0.129382 0.279543 0.498788
0.157004 0.295410 0.525190
0.188323 0.314932 0.557700
0.227860 0.341323 0.601813
0.288495 0.382711 0.670731
0.369287 0.423790 0.717432
0.451149 0.452795 0.728589
0.146646 0.379818 0.599197
0.170799 0.395440 0.625948
0.197680 0.413468 0.656096
0.229572 0.435082 0.691461
0.283252 0.462295 0.716064
0.381493 0.502221 0.730640
0.492918 0.542443 0.743425
0.588057 0.571964 0.752449
0.201591 0.504463 0.716818
0.237148 0.521219 0.722404
0.277490 0.540130 0.728477
0.326357 0.562740 0.735198
0.392357 0.592398 0.743380
0.500295 0.636815 0.754726
0.623700 0.680898 0.765829
0.729374 0.712727 0.774092
0.274334 0.608576 0.737703
0.310192 0.627747 0.742628
0.351162 0.649543 0.747643
0.401282 0.675319 0.753490
0.469723 0.708669 0.760640
0.582598 0.758152 0.771200
0.712860 0.806397 0.782283
0.824717 0.841048 0.791141
0.030651 0.041325 0.399968
0.063736 0.052672 0.403841
0.098332 0.066235 0.410816
0.135493 0.083476 0.422082
0.179263 0.107677 0.441896
0.237575 0.147230 0.481776
0.290950 0.190728 0.533837
0.330657 0.225090 0.580440
0.044799 0.089267 0.409724
0.076070 0.101162 0.417734
0.108645 0.115215 0.429013
0.144141 0.132932 0.445551
0.185972 0.157532 0.471502
0.242953 0.197464 0.519985
0.297448 0.240694 0.579266
0.339776 0.274560 0.629934
0.061554 0.141250 0.429881
0.090947 0.153686 0.442310
0.121669 0.168404 0.458425
0.155288 0.186638 0.480155
0.195732 0.211761 0.512457
0.252367 0.251995 0.569126
0.309370 0.295036 0.634615
0.355664 0.328113 0.688384
0.082130 0.200803 0.465691
0.109539 0.213784 0.482662
0.138500 0.229146 0.503780
0.170618 0.248117 0.530900
0.210090 0.273892 0.569369
0.267917 0.314686 0.633373
0.329536 0.357438 0.703591
0.388804 0.388935 0.746127
0.109997 0.276324 0.528764
0.135484 0.290354 0.550923
0.162955 0.306747 0.577143
0.194056 0.326748 0.609553
0.233820 0.353613 0.653610
0.295745 0.395242 0.722620
0.387122 0.434915 0.754850
0.471181 0.463500 0.767802
0.153295 0.391808 0.650935
0.177387 0.407781 0.677713
0.204349 0.426088 0.708163
0.240192 0.447497 0.736822
0.299150 0.474280 0.753696
0.399270 0.514185 0.770327
0.512706 0.553901 0.787422
0.609647 0.582723 0.800918
0.216361 0.517295 0.753862
0.251936 0.534113 0.760399
0.292528 0.553431 0.767632
0.341606 0.576135 0.776062
0.408239 0.605798 0.787150
0.517187 0.649966 0.804305
0.642145 0.693185 0.823043
0.749161 0.724190 0.838431
0.287161 0.623317 0.779442
0.323014 0.642711 0.785967
0.364211 0.664674 0.793500
0.414360 0.690451 0.802377
0.483144 0.723671 0.814183
0.596826 0.772530 0.833117
0.728149 0.819923 0.854164
0.841074 0.853552 0.871892
