gsg/01_Basics/GSG_LUT_Basic_GreenBoost.cube
# GSG LUTs 1.0
# Copyright (c) 2016-2020 Greyscalegorilla
# See EULA for licensing and distribution information
# Converted by Briz LUT Converter
LUT_3D_SIZE 8
DOMAIN_MIN 0.000000 0.000000 0.000000
DOMAIN_MAX 0.903226 0.903226 0.903226
0.000244 0.000000 0.016117
0.000181 0.000000 0.052921
0.000118 0.000000 0.089724
0.000055 0.000000 0.126527
0.000016 0.000008 0.163338
0.000142 0.000071 0.200205
0.000268 0.000134 0.237071
0.000394 0.000197 0.273938
0.000307 0.000000 0.028343
0.000228 0.000016 0.065163
0.000149 0.000033 0.101982
0.000069 0.000049 0.138802
0.000014 0.000067 0.175627
0.000123 0.000097 0.212494
0.000233 0.000128 0.249360
0.000343 0.000158 0.286226
0.000370 0.000000 0.040569
0.000275 0.000033 0.077405
0.000179 0.000065 0.114240
0.000084 0.000098 0.151076
0.000012 0.000126 0.187916
0.000105 0.000124 0.224782
0.000199 0.000122 0.261649
0.000292 0.000120 0.298515
0.000433 0.000000 0.052795
0.000321 0.000049 0.089647
0.000210 0.000098 0.126499
0.000098 0.000146 0.163351
0.000010 0.000185 0.200205
0.000087 0.000150 0.237071
0.000164 0.000116 0.273938
0.000241 0.000081 0.310804
0.000481 0.000000 0.065028
0.000359 0.000061 0.101895
0.000237 0.000122 0.138761
0.000115 0.000183 0.175627
0.000015 0.000229 0.212494
0.000074 0.000170 0.249360
0.000133 0.000111 0.286226
0.000192 0.000052 0.323093
0.000418 0.000000 0.077317
0.000328 0.000045 0.114183
0.000239 0.000089 0.151050
0.000149 0.000134 0.187916
0.000074 0.000170 0.224782
0.000101 0.000144 0.261649
0.000127 0.000117 0.298515
0.000153 0.000091 0.335381
0.000354 0.000000 0.089606
0.000298 0.000028 0.126472
0.000241 0.000057 0.163338
0.000184 0.000085 0.200205
0.000133 0.000111 0.237071
0.000127 0.000117 0.273938
0.000121 0.000123 0.310804
0.000115 0.000129 0.347670
0.000291 0.000000 0.101895
0.000267 0.000012 0.138761
0.000243 0.000024 0.175627
0.000218 0.000037 0.212494
0.000192 0.000052 0.249360
0.000153 0.000091 0.286226
0.000115 0.000129 0.323093
0.000076 0.000168 0.359959
0.000244 0.000063 0.020150
0.000214 0.000047 0.056970
0.000183 0.000030 0.093790
0.000153 0.000014 0.130609
0.000142 0.000010 0.167435
0.000268 0.000089 0.204301
0.000394 0.000168 0.241167
0.000520 0.000248 0.278034
0.000291 0.000063 0.032376
0.000244 0.000063 0.069212
0.000197 0.000063 0.106048
0.000151 0.000063 0.142884
0.000122 0.000068 0.179724
0.000224 0.000111 0.216590
0.000325 0.000153 0.253456
0.000427 0.000196 0.290323
0.000338 0.000063 0.044602
0.000275 0.000079 0.081454
0.000212 0.000096 0.118306
0.000149 0.000112 0.155158
0.000103 0.000127 0.192012
0.000180 0.000133 0.228879
0.000257 0.000138 0.265745
0.000333 0.000144 0.302611
0.000384 0.000063 0.056828
0.000305 0.000096 0.093696
0.000226 0.000128 0.130565
0.000147 0.000161 0.167433
0.000084 0.000185 0.204301
0.000136 0.000154 0.241167
0.000188 0.000123 0.278034
0.000240 0.000093 0.314900
0.000420 0.000061 0.069063
0.000329 0.000107 0.105946
0.000237 0.000153 0.142828
0.000146 0.000198 0.179710
0.000071 0.000231 0.216590
0.000100 0.000171 0.253456
0.000130 0.000111 0.290323
0.000159 0.000051 0.327189
0.000373 0.000045 0.081368
0.000302 0.000083 0.118246
0.000231 0.000121 0.155124
0.000160 0.000158 0.192002
0.000100 0.000187 0.228879
0.000122 0.000151 0.265745
0.000145 0.000115 0.302611
0.000167 0.000080 0.339478
0.000326 0.000028 0.093674
0.000275 0.000058 0.130547
0.000224 0.000089 0.167421
0.000173 0.000119 0.204295
0.000130 0.000143 0.241167
0.000145 0.000132 0.278034
0.000159 0.000120 0.314900
0.000174 0.000108 0.351767
0.000279 0.000012 0.105979
0.000248 0.000034 0.142848
0.000217 0.000057 0.179718
0.000186 0.000079 0.216587
0.000159 0.000100 0.253456
0.000167 0.000112 0.290323
0.000174 0.000124 0.327189
0.000182 0.000137 0.364055
0.000244 0.000126 0.024184
0.000246 0.000094 0.061020
0.000248 0.000061 0.097855
0.000250 0.000028 0.134691
0.000268 0.000012 0.171531
0.000394 0.000107 0.208397
0.000520 0.000203 0.245264
0.000646 0.000299 0.282130
0.000275 0.000126 0.036409
0.000260 0.000110 0.073262
0.000246 0.000094 0.110114
0.000232 0.000077 0.146966
0.000231 0.000070 0.183820
0.000324 0.000124 0.220686
0.000417 0.000179 0.257552
0.000510 0.000234 0.294419
0.000305 0.000126 0.048635
0.000275 0.000126 0.085504
0.000244 0.000126 0.122372
0.000214 0.000126 0.159240
0.000195 0.000128 0.196109
0.000254 0.000141 0.232975
0.000314 0.000155 0.269841
0.000374 0.000169 0.306708
0.000336 0.000126 0.060861
0.000289 0.000142 0.097746
0.000242 0.000159 0.134630
0.000195 0.000175 0.171515
0.000158 0.000186 0.208397
0.000185 0.000158 0.245264
0.000212 0.000131 0.282130
0.000239 0.000104 0.318996
0.000359 0.000122 0.073099
0.000298 0.000153 0.109997
0.000238 0.000183 0.146894
0.000178 0.000214 0.183792
0.000126 0.000233 0.220686
0.000126 0.000172 0.257552
0.000126 0.000111 0.294419
0.000126 0.000050 0.331285
0.000328 0.000089 0.085420
0.000275 0.000121 0.122309
0.000223 0.000152 0.159199
0.000170 0.000183 0.196088
0.000126 0.000204 0.232975
0.000144 0.000159 0.269841
0.000162 0.000114 0.306708
0.000180 0.000068 0.343574
0.000298 0.000057 0.097741
0.000252 0.000089 0.134622
0.000207 0.000120 0.171503
0.000161 0.000152 0.208384
0.000126 0.000176 0.245264
0.000162 0.000146 0.282130
0.000198 0.000117 0.318996
0.000234 0.000087 0.355863
0.000267 0.000024 0.110063
0.000229 0.000057 0.146935
0.000191 0.000089 0.183808
0.000153 0.000121 0.220681
0.000126 0.000147 0.257552
0.000180 0.000133 0.294419
0.000234 0.000120 0.331285
0.000288 0.000106 0.368152
0.000244 0.000189 0.028217
0.000279 0.000140 0.065069
0.000313 0.000091 0.101921
0.000348 0.000043 0.138773
0.000394 0.000014 0.175627
0.000520 0.000126 0.212494
0.000646 0.000238 0.249360
0.000772 0.000349 0.286226
0.000258 0.000189 0.040443
0.000277 0.000157 0.077311
0.000295 0.000124 0.114179
0.000313 0.000091 0.151048
0.000340 0.000071 0.187916
0.000424 0.000138 0.224782
0.000509 0.000205 0.261649
0.000594 0.000271 0.298515
0.000273 0.000189 0.052668
0.000275 0.000173 0.089553
0.000277 0.000157 0.126438
0.000279 0.000140 0.163322
0.000286 0.000129 0.200205
0.000329 0.000150 0.237071
0.000372 0.000172 0.273938
0.000415 0.000193 0.310804
0.000287 0.000189 0.064894
0.000273 0.000189 0.101795
0.000258 0.000189 0.138696
0.000244 0.000189 0.175597
0.000232 0.000186 0.212494
0.000234 0.000163 0.249360
0.000235 0.000139 0.286226
0.000237 0.000115 0.323093
0.000298 0.000183 0.077134
0.000268 0.000198 0.114048
0.000239 0.000214 0.150961
0.000210 0.000229 0.187875
0.000181 0.000235 0.224782
0.000152 0.000173 0.261649
0.000123 0.000110 0.298515
0.000094 0.000048 0.335381
0.000283 0.000134 0.089472
0.000249 0.000158 0.126373
0.000215 0.000183 0.163274
0.000180 0.000207 0.200175
0.000152 0.000221 0.237071
0.000166 0.000167 0.273938
0.000180 0.000112 0.310804
0.000193 0.000057 0.347670
0.000269 0.000085 0.101809
0.000229 0.000119 0.138698
0.000190 0.000152 0.175586
0.000150 0.000185 0.212474
0.000123 0.000208 0.249360
0.000180 0.000161 0.286226
0.000236 0.000113 0.323093
0.000293 0.000066 0.359959
0.000255 0.000037 0.114147
0.000210 0.000079 0.151023
0.000165 0.000121 0.187898
0.000120 0.000163 0.224774
0.000094 0.000195 0.261649
0.000193 0.000155 0.298515
0.000293 0.000115 0.335381
0.000393 0.000075 0.372248
0.000236 0.000244 0.032258
0.000297 0.000181 0.069124
0.000358 0.000118 0.105991
0.000419 0.000055 0.142857
0.000488 0.000016 0.179724
0.000610 0.000142 0.216590
0.000732 0.000268 0.253456
0.000854 0.000394 0.290323
0.000236 0.000244 0.044484
0.000282 0.000197 0.081366
0.000327 0.000151 0.118249
0.000372 0.000104 0.155132
0.000421 0.000073 0.192012
0.000496 0.000150 0.228879
0.000572 0.000227 0.265745
0.000647 0.000304 0.302611
0.000236 0.000244 0.056710
0.000266 0.000214 0.093608
0.000295 0.000183 0.130507
0.000325 0.000153 0.167406
0.000354 0.000130 0.204301
0.000383 0.000158 0.241167
0.000411 0.000187 0.278034
0.000440 0.000215 0.314900
0.000236 0.000244 0.068935
0.000250 0.000230 0.105851
0.000264 0.000216 0.142766
0.000278 0.000202 0.179681
0.000287 0.000187 0.216590
0.000269 0.000166 0.253456
0.000251 0.000146 0.290323
0.000233 0.000126 0.327189
0.000236 0.000237 0.081177
0.000234 0.000238 0.118104
0.000233 0.000240 0.155031
0.000231 0.000242 0.191959
0.000223 0.000236 0.228879
0.000171 0.000173 0.265745
0.000120 0.000110 0.302611
0.000069 0.000047 0.339478
0.000236 0.000176 0.093526
0.000219 0.000193 0.130438
0.000202 0.000210 0.167350
0.000185 0.000227 0.204261
0.000171 0.000234 0.241167
0.000183 0.000172 0.278034
0.000195 0.000109 0.314900
0.000207 0.000047 0.351767
0.000236 0.000115 0.105876
0.000204 0.000147 0.142772
0.000172 0.000179 0.179668
0.000139 0.000212 0.216564
0.000120 0.000232 0.253456
0.000195 0.000170 0.290323
0.000270 0.000108 0.327189
0.000345 0.000046 0.364055
0.000236 0.000054 0.118226
0.000189 0.000101 0.155106
0.000141 0.000149 0.191986
0.000094 0.000196 0.228867
0.000069 0.000230 0.265745
0.000207 0.000169 0.302611
0.000345 0.000107 0.339478
0.000483 0.000046 0.376344
0.000173 0.000244 0.036354
0.000218 0.000181 0.073221
0.000263 0.000118 0.110087
0.000307 0.000055 0.146953
0.000358 0.000016 0.183820
0.000447 0.000142 0.220686
0.000537 0.000268 0.257552
0.000626 0.000394 0.294419
0.000173 0.000244 0.048580
0.000206 0.000197 0.085463
0.000240 0.000151 0.122345
0.000273 0.000104 0.159228
0.000309 0.000073 0.196109
0.000369 0.000150 0.232975
0.000428 0.000227 0.269841
0.000488 0.000304 0.306708
0.000173 0.000244 0.060806
0.000195 0.000214 0.097705
0.000217 0.000183 0.134604
0.000238 0.000153 0.171503
0.000261 0.000130 0.208397
0.000291 0.000158 0.245264
0.000320 0.000187 0.282130
0.000350 0.000215 0.318996
0.000173 0.000244 0.073032
0.000183 0.000230 0.109947
0.000194 0.000216 0.146862
0.000204 0.000202 0.183777
0.000212 0.000187 0.220686
0.000212 0.000166 0.257552
0.000212 0.000146 0.294419
0.000212 0.000126 0.331285
0.000173 0.000239 0.085271
0.000172 0.000239 0.122199
0.000172 0.000240 0.159127
0.000171 0.000241 0.196055
0.000167 0.000234 0.232975
0.000147 0.000172 0.269841
0.000126 0.000109 0.306708
0.000105 0.000047 0.343574
0.000173 0.000194 0.097604
0.000166 0.000202 0.134521
0.000158 0.000209 0.171437
0.000150 0.000217 0.208354
0.000147 0.000216 0.245264
0.000172 0.000159 0.282130
0.000198 0.000101 0.318996
0.000223 0.000043 0.355863
0.000173 0.000149 0.109938
0.000159 0.000164 0.146843
0.000144 0.000178 0.183748
0.000130 0.000193 0.220652
0.000126 0.000199 0.257552
0.000198 0.000146 0.294419
0.000269 0.000093 0.331285
0.000341 0.000040 0.368152
0.000173 0.000104 0.122271
0.000152 0.000126 0.159165
0.000131 0.000147 0.196058
0.000109 0.000168 0.232951
0.000105 0.000181 0.269841
0.000223 0.000133 0.306708
0.000341 0.000084 0.343574
0.000459 0.000036 0.380440
0.000110 0.000244 0.040451
0.000139 0.000181 0.077317
0.000167 0.000118 0.114183
0.000196 0.000055 0.151050
0.000228 0.000016 0.187916
0.000285 0.000142 0.224782
0.000342 0.000268 0.261649
0.000398 0.000394 0.298515
0.000110 0.000244 0.052676
0.000131 0.000197 0.089559
0.000153 0.000151 0.126442
0.000174 0.000104 0.163324
0.000198 0.000073 0.200205
0.000241 0.000150 0.237071
0.000285 0.000227 0.273938
0.000329 0.000304 0.310804
0.000110 0.000244 0.064902
0.000124 0.000214 0.101801
0.000138 0.000183 0.138700
0.000152 0.000153 0.175599
0.000167 0.000130 0.212494
0.000198 0.000158 0.249360
0.000229 0.000187 0.286226
0.000260 0.000215 0.323093
0.000110 0.000244 0.077128
0.000117 0.000230 0.114043
0.000123 0.000216 0.150958
0.000130 0.000202 0.187873
0.000137 0.000187 0.224782
0.000155 0.000166 0.261649
0.000173 0.000146 0.298515
0.000190 0.000126 0.335381
0.000110 0.000241 0.089365
0.000110 0.000240 0.126294
0.000111 0.000240 0.163222
0.000111 0.000240 0.200150
0.000112 0.000232 0.237071
0.000122 0.000170 0.273938
0.000132 0.000108 0.310804
0.000142 0.000046 0.347670
0.000110 0.000212 0.101682
0.000112 0.000210 0.138603
0.000114 0.000209 0.175525
0.000116 0.000207 0.212446
0.000122 0.000199 0.249360
0.000161 0.000146 0.286226
0.000200 0.000093 0.323093
0.000239 0.000040 0.359959
0.000110 0.000184 0.114000
0.000114 0.000180 0.150913
0.000117 0.000177 0.187827
0.000120 0.000174 0.224741
0.000132 0.000165 0.261649
0.000200 0.000121 0.298515
0.000269 0.000077 0.335381
0.000337 0.000033 0.372248
0.000110 0.000155 0.126317
0.000115 0.000150 0.163223
0.000120 0.000145 0.200130
0.000125 0.000141 0.237036
0.000142 0.000132 0.273938
0.000239 0.000097 0.310804
0.000337 0.000062 0.347670
0.000435 0.000026 0.384537
0.000047 0.000244 0.044547
0.000059 0.000181 0.081413
0.000072 0.000118 0.118280
0.000084 0.000055 0.155146
0.000098 0.000016 0.192012
0.000122 0.000142 0.228879
0.000146 0.000268 0.265745
0.000171 0.000394 0.302611
0.000047 0.000244 0.056773
0.000056 0.000197 0.093655
0.000065 0.000151 0.130538
0.000074 0.000104 0.167420
0.000086 0.000073 0.204301
0.000114 0.000150 0.241167
0.000142 0.000227 0.278034
0.000170 0.000304 0.314900
0.000047 0.000244 0.068998
0.000053 0.000214 0.105897
0.000059 0.000183 0.142796
0.000065 0.000153 0.179695
0.000074 0.000130 0.216590
0.000106 0.000158 0.253456
0.000138 0.000187 0.290323
0.000169 0.000215 0.327189
0.000047 0.000244 0.081224
0.000050 0.000230 0.118139
0.000053 0.000216 0.155054
0.000056 0.000202 0.191970
0.000062 0.000187 0.228879
0.000098 0.000166 0.265745
0.000133 0.000146 0.302611
0.000169 0.000126 0.339478
0.000047 0.000243 0.093459
0.000049 0.000241 0.130388
0.000050 0.000240 0.167317
0.000051 0.000239 0.204246
0.000057 0.000230 0.241167
0.000097 0.000169 0.278034
0.000138 0.000107 0.314900
0.000178 0.000046 0.351767
0.000047 0.000230 0.105760
0.000058 0.000219 0.142686
0.000070 0.000208 0.179612
0.000081 0.000197 0.216538
0.000097 0.000181 0.253456
0.000150 0.000133 0.290323
0.000203 0.000084 0.327189
0.000256 0.000036 0.364055
0.000047 0.000218 0.118061
0.000068 0.000197 0.154984
0.000090 0.000176 0.191907
0.000111 0.000155 0.228829
0.000138 0.000132 0.265745
0.000203 0.000097 0.302611
0.000268 0.000062 0.339478
0.000334 0.000026 0.376344
0.000047 0.000206 0.130362
0.000078 0.000175 0.167282
0.000110 0.000144 0.204201
0.000141 0.000113 0.241121
0.000178 0.000083 0.278034
0.000256 0.000061 0.314900
0.000334 0.000039 0.351767
0.000412 0.000017 0.388633
