gsg/01_Basics/GSG_LUT_Basic_GreenBoost.cube
# GSG LUTs 1.0
# Copyright (c) 2016-2020 Greyscalegorilla
# See EULA for licensing and distribution information
# Converted by Briz LUT Converter
LUT_3D_SIZE 32
0.000244 0.000000 0.016117
0.000228 0.000000 0.025318
0.000213 0.000000 0.034519
0.000197 0.000000 0.043720
0.000181 0.000000 0.052921
0.000165 0.000000 0.062121
0.000150 0.000000 0.071322
0.000134 0.000000 0.080523
0.000118 0.000000 0.089724
0.000102 0.000000 0.098925
0.000087 0.000000 0.108126
0.000071 0.000000 0.117326
0.000055 0.000000 0.126527
0.000039 0.000000 0.135728
0.000024 0.000000 0.144929
0.000008 0.000000 0.154130
0.000016 0.000008 0.163338
0.000047 0.000024 0.172555
0.000079 0.000039 0.181772
0.000110 0.000055 0.190988
0.000142 0.000071 0.200205
0.000173 0.000087 0.209421
0.000205 0.000102 0.218638
0.000236 0.000118 0.227855
0.000268 0.000134 0.237071
0.000299 0.000150 0.246288
0.000331 0.000165 0.255504
0.000362 0.000181 0.264721
0.000394 0.000197 0.273938
0.000425 0.000213 0.283154
0.000457 0.000228 0.292371
0.000488 0.000244 0.301587
0.000260 0.000000 0.019174
0.000243 0.000001 0.028376
0.000226 0.000002 0.037577
0.000210 0.000003 0.046779
0.000193 0.000004 0.055981
0.000176 0.000005 0.065183
0.000159 0.000006 0.074385
0.000143 0.000007 0.083587
0.000126 0.000008 0.092788
0.000109 0.000009 0.101990
0.000092 0.000010 0.111192
0.000075 0.000011 0.120394
0.000059 0.000012 0.129596
0.000042 0.000013 0.138798
0.000025 0.000014 0.148000
0.000008 0.000015 0.157201
0.000015 0.000023 0.166411
0.000046 0.000036 0.175627
0.000076 0.000050 0.184844
0.000107 0.000064 0.194060
0.000137 0.000078 0.203277
0.000168 0.000091 0.212494
0.000198 0.000105 0.221710
0.000229 0.000119 0.230927
0.000259 0.000132 0.240143
0.000290 0.000146 0.249360
0.000320 0.000160 0.258577
0.000351 0.000174 0.267793
0.000381 0.000187 0.277010
0.000412 0.000201 0.286226
0.000442 0.000215 0.295443
0.000473 0.000228 0.304659
0.000276 0.000000 0.022230
0.000258 0.000002 0.031433
0.000240 0.000004 0.040636
0.000222 0.000006 0.049839
0.000205 0.000008 0.059042
0.000187 0.000010 0.068244
0.000169 0.000012 0.077447
0.000151 0.000014 0.086650
0.000133 0.000016 0.095853
0.000116 0.000018 0.105056
0.000098 0.000020 0.114259
0.000080 0.000022 0.123462
0.000062 0.000024 0.132665
0.000044 0.000026 0.141867
0.000027 0.000028 0.151070
0.000009 0.000030 0.160273
0.000015 0.000037 0.169483
0.000044 0.000049 0.178699
0.000074 0.000061 0.187916
0.000103 0.000072 0.197133
0.000133 0.000084 0.206349
0.000162 0.000096 0.215566
0.000192 0.000107 0.224782
0.000221 0.000119 0.233999
0.000251 0.000131 0.243216
0.000280 0.000143 0.252432
0.000310 0.000154 0.261649
0.000339 0.000166 0.270865
0.000368 0.000178 0.280082
0.000398 0.000189 0.289299
0.000427 0.000201 0.298515
0.000457 0.000213 0.307732
0.000291 0.000000 0.025287
0.000273 0.000003 0.034490
0.000254 0.000006 0.043694
0.000235 0.000009 0.052898
0.000216 0.000012 0.062102
0.000197 0.000015 0.071306
0.000179 0.000018 0.080510
0.000160 0.000021 0.089714
0.000141 0.000024 0.098918
0.000122 0.000027 0.108122
0.000103 0.000030 0.117325
0.000085 0.000034 0.126529
0.000066 0.000037 0.135733
0.000047 0.000040 0.144937
0.000028 0.000043 0.154141
0.000009 0.000046 0.163345
0.000014 0.000052 0.172555
0.000043 0.000062 0.181772
0.000071 0.000071 0.190988
0.000100 0.000081 0.200205
0.000128 0.000091 0.209421
0.000157 0.000100 0.218638
0.000185 0.000110 0.227855
0.000213 0.000120 0.237071
0.000242 0.000129 0.246288
0.000270 0.000139 0.255504
0.000299 0.000149 0.264721
0.000327 0.000158 0.273938
0.000356 0.000168 0.283154
0.000384 0.000178 0.292371
0.000413 0.000187 0.301587
0.000441 0.000197 0.310804
0.000307 0.000000 0.028343
0.000287 0.000004 0.037548
0.000268 0.000008 0.046753
0.000248 0.000012 0.055958
0.000228 0.000016 0.065163
0.000208 0.000020 0.074367
0.000188 0.000024 0.083572
0.000168 0.000028 0.092777
0.000149 0.000033 0.101982
0.000129 0.000037 0.111187
0.000109 0.000041 0.120392
0.000089 0.000045 0.129597
0.000069 0.000049 0.138802
0.000050 0.000053 0.148007
0.000030 0.000057 0.157212
0.000010 0.000061 0.166416
0.000014 0.000067 0.175627
0.000041 0.000074 0.184844
0.000069 0.000082 0.194060
0.000096 0.000090 0.203277
0.000123 0.000097 0.212494
0.000151 0.000105 0.221710
0.000178 0.000113 0.230927
0.000206 0.000120 0.240143
0.000233 0.000128 0.249360
0.000261 0.000135 0.258577
0.000288 0.000143 0.267793
0.000316 0.000151 0.277010
0.000343 0.000158 0.286226
0.000370 0.000166 0.295443
0.000398 0.000174 0.304659
0.000425 0.000181 0.313876
0.000323 0.000000 0.031399
0.000302 0.000005 0.040605
0.000281 0.000010 0.049811
0.000260 0.000015 0.059017
0.000240 0.000020 0.068223
0.000219 0.000025 0.077429
0.000198 0.000030 0.086635
0.000177 0.000036 0.095841
0.000156 0.000041 0.105047
0.000135 0.000046 0.114253
0.000115 0.000051 0.123459
0.000094 0.000056 0.132665
0.000073 0.000061 0.141870
0.000052 0.000066 0.151076
0.000031 0.000071 0.160282
0.000010 0.000076 0.169488
0.000013 0.000082 0.178699
0.000040 0.000087 0.187916
0.000066 0.000093 0.197133
0.000092 0.000098 0.206349
0.000119 0.000104 0.215566
0.000145 0.000110 0.224782
0.000172 0.000115 0.233999
0.000198 0.000121 0.243216
0.000225 0.000126 0.252432
0.000251 0.000132 0.261649
0.000277 0.000137 0.270865
0.000304 0.000143 0.280082
0.000330 0.000149 0.289299
0.000357 0.000154 0.298515
0.000383 0.000160 0.307732
0.000410 0.000165 0.316948
0.000339 0.000000 0.034456
0.000317 0.000006 0.043663
0.000295 0.000012 0.052870
0.000273 0.000018 0.062077
0.000251 0.000024 0.071284
0.000229 0.000030 0.080491
0.000208 0.000037 0.089697
0.000186 0.000043 0.098904
0.000164 0.000049 0.108111
0.000142 0.000055 0.117318
0.000120 0.000061 0.126525
0.000098 0.000067 0.135732
0.000076 0.000073 0.144939
0.000055 0.000079 0.154146
0.000033 0.000085 0.163353
0.000011 0.000091 0.172560
0.000013 0.000096 0.181772
0.000038 0.000100 0.190988
0.000064 0.000103 0.200205
0.000089 0.000107 0.209421
0.000114 0.000111 0.218638
0.000140 0.000114 0.227855
0.000165 0.000118 0.237071
0.000191 0.000121 0.246288
0.000216 0.000125 0.255504
0.000241 0.000128 0.264721
0.000267 0.000132 0.273938
0.000292 0.000135 0.283154
0.000318 0.000139 0.292371
0.000343 0.000143 0.301587
0.000368 0.000146 0.310804
0.000394 0.000150 0.320020
0.000354 0.000000 0.037512
0.000332 0.000007 0.046720
0.000309 0.000014 0.055928
0.000286 0.000021 0.065136
0.000263 0.000028 0.074344
0.000240 0.000036 0.083552
0.000217 0.000043 0.092760
0.000194 0.000050 0.101968
0.000172 0.000057 0.111176
0.000149 0.000064 0.120384
0.000126 0.000071 0.129592
0.000103 0.000078 0.138800
0.000080 0.000085 0.148008
0.000057 0.000092 0.157216
0.000034 0.000100 0.166424
0.000011 0.000107 0.175632
0.000012 0.000111 0.184844
0.000037 0.000113 0.194060
0.000061 0.000114 0.203277
0.000085 0.000116 0.212494
0.000110 0.000117 0.221710
0.000134 0.000119 0.230927
0.000159 0.000120 0.240143
0.000183 0.000122 0.249360
0.000207 0.000123 0.258577
0.000232 0.000125 0.267793
0.000256 0.000126 0.277010
0.000281 0.000128 0.286226
0.000305 0.000129 0.295443
0.000329 0.000131 0.304659
0.000354 0.000132 0.313876
0.000378 0.000134 0.323093
0.000370 0.000000 0.040569
0.000346 0.000008 0.049778
0.000322 0.000016 0.058987
0.000299 0.000024 0.068196
0.000275 0.000033 0.077405
0.000251 0.000041 0.086614
0.000227 0.000049 0.095823
0.000203 0.000057 0.105032
0.000179 0.000065 0.114240
0.000155 0.000073 0.123449
0.000131 0.000081 0.132658
0.000107 0.000089 0.141867
0.000084 0.000098 0.151076
0.000060 0.000106 0.160285
0.000036 0.000114 0.169494
0.000012 0.000122 0.178703
0.000012 0.000126 0.187916
0.000035 0.000125 0.197133
0.000058 0.000125 0.206349
0.000082 0.000124 0.215566
0.000105 0.000124 0.224782
0.000129 0.000123 0.233999
0.000152 0.000123 0.243216
0.000175 0.000122 0.252432
0.000199 0.000122 0.261649
0.000222 0.000121 0.270865
0.000245 0.000121 0.280082
0.000269 0.000120 0.289299
0.000292 0.000120 0.298515
0.000316 0.000119 0.307732
0.000339 0.000119 0.316948
0.000362 0.000118 0.326165
0.000386 0.000000 0.043625
0.000361 0.000009 0.052835
0.000336 0.000018 0.062045
0.000311 0.000027 0.071255
0.000286 0.000037 0.080465
0.000261 0.000046 0.089675
0.000237 0.000055 0.098885
0.000212 0.000064 0.108095
0.000187 0.000073 0.117305
0.000162 0.000082 0.126515
0.000137 0.000091 0.135725
0.000112 0.000101 0.144935
0.000087 0.000110 0.154145
0.000062 0.000119 0.163355
0.000037 0.000128 0.172565
0.000012 0.000137 0.181775
0.000011 0.000141 0.190988
0.000034 0.000138 0.200205
0.000056 0.000135 0.209421
0.000078 0.000133 0.218638
0.000101 0.000130 0.227855
0.000123 0.000128 0.237071
0.000145 0.000125 0.246288
0.000168 0.000123 0.255504
0.000190 0.000120 0.264721
0.000212 0.000118 0.273938
0.000235 0.000115 0.283154
0.000257 0.000113 0.292371
0.000280 0.000110 0.301587
0.000302 0.000107 0.310804
0.000324 0.000105 0.320020
0.000347 0.000102 0.329237
0.000402 0.000000 0.046682
0.000376 0.000010 0.055893
0.000350 0.000020 0.065104
0.000324 0.000030 0.074315
0.000298 0.000041 0.083526
0.000272 0.000051 0.092737
0.000246 0.000061 0.101948
0.000220 0.000071 0.111159
0.000194 0.000081 0.120370
0.000168 0.000091 0.129581
0.000143 0.000102 0.138792
0.000117 0.000112 0.148003
0.000091 0.000122 0.157214
0.000065 0.000132 0.166425
0.000039 0.000142 0.175636
0.000013 0.000152 0.184847
0.000011 0.000155 0.194060
0.000032 0.000151 0.203277
0.000053 0.000146 0.212494
0.000075 0.000142 0.221710
0.000096 0.000137 0.230927
0.000117 0.000132 0.240143
0.000139 0.000128 0.249360
0.000160 0.000123 0.258577
0.000181 0.000119 0.267793
0.000203 0.000114 0.277010
0.000224 0.000110 0.286226
0.000245 0.000105 0.295443
0.000267 0.000100 0.304659
0.000288 0.000096 0.313876
0.000310 0.000091 0.323093
0.000331 0.000087 0.332309
0.000418 0.000000 0.049738
0.000391 0.000011 0.058950
0.000364 0.000022 0.068162
0.000337 0.000034 0.077374
0.000310 0.000045 0.086586
0.000283 0.000056 0.095798
0.000256 0.000067 0.105010
0.000229 0.000078 0.114222
0.000202 0.000089 0.123434
0.000175 0.000101 0.132646
0.000148 0.000112 0.141858
0.000121 0.000123 0.151070
0.000094 0.000134 0.160282
0.000067 0.000145 0.169494
0.000040 0.000157 0.178706
0.000013 0.000168 0.187918
0.000010 0.000170 0.197133
0.000030 0.000163 0.206349
0.000051 0.000157 0.215566
0.000071 0.000150 0.224782
0.000091 0.000144 0.233999
0.000112 0.000137 0.243216
0.000132 0.000130 0.252432
0.000152 0.000124 0.261649
0.000173 0.000117 0.270865
0.000193 0.000111 0.280082
0.000213 0.000104 0.289299
0.000234 0.000097 0.298515
0.000254 0.000091 0.307732
0.000274 0.000084 0.316948
0.000295 0.000078 0.326165
0.000315 0.000071 0.335381
0.000433 0.000000 0.052795
0.000405 0.000012 0.062008
0.000377 0.000024 0.071221
0.000349 0.000037 0.080434
0.000321 0.000049 0.089647
0.000293 0.000061 0.098860
0.000266 0.000073 0.108073
0.000238 0.000085 0.117286
0.000210 0.000098 0.126499
0.000182 0.000110 0.135712
0.000154 0.000122 0.144925
0.000126 0.000134 0.154138
0.000098 0.000146 0.163351
0.000070 0.000159 0.172564
0.000042 0.000171 0.181777
0.000014 0.000183 0.190990
0.000010 0.000185 0.200205
0.000029 0.000176 0.209421
0.000048 0.000167 0.218638
0.000068 0.000159 0.227855
0.000087 0.000150 0.237071
0.000106 0.000142 0.246288
0.000126 0.000133 0.255504
0.000145 0.000124 0.264721
0.000164 0.000116 0.273938
0.000183 0.000107 0.283154
0.000203 0.000098 0.292371
0.000222 0.000090 0.301587
0.000241 0.000081 0.310804
0.000261 0.000072 0.320020
0.000280 0.000064 0.329237
0.000299 0.000055 0.338454
0.000449 0.000000 0.055851
0.000420 0.000013 0.065065
0.000391 0.000026 0.074279
0.000362 0.000040 0.083493
0.000333 0.000053 0.092707
0.000304 0.000066 0.101921
0.000275 0.000079 0.111135
0.000246 0.000092 0.120349
0.000217 0.000106 0.129563
0.000188 0.000119 0.138777
0.000159 0.000132 0.147991
0.000130 0.000145 0.157205
0.000101 0.000159 0.166420
0.000072 0.000172 0.175634
0.000043 0.000185 0.184848
0.000014 0.000198 0.194062
0.000009 0.000199 0.203277
0.000027 0.000189 0.212494
0.000046 0.000178 0.221710
0.000064 0.000167 0.230927
0.000082 0.000157 0.240143
0.000101 0.000146 0.249360
0.000119 0.000135 0.258577
0.000137 0.000125 0.267793
0.000156 0.000114 0.277010
0.000174 0.000103 0.286226
0.000192 0.000093 0.295443
0.000210 0.000082 0.304659
0.000229 0.000071 0.313876
0.000247 0.000061 0.323093
0.000265 0.000050 0.332309
0.000284 0.000039 0.341526
0.000465 0.000000 0.058907
0.000435 0.000014 0.068122
0.000405 0.000028 0.077338
0.000375 0.000043 0.086553
0.000345 0.000057 0.095768
0.000315 0.000071 0.104983
0.000285 0.000085 0.114198
0.000255 0.000100 0.123413
0.000225 0.000114 0.132628
0.000195 0.000128 0.141843
0.000165 0.000142 0.151058
0.000135 0.000157 0.160273
0.000105 0.000171 0.169488
0.000075 0.000185 0.178703
0.000045 0.000199 0.187918
0.000015 0.000213 0.197133
0.000009 0.000214 0.206349
0.000026 0.000202 0.215566
0.000043 0.000189 0.224782
0.000060 0.000176 0.233999
0.000078 0.000163 0.243216
0.000095 0.000151 0.252432
0.000112 0.000138 0.261649
0.000130 0.000125 0.270865
0.000147 0.000113 0.280082
0.000164 0.000100 0.289299
0.000181 0.000087 0.298515
0.000199 0.000074 0.307732
0.000216 0.000062 0.316948
0.000233 0.000049 0.326165
0.000251 0.000036 0.335381
0.000268 0.000024 0.344598
0.000481 0.000000 0.061964
0.000450 0.000015 0.071180
0.000419 0.000030 0.080396
0.000388 0.000046 0.089612
0.000357 0.000061 0.098828
0.000326 0.000076 0.108044
0.000295 0.000091 0.117260
0.000264 0.000107 0.126476
0.000233 0.000122 0.135692
0.000202 0.000137 0.144909
0.000171 0.000152 0.154125
0.000140 0.000168 0.163341
0.000109 0.000183 0.172557
0.000078 0.000198 0.181773
0.000047 0.000213 0.190989
0.000016 0.000229 0.200205
0.000008 0.000229 0.209421
0.000024 0.000214 0.218638
0.000041 0.000199 0.227855
0.000057 0.000185 0.237071
0.000073 0.000170 0.246288
0.000089 0.000155 0.255504
0.000106 0.000141 0.264721
0.000122 0.000126 0.273938
0.000138 0.000111 0.283154
0.000154 0.000096 0.292371
0.000171 0.000082 0.301587
0.000187 0.000067 0.310804
0.000203 0.000052 0.320020
0.000220 0.000037 0.329237
0.000236 0.000023 0.338454
0.000252 0.000008 0.347670
0.000481 0.000000 0.065028
0.000450 0.000015 0.074245
0.000420 0.000030 0.083461
0.000389 0.000046 0.092678
0.000359 0.000061 0.101895
0.000328 0.000076 0.111111
0.000298 0.000091 0.120328
0.000267 0.000107 0.129544
0.000237 0.000122 0.138761
0.000206 0.000137 0.147977
0.000176 0.000152 0.157194
0.000145 0.000168 0.166411
0.000115 0.000183 0.175627
0.000084 0.000198 0.184844
0.000054 0.000213 0.194060
0.000023 0.000229 0.203277
0.000015 0.000229 0.212494
0.000030 0.000214 0.221710
0.000045 0.000199 0.230927
0.000059 0.000185 0.240143
0.000074 0.000170 0.249360
0.000089 0.000155 0.258577
0.000104 0.000141 0.267793
0.000118 0.000126 0.277010
0.000133 0.000111 0.286226
0.000148 0.000096 0.295443
0.000163 0.000082 0.304659
0.000177 0.000067 0.313876
0.000192 0.000052 0.323093
0.000207 0.000037 0.332309
0.000222 0.000023 0.341526
0.000236 0.000008 0.350742
0.000465 0.000000 0.068100
0.000436 0.000014 0.077317
0.000408 0.000028 0.086534
0.000379 0.000043 0.095750
0.000351 0.000057 0.104967
0.000322 0.000071 0.114183
0.000294 0.000085 0.123400
0.000266 0.000100 0.132616
0.000237 0.000114 0.141833
0.000209 0.000128 0.151050
0.000180 0.000142 0.160266
0.000152 0.000157 0.169483
0.000123 0.000171 0.178699
0.000095 0.000185 0.187916
0.000066 0.000199 0.197133
0.000038 0.000213 0.206349
0.000030 0.000214 0.215566
0.000043 0.000202 0.224782
0.000055 0.000189 0.233999
0.000068 0.000176 0.243216
0.000081 0.000163 0.252432
0.000094 0.000151 0.261649
0.000106 0.000138 0.270865
0.000119 0.000125 0.280082
0.000132 0.000113 0.289299
0.000144 0.000100 0.298515
0.000157 0.000087 0.307732
0.000170 0.000074 0.316948
0.000182 0.000062 0.326165
0.000195 0.000049 0.335381
0.000208 0.000036 0.344598
0.000221 0.000024 0.353815
0.000449 0.000000 0.071173
0.000423 0.000013 0.080389
0.000396 0.000026 0.089606
0.000370 0.000040 0.098822
0.000343 0.000053 0.108039
0.000317 0.000066 0.117256
0.000290 0.000079 0.126472
0.000264 0.000092 0.135689
0.000238 0.000106 0.144905
0.000211 0.000119 0.154122
0.000185 0.000132 0.163338
0.000158 0.000145 0.172555
0.000132 0.000159 0.181772
0.000105 0.000172 0.190988
0.000079 0.000185 0.200205
0.000053 0.000198 0.209421
0.000045 0.000199 0.218638
0.000055 0.000189 0.227855
0.000066 0.000178 0.237071
0.000077 0.000167 0.246288
0.000087 0.000157 0.255504
0.000098 0.000146 0.264721
0.000109 0.000135 0.273938
0.000119 0.000125 0.283154
0.000130 0.000114 0.292371
0.000141 0.000103 0.301587
0.000151 0.000093 0.310804
0.000162 0.000082 0.320020
0.000173 0.000071 0.329237
0.000183 0.000061 0.338454
0.000194 0.000050 0.347670
0.000205 0.000039 0.356887
0.000433 0.000000 0.074245
0.000409 0.000012 0.083461
0.000384 0.000024 0.092678
0.000360 0.000037 0.101895
0.000336 0.000049 0.111111
0.000311 0.000061 0.120328
0.000287 0.000073 0.129544
0.000262 0.000085 0.138761
0.000238 0.000098 0.147977
0.000214 0.000110 0.157194
0.000189 0.000122 0.166411
0.000165 0.000134 0.175627
0.000141 0.000146 0.184844
0.000116 0.000159 0.194060
0.000092 0.000171 0.203277
0.000067 0.000183 0.212494
0.000059 0.000185 0.221710
0.000068 0.000176 0.230927
0.000077 0.000167 0.240143
0.000085 0.000159 0.249360
0.000094 0.000150 0.258577
0.000103 0.000142 0.267793
0.000111 0.000133 0.277010
0.000120 0.000124 0.286226
0.000129 0.000116 0.295443
0.000137 0.000107 0.304659
0.000146 0.000098 0.313876
0.000154 0.000090 0.323093
0.000163 0.000081 0.332309
0.000172 0.000072 0.341526
0.000180 0.000064 0.350742
0.000189 0.000055 0.359959
0.000418 0.000000 0.077317
0.000395 0.000011 0.086534
0.000373 0.000022 0.095750
0.000350 0.000034 0.104967
0.000328 0.000045 0.114183
0.000306 0.000056 0.123400
0.000283 0.000067 0.132616
0.000261 0.000078 0.141833
0.000239 0.000089 0.151050
0.000216 0.000101 0.160266
0.000194 0.000112 0.169483
0.000172 0.000123 0.178699
0.000149 0.000134 0.187916
0.000127 0.000145 0.197133
0.000104 0.000157 0.206349
0.000082 0.000168 0.215566
0.000074 0.000170 0.224782
0.000081 0.000163 0.233999
0.000087 0.000157 0.243216
0.000094 0.000150 0.252432
0.000101 0.000144 0.261649
0.000107 0.000137 0.270865
0.000114 0.000130 0.280082
0.000120 0.000124 0.289299
0.000127 0.000117 0.298515
0.000134 0.000111 0.307732
0.000140 0.000104 0.316948
0.000147 0.000097 0.326165
0.000153 0.000091 0.335381
0.000160 0.000084 0.344598
0.000167 0.000078 0.353815
0.000173 0.000071 0.363031
0.000402 0.000000 0.080389
0.000381 0.000010 0.089606
0.000361 0.000020 0.098822
0.000341 0.000030 0.108039
0.000320 0.000041 0.117256
0.000300 0.000051 0.126472
0.000280 0.000061 0.135689
0.000259 0.000071 0.144905
0.000239 0.000081 0.154122
0.000219 0.000091 0.163338
0.000198 0.000102 0.172555
0.000178 0.000112 0.181772
0.000158 0.000122 0.190988
0.000137 0.000132 0.200205
0.000117 0.000142 0.209421
0.000097 0.000152 0.218638
0.000089 0.000155 0.227855
0.000094 0.000151 0.237071
0.000098 0.000146 0.246288
0.000103 0.000142 0.255504
0.000107 0.000137 0.264721
0.000112 0.000132 0.273938
0.000116 0.000128 0.283154
0.000121 0.000123 0.292371
0.000126 0.000119 0.301587
0.000130 0.000114 0.310804
0.000135 0.000110 0.320020
0.000139 0.000105 0.329237
0.000144 0.000100 0.338454
0.000148 0.000096 0.347670
0.000153 0.000091 0.356887
0.000158 0.000087 0.366103
0.000386 0.000000 0.083461
0.000368 0.000009 0.092678
0.000349 0.000018 0.101895
0.000331 0.000027 0.111111
0.000313 0.000037 0.120328
0.000295 0.000046 0.129544
0.000276 0.000055 0.138761
0.000258 0.000064 0.147977
0.000240 0.000073 0.157194
0.000221 0.000082 0.166411
0.000203 0.000091 0.175627
0.000185 0.000101 0.184844
0.000166 0.000110 0.194060
0.000148 0.000119 0.203277
0.000130 0.000128 0.212494
0.000112 0.000137 0.221710
0.000104 0.000141 0.230927
0.000106 0.000138 0.240143
0.000109 0.000135 0.249360
0.000111 0.000133 0.258577
0.000114 0.000130 0.267793
0.000116 0.000128 0.277010
0.000119 0.000125 0.286226
0.000121 0.000123 0.295443
0.000124 0.000120 0.304659
0.000127 0.000118 0.313876
0.000129 0.000115 0.323093
0.000132 0.000113 0.332309
0.000134 0.000110 0.341526
0.000137 0.000107 0.350742
0.000139 0.000105 0.359959
0.000142 0.000102 0.369176
0.000370 0.000000 0.086534
0.000354 0.000008 0.095750
0.000338 0.000016 0.104967
0.000321 0.000024 0.114183
0.000305 0.000033 0.123400
0.000289 0.000041 0.132616
0.000273 0.000049 0.141833
0.000256 0.000057 0.151050
0.000240 0.000065 0.160266
0.000224 0.000073 0.169483
0.000208 0.000081 0.178699
0.000191 0.000089 0.187916
0.000175 0.000098 0.197133
0.000159 0.000106 0.206349
0.000143 0.000114 0.215566
0.000126 0.000122 0.224782
0.000118 0.000126 0.233999
0.000119 0.000125 0.243216
0.000119 0.000125 0.252432
0.000120 0.000124 0.261649
0.000120 0.000124 0.270865
0.000121 0.000123 0.280082
0.000121 0.000123 0.289299
0.000122 0.000122 0.298515
0.000122 0.000122 0.307732
0.000123 0.000121 0.316948
0.000123 0.000121 0.326165
0.000124 0.000120 0.335381
0.000125 0.000120 0.344598
0.000125 0.000119 0.353815
0.000126 0.000119 0.363031
0.000126 0.000118 0.372248
0.000354 0.000000 0.089606
0.000340 0.000007 0.098822
0.000326 0.000014 0.108039
0.000312 0.000021 0.117256
0.000298 0.000028 0.126472
0.000283 0.000036 0.135689
0.000269 0.000043 0.144905
0.000255 0.000050 0.154122
0.000241 0.000057 0.163338
0.000226 0.000064 0.172555
0.000212 0.000071 0.181772
0.000198 0.000078 0.190988
0.000184 0.000085 0.200205
0.000169 0.000092 0.209421
0.000155 0.000100 0.218638
0.000141 0.000107 0.227855
0.000133 0.000111 0.237071
0.000132 0.000113 0.246288
0.000130 0.000114 0.255504
0.000129 0.000116 0.264721
0.000127 0.000117 0.273938
0.000126 0.000119 0.283154
0.000124 0.000120 0.292371
0.000122 0.000122 0.301587
0.000121 0.000123 0.310804
0.000119 0.000125 0.320020
0.000118 0.000126 0.329237
0.000116 0.000128 0.338454
0.000115 0.000129 0.347670
0.000113 0.000131 0.356887
0.000112 0.000132 0.366103
0.000110 0.000134 0.375320
0.000339 0.000000 0.092678
0.000327 0.000006 0.101895
0.000314 0.000012 0.111111
0.000302 0.000018 0.120328
0.000290 0.000024 0.129544
0.000278 0.000030 0.138761
0.000266 0.000037 0.147977
0.000253 0.000043 0.157194
0.000241 0.000049 0.166411
0.000229 0.000055 0.175627
0.000217 0.000061 0.184844
0.000205 0.000067 0.194060
0.000192 0.000073 0.203277
0.000180 0.000079 0.212494
0.000168 0.000085 0.221710
0.000156 0.000091 0.230927
0.000148 0.000096 0.240143
0.000144 0.000100 0.249360
0.000141 0.000103 0.258577
0.000137 0.000107 0.267793
0.000134 0.000111 0.277010
0.000130 0.000114 0.286226
0.000127 0.000118 0.295443
0.000123 0.000121 0.304659
0.000119 0.000125 0.313876
0.000116 0.000128 0.323093
0.000112 0.000132 0.332309
0.000109 0.000135 0.341526
0.000105 0.000139 0.350742
0.000102 0.000143 0.359959
0.000098 0.000146 0.369176
0.000095 0.000150 0.378392
0.000323 0.000000 0.095750
0.000313 0.000005 0.104967
0.000303 0.000010 0.114183
0.000292 0.000015 0.123400
0.000282 0.000020 0.132616
0.000272 0.000025 0.141833
0.000262 0.000030 0.151050
0.000252 0.000036 0.160266
0.000242 0.000041 0.169483
0.000231 0.000046 0.178699
0.000221 0.000051 0.187916
0.000211 0.000056 0.197133
0.000201 0.000061 0.206349
0.000191 0.000066 0.215566
0.000181 0.000071 0.224782
0.000171 0.000076 0.233999
0.000163 0.000082 0.243216
0.000157 0.000087 0.252432
0.000151 0.000093 0.261649
0.000146 0.000098 0.270865
0.000140 0.000104 0.280082
0.000135 0.000110 0.289299
0.000129 0.000115 0.298515
0.000123 0.000121 0.307732
0.000118 0.000126 0.316948
0.000112 0.000132 0.326165
0.000107 0.000137 0.335381
0.000101 0.000143 0.344598
0.000096 0.000149 0.353815
0.000090 0.000154 0.363031
0.000084 0.000160 0.372248
0.000079 0.000165 0.381464
0.000307 0.000000 0.098822
0.000299 0.000004 0.108039
0.000291 0.000008 0.117256
0.000283 0.000012 0.126472
0.000275 0.000016 0.135689
0.000267 0.000020 0.144905
0.000258 0.000024 0.154122
0.000250 0.000028 0.163338
0.000242 0.000033 0.172555
0.000234 0.000037 0.181772
0.000226 0.000041 0.190988
0.000218 0.000045 0.200205
0.000210 0.000049 0.209421
0.000202 0.000053 0.218638
0.000193 0.000057 0.227855
0.000185 0.000061 0.237071
0.000177 0.000067 0.246288
0.000170 0.000074 0.255504
