gsg/01_Basics/GSG_LUT_Basic_SatBoost.cube
# GSG LUTs 1.0
# Copyright (c) 2016-2020 Greyscalegorilla
# See EULA for licensing and distribution information
# Converted by Briz LUT Converter
LUT_3D_SIZE 5
DOMAIN_MIN 0.000000 0.000000 0.000000
DOMAIN_MAX 0.903226 0.903226 0.903226
0.000000 0.000000 0.000000
0.247816 0.000000 0.000000
0.487109 0.000000 0.000000
0.723817 0.000000 0.000000
0.948671 0.000000 0.000000
0.000000 0.232644 0.000000
0.227083 0.227229 0.000000
0.474435 0.224903 0.000000
0.716474 0.212685 0.000000
0.945417 0.182150 0.000000
0.000000 0.463067 0.000000
0.193740 0.460814 0.000000
0.453861 0.453994 0.000000
0.700406 0.449970 0.000000
0.937403 0.436422 0.000000
0.000000 0.691827 0.000000
0.049735 0.690716 0.000000
0.422892 0.686963 0.000000
0.680296 0.680350 0.000000
0.925645 0.671251 0.000000
0.000000 0.918855 0.000000
0.000000 0.918117 0.000000
0.333543 0.916045 0.000000
0.639316 0.912388 0.000000
0.903520 0.906645 0.000000
0.000000 0.000000 0.255441
0.246442 0.000000 0.246472
0.485479 0.000000 0.230361
0.725149 0.000000 0.200658
0.952310 0.000000 0.152313
0.000000 0.231332 0.231246
0.225806 0.225830 0.225793
0.476729 0.210787 0.210793
0.719038 0.184340 0.184058
0.949345 0.128990 0.128223
0.000000 0.463036 0.179138
0.173479 0.460636 0.173520
0.453436 0.453575 0.155349
0.703243 0.444200 0.118266
0.941484 0.423024 0.007674
0.000000 0.692237 0.007654
0.004014 0.690974 0.003111
0.415055 0.687207 0.000000
0.680131 0.680338 0.000000
0.929169 0.667118 0.000000
0.000000 0.920107 0.000000
0.000000 0.919521 0.000000
0.296234 0.917481 0.000000
0.630593 0.913386 0.000000
0.906861 0.906889 0.000000
0.000000 0.000000 0.499783
0.244091 0.000000 0.495602
0.485376 0.000000 0.485436
0.722853 0.000000 0.470838
0.951323 0.000000 0.446810
0.000000 0.227058 0.486944
0.221374 0.221412 0.484123
0.475987 0.204837 0.476001
0.717296 0.171943 0.462185
0.949054 0.096972 0.438762
0.000000 0.461491 0.461541
0.160446 0.459030 0.459016
0.451558 0.451640 0.451613
0.703301 0.438311 0.438235
0.943227 0.412102 0.411871
0.000000 0.691713 0.416696
0.000000 0.690647 0.412974
0.403281 0.686884 0.403374
0.679490 0.679557 0.385157
0.932813 0.660454 0.340755
0.000000 0.922237 0.259738
0.000000 0.921579 0.251454
0.222106 0.919296 0.222329
0.612248 0.914797 0.145777
0.907076 0.907131 0.002184
0.000000 0.000000 0.728615
0.233064 0.000000 0.726888
0.476183 0.000000 0.722620
0.715105 0.000000 0.715105
0.948553 0.000000 0.700382
0.000000 0.219402 0.722730
0.214845 0.214674 0.721497
0.468477 0.199182 0.717753
0.710831 0.163917 0.710918
0.946449 0.072578 0.696435
0.000000 0.456052 0.710241
0.156211 0.454070 0.709022
0.448089 0.448139 0.705670
0.699417 0.434262 0.699446
0.941242 0.408032 0.684879
0.000000 0.689009 0.689062
0.000000 0.688042 0.688036
0.398472 0.684647 0.684623
0.677419 0.677419 0.677366
0.929368 0.662205 0.662038
0.000000 0.921572 0.631588
0.000000 0.920761 0.630522
0.235597 0.918248 0.627634
0.615406 0.913648 0.615246
0.905680 0.905723 0.585250
0.000000 0.000000 0.941928
0.216065 0.000000 0.941439
0.458923 0.000000 0.940195
0.695908 0.000000 0.937808
0.934310 0.000000 0.934310
0.000000 0.208515 0.940213
0.203600 0.203556 0.939895
0.453988 0.185943 0.938664
0.693137 0.142765 0.936321
0.933084 0.008885 0.933022
0.000000 0.451025 0.936043
0.175215 0.449601 0.935756
0.441886 0.441827 0.934622
0.685455 0.425404 0.932734
0.929647 0.395307 0.929635
0.000000 0.673307 0.928615
0.000000 0.673568 0.928371
0.402671 0.675148 0.927619
0.673712 0.673765 0.925721
0.921722 0.658965 0.921715
0.000000 0.914459 0.914438
0.000000 0.913971 0.913972
0.224454 0.912639 0.912628
0.622403 0.909658 0.909631
0.903204 0.903226 0.903202
