gsg/01_Basics/GSG_LUT_Basic_CoolCreamyWhites.cube
# GSG LUTs 1.0
# Copyright (c) 2016-2020 Greyscalegorilla
# See EULA for licensing and distribution information
# Converted by Briz LUT Converter
LUT_3D_SIZE 5
DOMAIN_MIN 0.000000 0.000000 0.000000
DOMAIN_MAX 0.903226 0.903226 0.903226
0.021245 0.022711 0.025885
0.244665 0.032999 0.040435
0.475545 0.053031 0.067415
0.686510 0.073520 0.094364
0.841490 0.089062 0.114435
0.000000 0.254354 0.041656
0.239293 0.255087 0.051400
0.473133 0.257370 0.073978
0.685155 0.261247 0.098759
0.840264 0.264910 0.118020
0.000000 0.494324 0.070235
0.220702 0.494679 0.075932
0.465178 0.495716 0.091861
0.680106 0.497456 0.112167
0.836373 0.499208 0.129163
0.000000 0.713868 0.098594
0.185695 0.713984 0.102405
0.452125 0.714680 0.114211
0.671771 0.715901 0.130592
0.829903 0.716949 0.145079
0.000000 0.874899 0.119808
0.139057 0.874922 0.122848
0.438193 0.875510 0.132459
0.663201 0.876387 0.146528
0.823420 0.877341 0.159321
0.000000 0.000000 0.286841
0.242754 0.021880 0.287873
0.474757 0.047707 0.291505
0.686022 0.069991 0.297263
0.841002 0.086266 0.302903
0.000000 0.253579 0.288019
0.237518 0.254312 0.289084
0.472374 0.256650 0.292653
0.684629 0.260472 0.298342
0.839951 0.264220 0.304106
0.000000 0.493946 0.291994
0.218631 0.494301 0.293086
0.464407 0.495351 0.296607
0.679580 0.497155 0.302209
0.835972 0.498918 0.307829
0.000000 0.713624 0.298239
0.183249 0.713839 0.299418
0.451209 0.714493 0.302776
0.671245 0.715656 0.308252
0.829488 0.716820 0.313795
0.000000 0.874654 0.304612
0.135425 0.874899 0.305623
0.437293 0.875387 0.309020
0.662712 0.876259 0.314318
0.822948 0.877119 0.319708
0.000000 0.000000 0.557454
0.236710 0.000000 0.557973
0.472015 0.017978 0.559652
0.684403 0.056584 0.562283
0.839770 0.076156 0.564903
0.000000 0.250935 0.558076
0.231234 0.251668 0.558565
0.469629 0.254110 0.560157
0.682882 0.257990 0.562779
0.838532 0.261704 0.565513
0.000000 0.492859 0.559846
0.211732 0.493175 0.560346
0.461649 0.494224 0.561937
0.677797 0.495974 0.564591
0.834604 0.497732 0.567287
0.000000 0.712891 0.562771
0.174553 0.713061 0.563260
0.448346 0.713744 0.564835
0.669500 0.714912 0.567478
0.828193 0.716022 0.570126
0.000000 0.874066 0.565757
0.122385 0.874190 0.566245
0.434340 0.874733 0.567783
0.660967 0.875647 0.570452
0.821598 0.876598 0.572984
0.000000 0.000000 0.804971
0.226484 0.000000 0.805380
0.467584 0.000000 0.806393
0.681626 0.010310 0.808066
0.837567 0.055433 0.809831
0.000000 0.246747 0.805380
0.220658 0.247488 0.805656
0.465251 0.249968 0.806697
0.680106 0.253866 0.808415
0.836378 0.257773 0.810099
0.000000 0.491016 0.806511
0.200017 0.491305 0.806811
0.457123 0.492390 0.807877
0.675045 0.494137 0.809567
0.832377 0.495864 0.811307
0.000000 0.711696 0.808389
0.159301 0.711834 0.808758
0.443717 0.712597 0.809800
0.666643 0.713686 0.811449
0.825996 0.714860 0.813184
0.000000 0.873189 0.810343
0.096700 0.873284 0.810587
0.429486 0.873840 0.811664
0.658072 0.874721 0.813423
0.819340 0.875638 0.815047
0.000000 0.000000 0.986648
0.215526 0.000000 0.986892
0.463090 0.000000 0.987625
0.678712 0.000000 0.989011
0.835364 0.000832 0.990311
0.000000 0.242388 0.986892
0.209332 0.243121 0.987136
0.460679 0.245618 0.987879
0.677120 0.249525 0.989263
0.834114 0.253622 0.990576
0.000000 0.489073 0.987748
0.186982 0.489342 0.987992
0.452479 0.490466 0.988850
0.672063 0.492246 0.990153
0.830148 0.493958 0.991530
0.000000 0.710457 0.989263
0.141817 0.710695 0.989507
0.438856 0.711344 0.990279
0.663655 0.712459 0.991654
0.823577 0.713617 0.993005
0.000000 0.872212 0.990778
0.051997 0.872302 0.991027
0.424496 0.872945 0.991786
0.655079 0.873716 0.993155
0.817053 0.874656 0.994479
