gsg/01_Basics/GSG_LUT_Basic_WarmHighlights.cube
# GSG LUTs 1.0
# Copyright (c) 2016-2020 Greyscalegorilla
# See EULA for licensing and distribution information
# Converted by Briz LUT Converter
LUT_3D_SIZE 5
DOMAIN_MIN 0.000000 0.000000 0.000000
DOMAIN_MAX 0.903226 0.903226 0.903226
0.000000 0.000000 0.000000
0.226051 0.000189 0.000189
0.453433 0.000000 0.000000
0.682957 0.000000 0.000000
0.912970 0.000000 0.000000
0.000599 0.225751 0.000000
0.226637 0.225562 0.000000
0.454165 0.224933 0.000000
0.683483 0.222522 0.000000
0.913459 0.217905 0.000000
0.015692 0.450392 0.000000
0.230856 0.450282 0.000000
0.457072 0.449733 0.000000
0.685998 0.448481 0.000000
0.914934 0.446264 0.000000
0.070298 0.674324 0.000000
0.244710 0.674207 0.000000
0.464697 0.673756 0.000000
0.690990 0.672858 0.000000
0.917555 0.671803 0.000000
0.129363 0.899539 0.000000
0.267659 0.899319 0.000000
0.476230 0.899295 0.000000
0.697475 0.898830 0.000000
0.919125 0.898807 0.000000
0.004017 0.000244 0.222766
0.227083 0.000000 0.222711
0.454165 0.000000 0.222252
0.683446 0.000000 0.221362
0.913440 0.000000 0.219854
0.006241 0.225605 0.221789
0.227903 0.225562 0.221767
0.454930 0.224810 0.221269
0.684131 0.222495 0.220363
0.913801 0.217875 0.218823
0.025407 0.450392 0.218827
0.232998 0.450178 0.218717
0.458161 0.449659 0.218094
0.686739 0.448351 0.216909
0.915445 0.446251 0.215070
0.080628 0.674245 0.210755
0.247879 0.674079 0.210511
0.466218 0.673756 0.209632
0.692138 0.672805 0.208013
0.918172 0.671803 0.205302
0.138338 0.899539 0.190397
0.271886 0.899319 0.189971
0.478510 0.899295 0.188533
0.698718 0.898830 0.185744
0.919862 0.898807 0.181439
0.053795 0.000244 0.431683
0.238513 0.000000 0.431439
0.459758 0.000000 0.430890
0.687085 0.000000 0.429808
0.916011 0.000000 0.428143
0.058721 0.225562 0.430407
0.239989 0.225460 0.430207
0.460790 0.224616 0.429688
0.688062 0.222033 0.428607
0.916532 0.217625 0.426897
0.078656 0.450331 0.426578
0.246586 0.450148 0.426384
0.464752 0.449549 0.425745
0.690947 0.448194 0.424591
0.918330 0.446020 0.422854
0.120478 0.674245 0.418843
0.263417 0.674079 0.418599
0.473963 0.673591 0.417939
0.696798 0.672780 0.416712
0.921218 0.671721 0.414715
0.169992 0.899539 0.404916
0.288411 0.899319 0.404671
0.486927 0.899195 0.403839
0.703759 0.898821 0.402317
0.922920 0.899015 0.400055
0.143409 0.001063 0.626602
0.272752 0.000128 0.626523
0.477049 0.000000 0.626035
0.698159 0.000000 0.625302
0.923353 0.000000 0.623861
0.146339 0.225562 0.625736
0.274551 0.225318 0.625546
0.478215 0.224351 0.625092
0.698972 0.221545 0.624276
0.923875 0.217162 0.622998
0.158880 0.450148 0.622750
0.281453 0.449967 0.622654
0.482573 0.449365 0.622207
0.702073 0.447950 0.621400
0.925629 0.446000 0.620229
0.186073 0.674079 0.617488
0.297438 0.673914 0.617435
0.491682 0.673488 0.616999
0.707812 0.672561 0.616267
0.928184 0.671582 0.615057
0.221072 0.899319 0.609673
0.319152 0.899319 0.609656
0.503690 0.899074 0.609185
0.713782 0.898814 0.608496
0.928889 0.899051 0.607382
0.193210 0.000000 0.846138
0.300815 0.000000 0.846138
0.492576 0.000000 0.846138
0.707874 0.000000 0.846359
0.929402 0.000000 0.846579
0.195042 0.225097 0.846359
0.302106 0.224809 0.846359
0.493354 0.223509 0.846359
0.708594 0.220580 0.846603
0.929668 0.216424 0.846823
0.202243 0.449793 0.846947
0.306706 0.449637 0.847068
0.496485 0.448882 0.847068
0.710662 0.447461 0.847295
0.930413 0.445541 0.847632
0.218244 0.673764 0.848872
0.317523 0.673591 0.848879
0.502832 0.673111 0.849116
0.714122 0.672317 0.849360
0.931159 0.671559 0.849832
0.236821 0.899295 0.852984
0.329552 0.899290 0.853204
0.508945 0.899051 0.853427
0.715931 0.898807 0.853850
0.928126 0.899295 0.854605
