gsg/01_Basics/GSG_LUT_Basic_CoolFadedBlacks.cube
# GSG LUTs 1.0
# Copyright (c) 2016-2020 Greyscalegorilla
# See EULA for licensing and distribution information
# Converted by Briz LUT Converter
LUT_3D_SIZE 32
0.088400 0.100366 0.125031
0.110237 0.100611 0.125283
0.132593 0.100870 0.126023
0.155957 0.101367 0.126543
0.180086 0.101863 0.127291
0.205467 0.102603 0.128323
0.231856 0.103391 0.129568
0.259254 0.104384 0.131057
0.287723 0.105439 0.132609
0.317389 0.106857 0.134594
0.347820 0.108417 0.136658
0.379503 0.109993 0.139139
0.411950 0.111978 0.141715
0.445059 0.113963 0.144693
0.478916 0.116192 0.148025
0.512915 0.118540 0.151499
0.547284 0.121265 0.155099
0.581512 0.123880 0.158825
0.615361 0.126614 0.162795
0.648706 0.129592 0.166765
0.681303 0.132325 0.170893
0.712986 0.135303 0.174950
0.743243 0.138107 0.178920
0.772413 0.140833 0.182890
0.800142 0.143558 0.186616
0.826358 0.146284 0.190145
0.851061 0.148765 0.193619
0.874253 0.151034 0.196881
0.895931 0.153263 0.200102
0.916098 0.155493 0.203080
0.934751 0.157478 0.205814
0.952137 0.159219 0.208303
0.086155 0.122462 0.125527
0.108504 0.122707 0.125779
0.131341 0.122951 0.126291
0.154736 0.123219 0.127016
0.179125 0.123715 0.127788
0.204719 0.124211 0.128780
0.231109 0.124944 0.130017
0.258569 0.125738 0.131309
0.287227 0.126488 0.133042
0.316893 0.127717 0.134846
0.347568 0.128788 0.137075
0.379164 0.130269 0.139475
0.411603 0.131758 0.142211
0.444807 0.133483 0.145189
0.478557 0.135323 0.148277
0.512671 0.137304 0.151751
0.547036 0.139525 0.155351
0.581264 0.141880 0.159183
0.615251 0.144118 0.163047
0.648604 0.146591 0.167162
0.681059 0.149065 0.171229
0.712736 0.151546 0.175202
0.743167 0.154019 0.179172
0.772230 0.156495 0.183136
0.799951 0.158968 0.186862
0.826350 0.161251 0.190397
0.851054 0.163479 0.193871
0.874246 0.165702 0.197338
0.895924 0.167680 0.200354
0.916090 0.169664 0.203325
0.934744 0.171397 0.206058
0.951893 0.173138 0.208555
0.083146 0.145583 0.126023
0.106251 0.145812 0.126512
0.129387 0.146056 0.127016
0.153247 0.146323 0.127550
0.177874 0.146788 0.128300
0.203521 0.147072 0.129329
0.230163 0.147612 0.130560
0.257812 0.148296 0.132049
0.286471 0.149096 0.133601
0.316153 0.149844 0.135358
0.346901 0.150911 0.137576
0.378658 0.152058 0.139984
0.411107 0.153383 0.142707
0.444311 0.154862 0.145685
0.478168 0.156351 0.148773
0.512411 0.158068 0.152247
0.546662 0.159919 0.155847
0.580904 0.161897 0.159573
0.614999 0.163866 0.163543
0.648352 0.165991 0.167513
0.680815 0.168065 0.171484
0.712487 0.170294 0.175609
0.742917 0.172508 0.179653
0.772153 0.174662 0.183394
0.799882 0.176706 0.187176
0.826098 0.178692 0.190891
0.850804 0.180663 0.194354
0.873995 0.182632 0.197597
0.895673 0.184395 0.200607
0.915839 0.186128 0.203584
0.934507 0.187838 0.206325
0.951877 0.189334 0.208807
0.079129 0.169948 0.126787
0.103242 0.170192 0.127039
0.127112 0.170414 0.127550
0.151469 0.170659 0.128297
0.176363 0.170932 0.129048
0.202261 0.171204 0.130041
0.228969 0.171681 0.131258
0.256802 0.172177 0.132569
0.285541 0.172917 0.134285
0.315395 0.173641 0.136106
0.346307 0.174454 0.138170
0.377990 0.175446 0.140636
0.410596 0.176439 0.143363
0.443814 0.177662 0.146205
0.477671 0.178999 0.149414
0.511915 0.180464 0.152767
0.546284 0.181953 0.156461
0.580645 0.183675 0.160193
0.614502 0.185395 0.164040
0.647950 0.187263 0.168010
0.680547 0.189082 0.172004
0.712230 0.190980 0.176123
0.742667 0.192942 0.180008
0.771738 0.194740 0.183891
0.799630 0.196644 0.187672
0.825846 0.198428 0.191343
0.850553 0.200142 0.194659
0.873744 0.201875 0.198094
0.895422 0.203563 0.201103
0.915587 0.205073 0.204081
0.934263 0.206325 0.206814
0.951625 0.207783 0.209303
0.073583 0.195565 0.127780
0.099257 0.195809 0.128032
0.124132 0.195825 0.128528
0.149002 0.196053 0.129269
0.174379 0.196325 0.130041
0.200536 0.196581 0.131033
0.227461 0.197046 0.132073
0.255552 0.197542 0.133562
0.284462 0.198039 0.135114
0.314458 0.198606 0.136855
0.345315 0.199344 0.139084
0.377242 0.200102 0.141400
0.409851 0.201063 0.144106
0.443286 0.202056 0.146953
0.477144 0.203293 0.150158
0.511402 0.204513 0.153515
0.545771 0.205861 0.157099
0.580149 0.207332 0.160841
0.614006 0.208807 0.164780
0.647603 0.210296 0.168750
0.680082 0.211997 0.172720
0.711733 0.213662 0.176691
0.742235 0.215370 0.180661
0.771413 0.216921 0.184473
0.799165 0.218647 0.188192
0.825594 0.220143 0.191886
0.850297 0.221783 0.195360
0.873489 0.223301 0.198590
0.895167 0.224578 0.201599
0.915333 0.226035 0.204577
0.934019 0.227280 0.207311
0.951373 0.228493 0.209800
0.066163 0.222230 0.128772
0.094209 0.222436 0.129064
0.120354 0.222488 0.129573
0.146008 0.222738 0.130265
0.171885 0.222955 0.131067
0.198306 0.223207 0.132032
0.225688 0.223491 0.133270
0.253874 0.223955 0.134554
0.283028 0.224452 0.136135
0.313191 0.224948 0.137886
0.344296 0.225510 0.140089
0.376224 0.226257 0.142392
0.408941 0.227004 0.144992
0.442310 0.227973 0.147946
0.476395 0.228965 0.151034
0.510658 0.230057 0.154508
0.545146 0.231155 0.157982
0.579408 0.232504 0.161700
0.613510 0.233748 0.165560
0.647083 0.235220 0.169530
0.679686 0.236537 0.173500
0.711303 0.237953 0.177471
0.741912 0.239403 0.181413
0.771001 0.240892 0.185167
0.798881 0.242350 0.188939
0.825097 0.243830 0.192422
0.849807 0.245108 0.195896
0.873058 0.246524 0.199152
0.894730 0.247769 0.202340
0.915081 0.248977 0.205126
0.933735 0.250022 0.207853
0.950916 0.251219 0.210335
0.055331 0.250360 0.130056
0.087609 0.250360 0.130553
0.115536 0.250560 0.131049
0.142224 0.250624 0.131569
0.168654 0.250849 0.132317
0.195785 0.251093 0.133310
0.223459 0.251375 0.134508
0.252057 0.251637 0.135838
0.281346 0.252086 0.137378
0.311702 0.252582 0.139131
0.342873 0.253078 0.141328
0.374982 0.253661 0.143629
0.407901 0.254409 0.146234
0.441384 0.255158 0.148986
0.475403 0.256103 0.152182
0.509890 0.257096 0.155500
0.544377 0.258088 0.158999
0.578865 0.259081 0.162718
0.612884 0.260270 0.166552
0.646367 0.261507 0.170523
0.679058 0.262744 0.174493
0.710741 0.264099 0.178463
0.741242 0.265343 0.182189
0.770463 0.266588 0.186124
0.798385 0.267877 0.189696
0.824601 0.269115 0.193405
0.849344 0.270314 0.196676
0.872740 0.271545 0.199905
0.894419 0.272721 0.203080
0.914585 0.273733 0.205874
0.933239 0.274725 0.208602
0.950624 0.275718 0.211084
0.037583 0.279499 0.131600
0.078893 0.279554 0.132041
0.109291 0.279743 0.132538
0.137451 0.279749 0.133107
0.164938 0.279987 0.133861
0.192579 0.280232 0.134807
0.220726 0.280476 0.136035
0.249620 0.280720 0.137327
0.279326 0.281027 0.138830
0.309914 0.281523 0.140620
0.341329 0.281965 0.142684
0.373563 0.282516 0.144921
0.406541 0.283086 0.147531
0.440254 0.283800 0.150475
0.474380 0.284548 0.153452
0.508869 0.285297 0.156792
0.543511 0.286289 0.160266
0.577872 0.287252 0.163959
0.612006 0.288219 0.167789
0.645571 0.289383 0.171570
0.678317 0.290449 0.175505
0.710189 0.291630 0.179456
0.740675 0.292812 0.183292
0.769916 0.293860 0.187152
0.797687 0.295084 0.190732
0.824105 0.296089 0.194407
0.848809 0.297270 0.197646
0.872196 0.298263 0.200898
0.893923 0.299256 0.203876
0.914089 0.300248 0.206853
0.932743 0.301186 0.209587
0.950128 0.301934 0.212076
0.000000 0.309953 0.133585
0.066701 0.309953 0.133837
0.101607 0.309965 0.134334
0.131636 0.310197 0.134854
0.160330 0.310379 0.135602
0.188745 0.310471 0.136595
0.217488 0.310721 0.137634
0.246886 0.310971 0.139109
0.276852 0.311221 0.140612
0.307711 0.311670 0.142353
0.339423 0.311986 0.144358
0.371790 0.312482 0.146654
0.404994 0.313159 0.149160
0.438867 0.313656 0.151963
0.473110 0.314361 0.154970
0.507716 0.315104 0.158281
0.542362 0.315940 0.161755
0.576880 0.316717 0.165363
0.611123 0.317681 0.169089
0.644823 0.318673 0.172910
0.677514 0.319625 0.176785
0.709260 0.320596 0.180755
0.739890 0.321588 0.184481
0.769176 0.322715 0.188254
0.797085 0.323754 0.191974
0.823364 0.324747 0.195463
0.848249 0.325739 0.198874
0.871503 0.326519 0.201954
0.893200 0.327480 0.205112
0.913529 0.328414 0.207909
0.932246 0.329160 0.210587
0.949632 0.329907 0.213069
0.000000 0.341360 0.135571
0.047166 0.341605 0.135893
0.091370 0.341605 0.136390
0.124311 0.341628 0.137066
0.154580 0.341849 0.137809
0.184217 0.342034 0.138651
0.213675 0.342140 0.139816
0.243539 0.342392 0.141069
0.274003 0.342644 0.142597
0.305211 0.343020 0.144228
0.337122 0.343393 0.146269
0.369798 0.343818 0.148458
0.403214 0.344314 0.150939
0.437134 0.344811 0.153767
0.471583 0.345456 0.156745
0.506227 0.346048 0.159967
0.541037 0.346788 0.163315
0.575738 0.347623 0.167001
0.609959 0.348411 0.170721
0.643692 0.349332 0.174548
0.676521 0.350106 0.178299
0.708449 0.351073 0.182244
0.739123 0.352016 0.185970
0.768364 0.352859 0.189696
0.796337 0.353807 0.193233
0.822610 0.354728 0.196707
0.847501 0.355516 0.200181
0.870763 0.356469 0.203349
0.892615 0.357234 0.206349
0.912781 0.357977 0.209154
0.931506 0.358720 0.211818
0.948891 0.359392 0.214305
0.000000 0.374264 0.137879
0.001622 0.374264 0.138375
0.077405 0.374264 0.138871
0.115191 0.374359 0.139367
0.147722 0.374509 0.140139
0.178681 0.374614 0.140888
0.209114 0.374800 0.142125
0.239602 0.375034 0.143361
0.270574 0.375284 0.144724
0.302177 0.375556 0.146465
0.334422 0.375920 0.148450
0.367510 0.376305 0.150629
0.401049 0.376722 0.153067
0.435277 0.377218 0.155798
0.469920 0.377715 0.158730
0.504698 0.378370 0.161952
0.539563 0.378952 0.165300
0.574327 0.379692 0.168774
0.608719 0.380432 0.172492
0.642514 0.381173 0.176210
0.675391 0.382020 0.180086
0.707324 0.382766 0.183812
0.738052 0.383616 0.187586
0.767372 0.384481 0.191307
0.795344 0.385267 0.194929
0.821805 0.386025 0.198307
0.846574 0.386905 0.201670
0.869944 0.387650 0.204756
0.891701 0.388396 0.207744
0.912033 0.389137 0.210642
0.930765 0.389649 0.213140
0.948151 0.390390 0.215621
0.000000 0.407933 0.140691
0.000000 0.407933 0.140943
0.055796 0.407948 0.141439
0.103614 0.408177 0.141951
0.139330 0.408177 0.142707
0.171931 0.408421 0.143613
0.203664 0.408468 0.144623
0.235019 0.408665 0.145898
0.266629 0.408909 0.147387
0.298690 0.409199 0.149008
0.331411 0.409477 0.150932
0.364779 0.409830 0.153059
0.398616 0.410225 0.155485
0.433043 0.410685 0.158068
0.467762 0.411131 0.161046
0.502793 0.411669 0.164142
0.537826 0.412291 0.167448
0.572728 0.412864 0.171003
0.607239 0.413604 0.174527
0.641026 0.414250 0.178248
0.674119 0.414999 0.182071
0.706082 0.415688 0.185797
0.736807 0.416434 0.189523
0.766292 0.417220 0.193068
0.794230 0.417961 0.196664
0.820695 0.418701 0.200016
0.845648 0.419441 0.203285
0.868951 0.420150 0.206496
0.890874 0.420821 0.209406
0.911040 0.421413 0.212228
0.929938 0.422067 0.214868
0.947324 0.422569 0.217196
0.000000 0.442609 0.143669
0.000000 0.442609 0.143921
0.009748 0.442759 0.144417
0.087891 0.442853 0.144922
0.128955 0.442853 0.145666
0.164094 0.443018 0.146433
0.197127 0.443126 0.147473
0.229577 0.443342 0.148718
0.262028 0.443516 0.150207
0.294698 0.443763 0.151767
0.327873 0.444010 0.153657
0.361552 0.444372 0.155790
0.395793 0.444657 0.158061
0.430446 0.445059 0.160731
0.465477 0.445555 0.163528
0.500713 0.446051 0.166672
0.535871 0.446548 0.169853
0.570901 0.447044 0.173327
0.605498 0.447784 0.176801
0.639500 0.448372 0.180519
0.672630 0.449021 0.184204
0.704644 0.449731 0.187925
0.735563 0.450364 0.191536
0.765009 0.451110 0.195148
0.793021 0.451718 0.198621
0.819481 0.452385 0.202019
0.844508 0.453125 0.205270
0.867864 0.453622 0.208330
0.889637 0.454353 0.211225
0.910048 0.454858 0.213975
0.928943 0.455500 0.216697
0.946331 0.456001 0.218937
0.000000 0.478191 0.146890
0.000000 0.478191 0.147245
0.000659 0.478191 0.147639
0.064520 0.478201 0.148237
0.115877 0.478436 0.148889
0.154542 0.478436 0.149741
0.189744 0.478680 0.150668
0.223388 0.478703 0.151798
0.256744 0.478924 0.153211
0.290203 0.479168 0.154817
0.323882 0.479412 0.156729
0.358029 0.479707 0.158714
0.392509 0.479995 0.161038
0.427496 0.480389 0.163520
0.462816 0.480744 0.166356
0.498232 0.481240 0.169333
0.533711 0.481736 0.172628
0.568869 0.482232 0.175911
0.603655 0.482811 0.179385
0.637670 0.483367 0.183001
0.670897 0.483929 0.186668
0.703076 0.484604 0.190193
0.734044 0.485200 0.193911
0.763533 0.485840 0.197385
0.791532 0.486446 0.200859
0.818209 0.487077 0.204250
0.843184 0.487692 0.207358
0.866619 0.488211 0.210477
0.888542 0.488810 0.213327
0.908811 0.489306 0.216055
0.927709 0.489803 0.218685
0.945236 0.490299 0.220922
0.000000 0.514278 0.150467
0.000000 0.514278 0.150719
0.000000 0.514278 0.151215
0.017973 0.514289 0.151711
0.098776 0.514522 0.152335
0.143094 0.514522 0.153210
0.180816 0.514658 0.154116
0.216254 0.514791 0.155272
0.250743 0.515010 0.156517
0.284997 0.515160 0.158076
0.319386 0.515333 0.159908
0.354035 0.515585 0.161975
0.388979 0.515987 0.164208
0.424325 0.516334 0.166664
0.459855 0.516586 0.169394
0.495514 0.517082 0.172311
0.531177 0.517578 0.175468
0.566526 0.518014 0.178755
0.601482 0.518461 0.182118
0.635704 0.519067 0.185726
0.669054 0.519564 0.189310
0.701233 0.520194 0.192875
0.732309 0.520690 0.196392
0.761925 0.521268 0.199866
0.790018 0.521927 0.203340
0.816700 0.522423 0.206617
0.841695 0.522919 0.209800
0.865227 0.523532 0.212817
0.887153 0.524046 0.215574
0.907567 0.524542 0.218299
0.926469 0.525038 0.220781
0.943991 0.525401 0.223152
0.000000 0.550750 0.154185
0.000000 0.550868 0.154551
0.000000 0.550868 0.154807
0.001476 0.550868 0.155430
0.074107 0.550885 0.156060
0.128989 0.551113 0.156824
0.170418 0.551113 0.157816
0.208002 0.551357 0.158837
0.243758 0.551389 0.160235
0.279163 0.551601 0.161724
0.314183 0.551845 0.163495
0.349537 0.552089 0.165439
0.384937 0.552382 0.167600
0.420641 0.552631 0.170082
0.456552 0.553001 0.172673
0.492536 0.553371 0.175651
0.528512 0.553807 0.178629
0.563984 0.554303 0.181866
0.599078 0.554673 0.185214
0.633470 0.555170 0.188616
0.666982 0.555792 0.192243
0.699248 0.556288 0.195762
0.730419 0.556784 0.199236
0.760156 0.557281 0.202622
0.788381 0.557777 0.205968
0.815093 0.558273 0.209194
0.840187 0.558770 0.212320
0.863642 0.559266 0.215298
0.885678 0.559762 0.218055
0.906203 0.560258 0.220781
0.925109 0.560636 0.223262
0.942503 0.561133 0.225499
0.000000 0.587349 0.158155
0.000000 0.587593 0.158522
0.000000 0.587593 0.158777
0.000000 0.587593 0.159286
0.025054 0.587593 0.160014
0.111081 0.587837 0.160794
0.158299 0.587837 0.161542
0.198455 0.587892 0.162779
0.236102 0.588081 0.164046
0.272485 0.588326 0.165478
0.308592 0.588404 0.167135
0.344580 0.588657 0.169120
0.380614 0.588909 0.171273
0.416724 0.589229 0.173555
0.453009 0.589600 0.176216
0.489306 0.589909 0.178946
0.525474 0.590279 0.181984
0.561267 0.590657 0.185145
0.596544 0.591154 0.188444
0.631037 0.591524 0.191792
0.664626 0.592020 0.195266
0.697222 0.592516 0.198740
0.728434 0.593013 0.202214
0.758171 0.593509 0.205443
0.786522 0.594005 0.208820
0.813352 0.594502 0.211950
0.838453 0.594998 0.215046
0.862012 0.595494 0.217921
0.884064 0.595864 0.220769
0.904486 0.596242 0.223380
0.923498 0.596617 0.225747
0.941014 0.596991 0.228107
0.000000 0.624073 0.162377
0.000000 0.624073 0.162625
0.000000 0.624184 0.162992
0.000000 0.624184 0.163488
0.002576 0.624318 0.164133
0.086517 0.624335 0.164764
0.143690 0.624428 0.165757
0.187668 0.624562 0.166749
0.227467 0.624707 0.168021
0.265240 0.624838 0.169460
0.302300 0.625050 0.171062
0.339076 0.625208 0.172847
0.375687 0.625457 0.174994
0.412478 0.625705 0.177351
0.449092 0.626003 0.179889
0.485763 0.626325 0.182599
0.522130 0.626752 0.185576
0.558229 0.627064 0.188554
0.593635 0.627500 0.191776
0.628461 0.627996 0.195148
0.662145 0.628335 0.198488
0.694821 0.628745 0.201851
0.726204 0.629241 0.205230
0.756052 0.629737 0.208583
0.784411 0.630234 0.211810
0.811367 0.630622 0.214928
0.836567 0.631092 0.217905
0.860254 0.631478 0.220883
0.882330 0.631854 0.223617
0.902856 0.632337 0.226122
0.921891 0.632593 0.228603
0.939391 0.633085 0.230840
0.000000 0.660412 0.166600
0.000000 0.660412 0.166852
0.000000 0.660412 0.167206
0.000000 0.660514 0.167703
0.000000 0.660656 0.168341
0.032988 0.660656 0.168979
0.125994 0.660676 0.169869
0.175259 0.660900 0.170885
0.217766 0.660927 0.172125
0.257302 0.661145 0.173508
0.295481 0.661293 0.175076
0.333155 0.661425 0.176817
0.370570 0.661673 0.178896
0.407728 0.661920 0.181134
0.444846 0.662168 0.183615
0.481915 0.662537 0.186341
0.518713 0.662838 0.189192
0.555003 0.663154 0.192226
0.590657 0.663587 0.195332
0.625681 0.664020 0.198621
0.659613 0.664335 0.201851
0.692339 0.664831 0.205229
0.723833 0.665328 0.208555
0.753815 0.665580 0.211811
0.782393 0.666076 0.214928
0.809355 0.666572 0.218047
0.834582 0.666864 0.220906
0.858283 0.667320 0.223861
0.880444 0.667689 0.226594
0.901107 0.668069 0.229099
0.920158 0.668428 0.231344
0.937650 0.668817 0.233574
0.000000 0.696097 0.171066
0.000000 0.696097 0.171310
0.000000 0.696106 0.171570
0.000000 0.696246 0.172067
0.000000 0.696341 0.172575
0.006966 0.696341 0.173319
0.103022 0.696370 0.174091
0.161002 0.696585 0.175105
0.206946 0.696624 0.176345
0.248580 0.696829 0.177628
0.288197 0.696908 0.179211
0.326827 0.697127 0.180998
0.364909 0.697318 0.183016
0.402780 0.697562 0.185104
0.440490 0.697806 0.187585
0.477917 0.698168 0.190112
0.514922 0.698421 0.192918
0.551585 0.698783 0.195896
0.587577 0.699169 0.198968
0.622766 0.699421 0.202153
0.656885 0.699917 0.205378
0.689810 0.700200 0.208634
0.721352 0.700666 0.211856
0.751514 0.701051 0.215039
0.780162 0.701435 0.218150
0.807124 0.701910 0.221127
0.832597 0.702257 0.224105
0.856284 0.702659 0.226858
0.878468 0.703005 0.229586
0.899122 0.703267 0.232077
0.918272 0.703662 0.234322
0.935909 0.704006 0.236551
0.000000 0.731017 0.175289
0.000000 0.731017 0.175541
0.000000 0.731017 0.176027
0.000000 0.731175 0.176376
0.000000 0.731175 0.177029
0.000000 0.731262 0.177638
0.068249 0.731262 0.178400
0.144374 0.731419 0.179393
0.194901 0.731506 0.180565
0.239099 0.731688 0.181850
0.280295 0.731801 0.183367
0.320116 0.731994 0.185001
0.359085 0.732185 0.186986
0.397605 0.732341 0.189074
0.435732 0.732593 0.191555
0.473699 0.732845 0.194037
0.511001 0.733173 0.196762
0.548040 0.733546 0.199622
0.584198 0.733845 0.202650
0.619597 0.734158 0.205760
0.653968 0.734594 0.208886
0.687081 0.734846 0.212108
0.718799 0.735342 0.215284
0.749033 0.735657 0.218371
0.777754 0.736090 0.221529
0.804893 0.736390 0.224507
0.830367 0.736839 0.227327
0.854299 0.737102 0.230081
0.876474 0.737445 0.232573
0.897137 0.737839 0.235055
0.916287 0.738094 0.237300
0.933924 0.738430 0.239529
0.000000 0.764930 0.179755
0.000000 0.764930 0.180002
0.000000 0.764930 0.180259
0.000000 0.764930 0.180755
0.000000 0.764930 0.181262
0.000000 0.765108 0.181992
0.014361 0.765174 0.182748
0.124260 0.765174 0.183607
0.181706 0.765360 0.184785
0.228825 0.765418 0.186073
0.271911 0.765662 0.187449
0.312934 0.765749 0.189188
0.352878 0.765906 0.190957
0.392153 0.766151 0.193186
0.430880 0.766395 0.195451
0.469189 0.766639 0.197922
0.507157 0.766883 0.200529
0.544326 0.767261 0.203383
0.580866 0.767513 0.206326
0.616472 0.767860 0.209382
0.650932 0.768262 0.212466
0.684162 0.768514 0.215582
0.716074 0.768893 0.218733
0.746552 0.769262 0.221781
0.775273 0.769630 0.224759
0.802513 0.770011 0.227736
0.828111 0.770275 0.230549
0.852070 0.770615 0.233214
0.874324 0.771019 0.235795
0.895151 0.771268 0.238203
0.914301 0.771599 0.240514
0.932104 0.771846 0.242507
0.000000 0.797416 0.184048
0.000000 0.797416 0.184298
0.000000 0.797590 0.184552
0.000000 0.797590 0.185049
0.000000 0.797590 0.185545
0.000000 0.797660 0.186226
0.002127 0.797694 0.186969
0.098431 0.797834 0.187821
0.166926 0.797905 0.188877
0.217899 0.798078 0.190122
0.263108 0.798149 0.191611
0.305554 0.798347 0.193186
0.346445 0.798460 0.195077
0.386547 0.798710 0.197156
0.425822 0.798881 0.199291
0.464682 0.799126 0.201733
0.502942 0.799459 0.204375
0.540525 0.799709 0.207106
0.577392 0.800000 0.210052
0.613183 0.800319 0.212962
0.647926 0.800703 0.216078
0.681406 0.801000 0.219055
0.713399 0.801303 0.222083
0.743879 0.801696 0.225082
0.772791 0.802001 0.228059
0.800244 0.802300 0.230980
0.825881 0.802749 0.233711
0.849840 0.803001 0.236442
0.872260 0.803270 0.238946
0.892993 0.803521 0.241254
0.912316 0.803765 0.243499
0.930198 0.804081 0.245658
0.000000 0.828634 0.188263
0.000000 0.828634 0.188513
0.000000 0.828816 0.188767
0.000000 0.828816 0.189263
0.000000 0.828816 0.189759
0.000000 0.828816 0.190285
0.000000 0.828879 0.191043
0.054596 0.829060 0.192036
0.150250 0.829076 0.193028
0.206239 0.829175 0.194265
0.253868 0.829324 0.195581
0.297815 0.829548 0.197156
0.339909 0.829681 0.198936
0.380724 0.829819 0.200909
0.420721 0.830065 0.203140
0.460089 0.830311 0.205522
0.498766 0.830558 0.208097
0.536689 0.830804 0.210828
0.573815 0.831050 0.213596
0.609958 0.831432 0.216574
0.644884 0.831682 0.219552
0.678451 0.832033 0.222529
0.710667 0.832408 0.225507
0.741298 0.832676 0.228485
0.770310 0.833016 0.231322
0.797763 0.833262 0.234208
0.823488 0.833670 0.236940
0.847666 0.833975 0.239513
0.870087 0.834245 0.241995
0.890937 0.834491 0.244248
0.910331 0.834739 0.246477
0.928213 0.834984 0.248706
0.000000 0.858340 0.192233
0.000000 0.858340 0.192485
0.000000 0.858352 0.192965
0.000000 0.858529 0.193233
0.000000 0.858529 0.193730
0.000000 0.858529 0.194265
0.000000 0.858584 0.195014
0.016301 0.858773 0.196006
0.130821 0.858773 0.196999
0.193524 0.858884 0.198101
0.244222 0.859018 0.199551
0.289929 0.859140 0.201059
0.333178 0.859283 0.202867
0.374950 0.859506 0.204743
0.415620 0.859647 0.206863
0.455496 0.859897 0.209240
0.494576 0.860147 0.211722
0.532938 0.860398 0.214337
0.570262 0.860648 0.217070
0.606638 0.861005 0.220048
0.641727 0.861251 0.222837
0.675639 0.861643 0.225814
0.707881 0.861893 0.228792
0.738800 0.862233 0.231729
0.767829 0.862479 0.234546
0.795434 0.862888 0.237284
0.821222 0.863185 0.240009
0.845430 0.863437 0.242491
0.868027 0.863707 0.244972
0.888940 0.863953 0.247454
0.908340 0.864199 0.249454
0.926228 0.864445 0.251495
0.000000 0.886486 0.196203
0.000000 0.886488 0.196455
0.000000 0.886534 0.196751
0.000000 0.886534 0.197204
0.000000 0.886534 0.197700
0.000000 0.886730 0.198204
0.000000 0.886730 0.198946
0.001665 0.886778 0.199769
0.107405 0.886829 0.200772
0.180120 0.886988 0.201975
0.234236 0.887085 0.203277
0.282002 0.887236 0.204783
0.326422 0.887342 0.206517
0.369120 0.887593 0.208382
0.410493 0.887755 0.210477
0.450904 0.887974 0.212714
0.490456 0.888220 0.215196
0.529101 0.888466 0.217811
0.566765 0.888712 0.220544
0.603413 0.888976 0.223296
0.638662 0.889347 0.226255
0.672661 0.889597 0.229036
0.705148 0.889881 0.232014
0.736075 0.890184 0.234798
0.765536 0.890441 0.237725
0.793044 0.890844 0.240458
0.818985 0.891134 0.242987
0.843194 0.891386 0.245469
0.865816 0.891638 0.247950
0.886767 0.891890 0.250203
0.906353 0.892149 0.252432
0.924243 0.892394 0.254417
0.000000 0.912970 0.199968
0.000000 0.912970 0.200219
0.000000 0.912970 0.200473
0.000000 0.912970 0.200930
0.000000 0.913175 0.201426
0.000000 0.913181 0.201961
0.000000 0.913214 0.202670
0.000000 0.913214 0.203489
0.074381 0.913429 0.204490
0.165854 0.913459 0.205554
0.224075 0.913525 0.206798
0.273845 0.913703 0.208287
0.319667 0.913923 0.210020
0.363353 0.914033 0.211856
0.405284 0.914191 0.213951
0.446311 0.914435 0.216188
0.486344 0.914661 0.218670
0.525269 0.914906 0.221151
0.563291 0.915151 0.223791
0.600173 0.915412 0.226547
0.635685 0.915656 0.229353
0.669849 0.916039 0.232258
0.702560 0.916318 0.235051
0.733593 0.916570 0.237969
0.763055 0.916822 0.240703
0.790760 0.917122 0.243436
0.816741 0.917366 0.245965
0.841136 0.917610 0.248446
0.863807 0.917854 0.250743
0.884737 0.918135 0.252973
0.904368 0.918343 0.255166
0.922258 0.918587 0.257151
0.000000 0.937894 0.203442
0.000000 0.937894 0.203695
0.000000 0.937894 0.203947
0.000000 0.937894 0.204443
0.000000 0.937894 0.204939
0.000000 0.937894 0.205435
0.000000 0.938139 0.206176
0.000000 0.938139 0.206972
0.024197 0.938139 0.207964
0.150180 0.938383 0.208966
0.213558 0.938383 0.210272
0.265671 0.938627 0.211761
0.312911 0.938627 0.213364
0.357504 0.938871 0.215117
0.400299 0.938981 0.217198
0.441822 0.939234 0.219434
0.482271 0.939486 0.221687
0.521681 0.939621 0.224285
