gsg/01_Basics/GSG_LUT_Basic_SatBoost.cube
# GSG LUTs 1.0
# Copyright (c) 2016-2020 Greyscalegorilla
# See EULA for licensing and distribution information
# Converted by Briz LUT Converter
LUT_3D_SIZE 32
0.000000 0.000000 0.000000
0.037434 0.000000 0.000000
0.071661 0.000000 0.000000
0.106196 0.000000 0.000000
0.141739 0.000000 0.000000
0.177478 0.000000 0.000000
0.212683 0.000000 0.000000
0.247816 0.000000 0.000000
0.282492 0.000000 0.000000
0.316980 0.000000 0.000000
0.350900 0.000000 0.000000
0.384978 0.000000 0.000000
0.418977 0.000000 0.000000
0.452976 0.000000 0.000000
0.487109 0.000000 0.000000
0.520974 0.000000 0.000000
0.554847 0.000000 0.000000
0.588838 0.000000 0.000000
0.622726 0.000000 0.000000
0.656970 0.000000 0.000000
0.690898 0.000000 0.000000
0.723817 0.000000 0.000000
0.756075 0.000000 0.000000
0.788334 0.000000 0.000000
0.820592 0.000000 0.000000
0.852850 0.000000 0.000000
0.884864 0.000000 0.000000
0.916665 0.000000 0.000000
0.948671 0.000000 0.000000
0.980661 0.000000 0.000000
0.999913 0.000000 0.000000
1.000000 0.000000 0.000000
0.000000 0.034456 0.000000
0.032739 0.032975 0.000000
0.068250 0.031204 0.000000
0.103791 0.028769 0.000000
0.139958 0.026034 0.000000
0.175659 0.023011 0.000000
0.210953 0.019224 0.000000
0.246136 0.015780 0.000000
0.280822 0.010751 0.000000
0.315491 0.005535 0.000000
0.349579 0.001224 0.000000
0.383746 0.000429 0.000000
0.417981 0.000289 0.000000
0.452125 0.000109 0.000000
0.486116 0.000009 0.000000
0.520107 0.000000 0.000000
0.553988 0.000000 0.000000
0.588094 0.000000 0.000000
0.622226 0.000000 0.000000
0.656325 0.000000 0.000000
0.690315 0.000000 0.000000
0.723321 0.000000 0.000000
0.755749 0.000000 0.000000
0.788079 0.000000 0.000000
0.820340 0.000000 0.000000
0.852407 0.000000 0.000000
0.884611 0.000000 0.000000
0.916419 0.000000 0.000000
0.948426 0.000000 0.000000
0.980425 0.000000 0.000000
0.999905 0.000000 0.000000
1.000000 0.000000 0.000000
0.000000 0.067234 0.000000
0.026782 0.066273 0.000000
0.064331 0.065235 0.000000
0.101030 0.063516 0.000000
0.137036 0.062015 0.000000
0.173196 0.060039 0.000000
0.209109 0.057647 0.000000
0.244270 0.054705 0.000000
0.279306 0.051531 0.000000
0.313758 0.047437 0.000000
0.348235 0.043243 0.000000
0.382570 0.038759 0.000000
0.416732 0.033974 0.000000
0.450968 0.029187 0.000000
0.484974 0.025593 0.000000
0.518989 0.022206 0.000000
0.553232 0.015842 0.000000
0.587350 0.009251 0.000000
0.621570 0.002718 0.000000
0.655717 0.001242 0.000000
0.689803 0.000643 0.000000
0.722809 0.000071 0.000000
0.755245 0.000000 0.000000
0.787585 0.000000 0.000000
0.819843 0.000000 0.000000
0.852101 0.000000 0.000000
0.884168 0.000000 0.000000
0.916373 0.000000 0.000000
0.948181 0.000000 0.000000
0.980173 0.000000 0.000000
0.999898 0.000000 0.000000
1.000000 0.000000 0.000000
0.000000 0.100752 0.000000
0.019834 0.100217 0.000000
0.059542 0.098821 0.000000
0.097047 0.097708 0.000000
0.133502 0.096325 0.000000
0.169967 0.095533 0.000000
0.205990 0.094135 0.000000
0.241454 0.092773 0.000000
0.276639 0.091130 0.000000
0.311543 0.088990 0.000000
0.346228 0.087179 0.000000
0.380708 0.084604 0.000000
0.414975 0.082549 0.000000
0.449311 0.079521 0.000000
0.483485 0.076561 0.000000
0.517842 0.072845 0.000000
0.551995 0.068927 0.000000
0.586238 0.063991 0.000000
0.620495 0.058245 0.000000
0.654945 0.051865 0.000000
0.689039 0.043923 0.000000
0.721982 0.034355 0.000000
0.754499 0.023885 0.000000
0.787008 0.012160 0.000000
0.819342 0.003268 0.000000
0.851605 0.001503 0.000000
0.883863 0.000099 0.000000
0.915877 0.000000 0.000000
0.947914 0.000000 0.000000
0.979906 0.000000 0.000000
0.999889 0.000000 0.000000
1.000000 0.000000 0.000000
0.000000 0.134011 0.000000
0.012276 0.133476 0.000000
0.053405 0.132713 0.000000
0.093314 0.131522 0.000000
0.130194 0.130013 0.000000
0.165993 0.129242 0.000000
0.202282 0.128772 0.000000
0.238150 0.128260 0.000000
0.273764 0.127331 0.000000
0.308630 0.126451 0.000000
0.343611 0.124944 0.000000
0.378282 0.123565 0.000000
0.412796 0.121726 0.000000
0.447091 0.119813 0.000000
0.481720 0.117605 0.000000
0.516105 0.115176 0.000000
0.550482 0.112482 0.000000
0.584956 0.109214 0.000000
0.619245 0.105812 0.000000
0.653700 0.101642 0.000000
0.687806 0.097270 0.000000
0.720989 0.091688 0.000000
0.753561 0.085342 0.000000
0.786096 0.077804 0.000000
0.818575 0.069241 0.000000
0.851036 0.057885 0.000000
0.883157 0.043564 0.000000
0.915381 0.027042 0.000000
0.947415 0.006676 0.000000
0.979424 0.002931 0.000000
0.999873 0.000021 0.000000
1.000000 0.000000 0.000000
0.000000 0.167191 0.000000
0.005284 0.166489 0.000000
0.046752 0.165980 0.000000
0.088621 0.165008 0.000000
0.126711 0.163787 0.000000
0.162340 0.162518 0.000000
0.197827 0.161401 0.000000
0.233982 0.161360 0.000000
0.269912 0.161306 0.000000
0.305329 0.160849 0.000000
0.340360 0.160109 0.000000
0.375304 0.159116 0.000000
0.410083 0.157965 0.000000
0.444925 0.156619 0.000000
0.479580 0.154837 0.000000
0.514202 0.153219 0.000000
0.548817 0.151254 0.000000
0.583237 0.148805 0.000000
0.617827 0.146016 0.000000
0.652236 0.143196 0.000000
0.686541 0.139970 0.000000
0.719713 0.135960 0.000000
0.752468 0.131408 0.000000
0.785070 0.125995 0.000000
0.817771 0.120309 0.000000
0.850116 0.113585 0.000000
0.882587 0.105477 0.000000
0.914845 0.096074 0.000000
0.946898 0.084364 0.000000
0.978925 0.070824 0.000000
0.999857 0.044624 0.000000
1.000000 0.008035 0.000000
0.000000 0.199945 0.000000
0.000538 0.199456 0.000000
0.040192 0.198952 0.000000
0.084277 0.198193 0.000000
0.123384 0.197290 0.000000
0.159746 0.196053 0.000000
0.194731 0.194769 0.000000
0.229632 0.193721 0.000000
0.265713 0.194100 0.000000
0.301430 0.194238 0.000000
0.336886 0.194021 0.000000
0.372139 0.193486 0.000000
0.407310 0.192619 0.000000
0.442294 0.191823 0.000000
0.477170 0.190523 0.000000
0.511843 0.189208 0.000000
0.546702 0.187593 0.000000
0.581346 0.185773 0.000000
0.616086 0.183611 0.000000
0.650628 0.181365 0.000000
0.684935 0.178748 0.000000
0.718146 0.175493 0.000000
0.751152 0.171775 0.000000
0.783977 0.167525 0.000000
0.816535 0.163296 0.000000
0.849289 0.157868 0.000000
0.881634 0.151933 0.000000
0.914097 0.145571 0.000000
0.946177 0.137690 0.000000
0.978372 0.128798 0.000000
0.999841 0.116315 0.000000
1.000000 0.095868 0.000000
0.000000 0.232644 0.000000
0.000287 0.232211 0.000000
0.032845 0.231939 0.000000
0.079491 0.231431 0.000000
0.119658 0.230518 0.000000
0.156802 0.229706 0.000000
0.192335 0.228669 0.000000
0.227083 0.227229 0.000000
0.261641 0.226041 0.000000
0.297475 0.226500 0.000000
0.333247 0.226783 0.000000
0.368667 0.226697 0.000000
0.404012 0.226311 0.000000
0.439316 0.225625 0.000000
0.474435 0.224903 0.000000
0.509365 0.223908 0.000000
0.544351 0.222692 0.000000
0.579117 0.221255 0.000000
0.614077 0.219442 0.000000
0.648840 0.217548 0.000000
0.683056 0.215534 0.000000
0.716474 0.212685 0.000000
0.749663 0.209555 0.000000
0.782529 0.206231 0.000000
0.815444 0.202275 0.000000
0.848241 0.198122 0.000000
0.880760 0.193358 0.000000
0.913104 0.188200 0.000000
0.945417 0.182150 0.000000
0.977620 0.175246 0.000000
0.999817 0.167250 0.000000
1.000000 0.153255 0.000000
0.000000 0.265454 0.000000
0.000000 0.265201 0.000000
0.022562 0.264768 0.000000
0.072542 0.264272 0.000000
0.114940 0.263744 0.000000
0.153016 0.262967 0.000000
0.189543 0.261968 0.000000
0.224853 0.260915 0.000000
0.259530 0.259530 0.000000
0.293686 0.258432 0.000000
0.329508 0.258589 0.000000
0.365261 0.259001 0.000000
0.400922 0.259041 0.000000
0.436223 0.258721 0.000000
0.471577 0.258261 0.000000
0.506819 0.257496 0.000000
0.541841 0.256536 0.000000
0.576959 0.255410 0.000000
0.611845 0.254089 0.000000
0.646792 0.252628 0.000000
0.681035 0.250732 0.000000
0.714617 0.248336 0.000000
0.747912 0.245726 0.000000
0.781134 0.242860 0.000000
0.813998 0.239593 0.000000
0.846997 0.236008 0.000000
0.879570 0.232108 0.000000
0.912112 0.227539 0.000000
0.944614 0.222565 0.000000
0.976872 0.216889 0.000000
0.999793 0.210640 0.000000
1.000000 0.200354 0.000000
0.000000 0.298208 0.000000
0.000000 0.298027 0.000000
0.006774 0.297708 0.000000
0.062095 0.297278 0.000000
0.108041 0.296773 0.000000
0.148123 0.296042 0.000000
0.186033 0.295254 0.000000
0.222033 0.294261 0.000000
0.257337 0.293224 0.000000
0.291909 0.291859 0.000000
0.326002 0.290711 0.000000
0.361716 0.290852 0.000000
0.397519 0.291083 0.000000
0.433251 0.291156 0.000000
0.468660 0.290977 0.000000
0.503969 0.290520 0.000000
0.539325 0.289934 0.000000
0.574477 0.289008 0.000000
0.609571 0.288054 0.000000
0.644598 0.286845 0.000000
0.678979 0.285265 0.000000
0.712609 0.283107 0.000000
0.746126 0.280798 0.000000
0.779429 0.278294 0.000000
0.812644 0.275316 0.000000
0.845565 0.272242 0.000000
0.878478 0.268727 0.000000
0.911087 0.264852 0.000000
0.943598 0.260475 0.000000
0.975879 0.255673 0.000000
0.999767 0.250072 0.000000
1.000000 0.242199 0.000000
0.000000 0.331041 0.000000
0.000000 0.330797 0.000000
0.000847 0.330707 0.000000
0.047082 0.330285 0.000000
0.099821 0.329788 0.000000
0.142246 0.329292 0.000000
0.181172 0.328520 0.000000
0.218329 0.327719 0.000000
0.254535 0.326764 0.000000
0.289621 0.325583 0.000000
0.324290 0.324237 0.000000
0.358485 0.323056 0.000000
0.394045 0.323021 0.000000
0.429777 0.323313 0.000000
0.465509 0.323404 0.000000
0.501161 0.323195 0.000000
0.536437 0.322778 0.000000
0.571826 0.322116 0.000000
0.607057 0.321445 0.000000
0.642175 0.320485 0.000000
0.676549 0.318984 0.000000
0.710489 0.317159 0.000000
0.744118 0.315121 0.000000
0.777636 0.312876 0.000000
0.810965 0.310345 0.000000
0.844216 0.307582 0.000000
0.877018 0.304513 0.000000
0.909851 0.301062 0.000000
0.942605 0.297263 0.000000
0.975115 0.292828 0.000000
0.999743 0.288204 0.000000
1.000000 0.281768 0.000000
0.000000 0.364047 0.000000
0.000000 0.363803 0.000000
0.000000 0.363701 0.000000
0.026488 0.363449 0.000000
0.087703 0.363039 0.000000
0.134439 0.362529 0.000000
0.175077 0.361802 0.000000
0.213789 0.361007 0.000000
0.250933 0.360101 0.000000
0.286819 0.359083 0.000000
0.322081 0.358037 0.000000
0.356706 0.356792 0.000000
0.390939 0.355425 0.000000
0.426252 0.355277 0.000000
0.462121 0.355595 0.000000
0.497853 0.355571 0.000000
0.533499 0.355369 0.000000
0.568987 0.354997 0.000000
0.604353 0.354539 0.000000
0.639505 0.353736 0.000000
0.673930 0.352397 0.000000
0.708066 0.350881 0.000000
0.741999 0.349008 0.000000
0.775832 0.347048 0.000000
0.809146 0.344716 0.000000
0.842483 0.342235 0.000000
0.875601 0.339318 0.000000
0.908527 0.336276 0.000000
0.941360 0.332822 0.000000
0.973894 0.328964 0.000000
0.999711 0.324587 0.000000
1.000000 0.319477 0.000000
0.000000 0.396959 0.000000
0.000000 0.396951 0.000000
0.000000 0.396705 0.000000
0.005261 0.396456 0.000000
0.072320 0.396046 0.000000
0.124282 0.395549 0.000000
0.168114 0.395035 0.000000
0.208188 0.394279 0.000000
0.246311 0.393509 0.000000
0.283252 0.392516 0.000000
0.319003 0.391476 0.000000
0.354311 0.390382 0.000000
0.389145 0.389108 0.000000
0.423411 0.387869 0.000000
0.458603 0.387439 0.000000
0.494537 0.387735 0.000000
0.530269 0.387631 0.000000
0.565851 0.387503 0.000000
0.601442 0.387112 0.000000
0.636735 0.386611 0.000000
0.671301 0.385559 0.000000
0.705691 0.384103 0.000000
0.739761 0.382615 0.000000
0.773714 0.380770 0.000000
0.807350 0.378694 0.000000
0.840900 0.376355 0.000000
0.874025 0.373777 0.000000
0.907251 0.371039 0.000000
0.940037 0.367931 0.000000
0.972886 0.364243 0.000000
0.999671 0.360381 0.000000
1.000000 0.355863 0.000000
0.000000 0.430060 0.000000
0.000000 0.429953 0.000000
0.000000 0.429705 0.000000
0.000686 0.429456 0.000000
0.050931 0.429052 0.000000
0.112543 0.428664 0.000000
0.159738 0.428059 0.000000
0.201432 0.427531 0.000000
0.241128 0.426786 0.000000
0.278763 0.426041 0.000000
0.315485 0.425019 0.000000
0.351310 0.424026 0.000000
0.386750 0.422837 0.000000
0.421493 0.421553 0.000000
0.455898 0.420110 0.000000
0.491010 0.419599 0.000000
0.526848 0.419867 0.000000
0.562771 0.419843 0.000000
0.598421 0.419761 0.000000
0.633755 0.419118 0.000000
0.668600 0.418343 0.000000
0.703062 0.417173 0.000000
0.737453 0.415751 0.000000
0.771591 0.414132 0.000000
0.805474 0.412210 0.000000
0.839111 0.410130 0.000000
0.872495 0.407877 0.000000
0.905762 0.405275 0.000000
0.938792 0.402324 0.000000
0.971649 0.399118 0.000000
0.999639 0.395502 0.000000
1.000000 0.391398 0.000000
0.000000 0.463067 0.000000
0.000000 0.462952 0.000000
0.000000 0.462815 0.000000
0.000000 0.462568 0.000000
0.020681 0.462303 0.000000
0.096613 0.461806 0.000000
0.148992 0.461310 0.000000
0.193740 0.460814 0.000000
0.234837 0.460073 0.000000
0.273694 0.459294 0.000000
0.311068 0.458514 0.000000
0.347741 0.457473 0.000000
0.383717 0.456395 0.000000
0.419007 0.455300 0.000000
0.453861 0.453994 0.000000
0.488416 0.452619 0.000000
0.523374 0.451857 0.000000
0.559248 0.451991 0.000000
0.595086 0.452101 0.000000
0.630530 0.451707 0.000000
0.665556 0.450881 0.000000
0.700406 0.449970 0.000000
0.734940 0.448722 0.000000
0.769243 0.447383 0.000000
0.803324 0.445650 0.000000
0.837126 0.443720 0.000000
0.870761 0.441601 0.000000
0.904259 0.439159 0.000000
0.937403 0.436422 0.000000
0.970405 0.433479 0.000000
0.999599 0.429998 0.000000
1.000000 0.426035 0.000000
0.000000 0.496073 0.000000
0.000000 0.495951 0.000000
0.000000 0.495821 0.000000
0.000000 0.495573 0.000000
0.003377 0.495325 0.000000
0.076569 0.494958 0.000000
0.136458 0.494465 0.000000
0.184309 0.494038 0.000000
0.227426 0.493324 0.000000
0.267764 0.492673 0.000000
0.306154 0.491843 0.000000
0.343566 0.491016 0.000000
0.380220 0.489897 0.000000
0.416017 0.488905 0.000000
0.451444 0.487668 0.000000
0.486313 0.486313 0.000000
0.520800 0.485007 0.000000
0.555820 0.484169 0.000000
0.591681 0.484115 0.000000
0.627287 0.483965 0.000000
0.662573 0.483388 0.000000
0.697642 0.482681 0.000000
0.732420 0.481689 0.000000
0.766915 0.480389 0.000000
0.801123 0.478900 0.000000
0.835141 0.477072 0.000000
0.869006 0.474985 0.000000
0.902525 0.472781 0.000000
0.936024 0.470287 0.000000
0.969057 0.467462 0.000000
0.999559 0.464371 0.000000
1.000000 0.460656 0.000000
0.000000 0.529080 0.000000
0.000000 0.528953 0.000000
0.000000 0.528835 0.000000
0.000000 0.528698 0.000000
0.000000 0.528450 0.000000
0.046224 0.528063 0.000000
0.120710 0.527692 0.000000
0.173524 0.527162 0.000000
0.218713 0.526575 0.000000
0.260787 0.526007 0.000000
0.300399 0.525259 0.000000
0.338779 0.524311 0.000000
0.376068 0.523446 0.000000
0.412454 0.522354 0.000000
0.448328 0.521235 0.000000
0.483701 0.520117 0.000000
0.518758 0.518754 0.000000
0.553372 0.517326 0.000000
0.588187 0.516406 0.000000
0.623936 0.516224 0.000000
0.659514 0.515895 0.000000
0.694750 0.515395 0.000000
0.729657 0.514443 0.000000
0.764433 0.513333 0.000000
0.798837 0.511907 0.000000
0.833132 0.510221 0.000000
0.867147 0.508460 0.000000
0.900894 0.506267 0.000000
0.934302 0.503927 0.000000
0.967797 0.501217 0.000000
0.999515 0.498243 0.000000
1.000000 0.494899 0.000000
0.000000 0.561818 0.000000
0.000000 0.561815 0.000000
0.000000 0.561574 0.000000
0.000000 0.561451 0.000000
0.000000 0.561202 0.000000
0.010886 0.560936 0.000000
0.100669 0.560461 0.000000
0.160085 0.560163 0.000000
0.208894 0.559628 0.000000
0.252668 0.558951 0.000000
0.293824 0.558301 0.000000
0.332940 0.557431 0.000000
0.371060 0.556567 0.000000
0.408146 0.555642 0.000000
0.444647 0.554673 0.000000
0.480586 0.553547 0.000000
0.515960 0.552375 0.000000
0.550963 0.551073 0.000000
0.585749 0.549829 0.000000
0.620495 0.548543 0.000000
0.656245 0.548316 0.000000
0.691729 0.547942 0.000000
0.727008 0.547159 0.000000
0.761790 0.546205 0.000000
0.796551 0.544913 0.000000
0.830990 0.543424 0.000000
0.865123 0.541709 0.000000
0.899122 0.539746 0.000000
0.932790 0.537430 0.000000
0.966292 0.534948 0.000000
0.999345 0.531986 0.000000
1.000000 0.528764 0.000000
0.000000 0.594462 0.000000
0.000000 0.594320 0.000000
0.000000 0.594209 0.000000
0.000000 0.594053 0.000000
0.000000 0.593819 0.000000
0.001470 0.593462 0.000000
0.073001 0.593194 0.000000
0.144153 0.592721 0.000000
0.197177 0.592201 0.000000
0.243333 0.591705 0.000000
0.285902 0.591176 0.000000
0.326381 0.590432 0.000000
0.365434 0.589625 0.000000
0.403250 0.588783 0.000000
0.440276 0.587854 0.000000
0.476653 0.586797 0.000000
0.512600 0.585805 0.000000
0.548220 0.584632 0.000000
0.583391 0.583473 0.000000
0.618252 0.582087 0.000000
0.652993 0.580938 0.000000
0.688574 0.580447 0.000000
0.724030 0.579881 0.000000
0.759190 0.578959 0.000000
0.793989 0.577888 0.000000
0.828705 0.576533 0.000000
0.863138 0.574942 0.000000
0.897155 0.572996 0.000000
0.931057 0.570919 0.000000
0.964804 0.568553 0.000000
0.998207 0.565733 0.000000
1.000000 0.562511 0.000000
0.000000 0.626972 0.000000
0.000000 0.626820 0.000000
0.000000 0.626718 0.000000
0.000000 0.626484 0.000000
0.000000 0.626322 0.000000
0.000000 0.626075 0.000000
0.028626 0.625722 0.000000
0.123377 0.625452 0.000000
0.182854 0.624956 0.000000
0.232215 0.624459 0.000000
0.276947 0.623933 0.000000
0.318813 0.623223 0.000000
0.358809 0.622574 0.000000
0.397542 0.621829 0.000000
0.435264 0.621041 0.000000
0.472354 0.620048 0.000000
0.508708 0.619055 0.000000
0.544815 0.618063 0.000000
0.580409 0.616976 0.000000
0.615739 0.615739 0.000000
0.650670 0.614536 0.000000
0.685590 0.613228 0.000000
0.721009 0.612635 0.000000
0.756399 0.611934 0.000000
0.791451 0.610892 0.000000
0.826363 0.609532 0.000000
0.860884 0.608193 0.000000
0.895164 0.606377 0.000000
0.929309 0.604397 0.000000
0.963165 0.602048 0.000000
0.996818 0.599475 0.000000
1.000000 0.596014 0.000000
0.000000 0.659325 0.000000
0.000000 0.659322 0.000000
0.000000 0.659228 0.000000
0.000000 0.659072 0.000000
0.000000 0.658963 0.000000
0.000000 0.658724 0.000000
0.005486 0.658331 0.000000
0.095611 0.658084 0.000000
0.165523 0.657710 0.000000
0.219316 0.657214 0.000000
0.266437 0.656717 0.000000
0.310192 0.656135 0.000000
0.351376 0.655481 0.000000
0.391196 0.654832 0.000000
0.429556 0.654086 0.000000
0.467281 0.653217 0.000000
0.504368 0.652306 0.000000
0.540801 0.651314 0.000000
0.576842 0.650321 0.000000
0.612551 0.649275 0.000000
0.648005 0.648036 0.000000
0.683075 0.646796 0.000000
0.718120 0.645664 0.000000
0.753492 0.644829 0.000000
0.788790 0.643897 0.000000
0.823940 0.642758 0.000000
0.858726 0.641418 0.000000
0.893166 0.639710 0.000000
0.927552 0.637757 0.000000
0.961566 0.635690 0.000000
0.995329 0.633067 0.000000
1.000000 0.629603 0.000000
0.000000 0.691827 0.000000
0.000000 0.691825 0.000000
0.000000 0.691738 0.000000
0.000000 0.691575 0.000000
0.000000 0.691339 0.000000
0.000000 0.691233 0.000000
0.000000 0.690984 0.000000
0.049735 0.690716 0.000000
0.143534 0.690299 0.000000
0.203648 0.689851 0.000000
0.254190 0.689472 0.000000
0.299842 0.688976 0.000000
0.342747 0.688385 0.000000
0.383439 0.687706 0.000000
0.422892 0.686963 0.000000
0.461452 0.686220 0.000000
0.499123 0.685391 0.000000
0.536142 0.684564 0.000000
0.572720 0.683572 0.000000
0.608965 0.682579 0.000000
0.644811 0.681536 0.000000
0.680296 0.680350 0.000000
0.715530 0.679161 0.000000
0.750742 0.677919 0.000000
0.786057 0.676884 0.000000
0.821293 0.675906 0.000000
0.856384 0.674694 0.000000
0.891150 0.673136 0.000000
0.925645 0.671251 0.000000
0.959833 0.669193 0.000000
0.993840 0.666722 0.000000
1.000000 0.663264 0.000000
0.000000 0.724329 0.000000
0.000000 0.724259 0.000000
0.000000 0.724247 0.000000
0.000000 0.724078 0.000000
0.000000 0.723841 0.000000
0.000000 0.723742 0.000000
0.000000 0.723492 0.000000
0.009936 0.723227 0.000000
0.112927 0.722975 0.000000
0.184051 0.722478 0.000000
0.239374 0.722061 0.000000
0.287822 0.721730 0.000000
0.332695 0.720989 0.000000
0.374725 0.720493 0.000000
0.415313 0.719848 0.000000
0.454737 0.719222 0.000000
0.493130 0.718390 0.000000
0.530860 0.717609 0.000000
0.567978 0.716822 0.000000
0.604659 0.715830 0.000000
0.640884 0.714837 0.000000
0.676876 0.713845 0.000000
0.712558 0.712781 0.000000
0.748088 0.711563 0.000000
0.783387 0.710363 0.000000
0.818699 0.709142 0.000000
0.853968 0.708090 0.000000
0.888898 0.706629 0.000000
0.923660 0.704739 0.000000
0.958089 0.702706 0.000000
0.992343 0.700301 0.000000
1.000000 0.697011 0.000000
0.000000 0.756769 0.000000
0.000000 0.756763 0.000000
0.000000 0.756587 0.000000
0.000000 0.756524 0.000000
0.000000 0.756343 0.000000
0.000000 0.756251 0.000000
0.000000 0.756001 0.000000
0.000000 0.755751 0.000000
0.064967 0.755350 0.000000
0.158894 0.755051 0.000000
0.221361 0.754736 0.000000
0.273532 0.754240 0.000000
0.320609 0.753744 0.000000
0.364746 0.753247 0.000000
0.406532 0.752641 0.000000
0.447061 0.752011 0.000000
0.486234 0.751270 0.000000
0.524678 0.750612 0.000000
0.562438 0.749829 0.000000
0.599670 0.749010 0.000000
0.636541 0.748088 0.000000
0.672961 0.747095 0.000000
0.709081 0.746103 0.000000
0.744866 0.744929 0.000000
0.780549 0.743873 0.000000
0.815972 0.742672 0.000000
0.851458 0.741429 0.000000
0.886668 0.740132 0.000000
0.921487 0.738405 0.000000
0.956170 0.736437 0.000000
0.990610 0.733979 0.000000
1.000000 0.730757 0.000000
0.000000 0.789279 0.000000
0.000000 0.789090 0.000000
0.000000 0.789086 0.000000
0.000000 0.789016 0.000000
0.000000 0.788838 0.000000
0.000000 0.788601 0.000000
0.000000 0.788510 0.000000
0.000000 0.788259 0.000000
0.012478 0.788009 0.000000
0.123866 0.787743 0.000000
0.198493 0.787325 0.000000
0.256257 0.786994 0.000000
0.306541 0.786498 0.000000
0.352729 0.786002 0.000000
0.396295 0.785506 0.000000
0.437872 0.784863 0.000000
0.478176 0.784269 0.000000
0.517525 0.783528 0.000000
0.556012 0.782867 0.000000
0.593932 0.782087 0.000000
0.631313 0.781130 0.000000
0.668226 0.780346 0.000000
0.704896 0.779353 0.000000
0.741154 0.778361 0.000000
0.777167 0.777325 0.000000
0.813056 0.776168 0.000000
0.848731 0.775093 0.000000
0.884169 0.773854 0.000000
0.919233 0.772164 0.000000
0.954185 0.770196 0.000000
0.988688 0.767726 0.000000
1.000000 0.764693 0.000000
0.000000 0.821592 0.000000
0.000000 0.821591 0.000000
0.000000 0.821545 0.000000
0.000000 0.821348 0.000000
0.000000 0.821342 0.000000
0.000000 0.821104 0.000000
0.000000 0.821018 0.000000
0.000000 0.820768 0.000000
0.000000 0.820517 0.000000
0.063643 0.820267 0.000000
0.168309 0.819867 0.000000
0.234859 0.819521 0.000000
0.289472 0.819132 0.000000
0.338607 0.818756 0.000000
0.384228 0.818260 0.000000
0.427446 0.817567 0.000000
0.469013 0.817023 0.000000
0.509218 0.816393 0.000000
0.548683 0.815759 0.000000
0.587417 0.815017 0.000000
0.625287 0.814275 0.000000
0.662988 0.813384 0.000000
0.700022 0.812604 0.000000
0.736875 0.811611 0.000000
0.773353 0.810619 0.000000
0.809429 0.809626 0.000000
0.845602 0.808594 0.000000
0.881287 0.807422 0.000000
0.916976 0.806137 0.000000
0.952003 0.804372 0.000000
0.986697 0.801906 0.000000
1.000000 0.798937 0.000000
0.000000 0.854055 0.000000
0.000000 0.854048 0.000000
0.000000 0.853850 0.000000
0.000000 0.853846 0.000000
0.000000 0.853784 0.000000
0.000000 0.853600 0.000000
0.000000 0.853362 0.000000
0.000000 0.853276 0.000000
0.000000 0.853025 0.000000
0.009182 0.852774 0.000000
0.125320 0.852511 0.000000
0.207024 0.852127 0.000000
0.268812 0.851763 0.000000
0.321869 0.851266 0.000000
0.369815 0.850809 0.000000
0.415205 0.850274 0.000000
0.458161 0.849777 0.000000
0.499720 0.849281 0.000000
0.540149 0.848541 0.000000
0.579731 0.848020 0.000000
0.618471 0.847279 0.000000
0.656730 0.846537 0.000000
0.694446 0.845638 0.000000
0.731726 0.844809 0.000000
0.768719 0.843869 0.000000
0.805404 0.842877 0.000000
0.841851 0.841884 0.000000
0.877895 0.840892 0.000000
0.914061 0.839860 0.000000
0.949737 0.838563 0.000000
0.984505 0.836348 0.000000
1.000000 0.833385 0.000000
0.000000 0.886352 0.000000
0.000000 0.886352 0.000000
0.000000 0.886350 0.000000
0.000000 0.886300 0.000000
0.000000 0.886108 0.000000
0.000000 0.886042 0.000000
0.000000 0.885858 0.000000
0.000000 0.885620 0.000000
0.000000 0.885533 0.000000
0.000000 0.885282 0.000000
0.040986 0.885021 0.000000
0.170877 0.884632 0.000000
0.243051 0.884273 0.000000
0.301505 0.883897 0.000000
0.353203 0.883524 0.000000
0.400931 0.883028 0.000000
0.445870 0.882532 0.000000
0.488917 0.882036 0.000000
