gsg/01_Basics/GSG_LUT_Basic_WarmlFadedBlacks.cube
# GSG LUTs 1.0
# Copyright (c) 2016-2020 Greyscalegorilla
# See EULA for licensing and distribution information
# Converted by Briz LUT Converter
LUT_3D_SIZE 5
DOMAIN_MIN 0.000000 0.000000 0.000000
DOMAIN_MAX 0.903226 0.903226 0.903226
0.102564 0.097680 0.087424
0.280720 0.095916 0.084139
0.515743 0.089535 0.072110
0.766883 0.075608 0.038213
0.963504 0.055331 0.000000
0.113884 0.272307 0.083650
0.284438 0.271629 0.080121
0.517508 0.269950 0.067549
0.768043 0.266635 0.026252
0.964481 0.262728 0.000000
0.143338 0.500870 0.070645
0.295514 0.500626 0.066218
0.523045 0.499760 0.049003
0.771499 0.498129 0.000000
0.967033 0.496365 0.000000
0.184891 0.745063 0.028666
0.315270 0.744819 0.006028
0.533247 0.744330 0.000000
0.777959 0.743300 0.000000
0.971917 0.742298 0.000000
0.220812 0.936177 0.000000
0.335673 0.935957 0.000000
0.544435 0.935689 0.000000
0.785064 0.934807 0.000000
0.977423 0.933982 0.000000
0.106093 0.099445 0.245413
0.281941 0.097436 0.244479
0.516256 0.091299 0.241451
0.767293 0.077860 0.235669
0.963753 0.058372 0.228831
0.117169 0.272808 0.244437
0.285470 0.272151 0.243483
0.518039 0.270462 0.240432
0.768390 0.267124 0.234499
0.964725 0.263228 0.227610
0.145835 0.501115 0.241121
0.296521 0.500870 0.240116
0.523564 0.500021 0.237017
0.771807 0.498394 0.231029
0.967277 0.496609 0.224068
0.186656 0.745228 0.234747
0.316157 0.744998 0.233715
0.533752 0.744496 0.230483
0.778282 0.743519 0.224201
0.972177 0.742393 0.216999
0.222309 0.936201 0.227177
0.336461 0.936177 0.226158
0.544946 0.935702 0.222767
0.785358 0.934964 0.216322
0.977667 0.934223 0.208752
0.116680 0.104494 0.451991
0.285311 0.102730 0.451503
0.518051 0.096837 0.450037
0.768305 0.084450 0.447296
0.964604 0.067360 0.444177
0.126724 0.274285 0.451472
0.288908 0.273768 0.451007
0.519766 0.271991 0.449549
0.769380 0.268674 0.446798
0.965460 0.264896 0.443686
0.153326 0.501847 0.449854
0.299781 0.501603 0.449404
0.525243 0.500742 0.447974
0.772821 0.499147 0.445159
0.968020 0.497341 0.442106
0.192229 0.745626 0.446808
0.319199 0.745500 0.446405
0.535352 0.744984 0.444915
0.779259 0.744007 0.442113
0.972965 0.742833 0.438993
0.226883 0.936665 0.443444
0.339381 0.936442 0.442956
0.546494 0.936122 0.441545
0.786372 0.935295 0.438746
0.978400 0.934469 0.435519
0.133916 0.113073 0.672275
0.291685 0.111552 0.672031
0.521171 0.106259 0.671188
0.770223 0.095482 0.669424
0.966119 0.081114 0.667564
0.142495 0.277112 0.672031
0.295159 0.276615 0.671787
0.522935 0.274829 0.670810
0.771316 0.271629 0.669154
0.966960 0.267927 0.667279
0.166245 0.503277 0.671054
0.305833 0.502989 0.670775
0.528289 0.502182 0.669867
0.774803 0.500621 0.668153
0.969491 0.498792 0.666268
0.202316 0.746528 0.669180
0.324771 0.746284 0.668910
0.538387 0.745795 0.668009
0.781195 0.744838 0.666285
0.974412 0.743763 0.664390
0.235228 0.937178 0.667092
0.344496 0.937154 0.666832
0.549474 0.936686 0.665910
0.788356 0.935951 0.664233
0.979880 0.935200 0.662229
0.150577 0.122053 0.844941
0.298596 0.120533 0.844697
0.524645 0.115948 0.843977
0.772476 0.106156 0.842594
0.967876 0.093797 0.841280
0.158124 0.280287 0.844647
0.302001 0.279798 0.844452
0.526409 0.278042 0.843733
0.773527 0.274804 0.842355
0.968620 0.271141 0.841035
0.179322 0.504778 0.843864
0.312380 0.504533 0.843620
0.531782 0.503739 0.842994
0.776940 0.502163 0.841703
0.971206 0.500380 0.840212
0.212817 0.747505 0.842506
0.330931 0.747261 0.842262
0.541747 0.746772 0.841577
0.783392 0.745790 0.840202
0.976133 0.744725 0.838836
0.243985 0.937910 0.840834
0.350186 0.937886 0.840590
0.552704 0.937421 0.839968
0.790437 0.936688 0.838672
0.981572 0.935933 0.837191
