gsg/01_Basics/GSG_LUT_Basic_CleanLook.cube
# GSG LUTs 1.0
# Copyright (c) 2016-2020 Greyscalegorilla
# See EULA for licensing and distribution information
# Converted by Briz LUT Converter
LUT_3D_SIZE 5
DOMAIN_MIN 0.000000 0.000000 0.000000
DOMAIN_MAX 0.903226 0.903226 0.903226
0.010989 0.009768 0.012210
0.153216 0.007917 0.017204
0.405955 0.000000 0.014101
0.685328 0.000000 0.000000
0.917240 0.000000 0.000000
0.000000 0.199070 0.059569
0.202831 0.184155 0.046583
0.464016 0.166650 0.000000
0.708592 0.119855 0.000000
0.924282 0.013581 0.000000
0.000000 0.514585 0.140588
0.204763 0.503186 0.116594
0.502265 0.486197 0.084651
0.734834 0.450813 0.000000
0.938441 0.437137 0.000000
0.044500 0.738603 0.298799
0.275084 0.732932 0.285165
0.518028 0.716791 0.246607
0.732341 0.715735 0.245352
0.915349 0.699058 0.188607
0.481106 0.915396 0.533711
0.523833 0.914049 0.527213
0.631901 0.908196 0.502766
0.781654 0.904510 0.492496
0.929568 0.905951 0.510775
0.027650 0.008681 0.155146
0.152254 0.000640 0.137930
0.418899 0.000000 0.125100
0.687471 0.000000 0.077384
0.916305 0.000000 0.000000
0.000000 0.178806 0.218466
0.200358 0.188960 0.213295
0.469172 0.150813 0.166135
0.712322 0.072342 0.095024
0.922125 0.011146 0.000000
0.000000 0.521076 0.295002
0.182398 0.516038 0.279435
0.505983 0.491844 0.254125
0.739872 0.456903 0.174399
0.937060 0.427923 0.000084
0.081569 0.744543 0.393314
0.282577 0.739428 0.382343
0.519424 0.719663 0.342191
0.731512 0.717878 0.344169
0.914563 0.702501 0.295612
0.485405 0.916720 0.573608
0.526637 0.915340 0.567784
0.631407 0.909600 0.545682
0.779362 0.904258 0.528496
0.928048 0.906685 0.547368
0.010170 0.000000 0.397196
0.218332 0.000000 0.392800
0.438763 0.000000 0.375195
0.708720 0.000000 0.350801
0.931403 0.000000 0.264619
0.000000 0.129686 0.441553
0.218865 0.135321 0.440662
0.482453 0.110986 0.420397
0.723221 0.095994 0.382534
0.923580 0.000000 0.283224
0.000000 0.477955 0.507732
0.172141 0.489202 0.509601
0.514278 0.512227 0.507364
0.733284 0.471376 0.448020
0.927210 0.415878 0.350147
0.084482 0.750179 0.566442
0.283958 0.749880 0.561851
0.519699 0.738881 0.542513
0.730698 0.726565 0.527101
0.913810 0.707565 0.471496
0.447102 0.921536 0.651464
0.504462 0.920666 0.652541
0.620054 0.914105 0.641055
0.768191 0.904163 0.607829
0.923239 0.907220 0.627004
0.087857 0.000000 0.625728
0.268583 0.000000 0.624696
0.509772 0.000000 0.619886
0.737889 0.000000 0.609219
0.937540 0.000000 0.577455
0.111003 0.050923 0.641861
0.272551 0.014365 0.642105
0.521596 0.000000 0.638701
0.752785 0.000000 0.628077
0.928644 0.122274 0.591008
0.000000 0.372827 0.667565
0.135707 0.380196 0.670644
0.517384 0.428888 0.672539
0.752481 0.457938 0.666493
0.917082 0.472312 0.625844
0.093298 0.704992 0.709975
0.278397 0.710709 0.712317
0.509976 0.721950 0.713380
0.742634 0.751150 0.723420
0.905537 0.697013 0.652722
0.405484 0.925007 0.783726
0.460277 0.925629 0.782014
0.575638 0.922778 0.767915
0.745873 0.914270 0.747271
0.915526 0.908172 0.739621
0.226996 0.000000 0.842641
0.349584 0.000000 0.841858
0.571250 0.000000 0.839379
0.805482 0.000000 0.832132
0.997558 0.000000 0.820987
0.316476 0.000000 0.848591
0.405919 0.000000 0.848159
0.591064 0.000000 0.841577
0.808991 0.000000 0.832983
0.997160 0.000000 0.823654
0.188141 0.309683 0.857166
0.340533 0.316890 0.857966
0.559014 0.302102 0.852800
0.789149 0.283484 0.844550
0.981668 0.293712 0.835123
0.000000 0.626948 0.868077
0.000112 0.627387 0.868992
0.384311 0.617843 0.863954
0.720686 0.653960 0.857689
0.932390 0.683394 0.851498
0.347134 0.893056 0.902168
0.410527 0.895120 0.903050
0.544333 0.897273 0.901855
0.717943 0.902348 0.899222
0.919900 0.925338 0.909934
