gsg/01_Basics/GSG_LUT_Basic_WarmContrasty.cube
# GSG LUTs 1.0
# Copyright (c) 2016-2020 Greyscalegorilla
# See EULA for licensing and distribution information
# Converted by Briz LUT Converter
LUT_3D_SIZE 8
DOMAIN_MIN 0.000000 0.000000 0.000000
DOMAIN_MAX 0.903226 0.903226 0.903226
0.000000 0.000000 0.000000
0.099965 0.000000 0.000000
0.225657 0.000000 0.000000
0.376399 0.000000 0.000000
0.543928 0.000000 0.000000
0.710528 0.000000 0.000000
0.856190 0.000000 0.000000
0.969782 0.000000 0.000000
0.023853 0.096026 0.000000
0.101737 0.095778 0.000000
0.226232 0.094253 0.000000
0.376757 0.090445 0.000000
0.544173 0.082721 0.000000
0.710697 0.069551 0.000000
0.856434 0.049230 0.000000
0.970003 0.006994 0.000000
0.053756 0.216984 0.000000
0.110796 0.216976 0.000000
0.229934 0.216432 0.000000
0.378723 0.214936 0.000000
0.545457 0.212399 0.000000
0.711568 0.208555 0.000000
0.857166 0.203978 0.000000
0.970572 0.199646 0.000000
0.089558 0.362196 0.000000
0.130063 0.362047 0.000000
0.238646 0.361778 0.000000
0.383484 0.361033 0.000000
0.548631 0.359677 0.000000
0.713892 0.357588 0.000000
0.858970 0.355243 0.000000
0.972075 0.352980 0.000000
0.129505 0.523282 0.000000
0.158871 0.523282 0.000000
0.253731 0.523125 0.000000
0.392329 0.522622 0.000000
0.554311 0.521690 0.000000
0.718075 0.520438 0.000000
0.862331 0.518941 0.000000
0.975036 0.517571 0.000000
0.169050 0.683682 0.000000
0.191574 0.683682 0.000000
0.273882 0.683438 0.000000
0.404530 0.683160 0.000000
0.562451 0.682537 0.000000
0.724086 0.681540 0.000000
0.867218 0.680476 0.000000
0.979148 0.679467 0.000000
0.203813 0.824066 0.000000
0.222175 0.823876 0.000000
0.294740 0.823821 0.000000
0.418069 0.823577 0.000000
0.571622 0.823089 0.000000
0.730872 0.822199 0.000000
0.872685 0.821379 0.000000
0.983859 0.820647 0.000000
0.230974 0.933176 0.000000
0.246820 0.933176 0.000000
0.312953 0.932955 0.000000
0.430163 0.932846 0.000000
0.580070 0.932443 0.000000
0.737099 0.931719 0.000000
0.877737 0.930983 0.000000
0.988318 0.930248 0.000000
0.013683 0.009224 0.083320
0.100484 0.000467 0.082831
0.225743 0.000000 0.080240
0.376411 0.000000 0.072823
0.543928 0.000000 0.056278
0.710528 0.000000 0.005738
0.856379 0.000000 0.000000
0.969782 0.000000 0.000000
0.026846 0.096455 0.082804
0.102418 0.096022 0.082287
0.226452 0.094522 0.079566
0.376889 0.090692 0.072210
0.544190 0.082966 0.055333
0.710772 0.069888 0.005583
0.856434 0.049759 0.000000
0.970006 0.007058 0.000000
0.054850 0.217165 0.079838
0.111284 0.216984 0.079322
0.230164 0.216481 0.076490
0.378843 0.215022 0.068730
0.545457 0.212432 0.050348
0.711685 0.208555 0.004671
0.857215 0.204037 0.000000
0.970572 0.199827 0.000000
0.090228 0.362196 0.071783
0.130552 0.362179 0.071264
0.238793 0.361802 0.067935
0.383678 0.361038 0.058767
0.548631 0.359723 0.033335
0.713899 0.357595 0.000445
0.858980 0.355359 0.000000
0.972075 0.353129 0.000000
0.129890 0.523400 0.052994
0.159134 0.523295 0.052138
0.253865 0.523156 0.047121
0.392452 0.522699 0.029510
0.554437 0.521817 0.003442
0.718151 0.520438 0.000000
0.862358 0.519039 0.000000
0.975162 0.517571 0.000000
0.169538 0.683682 0.004682
0.191828 0.683682 0.004487
0.273928 0.683555 0.003320
0.404713 0.683194 0.000000
0.562572 0.682537 0.000000
0.724130 0.681553 0.000000
0.867218 0.680484 0.000000
0.979290 0.679467 0.000000
0.204081 0.824066 0.000000
0.222419 0.823898 0.000000
0.294936 0.823821 0.000000
0.418142 0.823577 0.000000
0.571649 0.823089 0.000000
0.730996 0.822356 0.000000
0.872685 0.821424 0.000000
0.984030 0.820647 0.000000
0.231026 0.933199 0.000000
0.247022 0.933176 0.000000
0.312970 0.933119 0.000000
0.430321 0.932846 0.000000
0.580082 0.932443 0.000000
0.737211 0.931719 0.000000
0.877742 0.930983 0.000000
0.988318 0.930290 0.000000
0.030911 0.020954 0.188334
0.103289 0.018914 0.188089
0.226925 0.000655 0.187159
0.377021 0.000000 0.184639
0.544417 0.000000 0.179842
0.710813 0.000000 0.172761
0.856483 0.000000 0.164227
0.970026 0.000000 0.155611
0.037875 0.097735 0.188089
0.105187 0.097274 0.187983
0.227642 0.095939 0.187026
0.377462 0.092056 0.184516
0.544661 0.084462 0.179626
0.711017 0.071789 0.172509
0.856678 0.052591 0.164005
0.970104 0.008632 0.155366
0.060491 0.217670 0.187050
0.113734 0.217513 0.186860
0.231155 0.216972 0.185829
0.379438 0.215534 0.183323
0.545852 0.212920 0.178558
0.711956 0.209090 0.171413
0.857459 0.204651 0.162607
0.970774 0.200315 0.153914
0.093427 0.362440 0.184300
0.132574 0.362440 0.184111
0.239863 0.362075 0.183079
0.384250 0.361310 0.180551
0.549009 0.359967 0.175627
0.714214 0.357910 0.168278
0.859215 0.355603 0.159378
0.972319 0.353398 0.150493
0.132010 0.523526 0.179109
0.160730 0.523526 0.178996
0.254858 0.523304 0.177888
0.392972 0.522812 0.175227
0.554712 0.521935 0.170144
0.718427 0.520682 0.162498
0.862582 0.519166 0.153178
0.975193 0.517806 0.143835
0.171066 0.683862 0.171359
0.193178 0.683839 0.171115
0.274851 0.683682 0.170011
0.405217 0.683306 0.167145
0.562939 0.682660 0.161839
0.724463 0.681687 0.153620
0.867462 0.680684 0.143619
0.979381 0.679688 0.133411
0.205286 0.824066 0.161938
0.223459 0.824066 0.161675
0.295719 0.823913 0.160473
0.418644 0.823586 0.157425
0.572090 0.823089 0.151580
0.731258 0.822356 0.142680
0.872929 0.821592 0.131712
0.984099 0.820670 0.120230
0.232201 0.933199 0.152335
0.248055 0.933199 0.152091
0.313747 0.933176 0.150870
0.430803 0.932932 0.147563
0.580471 0.932455 0.141256
0.737579 0.931812 0.131511
0.877983 0.931051 0.119096
0.988562 0.930490 0.106037
0.051589 0.034944 0.314364
0.109953 0.033936 0.314120
0.229446 0.028186 0.313632
0.378447 0.000000 0.312316
0.545244 0.000000 0.309811
0.711505 0.000000 0.306180
0.857133 0.000000 0.301944
0.970500 0.000000 0.297940
0.055804 0.100729 0.314120
0.111705 0.100468 0.314120
0.230210 0.098988 0.313569
0.378936 0.095344 0.312167
0.545576 0.088157 0.309683
0.711703 0.076203 0.306018
0.857242 0.058852 0.301816
0.970600 0.032106 0.297789
0.072236 0.218763 0.313593
0.119752 0.218725 0.313555
0.233717 0.218183 0.312941
0.380882 0.216740 0.311615
0.546845 0.214173 0.309096
0.712615 0.210296 0.305422
0.857953 0.205963 0.301178
0.971259 0.201631 0.297169
0.100944 0.363081 0.312167
0.137658 0.363023 0.312065
0.242350 0.362712 0.311434
0.385624 0.361939 0.310119
0.549947 0.360550 0.307614
0.714927 0.358565 0.303982
0.859798 0.356206 0.299618
0.972807 0.354014 0.295550
0.136988 0.524014 0.309372
0.164749 0.523937 0.309323
0.257170 0.523770 0.308784
0.394328 0.523282 0.307369
0.555704 0.522386 0.304842
0.719097 0.521117 0.301138
0.863163 0.519591 0.296833
0.975697 0.518214 0.292744
0.174759 0.684170 0.305447
0.196412 0.684163 0.305344
0.276961 0.683926 0.304785
0.406517 0.683661 0.303336
0.563841 0.682979 0.300772
0.725114 0.682028 0.296990
0.867977 0.680942 0.292613
0.979871 0.679947 0.288415
0.208342 0.824310 0.300860
0.226262 0.824310 0.300719
0.297696 0.824166 0.300152
0.419917 0.823834 0.298696
0.572943 0.823343 0.296136
0.731903 0.822608 0.292260
0.873455 0.821752 0.287780
0.984588 0.820915 0.283438
0.234741 0.933444 0.296340
0.250392 0.933444 0.296325
0.315507 0.933420 0.295774
0.431948 0.933176 0.294277
0.581340 0.932692 0.291577
0.738107 0.932009 0.287655
0.878541 0.931265 0.283138
0.989050 0.930612 0.278774
0.074647 0.050581 0.454252
0.121131 0.049817 0.454252
0.234393 0.046367 0.453763
0.381197 0.036238 0.452936
0.547046 0.000000 0.451440
0.712852 0.000000 0.449092
0.858117 0.000000 0.446374
0.971361 0.000000 0.443901
0.077324 0.106093 0.454236
0.122659 0.105834 0.454097
0.235157 0.104568 0.453763
0.381575 0.101114 0.452936
0.547297 0.094381 0.451314
0.712986 0.083555 0.449001
0.858269 0.068640 0.446363
0.971482 0.049419 0.443783
0.089369 0.221047 0.453763
0.129958 0.220891 0.453759
0.238449 0.220380 0.453409
0.383508 0.218906 0.452518
0.548589 0.216418 0.450921
0.713892 0.212650 0.448604
0.859026 0.208256 0.445907
0.972125 0.204038 0.443478
0.113167 0.364276 0.452936
0.146386 0.364276 0.452781
0.246918 0.363963 0.452448
0.388326 0.363205 0.451576
0.551688 0.361779 0.450006
0.716155 0.359817 0.447680
0.860806 0.357455 0.444967
0.973666 0.355209 0.442467
0.145756 0.524808 0.451134
0.171885 0.524686 0.451069
0.261411 0.524532 0.450691
0.396942 0.524028 0.449807
0.557428 0.523158 0.448265
0.720357 0.521861 0.445876
0.864165 0.520394 0.443200
0.976573 0.518963 0.440671
0.181362 0.684659 0.448604
0.202166 0.684659 0.448593
0.280868 0.684529 0.448180
0.409051 0.684170 0.447322
0.565426 0.683499 0.445715
0.726352 0.682585 0.443342
0.868972 0.681487 0.440667
0.980731 0.680485 0.438135
0.213715 0.824798 0.445670
0.231124 0.824798 0.445667
0.301264 0.824582 0.445274
0.422336 0.824327 0.444403
0.574553 0.823821 0.442767
0.733125 0.823089 0.440423
0.874445 0.822167 0.437659
0.985448 0.821392 0.435093
0.239434 0.933908 0.443050
0.254833 0.933908 0.442830
0.318782 0.933688 0.442562
0.434304 0.933513 0.441669
0.582882 0.933062 0.440006
0.739341 0.932448 0.437646
0.879537 0.931713 0.434849
0.989908 0.930980 0.432337
0.097460 0.065973 0.593462
0.135377 0.065465 0.593355
0.241135 0.063161 0.593090
0.385072 0.056623 0.592485
0.549532 0.041196 0.591340
0.714593 0.000000 0.589641
0.859522 0.000000 0.587814
0.972626 0.000000 0.585829
0.099487 0.113435 0.593355
0.136661 0.113161 0.593218
0.241871 0.111918 0.592973
0.385348 0.108764 0.592444
0.549782 0.102604 0.591219
0.714837 0.092969 0.589555
0.859766 0.080280 0.587569
0.972705 0.065554 0.585829
0.108732 0.224192 0.592973
0.143117 0.223970 0.592973
0.245135 0.223445 0.592729
0.387358 0.222166 0.592132
0.551060 0.219583 0.590954
0.715697 0.215917 0.589310
0.860408 0.211634 0.587325
0.973379 0.207523 0.585584
0.128402 0.366017 0.592390
0.157946 0.365922 0.592337
0.253236 0.365678 0.592068
0.392041 0.364888 0.591430
0.554096 0.363449 0.590317
0.718010 0.361519 0.588631
0.862303 0.359213 0.586742
0.974918 0.356964 0.584939
0.157378 0.525842 0.591138
0.181503 0.525800 0.591096
0.267376 0.525647 0.590840
0.400559 0.525143 0.590195
0.559796 0.524272 0.588995
0.722140 0.523009 0.587357
0.865635 0.521505 0.585490
0.977808 0.520085 0.583655
0.190422 0.685549 0.589310
0.210186 0.685480 0.589310
0.286357 0.685346 0.589025
0.412504 0.684999 0.588352
0.567884 0.684326 0.587231
0.728151 0.683382 0.585490
0.870393 0.682344 0.583639
0.981982 0.681352 0.581758
0.221328 0.825444 0.587325
0.238028 0.825322 0.587081
0.306311 0.825287 0.586837
0.425653 0.825016 0.586315
0.576931 0.824509 0.585093
0.734901 0.823765 0.583418
0.875843 0.822880 0.581433
0.986699 0.822112 0.579692
0.246036 0.934412 0.585340
0.260908 0.934412 0.585251
0.323575 0.934319 0.584969
0.437618 0.934074 0.584330
0.585200 0.933631 0.583174
0.741064 0.932950 0.581433
0.880909 0.932248 0.579448
0.991162 0.931496 0.577707
0.117452 0.079523 0.715160
0.149718 0.079199 0.715105
0.248683 0.077248 0.714902
0.389287 0.072252 0.714406
0.552386 0.061680 0.713422
0.716665 0.040805 0.712194
0.861263 0.000000 0.710563
0.974104 0.000000 0.709244
0.119225 0.121037 0.715105
0.150757 0.120792 0.715105
0.249238 0.119753 0.714861
0.389708 0.116759 0.714372
0.552630 0.111236 0.713422
0.716833 0.102509 0.712053
0.861286 0.091449 0.710520
0.974129 0.079294 0.709067
0.126677 0.227610 0.714902
0.156586 0.227464 0.714861
0.252459 0.226959 0.714647
0.391602 0.225625 0.714153
0.553886 0.223182 0.713178
0.717705 0.219526 0.711823
0.862058 0.215289 0.710308
0.974842 0.211186 0.708943
0.143511 0.367907 0.714299
0.170002 0.367907 0.714299
0.260309 0.367663 0.714109
0.396264 0.366844 0.713611
0.556893 0.365434 0.712642
0.720028 0.363449 0.711306
0.863871 0.361219 0.709788
0.976415 0.359085 0.708396
0.169569 0.527063 0.713298
0.191957 0.527063 0.713298
0.273969 0.526891 0.713054
0.404679 0.526446 0.712554
0.562588 0.525509 0.711634
0.724167 0.524255 0.710325
0.867187 0.522793 0.708782
0.979259 0.521346 0.707394
0.200291 0.686368 0.711828
0.218965 0.686368 0.711804
0.292377 0.686313 0.711579
0.416493 0.685880 0.711149
0.570613 0.685239 0.710182
0.730167 0.684329 0.708898
0.872047 0.683236 0.707362
0.983413 0.682211 0.705924
0.229532 0.826062 0.710276
0.245615 0.826062 0.710233
0.311968 0.826019 0.710021
0.429491 0.825758 0.709522
0.579597 0.825237 0.708538
0.736886 0.824424 0.707188
0.877517 0.823587 0.705679
0.988142 0.822845 0.704189
0.253317 0.935080 0.708756
0.267768 0.935080 0.708535
0.328852 0.934907 0.708455
0.441255 0.934663 0.707938
0.587921 0.934259 0.706944
0.742987 0.933639 0.705662
0.882557 0.932897 0.704121
0.992469 0.932201 0.702641
0.133168 0.090015 0.809996
0.161605 0.089719 0.809968
0.255300 0.088156 0.809770
0.393312 0.083847 0.809287
0.554886 0.075292 0.808543
0.718650 0.060428 0.807397
0.862759 0.034086 0.806095
0.975375 0.000000 0.804871
0.134452 0.127685 0.809968
0.162670 0.127444 0.809776
0.256056 0.126433 0.809752
0.393670 0.123652 0.809278
0.555159 0.118491 0.808429
0.718695 0.110525 0.807319
0.862855 0.100502 0.805924
0.975427 0.089795 0.804845
0.141059 0.230791 0.809770
0.167987 0.230757 0.809695
0.259089 0.230240 0.809530
0.395577 0.228824 0.809043
0.556414 0.226480 0.808298
0.719690 0.222862 0.807144
0.863610 0.218703 0.805850
0.976114 0.214791 0.804626
0.156115 0.369798 0.809278
0.180420 0.369661 0.809191
0.266648 0.369404 0.809041
0.400152 0.368638 0.808555
0.559582 0.367324 0.807810
0.721952 0.365339 0.806643
0.865436 0.362992 0.805393
0.977668 0.360840 0.804151
0.179924 0.528272 0.808417
0.201016 0.528270 0.808311
0.280076 0.528037 0.808173
0.408555 0.527542 0.807762
0.565144 0.526681 0.806896
0.726070 0.525424 0.805776
0.868704 0.523932 0.804446
0.980534 0.522570 0.803289
0.208862 0.687321 0.807168
0.226758 0.687321 0.807143
0.298011 0.687101 0.806924
0.420168 0.686778 0.806440
0.573114 0.686112 0.805699
0.731966 0.685198 0.804535
0.873552 0.684152 0.803251
0.984742 0.683101 0.802026
0.236819 0.826802 0.805674
0.252401 0.826802 0.805674
0.317132 0.826733 0.805434
0.433025 0.826423 0.805052
0.582092 0.825910 0.804285
0.738689 0.825155 0.803068
0.879027 0.824310 0.801793
0.989447 0.823556 0.800547
0.260008 0.935639 0.804382
0.274008 0.935639 0.804382
0.333745 0.935596 0.804154
0.444730 0.935352 0.803684
0.590296 0.934884 0.802938
0.744968 0.934175 0.801796
0.884051 0.933442 0.800478
0.993712 0.932730 0.799254
