gsg/01_Basics/GSG_LUT_Basic_CleanCoolLook.cube
# GSG LUTs 1.0
# Copyright (c) 2016-2020 Greyscalegorilla
# See EULA for licensing and distribution information
# Converted by Briz LUT Converter
LUT_3D_SIZE 8
DOMAIN_MIN 0.000000 0.000000 0.000000
DOMAIN_MAX 0.903226 0.903226 0.903226
0.000000 0.000000 0.000000
0.032203 0.007271 0.002930
0.105959 0.020883 0.005435
0.226248 0.011958 0.006255
0.383725 0.000000 0.001442
0.542132 0.000000 0.000000
0.688716 0.000000 0.000000
0.826303 0.000000 0.000000
0.000000 0.079688 0.023270
0.026276 0.081035 0.018409
0.138745 0.079531 0.006436
0.266694 0.073248 0.000000
0.419032 0.045377 0.000000
0.565516 0.001564 0.000000
0.703422 0.000000 0.000000
0.833392 0.002440 0.000000
0.000000 0.230848 0.048375
0.000000 0.233667 0.042498
0.159822 0.233274 0.025497
0.336383 0.218795 0.000000
0.478217 0.202223 0.000000
0.607207 0.190713 0.000000
0.730608 0.199519 0.000000
0.848021 0.237174 0.000000
0.000000 0.432077 0.075426
0.000000 0.436515 0.068879
0.000000 0.432849 0.046244
0.327495 0.429396 0.001043
0.521525 0.413888 0.000000
0.645988 0.392741 0.000000
0.757696 0.388979 0.000000
0.862022 0.405413 0.000000
0.000000 0.601071 0.141274
0.000000 0.605812 0.140138
0.000000 0.603576 0.125742
0.215754 0.601472 0.100506
0.498040 0.598131 0.049960
0.668200 0.588063 0.000000
0.772610 0.571386 0.000000
0.872366 0.569007 0.000000
0.000000 0.726598 0.251999
0.000000 0.729086 0.252963
0.000000 0.728591 0.246533
0.066357 0.727024 0.234485
0.448677 0.724952 0.220783
0.641270 0.722046 0.198503
0.787360 0.718492 0.159708
0.880460 0.708031 0.011232
0.000000 0.828422 0.392280
0.000000 0.829020 0.392213
0.000000 0.828099 0.387941
0.197286 0.827455 0.382215
0.436950 0.826172 0.376577
0.616555 0.823790 0.368281
0.761613 0.821450 0.354930
0.888086 0.821274 0.340608
0.197723 0.916318 0.550262
0.243060 0.917392 0.552559
0.307591 0.916288 0.548576
0.396083 0.915444 0.543959
0.495993 0.914793 0.538880
0.632580 0.913648 0.537461
0.755810 0.912587 0.534150
0.869343 0.911757 0.528769
0.000000 0.002993 0.069487
0.025515 0.008799 0.065824
0.114467 0.017991 0.061767
0.234704 0.018232 0.059048
0.392202 0.000000 0.047093
0.542317 0.000000 0.020617
0.686983 0.000000 0.000000
0.824890 0.000000 0.000000
0.000000 0.077427 0.096763
0.021959 0.080842 0.092981
0.137145 0.081757 0.083918
0.272988 0.074928 0.071894
0.419849 0.042062 0.051924
0.562314 0.000668 0.019708
0.700642 0.000000 0.000000
0.832308 0.034649 0.000000
0.000000 0.229509 0.144551
0.000000 0.232367 0.129270
0.166936 0.230357 0.117019
0.335106 0.216901 0.089212
0.474279 0.199283 0.053097
0.602136 0.186078 0.006162
0.727079 0.191894 0.000000
0.846152 0.227480 0.000000
0.000000 0.430943 0.170042
0.000000 0.434353 0.162488
0.000000 0.429672 0.147804
0.332153 0.426559 0.124558
0.518662 0.410513 0.073245
0.642721 0.389083 0.000246
0.754996 0.384946 0.000000
0.860752 0.400679 0.000000
0.000000 0.603451 0.216833
0.000000 0.607575 0.216204
0.000000 0.604274 0.204280
0.226881 0.601330 0.187164
0.500376 0.597371 0.161317
0.665201 0.585685 0.105080
0.770734 0.569743 0.000103
0.871838 0.567266 0.000000
0.000000 0.729256 0.305035
0.000000 0.731833 0.306834
0.000000 0.730335 0.299862
0.104969 0.728200 0.288569
0.451983 0.725283 0.276039
0.641092 0.721325 0.256736
0.785271 0.717690 0.226051
0.879496 0.707758 0.127479
0.000000 0.829564 0.426578
0.000000 0.830384 0.427741
0.000000 0.829562 0.423788
0.229393 0.828740 0.418071
0.441173 0.826739 0.410416
0.616796 0.823525 0.400913
0.761056 0.821387 0.388997
0.887273 0.821562 0.376929
0.230795 0.916870 0.568166
0.271048 0.918120 0.570831
0.327949 0.916901 0.566873
0.410074 0.916016 0.562402
0.503001 0.915280 0.556649
0.633896 0.913624 0.553579
0.756282 0.912535 0.550503
0.869587 0.912025 0.545775
0.000000 0.007452 0.181583
0.000748 0.012336 0.179629
0.114974 0.017408 0.175264
0.279886 0.000000 0.177739
0.413532 0.000000 0.147101
0.537783 0.000000 0.132505
0.684745 0.000000 0.111837
0.822922 0.000000 0.058855
0.000000 0.068390 0.210705
0.000739 0.078950 0.208444
0.142085 0.083775 0.204782
0.297929 0.068350 0.193805
0.421788 0.031201 0.162262
0.557415 0.002661 0.146719
0.697948 0.000000 0.116198
0.829996 0.000000 0.056621
0.000000 0.217615 0.264965
0.000000 0.221748 0.262602
0.171788 0.226996 0.253280
0.325357 0.216876 0.227229
0.465220 0.202402 0.196777
0.595330 0.189012 0.163975
0.723571 0.188362 0.123593
0.843709 0.211531 0.048584
0.000000 0.424436 0.312593
0.000000 0.427531 0.313201
0.015794 0.425751 0.289356
0.340445 0.423054 0.273388
0.513470 0.405175 0.235542
0.637828 0.384845 0.185959
0.750759 0.381063 0.135713
0.858064 0.392419 0.037985
0.000000 0.598645 0.369977
0.000000 0.602683 0.364231
0.000000 0.601622 0.331480
0.240303 0.598573 0.318027
0.502691 0.594827 0.302299
0.658902 0.581848 0.265400
0.767112 0.566941 0.198511
0.869469 0.562488 0.091428
0.000000 0.726425 0.417598
0.000000 0.729793 0.404885
0.000000 0.728494 0.397737
0.185638 0.726543 0.388357
0.454884 0.723297 0.377628
0.640054 0.719887 0.363565
0.780028 0.716145 0.338835
0.875591 0.705759 0.266706
0.000000 0.827579 0.491192
0.000000 0.828658 0.492653
0.012555 0.828269 0.489793
0.279209 0.827502 0.484756
0.446257 0.825363 0.475951
0.617076 0.822451 0.468247
0.759740 0.820948 0.459648
0.883993 0.821024 0.449039
0.274372 0.915129 0.601361
0.306694 0.916376 0.603342
0.357046 0.915498 0.600600
0.431800 0.915015 0.597224
0.517474 0.914390 0.591766
0.635679 0.912997 0.587676
0.756862 0.912437 0.585544
0.869321 0.911980 0.581015
0.000000 0.009768 0.345709
0.000000 0.011946 0.344843
0.079975 0.009514 0.342897
0.270401 0.000000 0.342140
0.464729 0.000000 0.340248
0.600867 0.000000 0.298076
0.709943 0.000000 0.248523
0.813556 0.000000 0.221008
0.000000 0.073614 0.372748
0.000000 0.075284 0.373204
0.114012 0.076921 0.370162
0.294494 0.063398 0.362273
0.480953 0.002137 0.355782
0.602950 0.000000 0.306355
0.709715 0.000000 0.255417
0.819944 0.000000 0.230311
0.000000 0.176383 0.409673
0.000000 0.183561 0.410486
0.154544 0.213024 0.407050
0.329284 0.222146 0.397632
0.494284 0.215352 0.378736
0.599607 0.190377 0.323530
0.709661 0.196940 0.292267
0.834101 0.194808 0.246140
0.000000 0.398062 0.450247
0.000000 0.403629 0.451261
0.089504 0.409134 0.446673
0.345249 0.418437 0.439140
0.493109 0.400636 0.404458
0.618660 0.385080 0.365885
0.737808 0.377980 0.323195
0.849417 0.378894 0.268345
0.000000 0.593629 0.486045
0.000000 0.596943 0.488785
0.013049 0.596197 0.487001
0.291564 0.595644 0.468018
0.504616 0.591494 0.454992
0.647266 0.575598 0.419152
0.758827 0.560006 0.365453
0.861303 0.552352 0.307698
0.000000 0.721525 0.534558
0.000000 0.723784 0.537683
0.159895 0.723329 0.537687
0.280342 0.724099 0.510051
0.459664 0.720443 0.498481
0.638723 0.718127 0.489461
0.770820 0.713159 0.464961
0.868951 0.700903 0.401680
0.174773 0.821726 0.598288
0.234290 0.823281 0.600262
0.248293 0.825276 0.581945
0.344769 0.825468 0.569449
0.464553 0.822983 0.559921
0.618540 0.820710 0.553481
0.758623 0.820324 0.548388
0.878252 0.819867 0.535000
0.375122 0.911362 0.661478
0.381363 0.913214 0.658437
0.394673 0.914178 0.647859
0.460235 0.913903 0.645092
0.537312 0.913133 0.639732
0.636307 0.912189 0.634419
0.757516 0.912025 0.633318
0.869639 0.911778 0.629440
0.000000 0.001922 0.515838
0.000000 0.000103 0.517783
0.001899 0.000000 0.518075
0.255808 0.000000 0.513577
0.441731 0.000000 0.504630
0.628390 0.000000 0.503853
0.773812 0.000000 0.486726
0.864702 0.000000 0.426957
0.000000 0.064808 0.534727
0.000000 0.064079 0.534476
0.041499 0.059169 0.531116
0.280025 0.044413 0.525128
0.457592 0.001997 0.515806
0.636948 0.000000 0.513491
0.771846 0.000000 0.489984
0.862039 0.000000 0.428953
0.000000 0.178747 0.554727
0.000000 0.192433 0.555553
0.128881 0.197563 0.551851
0.318509 0.207136 0.545975
0.483084 0.213561 0.537103
0.648691 0.216701 0.532879
0.762511 0.207932 0.494745
0.853007 0.167130 0.430269
0.000000 0.342465 0.573752
0.000000 0.347342 0.575065
0.059307 0.354096 0.572521
0.342272 0.394763 0.570162
0.500357 0.410461 0.563463
0.645079 0.415376 0.551492
0.740406 0.383102 0.496348
0.831046 0.360689 0.439478
0.000000 0.565948 0.599131
0.000000 0.570625 0.601132
0.017994 0.573390 0.599006
0.332297 0.578859 0.596075
0.509116 0.586968 0.591610
0.626161 0.567813 0.560332
0.737720 0.548419 0.520097
0.846127 0.530382 0.466051
0.000000 0.719629 0.624754
0.000000 0.721783 0.627170
0.193330 0.720601 0.626392
0.370964 0.718904 0.625070
0.490619 0.717554 0.611764
0.641182 0.716504 0.604782
0.759719 0.706353 0.576967
0.860229 0.688386 0.519785
0.182514 0.821494 0.662454
0.241692 0.823143 0.664749
0.327373 0.822496 0.663924
0.439047 0.820978 0.664070
0.502971 0.820765 0.643776
0.620144 0.819081 0.636364
0.759507 0.819490 0.633604
0.872165 0.816286 0.615039
0.388648 0.910850 0.711094
0.418708 0.911809 0.714128
0.474026 0.910738 0.716988
0.516200 0.911174 0.709402
0.559506 0.911815 0.694470
0.638650 0.911292 0.688307
0.757316 0.911643 0.687239
0.870666 0.911514 0.684266
0.000000 0.000000 0.659427
0.000000 0.000000 0.658684
0.004017 0.000000 0.656528
0.272864 0.000000 0.652863
0.449407 0.000000 0.649229
0.619135 0.000000 0.645650
0.772559 0.000000 0.644354
0.903646 0.000000 0.641770
0.000000 0.039256 0.664745
0.000000 0.034367 0.664322
0.056700 0.019850 0.661727
0.294690 0.001318 0.657944
0.463519 0.000000 0.654443
0.627099 0.000000 0.650808
0.775225 0.000000 0.648612
0.902023 0.003496 0.643765
0.000000 0.174359 0.673016
0.000000 0.176085 0.673161
0.150608 0.178444 0.670668
0.330695 0.184102 0.667147
0.486797 0.198799 0.663913
0.638128 0.211739 0.660631
0.776897 0.231798 0.656971
0.892963 0.255571 0.644728
0.000000 0.296444 0.680618
0.000000 0.310376 0.681951
0.171350 0.352366 0.680163
0.353636 0.368679 0.677417
0.502532 0.388697 0.674760
0.641410 0.410947 0.672340
0.771232 0.429301 0.668130
0.872228 0.415846 0.639342
0.000000 0.513030 0.690173
0.000000 0.516260 0.691294
0.022164 0.517656 0.689216
0.316592 0.521783 0.686613
0.506579 0.560665 0.686081
0.638951 0.581318 0.685578
0.759324 0.587017 0.678714
0.844226 0.538944 0.625610
0.000000 0.692393 0.706369
0.000000 0.694992 0.707863
0.193281 0.696000 0.706585
0.365462 0.698451 0.705260
0.512858 0.704191 0.704652
0.649552 0.714828 0.705524
0.741586 0.694832 0.677094
0.839447 0.669294 0.635292
0.216951 0.818449 0.731506
0.267248 0.820142 0.732955
0.344233 0.819515 0.731807
0.441996 0.818410 0.730446
0.548745 0.817385 0.729083
0.642100 0.818086 0.720892
0.763886 0.818484 0.717350
0.865035 0.808157 0.690884
0.399228 0.909614 0.765764
0.422929 0.911130 0.767505
0.461807 0.910631 0.766501
0.522384 0.909961 0.764922
0.605744 0.909071 0.764964
0.663983 0.910638 0.751998
0.757488 0.910865 0.747709
0.873670 0.911011 0.745756
0.000000 0.000000 0.768427
0.000000 0.000000 0.767877
0.160688 0.000000 0.766593
0.339418 0.000000 0.765331
0.496138 0.000000 0.764355
0.639005 0.000000 0.762976
0.774351 0.000000 0.758403
0.890117 0.000000 0.749825
0.000000 0.000107 0.770160
0.000000 0.000000 0.769819
0.190180 0.000000 0.768522
0.354154 0.000000 0.767355
0.505571 0.000000 0.766339
0.643964 0.000000 0.764741
0.775845 0.000000 0.760093
0.889532 0.001570 0.751269
0.000000 0.151349 0.772722
0.064889 0.151784 0.772726
0.232897 0.151999 0.771544
0.378784 0.154830 0.770524
0.520204 0.167692 0.769481
0.650490 0.201791 0.767781
0.776059 0.221602 0.763183
0.886462 0.254332 0.754269
0.000000 0.314613 0.774931
0.101024 0.324992 0.775079
0.251109 0.330989 0.774052
0.391208 0.341733 0.773177
0.526209 0.360956 0.772294
0.650213 0.392599 0.770633
0.769468 0.414140 0.766759
0.877762 0.433638 0.758718
0.000000 0.447631 0.776054
0.000000 0.450579 0.776629
0.071400 0.459282 0.776551
0.359999 0.502355 0.775373
0.517204 0.530820 0.774517
0.643519 0.556199 0.773788
0.758941 0.575615 0.771436
0.867612 0.585697 0.765505
0.000000 0.651648 0.782268
0.000000 0.653125 0.782867
0.142251 0.652462 0.781774
0.333570 0.652899 0.780590
0.484953 0.654970 0.779079
0.643502 0.689410 0.780444
0.757009 0.707373 0.781161
0.861604 0.709039 0.775108
0.190446 0.793088 0.795872
0.241520 0.794606 0.796805
0.323237 0.795182 0.796463
0.427931 0.797128 0.796408
0.541023 0.800742 0.796777
0.656863 0.807063 0.797912
0.772356 0.816905 0.800358
0.849176 0.791916 0.767540
0.403913 0.906193 0.826702
0.425997 0.907296 0.827604
0.467293 0.907358 0.826842
0.531748 0.908234 0.826201
0.608353 0.908827 0.825904
0.693289 0.909295 0.825362
0.772415 0.910074 0.817985
0.879775 0.910733 0.815670
0.190697 0.000000 0.870787
0.239100 0.000000 0.870542
0.330856 0.000000 0.869827
0.446025 0.000000 0.868603
0.567660 0.000000 0.866663
0.685399 0.000000 0.863925
0.795641 0.000000 0.861152
0.908108 0.000000 0.856694
0.210354 0.000000 0.871445
0.255346 0.000000 0.871355
0.342015 0.000000 0.870566
0.453314 0.000000 0.869260
0.571897 0.000000 0.867259
0.687185 0.000000 0.864385
0.795460 0.000000 0.861537
0.906841 0.000694 0.857151
0.236128 0.121859 0.872187
0.277397 0.121390 0.872157
0.357868 0.119366 0.871481
0.463560 0.119867 0.870170
0.576967 0.131504 0.867973
0.688088 0.164423 0.864874
0.793056 0.224378 0.861846
0.901997 0.245742 0.857608
0.231645 0.304557 0.871897
0.274085 0.306988 0.872134
0.355463 0.311055 0.871420
0.460584 0.319524 0.870156
0.572093 0.334988 0.868035
0.681335 0.360787 0.865054
0.784193 0.401712 0.861819
0.891062 0.419368 0.857615
0.000000 0.425909 0.872665
0.065821 0.437874 0.872792
0.283191 0.464043 0.871126
0.428115 0.487644 0.869157
0.549599 0.501811 0.867317
0.664942 0.523336 0.864663
0.771071 0.553625 0.861931
0.876786 0.569605 0.858451
0.000000 0.606256 0.871826
0.000000 0.605930 0.872352
0.117328 0.601116 0.871443
0.318756 0.601317 0.870495
0.503986 0.632287 0.868218
0.648182 0.660057 0.865804
0.761414 0.681734 0.864400
0.866619 0.697373 0.862499
0.146147 0.773033 0.878176
0.204012 0.773932 0.878936
0.289120 0.772863 0.878254
0.392988 0.771011 0.877152
0.503361 0.767736 0.875035
0.617586 0.763037 0.871577
0.759952 0.789994 0.871530
0.868174 0.807970 0.873586
0.399304 0.890220 0.894498
0.419713 0.891323 0.895380
0.457758 0.891614 0.895159
0.517789 0.892565 0.894928
0.593621 0.893827 0.894460
0.681643 0.896108 0.893740
0.780306 0.900842 0.894239
0.890795 0.912303 0.899705
