gsg/01_Basics/GSG_LUT_Basic_MidBoost.cube
# GSG LUTs 1.0
# Copyright (c) 2016-2020 Greyscalegorilla
# See EULA for licensing and distribution information
# Converted by Briz LUT Converter
LUT_3D_SIZE 8
DOMAIN_MIN 0.000000 0.000000 0.000000
DOMAIN_MAX 0.903226 0.903226 0.903226
0.000000 0.000000 0.000000
0.179235 0.000000 0.000000
0.339958 0.000000 0.000000
0.488464 0.000000 0.000000
0.623554 0.000000 0.000000
0.720903 0.000000 0.000000
0.806010 0.000000 0.000000
0.908543 0.000000 0.000000
0.000000 0.179235 0.000000
0.179235 0.179235 0.000000
0.339958 0.179235 0.000000
0.488464 0.179235 0.000000
0.623554 0.179235 0.000000
0.720903 0.179235 0.000000
0.806010 0.179235 0.000000
0.908543 0.179235 0.000000
0.000000 0.339958 0.000000
0.179235 0.339958 0.000000
0.339958 0.339958 0.000000
0.488464 0.339958 0.000000
0.623554 0.339958 0.000000
0.720903 0.339958 0.000000
0.806010 0.339958 0.000000
0.908543 0.339958 0.000000
0.000000 0.488464 0.000000
0.179235 0.488464 0.000000
0.339958 0.488464 0.000000
0.488464 0.488464 0.000000
0.623554 0.488464 0.000000
0.720903 0.488464 0.000000
0.806010 0.488464 0.000000
0.908543 0.488464 0.000000
0.000000 0.623554 0.000000
0.179235 0.623554 0.000000
0.339958 0.623554 0.000000
0.488464 0.623554 0.000000
0.623554 0.623554 0.000000
0.720903 0.623554 0.000000
0.806010 0.623554 0.000000
0.908543 0.623554 0.000000
0.000000 0.720903 0.000000
0.179235 0.720903 0.000000
0.339958 0.720903 0.000000
0.488464 0.720903 0.000000
0.623554 0.720903 0.000000
0.720903 0.720903 0.000000
0.806010 0.720903 0.000000
0.908543 0.720903 0.000000
0.000000 0.806010 0.000000
0.179235 0.806010 0.000000
0.339958 0.806010 0.000000
0.488464 0.806010 0.000000
0.623554 0.806010 0.000000
0.720903 0.806010 0.000000
0.806010 0.806010 0.000000
0.908543 0.806010 0.000000
0.000000 0.908543 0.000000
0.179235 0.908543 0.000000
0.339958 0.908543 0.000000
0.488464 0.908543 0.000000
0.623554 0.908543 0.000000
0.720903 0.908543 0.000000
0.806010 0.908543 0.000000
0.908543 0.908543 0.000000
0.000000 0.000000 0.179235
0.179235 0.000000 0.179235
0.339958 0.000000 0.179235
0.488464 0.000000 0.179235
0.623554 0.000000 0.179235
0.720903 0.000000 0.179235
0.806010 0.000000 0.179235
0.908543 0.000000 0.179235
0.000000 0.179235 0.179235
0.179235 0.179235 0.179235
0.339958 0.179235 0.179235
0.488464 0.179235 0.179235
0.623554 0.179235 0.179235
0.720903 0.179235 0.179235
0.806010 0.179235 0.179235
0.908543 0.179235 0.179235
0.000000 0.339958 0.179235
0.179235 0.339958 0.179235
0.339958 0.339958 0.179235
0.488464 0.339958 0.179235
0.623554 0.339958 0.179235
0.720903 0.339958 0.179235
0.806010 0.339958 0.179235
0.908543 0.339958 0.179235
0.000000 0.488464 0.179235
0.179235 0.488464 0.179235
0.339958 0.488464 0.179235
0.488464 0.488464 0.179235
0.623554 0.488464 0.179235
0.720903 0.488464 0.179235
0.806010 0.488464 0.179235
0.908543 0.488464 0.179235
0.000000 0.623554 0.179235
0.179235 0.623554 0.179235
0.339958 0.623554 0.179235
0.488464 0.623554 0.179235
0.623554 0.623554 0.179235
0.720903 0.623554 0.179235
0.806010 0.623554 0.179235
0.908543 0.623554 0.179235
0.000000 0.720903 0.179235
0.179235 0.720903 0.179235
0.339958 0.720903 0.179235
0.488464 0.720903 0.179235
0.623554 0.720903 0.179235
0.720903 0.720903 0.179235
0.806010 0.720903 0.179235
0.908543 0.720903 0.179235
0.000000 0.806010 0.179235
0.179235 0.806010 0.179235
0.339958 0.806010 0.179235
0.488464 0.806010 0.179235
0.623554 0.806010 0.179235
0.720903 0.806010 0.179235
0.806010 0.806010 0.179235
0.908543 0.806010 0.179235
0.000000 0.908543 0.179235
0.179235 0.908543 0.179235
0.339958 0.908543 0.179235
0.488464 0.908543 0.179235
0.623554 0.908543 0.179235
0.720903 0.908543 0.179235
0.806010 0.908543 0.179235
0.908543 0.908543 0.179235
0.000000 0.000000 0.339958
0.179235 0.000000 0.339958
0.339958 0.000000 0.339958
0.488464 0.000000 0.339958
0.623554 0.000000 0.339958
0.720903 0.000000 0.339958
0.806010 0.000000 0.339958
0.908543 0.000000 0.339958
0.000000 0.179235 0.339958
0.179235 0.179235 0.339958
0.339958 0.179235 0.339958
0.488464 0.179235 0.339958
0.623554 0.179235 0.339958
0.720903 0.179235 0.339958
0.806010 0.179235 0.339958
0.908543 0.179235 0.339958
0.000000 0.339958 0.339958
0.179235 0.339958 0.339958
0.339958 0.339958 0.339958
0.488464 0.339958 0.339958
0.623554 0.339958 0.339958
0.720903 0.339958 0.339958
0.806010 0.339958 0.339958
0.908543 0.339958 0.339958
0.000000 0.488464 0.339958
0.179235 0.488464 0.339958
0.339958 0.488464 0.339958
0.488464 0.488464 0.339958
0.623554 0.488464 0.339958
0.720903 0.488464 0.339958
0.806010 0.488464 0.339958
0.908543 0.488464 0.339958
0.000000 0.623554 0.339958
0.179235 0.623554 0.339958
0.339958 0.623554 0.339958
0.488464 0.623554 0.339958
0.623554 0.623554 0.339958
0.720903 0.623554 0.339958
0.806010 0.623554 0.339958
0.908543 0.623554 0.339958
0.000000 0.720903 0.339958
0.179235 0.720903 0.339958
0.339958 0.720903 0.339958
0.488464 0.720903 0.339958
0.623554 0.720903 0.339958
0.720903 0.720903 0.339958
0.806010 0.720903 0.339958
0.908543 0.720903 0.339958
0.000000 0.806010 0.339958
0.179235 0.806010 0.339958
0.339958 0.806010 0.339958
0.488464 0.806010 0.339958
0.623554 0.806010 0.339958
0.720903 0.806010 0.339958
0.806010 0.806010 0.339958
0.908543 0.806010 0.339958
0.000000 0.908543 0.339958
0.179235 0.908543 0.339958
0.339958 0.908543 0.339958
0.488464 0.908543 0.339958
0.623554 0.908543 0.339958
0.720903 0.908543 0.339958
0.806010 0.908543 0.339958
0.908543 0.908543 0.339958
0.000000 0.000000 0.488464
0.179235 0.000000 0.488464
0.339958 0.000000 0.488464
0.488464 0.000000 0.488464
0.623554 0.000000 0.488464
0.720903 0.000000 0.488464
0.806010 0.000000 0.488464
0.908543 0.000000 0.488464
0.000000 0.179235 0.488464
0.179235 0.179235 0.488464
0.339958 0.179235 0.488464
0.488464 0.179235 0.488464
0.623554 0.179235 0.488464
0.720903 0.179235 0.488464
0.806010 0.179235 0.488464
0.908543 0.179235 0.488464
0.000000 0.339958 0.488464
0.179235 0.339958 0.488464
0.339958 0.339958 0.488464
0.488464 0.339958 0.488464
0.623554 0.339958 0.488464
0.720903 0.339958 0.488464
0.806010 0.339958 0.488464
0.908543 0.339958 0.488464
0.000000 0.488464 0.488464
0.179235 0.488464 0.488464
0.339958 0.488464 0.488464
0.488464 0.488464 0.488464
0.623554 0.488464 0.488464
0.720903 0.488464 0.488464
0.806010 0.488464 0.488464
0.908543 0.488464 0.488464
0.000000 0.623554 0.488464
0.179235 0.623554 0.488464
0.339958 0.623554 0.488464
0.488464 0.623554 0.488464
0.623554 0.623554 0.488464
0.720903 0.623554 0.488464
0.806010 0.623554 0.488464
0.908543 0.623554 0.488464
0.000000 0.720903 0.488464
0.179235 0.720903 0.488464
0.339958 0.720903 0.488464
0.488464 0.720903 0.488464
0.623554 0.720903 0.488464
0.720903 0.720903 0.488464
0.806010 0.720903 0.488464
0.908543 0.720903 0.488464
0.000000 0.806010 0.488464
0.179235 0.806010 0.488464
0.339958 0.806010 0.488464
0.488464 0.806010 0.488464
0.623554 0.806010 0.488464
0.720903 0.806010 0.488464
0.806010 0.806010 0.488464
0.908543 0.806010 0.488464
0.000000 0.908543 0.488464
0.179235 0.908543 0.488464
0.339958 0.908543 0.488464
0.488464 0.908543 0.488464
0.623554 0.908543 0.488464
0.720903 0.908543 0.488464
0.806010 0.908543 0.488464
0.908543 0.908543 0.488464
0.000000 0.000000 0.623554
0.179235 0.000000 0.623554
0.339958 0.000000 0.623554
0.488464 0.000000 0.623554
0.623554 0.000000 0.623554
0.720903 0.000000 0.623554
0.806010 0.000000 0.623554
0.908543 0.000000 0.623554
0.000000 0.179235 0.623554
0.179235 0.179235 0.623554
0.339958 0.179235 0.623554
0.488464 0.179235 0.623554
0.623554 0.179235 0.623554
0.720903 0.179235 0.623554
0.806010 0.179235 0.623554
0.908543 0.179235 0.623554
0.000000 0.339958 0.623554
0.179235 0.339958 0.623554
0.339958 0.339958 0.623554
0.488464 0.339958 0.623554
0.623554 0.339958 0.623554
0.720903 0.339958 0.623554
0.806010 0.339958 0.623554
0.908543 0.339958 0.623554
0.000000 0.488464 0.623554
0.179235 0.488464 0.623554
0.339958 0.488464 0.623554
0.488464 0.488464 0.623554
0.623554 0.488464 0.623554
0.720903 0.488464 0.623554
0.806010 0.488464 0.623554
0.908543 0.488464 0.623554
0.000000 0.623554 0.623554
0.179235 0.623554 0.623554
0.339958 0.623554 0.623554
0.488464 0.623554 0.623554
0.623554 0.623554 0.623554
0.720903 0.623554 0.623554
0.806010 0.623554 0.623554
0.908543 0.623554 0.623554
0.000000 0.720903 0.623554
0.179235 0.720903 0.623554
0.339958 0.720903 0.623554
0.488464 0.720903 0.623554
0.623554 0.720903 0.623554
0.720903 0.720903 0.623554
0.806010 0.720903 0.623554
0.908543 0.720903 0.623554
0.000000 0.806010 0.623554
0.179235 0.806010 0.623554
0.339958 0.806010 0.623554
0.488464 0.806010 0.623554
0.623554 0.806010 0.623554
0.720903 0.806010 0.623554
0.806010 0.806010 0.623554
0.908543 0.806010 0.623554
0.000000 0.908543 0.623554
0.179235 0.908543 0.623554
0.339958 0.908543 0.623554
0.488464 0.908543 0.623554
0.623554 0.908543 0.623554
0.720903 0.908543 0.623554
0.806010 0.908543 0.623554
0.908543 0.908543 0.623554
0.000000 0.000000 0.720903
0.179235 0.000000 0.720903
0.339958 0.000000 0.720903
0.488464 0.000000 0.720903
0.623554 0.000000 0.720903
0.720903 0.000000 0.720903
0.806010 0.000000 0.720903
0.908543 0.000000 0.720903
0.000000 0.179235 0.720903
0.179235 0.179235 0.720903
0.339958 0.179235 0.720903
0.488464 0.179235 0.720903
0.623554 0.179235 0.720903
0.720903 0.179235 0.720903
0.806010 0.179235 0.720903
0.908543 0.179235 0.720903
0.000000 0.339958 0.720903
0.179235 0.339958 0.720903
0.339958 0.339958 0.720903
0.488464 0.339958 0.720903
0.623554 0.339958 0.720903
0.720903 0.339958 0.720903
0.806010 0.339958 0.720903
0.908543 0.339958 0.720903
0.000000 0.488464 0.720903
0.179235 0.488464 0.720903
0.339958 0.488464 0.720903
0.488464 0.488464 0.720903
0.623554 0.488464 0.720903
0.720903 0.488464 0.720903
0.806010 0.488464 0.720903
0.908543 0.488464 0.720903
0.000000 0.623554 0.720903
0.179235 0.623554 0.720903
0.339958 0.623554 0.720903
0.488464 0.623554 0.720903
0.623554 0.623554 0.720903
0.720903 0.623554 0.720903
0.806010 0.623554 0.720903
0.908543 0.623554 0.720903
0.000000 0.720903 0.720903
0.179235 0.720903 0.720903
0.339958 0.720903 0.720903
0.488464 0.720903 0.720903
0.623554 0.720903 0.720903
0.720903 0.720903 0.720903
0.806010 0.720903 0.720903
0.908543 0.720903 0.720903
0.000000 0.806010 0.720903
0.179235 0.806010 0.720903
0.339958 0.806010 0.720903
0.488464 0.806010 0.720903
0.623554 0.806010 0.720903
0.720903 0.806010 0.720903
0.806010 0.806010 0.720903
0.908543 0.806010 0.720903
0.000000 0.908543 0.720903
0.179235 0.908543 0.720903
0.339958 0.908543 0.720903
0.488464 0.908543 0.720903
0.623554 0.908543 0.720903
0.720903 0.908543 0.720903
0.806010 0.908543 0.720903
0.908543 0.908543 0.720903
0.000000 0.000000 0.806010
0.179235 0.000000 0.806010
0.339958 0.000000 0.806010
0.488464 0.000000 0.806010
0.623554 0.000000 0.806010
0.720903 0.000000 0.806010
0.806010 0.000000 0.806010
0.908543 0.000000 0.806010
0.000000 0.179235 0.806010
0.179235 0.179235 0.806010
0.339958 0.179235 0.806010
0.488464 0.179235 0.806010
0.623554 0.179235 0.806010
0.720903 0.179235 0.806010
0.806010 0.179235 0.806010
0.908543 0.179235 0.806010
0.000000 0.339958 0.806010
0.179235 0.339958 0.806010
0.339958 0.339958 0.806010
0.488464 0.339958 0.806010
0.623554 0.339958 0.806010
0.720903 0.339958 0.806010
0.806010 0.339958 0.806010
0.908543 0.339958 0.806010
0.000000 0.488464 0.806010
0.179235 0.488464 0.806010
0.339958 0.488464 0.806010
0.488464 0.488464 0.806010
0.623554 0.488464 0.806010
0.720903 0.488464 0.806010
0.806010 0.488464 0.806010
0.908543 0.488464 0.806010
0.000000 0.623554 0.806010
0.179235 0.623554 0.806010
0.339958 0.623554 0.806010
0.488464 0.623554 0.806010
0.623554 0.623554 0.806010
0.720903 0.623554 0.806010
0.806010 0.623554 0.806010
0.908543 0.623554 0.806010
0.000000 0.720903 0.806010
0.179235 0.720903 0.806010
0.339958 0.720903 0.806010
0.488464 0.720903 0.806010
0.623554 0.720903 0.806010
0.720903 0.720903 0.806010
0.806010 0.720903 0.806010
0.908543 0.720903 0.806010
0.000000 0.806010 0.806010
0.179235 0.806010 0.806010
0.339958 0.806010 0.806010
0.488464 0.806010 0.806010
0.623554 0.806010 0.806010
0.720903 0.806010 0.806010
0.806010 0.806010 0.806010
0.908543 0.806010 0.806010
0.000000 0.908543 0.806010
0.179235 0.908543 0.806010
0.339958 0.908543 0.806010
0.488464 0.908543 0.806010
0.623554 0.908543 0.806010
0.720903 0.908543 0.806010
0.806010 0.908543 0.806010
0.908543 0.908543 0.806010
0.000000 0.000000 0.908543
0.179235 0.000000 0.908543
0.339958 0.000000 0.908543
0.488464 0.000000 0.908543
0.623554 0.000000 0.908543
0.720903 0.000000 0.908543
0.806010 0.000000 0.908543
0.908543 0.000000 0.908543
0.000000 0.179235 0.908543
0.179235 0.179235 0.908543
0.339958 0.179235 0.908543
0.488464 0.179235 0.908543
0.623554 0.179235 0.908543
0.720903 0.179235 0.908543
0.806010 0.179235 0.908543
0.908543 0.179235 0.908543
0.000000 0.339958 0.908543
0.179235 0.339958 0.908543
0.339958 0.339958 0.908543
0.488464 0.339958 0.908543
0.623554 0.339958 0.908543
0.720903 0.339958 0.908543
0.806010 0.339958 0.908543
0.908543 0.339958 0.908543
0.000000 0.488464 0.908543
0.179235 0.488464 0.908543
0.339958 0.488464 0.908543
0.488464 0.488464 0.908543
0.623554 0.488464 0.908543
0.720903 0.488464 0.908543
0.806010 0.488464 0.908543
0.908543 0.488464 0.908543
0.000000 0.623554 0.908543
0.179235 0.623554 0.908543
0.339958 0.623554 0.908543
0.488464 0.623554 0.908543
0.623554 0.623554 0.908543
0.720903 0.623554 0.908543
0.806010 0.623554 0.908543
0.908543 0.623554 0.908543
0.000000 0.720903 0.908543
0.179235 0.720903 0.908543
0.339958 0.720903 0.908543
0.488464 0.720903 0.908543
0.623554 0.720903 0.908543
0.720903 0.720903 0.908543
0.806010 0.720903 0.908543
0.908543 0.720903 0.908543
0.000000 0.806010 0.908543
0.179235 0.806010 0.908543
0.339958 0.806010 0.908543
0.488464 0.806010 0.908543
0.623554 0.806010 0.908543
0.720903 0.806010 0.908543
0.806010 0.806010 0.908543
0.908543 0.806010 0.908543
0.000000 0.908543 0.908543
0.179235 0.908543 0.908543
0.339958 0.908543 0.908543
0.488464 0.908543 0.908543
0.623554 0.908543 0.908543
0.720903 0.908543 0.908543
0.806010 0.908543 0.908543
0.908543 0.908543 0.908543
