gsg/01_Basics/GSG_LUT_Basic_MidBoost.cube
# GSG LUTs 1.0
# Copyright (c) 2016-2020 Greyscalegorilla
# See EULA for licensing and distribution information
# Converted by Briz LUT Converter
LUT_3D_SIZE 32
0.000000 0.000000 0.000000
0.047123 0.000000 0.000000
0.092505 0.000000 0.000000
0.136610 0.000000 0.000000
0.179235 0.000000 0.000000
0.220852 0.000000 0.000000
0.261460 0.000000 0.000000
0.301060 0.000000 0.000000
0.339958 0.000000 0.000000
0.378038 0.000000 0.000000
0.415432 0.000000 0.000000
0.452235 0.000000 0.000000
0.488464 0.000000 0.000000
0.524101 0.000000 0.000000
0.559234 0.000000 0.000000
0.592784 0.000000 0.000000
0.623554 0.000000 0.000000
0.651298 0.000000 0.000000
0.676403 0.000000 0.000000
0.699382 0.000000 0.000000
0.720903 0.000000 0.000000
0.741746 0.000000 0.000000
0.762346 0.000000 0.000000
0.783615 0.000000 0.000000
0.806010 0.000000 0.000000
0.829477 0.000000 0.000000
0.854402 0.000000 0.000000
0.880594 0.000000 0.000000
0.908543 0.000000 0.000000
0.937760 0.000000 0.000000
0.968254 0.000000 0.000000
1.000000 0.000000 0.000000
0.000000 0.047123 0.000000
0.047123 0.047123 0.000000
0.092505 0.047123 0.000000
0.136610 0.047123 0.000000
0.179235 0.047123 0.000000
0.220852 0.047123 0.000000
0.261460 0.047123 0.000000
0.301060 0.047123 0.000000
0.339958 0.047123 0.000000
0.378038 0.047123 0.000000
0.415432 0.047123 0.000000
0.452235 0.047123 0.000000
0.488464 0.047123 0.000000
0.524101 0.047123 0.000000
0.559234 0.047123 0.000000
0.592784 0.047123 0.000000
0.623554 0.047123 0.000000
0.651298 0.047123 0.000000
0.676403 0.047123 0.000000
0.699382 0.047123 0.000000
0.720903 0.047123 0.000000
0.741746 0.047123 0.000000
0.762346 0.047123 0.000000
0.783615 0.047123 0.000000
0.806010 0.047123 0.000000
0.829477 0.047123 0.000000
0.854402 0.047123 0.000000
0.880594 0.047123 0.000000
0.908543 0.047123 0.000000
0.937760 0.047123 0.000000
0.968254 0.047123 0.000000
1.000000 0.047123 0.000000
0.000000 0.092505 0.000000
0.047123 0.092505 0.000000
0.092505 0.092505 0.000000
0.136610 0.092505 0.000000
0.179235 0.092505 0.000000
0.220852 0.092505 0.000000
0.261460 0.092505 0.000000
0.301060 0.092505 0.000000
0.339958 0.092505 0.000000
0.378038 0.092505 0.000000
0.415432 0.092505 0.000000
0.452235 0.092505 0.000000
0.488464 0.092505 0.000000
0.524101 0.092505 0.000000
0.559234 0.092505 0.000000
0.592784 0.092505 0.000000
0.623554 0.092505 0.000000
0.651298 0.092505 0.000000
0.676403 0.092505 0.000000
0.699382 0.092505 0.000000
0.720903 0.092505 0.000000
0.741746 0.092505 0.000000
0.762346 0.092505 0.000000
0.783615 0.092505 0.000000
0.806010 0.092505 0.000000
0.829477 0.092505 0.000000
0.854402 0.092505 0.000000
0.880594 0.092505 0.000000
0.908543 0.092505 0.000000
0.937760 0.092505 0.000000
0.968254 0.092505 0.000000
1.000000 0.092505 0.000000
0.000000 0.136610 0.000000
0.047123 0.136610 0.000000
0.092505 0.136610 0.000000
0.136610 0.136610 0.000000
0.179235 0.136610 0.000000
0.220852 0.136610 0.000000
0.261460 0.136610 0.000000
0.301060 0.136610 0.000000
0.339958 0.136610 0.000000
0.378038 0.136610 0.000000
0.415432 0.136610 0.000000
0.452235 0.136610 0.000000
0.488464 0.136610 0.000000
0.524101 0.136610 0.000000
0.559234 0.136610 0.000000
0.592784 0.136610 0.000000
0.623554 0.136610 0.000000
0.651298 0.136610 0.000000
0.676403 0.136610 0.000000
0.699382 0.136610 0.000000
0.720903 0.136610 0.000000
0.741746 0.136610 0.000000
0.762346 0.136610 0.000000
0.783615 0.136610 0.000000
0.806010 0.136610 0.000000
0.829477 0.136610 0.000000
0.854402 0.136610 0.000000
0.880594 0.136610 0.000000
0.908543 0.136610 0.000000
0.937760 0.136610 0.000000
0.968254 0.136610 0.000000
1.000000 0.136610 0.000000
0.000000 0.179235 0.000000
0.047123 0.179235 0.000000
0.092505 0.179235 0.000000
0.136610 0.179235 0.000000
0.179235 0.179235 0.000000
0.220852 0.179235 0.000000
0.261460 0.179235 0.000000
0.301060 0.179235 0.000000
0.339958 0.179235 0.000000
0.378038 0.179235 0.000000
0.415432 0.179235 0.000000
0.452235 0.179235 0.000000
0.488464 0.179235 0.000000
0.524101 0.179235 0.000000
0.559234 0.179235 0.000000
0.592784 0.179235 0.000000
0.623554 0.179235 0.000000
0.651298 0.179235 0.000000
0.676403 0.179235 0.000000
0.699382 0.179235 0.000000
0.720903 0.179235 0.000000
0.741746 0.179235 0.000000
0.762346 0.179235 0.000000
0.783615 0.179235 0.000000
0.806010 0.179235 0.000000
0.829477 0.179235 0.000000
0.854402 0.179235 0.000000
0.880594 0.179235 0.000000
0.908543 0.179235 0.000000
0.937760 0.179235 0.000000
0.968254 0.179235 0.000000
1.000000 0.179235 0.000000
0.000000 0.220852 0.000000
0.047123 0.220852 0.000000
0.092505 0.220852 0.000000
0.136610 0.220852 0.000000
0.179235 0.220852 0.000000
0.220852 0.220852 0.000000
0.261460 0.220852 0.000000
0.301060 0.220852 0.000000
0.339958 0.220852 0.000000
0.378038 0.220852 0.000000
0.415432 0.220852 0.000000
0.452235 0.220852 0.000000
0.488464 0.220852 0.000000
0.524101 0.220852 0.000000
0.559234 0.220852 0.000000
0.592784 0.220852 0.000000
0.623554 0.220852 0.000000
0.651298 0.220852 0.000000
0.676403 0.220852 0.000000
0.699382 0.220852 0.000000
0.720903 0.220852 0.000000
0.741746 0.220852 0.000000
0.762346 0.220852 0.000000
0.783615 0.220852 0.000000
0.806010 0.220852 0.000000
0.829477 0.220852 0.000000
0.854402 0.220852 0.000000
0.880594 0.220852 0.000000
0.908543 0.220852 0.000000
0.937760 0.220852 0.000000
0.968254 0.220852 0.000000
1.000000 0.220852 0.000000
0.000000 0.261460 0.000000
0.047123 0.261460 0.000000
0.092505 0.261460 0.000000
0.136610 0.261460 0.000000
0.179235 0.261460 0.000000
0.220852 0.261460 0.000000
0.261460 0.261460 0.000000
0.301060 0.261460 0.000000
0.339958 0.261460 0.000000
0.378038 0.261460 0.000000
0.415432 0.261460 0.000000
0.452235 0.261460 0.000000
0.488464 0.261460 0.000000
0.524101 0.261460 0.000000
0.559234 0.261460 0.000000
0.592784 0.261460 0.000000
0.623554 0.261460 0.000000
0.651298 0.261460 0.000000
0.676403 0.261460 0.000000
0.699382 0.261460 0.000000
0.720903 0.261460 0.000000
0.741746 0.261460 0.000000
0.762346 0.261460 0.000000
0.783615 0.261460 0.000000
0.806010 0.261460 0.000000
0.829477 0.261460 0.000000
0.854402 0.261460 0.000000
0.880594 0.261460 0.000000
0.908543 0.261460 0.000000
0.937760 0.261460 0.000000
0.968254 0.261460 0.000000
1.000000 0.261460 0.000000
0.000000 0.301060 0.000000
0.047123 0.301060 0.000000
0.092505 0.301060 0.000000
0.136610 0.301060 0.000000
0.179235 0.301060 0.000000
0.220852 0.301060 0.000000
0.261460 0.301060 0.000000
0.301060 0.301060 0.000000
0.339958 0.301060 0.000000
0.378038 0.301060 0.000000
0.415432 0.301060 0.000000
0.452235 0.301060 0.000000
0.488464 0.301060 0.000000
0.524101 0.301060 0.000000
0.559234 0.301060 0.000000
0.592784 0.301060 0.000000
0.623554 0.301060 0.000000
0.651298 0.301060 0.000000
0.676403 0.301060 0.000000
0.699382 0.301060 0.000000
0.720903 0.301060 0.000000
0.741746 0.301060 0.000000
0.762346 0.301060 0.000000
0.783615 0.301060 0.000000
0.806010 0.301060 0.000000
0.829477 0.301060 0.000000
0.854402 0.301060 0.000000
0.880594 0.301060 0.000000
0.908543 0.301060 0.000000
0.937760 0.301060 0.000000
0.968254 0.301060 0.000000
1.000000 0.301060 0.000000
0.000000 0.339958 0.000000
0.047123 0.339958 0.000000
0.092505 0.339958 0.000000
0.136610 0.339958 0.000000
0.179235 0.339958 0.000000
0.220852 0.339958 0.000000
0.261460 0.339958 0.000000
0.301060 0.339958 0.000000
0.339958 0.339958 0.000000
0.378038 0.339958 0.000000
0.415432 0.339958 0.000000
0.452235 0.339958 0.000000
0.488464 0.339958 0.000000
0.524101 0.339958 0.000000
0.559234 0.339958 0.000000
0.592784 0.339958 0.000000
0.623554 0.339958 0.000000
0.651298 0.339958 0.000000
0.676403 0.339958 0.000000
0.699382 0.339958 0.000000
0.720903 0.339958 0.000000
0.741746 0.339958 0.000000
0.762346 0.339958 0.000000
0.783615 0.339958 0.000000
0.806010 0.339958 0.000000
0.829477 0.339958 0.000000
0.854402 0.339958 0.000000
0.880594 0.339958 0.000000
0.908543 0.339958 0.000000
0.937760 0.339958 0.000000
0.968254 0.339958 0.000000
1.000000 0.339958 0.000000
0.000000 0.378038 0.000000
0.047123 0.378038 0.000000
0.092505 0.378038 0.000000
0.136610 0.378038 0.000000
0.179235 0.378038 0.000000
0.220852 0.378038 0.000000
0.261460 0.378038 0.000000
0.301060 0.378038 0.000000
0.339958 0.378038 0.000000
0.378038 0.378038 0.000000
0.415432 0.378038 0.000000
0.452235 0.378038 0.000000
0.488464 0.378038 0.000000
0.524101 0.378038 0.000000
0.559234 0.378038 0.000000
0.592784 0.378038 0.000000
0.623554 0.378038 0.000000
0.651298 0.378038 0.000000
0.676403 0.378038 0.000000
0.699382 0.378038 0.000000
0.720903 0.378038 0.000000
0.741746 0.378038 0.000000
0.762346 0.378038 0.000000
0.783615 0.378038 0.000000
0.806010 0.378038 0.000000
0.829477 0.378038 0.000000
0.854402 0.378038 0.000000
0.880594 0.378038 0.000000
0.908543 0.378038 0.000000
0.937760 0.378038 0.000000
0.968254 0.378038 0.000000
1.000000 0.378038 0.000000
0.000000 0.415432 0.000000
0.047123 0.415432 0.000000
0.092505 0.415432 0.000000
0.136610 0.415432 0.000000
0.179235 0.415432 0.000000
0.220852 0.415432 0.000000
0.261460 0.415432 0.000000
0.301060 0.415432 0.000000
0.339958 0.415432 0.000000
0.378038 0.415432 0.000000
0.415432 0.415432 0.000000
0.452235 0.415432 0.000000
0.488464 0.415432 0.000000
0.524101 0.415432 0.000000
0.559234 0.415432 0.000000
0.592784 0.415432 0.000000
0.623554 0.415432 0.000000
0.651298 0.415432 0.000000
0.676403 0.415432 0.000000
0.699382 0.415432 0.000000
0.720903 0.415432 0.000000
0.741746 0.415432 0.000000
0.762346 0.415432 0.000000
0.783615 0.415432 0.000000
0.806010 0.415432 0.000000
0.829477 0.415432 0.000000
0.854402 0.415432 0.000000
0.880594 0.415432 0.000000
0.908543 0.415432 0.000000
0.937760 0.415432 0.000000
0.968254 0.415432 0.000000
1.000000 0.415432 0.000000
0.000000 0.452235 0.000000
0.047123 0.452235 0.000000
0.092505 0.452235 0.000000
0.136610 0.452235 0.000000
0.179235 0.452235 0.000000
0.220852 0.452235 0.000000
0.261460 0.452235 0.000000
0.301060 0.452235 0.000000
0.339958 0.452235 0.000000
0.378038 0.452235 0.000000
0.415432 0.452235 0.000000
0.452235 0.452235 0.000000
0.488464 0.452235 0.000000
0.524101 0.452235 0.000000
0.559234 0.452235 0.000000
0.592784 0.452235 0.000000
0.623554 0.452235 0.000000
0.651298 0.452235 0.000000
0.676403 0.452235 0.000000
0.699382 0.452235 0.000000
0.720903 0.452235 0.000000
0.741746 0.452235 0.000000
0.762346 0.452235 0.000000
0.783615 0.452235 0.000000
0.806010 0.452235 0.000000
0.829477 0.452235 0.000000
0.854402 0.452235 0.000000
0.880594 0.452235 0.000000
0.908543 0.452235 0.000000
0.937760 0.452235 0.000000
0.968254 0.452235 0.000000
1.000000 0.452235 0.000000
0.000000 0.488464 0.000000
0.047123 0.488464 0.000000
0.092505 0.488464 0.000000
0.136610 0.488464 0.000000
0.179235 0.488464 0.000000
0.220852 0.488464 0.000000
0.261460 0.488464 0.000000
0.301060 0.488464 0.000000
0.339958 0.488464 0.000000
0.378038 0.488464 0.000000
0.415432 0.488464 0.000000
0.452235 0.488464 0.000000
0.488464 0.488464 0.000000
0.524101 0.488464 0.000000
0.559234 0.488464 0.000000
0.592784 0.488464 0.000000
0.623554 0.488464 0.000000
0.651298 0.488464 0.000000
0.676403 0.488464 0.000000
0.699382 0.488464 0.000000
0.720903 0.488464 0.000000
0.741746 0.488464 0.000000
0.762346 0.488464 0.000000
0.783615 0.488464 0.000000
0.806010 0.488464 0.000000
0.829477 0.488464 0.000000
0.854402 0.488464 0.000000
0.880594 0.488464 0.000000
0.908543 0.488464 0.000000
0.937760 0.488464 0.000000
0.968254 0.488464 0.000000
1.000000 0.488464 0.000000
0.000000 0.524101 0.000000
0.047123 0.524101 0.000000
0.092505 0.524101 0.000000
0.136610 0.524101 0.000000
0.179235 0.524101 0.000000
0.220852 0.524101 0.000000
0.261460 0.524101 0.000000
0.301060 0.524101 0.000000
0.339958 0.524101 0.000000
0.378038 0.524101 0.000000
0.415432 0.524101 0.000000
0.452235 0.524101 0.000000
0.488464 0.524101 0.000000
0.524101 0.524101 0.000000
0.559234 0.524101 0.000000
0.592784 0.524101 0.000000
0.623554 0.524101 0.000000
0.651298 0.524101 0.000000
0.676403 0.524101 0.000000
0.699382 0.524101 0.000000
0.720903 0.524101 0.000000
0.741746 0.524101 0.000000
0.762346 0.524101 0.000000
0.783615 0.524101 0.000000
0.806010 0.524101 0.000000
0.829477 0.524101 0.000000
0.854402 0.524101 0.000000
0.880594 0.524101 0.000000
0.908543 0.524101 0.000000
0.937760 0.524101 0.000000
0.968254 0.524101 0.000000
1.000000 0.524101 0.000000
0.000000 0.559234 0.000000
0.047123 0.559234 0.000000
0.092505 0.559234 0.000000
0.136610 0.559234 0.000000
0.179235 0.559234 0.000000
0.220852 0.559234 0.000000
0.261460 0.559234 0.000000
0.301060 0.559234 0.000000
0.339958 0.559234 0.000000
0.378038 0.559234 0.000000
0.415432 0.559234 0.000000
0.452235 0.559234 0.000000
0.488464 0.559234 0.000000
0.524101 0.559234 0.000000
0.559234 0.559234 0.000000
0.592784 0.559234 0.000000
0.623554 0.559234 0.000000
0.651298 0.559234 0.000000
0.676403 0.559234 0.000000
0.699382 0.559234 0.000000
0.720903 0.559234 0.000000
0.741746 0.559234 0.000000
0.762346 0.559234 0.000000
0.783615 0.559234 0.000000
0.806010 0.559234 0.000000
0.829477 0.559234 0.000000
0.854402 0.559234 0.000000
0.880594 0.559234 0.000000
0.908543 0.559234 0.000000
0.937760 0.559234 0.000000
0.968254 0.559234 0.000000
1.000000 0.559234 0.000000
0.000000 0.592784 0.000000
0.047123 0.592784 0.000000
0.092505 0.592784 0.000000
0.136610 0.592784 0.000000
0.179235 0.592784 0.000000
0.220852 0.592784 0.000000
0.261460 0.592784 0.000000
0.301060 0.592784 0.000000
0.339958 0.592784 0.000000
0.378038 0.592784 0.000000
0.415432 0.592784 0.000000
0.452235 0.592784 0.000000
0.488464 0.592784 0.000000
0.524101 0.592784 0.000000
0.559234 0.592784 0.000000
0.592784 0.592784 0.000000
0.623554 0.592784 0.000000
0.651298 0.592784 0.000000
0.676403 0.592784 0.000000
0.699382 0.592784 0.000000
0.720903 0.592784 0.000000
0.741746 0.592784 0.000000
0.762346 0.592784 0.000000
0.783615 0.592784 0.000000
0.806010 0.592784 0.000000
0.829477 0.592784 0.000000
0.854402 0.592784 0.000000
0.880594 0.592784 0.000000
0.908543 0.592784 0.000000
0.937760 0.592784 0.000000
0.968254 0.592784 0.000000
1.000000 0.592784 0.000000
0.000000 0.623554 0.000000
0.047123 0.623554 0.000000
0.092505 0.623554 0.000000
0.136610 0.623554 0.000000
0.179235 0.623554 0.000000
0.220852 0.623554 0.000000
0.261460 0.623554 0.000000
0.301060 0.623554 0.000000
0.339958 0.623554 0.000000
0.378038 0.623554 0.000000
0.415432 0.623554 0.000000
0.452235 0.623554 0.000000
0.488464 0.623554 0.000000
0.524101 0.623554 0.000000
0.559234 0.623554 0.000000
0.592784 0.623554 0.000000
0.623554 0.623554 0.000000
0.651298 0.623554 0.000000
0.676403 0.623554 0.000000
0.699382 0.623554 0.000000
0.720903 0.623554 0.000000
0.741746 0.623554 0.000000
0.762346 0.623554 0.000000
0.783615 0.623554 0.000000
0.806010 0.623554 0.000000
0.829477 0.623554 0.000000
0.854402 0.623554 0.000000
0.880594 0.623554 0.000000
0.908543 0.623554 0.000000
0.937760 0.623554 0.000000
0.968254 0.623554 0.000000
1.000000 0.623554 0.000000
0.000000 0.651298 0.000000
0.047123 0.651298 0.000000
0.092505 0.651298 0.000000
0.136610 0.651298 0.000000
0.179235 0.651298 0.000000
0.220852 0.651298 0.000000
0.261460 0.651298 0.000000
0.301060 0.651298 0.000000
0.339958 0.651298 0.000000
0.378038 0.651298 0.000000
0.415432 0.651298 0.000000
0.452235 0.651298 0.000000
0.488464 0.651298 0.000000
0.524101 0.651298 0.000000
0.559234 0.651298 0.000000
0.592784 0.651298 0.000000
0.623554 0.651298 0.000000
0.651298 0.651298 0.000000
0.676403 0.651298 0.000000
0.699382 0.651298 0.000000
0.720903 0.651298 0.000000
0.741746 0.651298 0.000000
0.762346 0.651298 0.000000
0.783615 0.651298 0.000000
0.806010 0.651298 0.000000
0.829477 0.651298 0.000000
0.854402 0.651298 0.000000
0.880594 0.651298 0.000000
0.908543 0.651298 0.000000
0.937760 0.651298 0.000000
0.968254 0.651298 0.000000
1.000000 0.651298 0.000000
0.000000 0.676403 0.000000
0.047123 0.676403 0.000000
0.092505 0.676403 0.000000
0.136610 0.676403 0.000000
0.179235 0.676403 0.000000
0.220852 0.676403 0.000000
0.261460 0.676403 0.000000
0.301060 0.676403 0.000000
0.339958 0.676403 0.000000
0.378038 0.676403 0.000000
0.415432 0.676403 0.000000
0.452235 0.676403 0.000000
0.488464 0.676403 0.000000
0.524101 0.676403 0.000000
0.559234 0.676403 0.000000
0.592784 0.676403 0.000000
0.623554 0.676403 0.000000
0.651298 0.676403 0.000000
0.676403 0.676403 0.000000
0.699382 0.676403 0.000000
0.720903 0.676403 0.000000
0.741746 0.676403 0.000000
0.762346 0.676403 0.000000
0.783615 0.676403 0.000000
0.806010 0.676403 0.000000
0.829477 0.676403 0.000000
0.854402 0.676403 0.000000
0.880594 0.676403 0.000000
0.908543 0.676403 0.000000
0.937760 0.676403 0.000000
0.968254 0.676403 0.000000
1.000000 0.676403 0.000000
0.000000 0.699382 0.000000
0.047123 0.699382 0.000000
0.092505 0.699382 0.000000
0.136610 0.699382 0.000000
0.179235 0.699382 0.000000
0.220852 0.699382 0.000000
0.261460 0.699382 0.000000
0.301060 0.699382 0.000000
0.339958 0.699382 0.000000
0.378038 0.699382 0.000000
0.415432 0.699382 0.000000
0.452235 0.699382 0.000000
0.488464 0.699382 0.000000
0.524101 0.699382 0.000000
0.559234 0.699382 0.000000
0.592784 0.699382 0.000000
0.623554 0.699382 0.000000
0.651298 0.699382 0.000000
0.676403 0.699382 0.000000
0.699382 0.699382 0.000000
0.720903 0.699382 0.000000
0.741746 0.699382 0.000000
0.762346 0.699382 0.000000
0.783615 0.699382 0.000000
0.806010 0.699382 0.000000
0.829477 0.699382 0.000000
0.854402 0.699382 0.000000
0.880594 0.699382 0.000000
0.908543 0.699382 0.000000
0.937760 0.699382 0.000000
0.968254 0.699382 0.000000
1.000000 0.699382 0.000000
0.000000 0.720903 0.000000
0.047123 0.720903 0.000000
0.092505 0.720903 0.000000
0.136610 0.720903 0.000000
0.179235 0.720903 0.000000
0.220852 0.720903 0.000000
0.261460 0.720903 0.000000
0.301060 0.720903 0.000000
0.339958 0.720903 0.000000
0.378038 0.720903 0.000000
0.415432 0.720903 0.000000
0.452235 0.720903 0.000000
0.488464 0.720903 0.000000
0.524101 0.720903 0.000000
0.559234 0.720903 0.000000
0.592784 0.720903 0.000000
0.623554 0.720903 0.000000
0.651298 0.720903 0.000000
0.676403 0.720903 0.000000
0.699382 0.720903 0.000000
0.720903 0.720903 0.000000
0.741746 0.720903 0.000000
0.762346 0.720903 0.000000
0.783615 0.720903 0.000000
0.806010 0.720903 0.000000
0.829477 0.720903 0.000000
0.854402 0.720903 0.000000
0.880594 0.720903 0.000000
0.908543 0.720903 0.000000
0.937760 0.720903 0.000000
0.968254 0.720903 0.000000
1.000000 0.720903 0.000000
0.000000 0.741746 0.000000
0.047123 0.741746 0.000000
0.092505 0.741746 0.000000
0.136610 0.741746 0.000000
0.179235 0.741746 0.000000
0.220852 0.741746 0.000000
0.261460 0.741746 0.000000
0.301060 0.741746 0.000000
0.339958 0.741746 0.000000
0.378038 0.741746 0.000000
0.415432 0.741746 0.000000
0.452235 0.741746 0.000000
0.488464 0.741746 0.000000
0.524101 0.741746 0.000000
0.559234 0.741746 0.000000
0.592784 0.741746 0.000000
0.623554 0.741746 0.000000
0.651298 0.741746 0.000000
0.676403 0.741746 0.000000
0.699382 0.741746 0.000000
0.720903 0.741746 0.000000
0.741746 0.741746 0.000000
0.762346 0.741746 0.000000
0.783615 0.741746 0.000000
0.806010 0.741746 0.000000
0.829477 0.741746 0.000000
0.854402 0.741746 0.000000
0.880594 0.741746 0.000000
0.908543 0.741746 0.000000
0.937760 0.741746 0.000000
0.968254 0.741746 0.000000
1.000000 0.741746 0.000000
0.000000 0.762346 0.000000
0.047123 0.762346 0.000000
0.092505 0.762346 0.000000
0.136610 0.762346 0.000000
0.179235 0.762346 0.000000
0.220852 0.762346 0.000000
0.261460 0.762346 0.000000
0.301060 0.762346 0.000000
0.339958 0.762346 0.000000
0.378038 0.762346 0.000000
0.415432 0.762346 0.000000
0.452235 0.762346 0.000000
0.488464 0.762346 0.000000
0.524101 0.762346 0.000000
0.559234 0.762346 0.000000
0.592784 0.762346 0.000000
0.623554 0.762346 0.000000
0.651298 0.762346 0.000000
0.676403 0.762346 0.000000
0.699382 0.762346 0.000000
0.720903 0.762346 0.000000
0.741746 0.762346 0.000000
0.762346 0.762346 0.000000
0.783615 0.762346 0.000000
0.806010 0.762346 0.000000
0.829477 0.762346 0.000000
0.854402 0.762346 0.000000
0.880594 0.762346 0.000000
0.908543 0.762346 0.000000
0.937760 0.762346 0.000000
0.968254 0.762346 0.000000
1.000000 0.762346 0.000000
0.000000 0.783615 0.000000
0.047123 0.783615 0.000000
0.092505 0.783615 0.000000
0.136610 0.783615 0.000000
0.179235 0.783615 0.000000
0.220852 0.783615 0.000000
0.261460 0.783615 0.000000
0.301060 0.783615 0.000000
0.339958 0.783615 0.000000
0.378038 0.783615 0.000000
0.415432 0.783615 0.000000
0.452235 0.783615 0.000000
0.488464 0.783615 0.000000
0.524101 0.783615 0.000000
0.559234 0.783615 0.000000
0.592784 0.783615 0.000000
0.623554 0.783615 0.000000
0.651298 0.783615 0.000000
0.676403 0.783615 0.000000
0.699382 0.783615 0.000000
0.720903 0.783615 0.000000
0.741746 0.783615 0.000000
0.762346 0.783615 0.000000
0.783615 0.783615 0.000000
0.806010 0.783615 0.000000
0.829477 0.783615 0.000000
0.854402 0.783615 0.000000
0.880594 0.783615 0.000000
0.908543 0.783615 0.000000
0.937760 0.783615 0.000000
0.968254 0.783615 0.000000
1.000000 0.783615 0.000000
0.000000 0.806010 0.000000
0.047123 0.806010 0.000000
0.092505 0.806010 0.000000
0.136610 0.806010 0.000000
0.179235 0.806010 0.000000
0.220852 0.806010 0.000000
0.261460 0.806010 0.000000
0.301060 0.806010 0.000000
0.339958 0.806010 0.000000
0.378038 0.806010 0.000000
0.415432 0.806010 0.000000
0.452235 0.806010 0.000000
0.488464 0.806010 0.000000
0.524101 0.806010 0.000000
0.559234 0.806010 0.000000
0.592784 0.806010 0.000000
0.623554 0.806010 0.000000
0.651298 0.806010 0.000000
0.676403 0.806010 0.000000
0.699382 0.806010 0.000000
0.720903 0.806010 0.000000
0.741746 0.806010 0.000000
0.762346 0.806010 0.000000
0.783615 0.806010 0.000000
0.806010 0.806010 0.000000
0.829477 0.806010 0.000000
0.854402 0.806010 0.000000
0.880594 0.806010 0.000000
0.908543 0.806010 0.000000
0.937760 0.806010 0.000000
0.968254 0.806010 0.000000
1.000000 0.806010 0.000000
0.000000 0.829477 0.000000
0.047123 0.829477 0.000000
0.092505 0.829477 0.000000
0.136610 0.829477 0.000000
0.179235 0.829477 0.000000
0.220852 0.829477 0.000000
0.261460 0.829477 0.000000
0.301060 0.829477 0.000000
0.339958 0.829477 0.000000
0.378038 0.829477 0.000000
0.415432 0.829477 0.000000
0.452235 0.829477 0.000000
0.488464 0.829477 0.000000
0.524101 0.829477 0.000000
0.559234 0.829477 0.000000
0.592784 0.829477 0.000000
0.623554 0.829477 0.000000
0.651298 0.829477 0.000000
0.676403 0.829477 0.000000
0.699382 0.829477 0.000000
0.720903 0.829477 0.000000
0.741746 0.829477 0.000000
0.762346 0.829477 0.000000
0.783615 0.829477 0.000000
0.806010 0.829477 0.000000
0.829477 0.829477 0.000000
0.854402 0.829477 0.000000
0.880594 0.829477 0.000000
0.908543 0.829477 0.000000
0.937760 0.829477 0.000000
0.968254 0.829477 0.000000
1.000000 0.829477 0.000000
0.000000 0.854402 0.000000
0.047123 0.854402 0.000000
0.092505 0.854402 0.000000
0.136610 0.854402 0.000000
0.179235 0.854402 0.000000
0.220852 0.854402 0.000000
0.261460 0.854402 0.000000
0.301060 0.854402 0.000000
0.339958 0.854402 0.000000
0.378038 0.854402 0.000000
0.415432 0.854402 0.000000
0.452235 0.854402 0.000000
0.488464 0.854402 0.000000
0.524101 0.854402 0.000000
0.559234 0.854402 0.000000
0.592784 0.854402 0.000000
0.623554 0.854402 0.000000
0.651298 0.854402 0.000000
0.676403 0.854402 0.000000
0.699382 0.854402 0.000000
0.720903 0.854402 0.000000
0.741746 0.854402 0.000000
0.762346 0.854402 0.000000
0.783615 0.854402 0.000000
0.806010 0.854402 0.000000
0.829477 0.854402 0.000000
0.854402 0.854402 0.000000
0.880594 0.854402 0.000000
0.908543 0.854402 0.000000
0.937760 0.854402 0.000000
0.968254 0.854402 0.000000
1.000000 0.854402 0.000000
0.000000 0.880594 0.000000
0.047123 0.880594 0.000000
0.092505 0.880594 0.000000
0.136610 0.880594 0.000000
0.179235 0.880594 0.000000
0.220852 0.880594 0.000000
0.261460 0.880594 0.000000
0.301060 0.880594 0.000000
0.339958 0.880594 0.000000
0.378038 0.880594 0.000000
0.415432 0.880594 0.000000
0.452235 0.880594 0.000000
0.488464 0.880594 0.000000
0.524101 0.880594 0.000000
0.559234 0.880594 0.000000
0.592784 0.880594 0.000000
0.623554 0.880594 0.000000
0.651298 0.880594 0.000000
