gsg/01_Basics/GSG_LUT_Basic_CoolContrasty.cube
# GSG LUTs 1.0
# Copyright (c) 2016-2020 Greyscalegorilla
# See EULA for licensing and distribution information
# Converted by Briz LUT Converter
LUT_3D_SIZE 5
DOMAIN_MIN 0.000000 0.000000 0.000000
DOMAIN_MAX 0.903226 0.903226 0.903226
0.000000 0.000000 0.000000
0.176801 0.024184 0.032408
0.423254 0.057868 0.077601
0.691276 0.094529 0.126693
0.894395 0.122423 0.164134
0.000000 0.189476 0.034117
0.169554 0.190508 0.045614
0.420812 0.195776 0.083217
0.689834 0.207224 0.129995
0.893363 0.219623 0.166460
0.000000 0.453708 0.081752
0.116681 0.454197 0.086447
0.406013 0.456016 0.109226
0.681799 0.460321 0.146780
0.887471 0.465186 0.179251
0.000000 0.741187 0.133451
0.000000 0.741431 0.136083
0.369865 0.742444 0.150498
0.663185 0.744850 0.178367
0.874008 0.747591 0.205089
0.000000 0.959037 0.172681
0.000000 0.959037 0.174519
0.321877 0.959880 0.185466
0.640789 0.961645 0.208074
0.858057 0.963656 0.230751
0.000000 0.000000 0.233093
0.174060 0.000768 0.234558
0.422333 0.053117 0.242349
0.690750 0.091898 0.259193
0.893925 0.120438 0.277104
0.000000 0.188456 0.234613
0.166812 0.189320 0.236036
0.419835 0.194703 0.243844
0.689328 0.206258 0.260530
0.892933 0.218684 0.278375
0.000000 0.453464 0.243411
0.112390 0.453732 0.244791
0.405066 0.455648 0.252241
0.681293 0.459939 0.268324
0.887078 0.464828 0.285562
0.000000 0.740943 0.262068
0.000000 0.741187 0.263327
0.368750 0.742200 0.270085
0.662618 0.744606 0.285019
0.873520 0.747347 0.301044
0.000000 0.958793 0.281684
0.000000 0.958999 0.282890
0.320673 0.959743 0.289189
0.640151 0.961463 0.302946
0.857570 0.963454 0.317972
0.000000 0.000000 0.558234
0.157959 0.000000 0.558667
0.417039 0.000000 0.561542
0.687790 0.074906 0.567959
0.891843 0.108819 0.575084
0.000000 0.181795 0.558856
0.149741 0.182772 0.559198
0.414498 0.188380 0.562069
0.686471 0.200339 0.568457
0.890811 0.213257 0.575612
0.000000 0.451156 0.561957
0.080783 0.451527 0.562399
0.399493 0.453464 0.565188
0.678359 0.457726 0.571511
0.884919 0.462633 0.578692
0.000000 0.739722 0.568979
0.000000 0.739891 0.569488
0.362507 0.740921 0.572228
0.659540 0.743349 0.578430
0.871377 0.746130 0.585541
0.000000 0.957829 0.577158
0.000000 0.958061 0.577471
0.313141 0.958799 0.580267
0.636957 0.960593 0.586317
0.855284 0.962588 0.593399
0.000000 0.000000 0.911765
0.110297 0.000000 0.912009
0.404628 0.000000 0.913585
0.681098 0.000000 0.917112
0.886983 0.073938 0.921100
0.000000 0.165684 0.912009
0.096818 0.166674 0.912253
0.402032 0.173014 0.913829
0.679698 0.186162 0.917382
0.885951 0.200107 0.921454
0.000000 0.446028 0.913829
0.000000 0.446302 0.914073
0.386410 0.448226 0.915615
0.671543 0.452617 0.919176
0.879996 0.457639 0.923164
0.000000 0.736870 0.917738
0.000000 0.737114 0.918006
0.347716 0.738091 0.919536
0.652483 0.740480 0.923102
0.866316 0.743275 0.927179
0.000000 0.955697 0.922321
0.000000 0.955942 0.922565
0.295291 0.956674 0.924133
0.629651 0.958501 0.927657
0.850156 0.960559 0.931655
0.000000 0.000000 1.000000
0.006594 0.000000 1.000000
0.389799 0.000000 1.000000
0.673189 0.000000 1.000000
0.881232 0.000000 1.000000
0.000000 0.144293 1.000000
0.000000 0.145519 1.000000
0.386955 0.152737 1.000000
0.671819 0.167980 1.000000
0.880205 0.183554 1.000000
0.000000 0.439923 1.000000
0.000000 0.440217 1.000000
0.370610 0.442220 1.000000
0.663539 0.446659 1.000000
0.874284 0.451753 1.000000
0.000000 0.733562 1.000000
0.000000 0.733794 1.000000
0.329671 0.734818 1.000000
0.644218 0.737225 1.000000
0.860378 0.739974 1.000000
0.000000 0.953421 1.000000
0.000000 0.953444 1.000000
0.272956 0.954277 1.000000
0.620916 0.956052 1.000000
0.844163 0.958082 1.000000
