gsg/01_Basics/GSG_LUT_Basic_GreenShadows.cube
# GSG LUTs 1.0
# Copyright (c) 2016-2020 Greyscalegorilla
# See EULA for licensing and distribution information
# Converted by Briz LUT Converter
LUT_3D_SIZE 5
DOMAIN_MIN 0.000000 0.000000 0.000000
DOMAIN_MAX 0.903226 0.903226 0.903226
0.000000 0.000000 0.000000
0.226240 0.000000 0.000189
0.454165 0.000000 0.000000
0.685076 0.000000 0.000000
0.916854 0.000000 0.000000
0.001654 0.225562 0.000000
0.226936 0.225464 0.000000
0.455167 0.224475 0.000000
0.685925 0.221117 0.000000
0.917366 0.214560 0.000000
0.022238 0.449904 0.000000
0.232779 0.449793 0.000000
0.459270 0.449000 0.000000
0.689373 0.447143 0.000000
0.919574 0.444066 0.000000
0.089354 0.673103 0.000000
0.251824 0.672858 0.000000
0.469782 0.672260 0.000000
0.696421 0.670958 0.000000
0.923187 0.669384 0.000000
0.157375 0.898074 0.000000
0.282637 0.897848 0.000000
0.485851 0.897586 0.000000
0.705290 0.897097 0.000000
0.925275 0.897074 0.000000
0.005538 0.000244 0.221490
0.227571 0.000000 0.221392
0.455167 0.000000 0.220732
0.685809 0.000000 0.219481
0.917347 0.000000 0.217551
0.008518 0.225520 0.220403
0.228704 0.225318 0.220158
0.456217 0.224341 0.219485
0.686798 0.221048 0.218270
0.917952 0.214408 0.216042
0.035355 0.449904 0.216055
0.235791 0.449659 0.215792
0.460743 0.448888 0.214865
0.690385 0.447016 0.213234
0.920236 0.444056 0.210586
0.101020 0.673024 0.204301
0.256256 0.672858 0.203988
0.472017 0.672216 0.202777
0.697804 0.670958 0.200333
0.924099 0.669368 0.196424
0.167645 0.897903 0.174020
0.288111 0.897830 0.173306
0.488655 0.897586 0.171074
0.707054 0.897097 0.166998
0.926323 0.897095 0.160038
0.070353 0.000244 0.423294
0.243403 0.000000 0.423049
0.462909 0.000000 0.422317
0.691024 0.000000 0.420761
0.921005 0.000000 0.418433
0.075902 0.225459 0.421614
0.245331 0.225306 0.421285
0.464377 0.224102 0.420552
0.692134 0.220510 0.418996
0.921741 0.214063 0.416534
0.098694 0.449793 0.416052
0.254345 0.449549 0.415794
0.469918 0.448756 0.414965
0.696227 0.446808 0.413324
0.924290 0.443822 0.410769
0.146914 0.672858 0.404841
0.276801 0.672684 0.404561
0.482563 0.672126 0.403584
0.704376 0.670851 0.401745
0.928300 0.669361 0.398909
0.203986 0.897853 0.384387
0.309413 0.897830 0.384100
0.500108 0.897586 0.382861
0.714002 0.897097 0.380665
0.930623 0.897296 0.377195
0.172720 0.001473 0.605105
0.288749 0.000128 0.604921
0.486640 0.000000 0.604372
0.706139 0.000000 0.603151
0.931238 0.000000 0.601213
0.176267 0.225562 0.603828
0.291041 0.225306 0.603584
0.488220 0.223751 0.602882
0.707349 0.219873 0.601715
0.931998 0.213561 0.599866
0.190626 0.449585 0.599508
0.300223 0.449322 0.599299
0.494096 0.448438 0.598700
0.711489 0.446434 0.597503
0.934302 0.443578 0.595814
0.221953 0.672667 0.591918
0.320674 0.672596 0.591674
0.506470 0.671857 0.591112
0.719325 0.670624 0.590000
0.937879 0.669361 0.588301
0.262232 0.897830 0.580472
0.348476 0.897830 0.580234
0.522537 0.897586 0.579739
0.727634 0.897097 0.578574
0.938854 0.897476 0.576996
0.229595 0.000000 0.822600
0.324771 0.000000 0.822600
0.507374 0.000000 0.822600
0.719579 0.000000 0.822821
0.939638 0.000000 0.823063
0.231678 0.224853 0.822650
0.326182 0.224536 0.822821
0.508541 0.222595 0.822821
0.720339 0.218453 0.823059
0.939925 0.212422 0.823335
0.239984 0.449061 0.823629
0.332445 0.448816 0.823750
0.512823 0.447785 0.823861
0.723168 0.445692 0.824094
0.940925 0.443100 0.824679
0.258947 0.672299 0.826287
0.345929 0.672110 0.826436
0.521155 0.671393 0.826599
0.727994 0.670225 0.826996
0.941930 0.669148 0.827861
0.280132 0.897586 0.832282
0.361290 0.897586 0.832481
0.529529 0.897341 0.832757
0.730529 0.897097 0.833451
0.937925 0.897783 0.834430
