gsg/01_Basics/GSG_LUT_Basic_CoolCreamyWhites.cube
# GSG LUTs 1.0
# Copyright (c) 2016-2020 Greyscalegorilla
# See EULA for licensing and distribution information
# Converted by Briz LUT Converter
LUT_3D_SIZE 32
0.021245 0.022711 0.025885
0.052015 0.023207 0.026389
0.083044 0.023963 0.027642
0.114577 0.024979 0.029178
0.146615 0.026500 0.031415
0.178912 0.028485 0.034180
0.211666 0.030517 0.037158
0.244665 0.032999 0.040435
0.277727 0.035480 0.043909
0.310977 0.038276 0.047698
0.344149 0.041010 0.051424
0.377234 0.043988 0.055394
0.410241 0.046965 0.059364
0.443042 0.049943 0.063335
0.475545 0.053031 0.067415
0.507558 0.056142 0.071519
0.539076 0.059120 0.075489
0.570208 0.062098 0.079460
0.600591 0.065075 0.083186
0.630076 0.068053 0.087006
0.658797 0.070787 0.090724
0.686510 0.073520 0.094364
0.713214 0.076253 0.097743
0.738729 0.078806 0.101146
0.762732 0.081098 0.104187
0.785222 0.083327 0.107165
0.805955 0.085517 0.109898
0.824751 0.087298 0.112419
0.841490 0.089062 0.114435
0.855741 0.090551 0.116420
0.867470 0.091559 0.117925
0.875946 0.092552 0.118926
0.018213 0.054228 0.026397
0.051015 0.054472 0.027138
0.082311 0.054717 0.028146
0.114104 0.055007 0.029895
0.146150 0.055717 0.031919
0.178660 0.056488 0.034638
0.211416 0.057474 0.037464
0.244468 0.058703 0.040695
0.277482 0.059992 0.044230
0.310733 0.061468 0.047950
0.343984 0.063025 0.051676
0.377231 0.064910 0.055646
0.410146 0.066730 0.059616
0.442900 0.068940 0.063587
0.475407 0.070920 0.067557
0.507440 0.073134 0.071527
0.539076 0.075355 0.075497
0.570203 0.077702 0.079467
0.600449 0.079928 0.083433
0.630076 0.082157 0.087159
0.658797 0.084470 0.090885
0.686510 0.086691 0.094448
0.713214 0.088913 0.097916
0.738727 0.091073 0.101209
0.762730 0.093111 0.104378
0.785220 0.094898 0.107218
0.805955 0.096823 0.109937
0.824719 0.098350 0.112420
0.841490 0.099831 0.114657
0.855741 0.101091 0.116444
0.867463 0.102084 0.117933
0.875946 0.102832 0.119170
0.007996 0.086266 0.027658
0.048778 0.086495 0.028161
0.081289 0.086525 0.029384
0.113348 0.086776 0.030911
0.145638 0.087258 0.032928
0.178164 0.087739 0.035446
0.211150 0.088235 0.038410
0.244164 0.088976 0.041455
0.277238 0.089763 0.044917
0.310489 0.090740 0.048624
0.343739 0.091733 0.052343
0.376984 0.092954 0.056153
0.409990 0.094175 0.060113
0.442789 0.095507 0.064083
0.475300 0.096971 0.068053
0.507424 0.098452 0.072023
0.539060 0.100051 0.075994
0.569963 0.101650 0.079830
0.600347 0.103352 0.083690
0.630060 0.105069 0.087504
0.658792 0.106786 0.091223
0.686510 0.108430 0.094702
0.713203 0.110155 0.098176
0.738485 0.111710 0.101465
0.762665 0.113427 0.104624
0.784978 0.114903 0.107424
0.805942 0.116389 0.110195
0.824719 0.117620 0.112665
0.841453 0.118862 0.114902
0.855725 0.119863 0.116680
0.867226 0.120619 0.118185
0.875946 0.121360 0.119414
0.000000 0.119044 0.029643
0.045250 0.119264 0.030140
0.079311 0.119288 0.030933
0.112112 0.119511 0.032423
0.144645 0.119756 0.034437
0.177439 0.120036 0.036898
0.210465 0.120485 0.039671
0.243696 0.120834 0.042704
0.276953 0.121501 0.045933
0.310221 0.122069 0.049628
0.343472 0.122809 0.053197
0.376722 0.123699 0.056922
0.409743 0.124534 0.060877
0.442633 0.125503 0.064823
0.475043 0.126496 0.068573
0.507172 0.127709 0.072543
0.538808 0.128815 0.076501
0.569819 0.130035 0.080460
0.600195 0.131279 0.084196
0.629832 0.132585 0.088007
0.658553 0.133822 0.091646
0.686266 0.135200 0.095199
0.712970 0.136445 0.098673
0.738479 0.137729 0.101902
0.762482 0.138960 0.104943
0.784978 0.140179 0.107921
0.805711 0.141356 0.110449
0.824504 0.142384 0.112931
0.841246 0.143356 0.115192
0.855496 0.144103 0.116948
0.867226 0.144850 0.118444
0.875923 0.145331 0.119682
0.000000 0.152326 0.031935
0.039402 0.152333 0.032408
0.076557 0.152539 0.033400
0.110319 0.152591 0.034661
0.143409 0.152787 0.036453
0.176446 0.153032 0.038694
0.209697 0.153318 0.041388
0.242948 0.153760 0.044217
0.276230 0.154067 0.047445
0.309702 0.154563 0.050896
0.342975 0.155128 0.054439
0.376226 0.155768 0.058164
0.409382 0.156489 0.061889
0.442136 0.157218 0.065750
0.474780 0.158054 0.069566
0.506920 0.158817 0.073536
0.538556 0.159778 0.077262
0.569475 0.160753 0.081215
0.599947 0.161731 0.084940
0.629588 0.162724 0.088665
0.658309 0.163685 0.092253
0.686234 0.164678 0.095726
0.712788 0.165670 0.099178
0.738233 0.166663 0.102407
0.762243 0.167624 0.105471
0.784734 0.168616 0.108417
0.805501 0.169577 0.111156
0.824448 0.170357 0.113459
0.841194 0.171095 0.115688
0.855451 0.171807 0.117445
0.866982 0.172303 0.118934
0.875702 0.172799 0.120178
0.000000 0.186073 0.034913
0.029501 0.186073 0.035211
0.072580 0.186075 0.036165
0.107846 0.186317 0.037201
0.141602 0.186348 0.038946
0.175137 0.186561 0.041136
0.208468 0.186805 0.043460
0.241955 0.187105 0.046193
0.275460 0.187357 0.049376
0.308956 0.187842 0.052657
0.342440 0.188310 0.056103
0.375730 0.188806 0.059577
0.408886 0.189302 0.063295
0.441640 0.189799 0.067013
0.474284 0.190518 0.070824
0.506424 0.191240 0.074549
0.538080 0.191863 0.078393
0.569191 0.192611 0.082112
0.599677 0.193445 0.085832
0.629304 0.194312 0.089527
0.658051 0.195061 0.093133
0.685916 0.195875 0.096541
0.712541 0.196762 0.099949
0.737987 0.197511 0.103179
0.761990 0.198305 0.106219
0.784489 0.199212 0.109165
0.805256 0.199961 0.111726
0.824197 0.200496 0.114173
0.840943 0.201197 0.116224
0.855213 0.201733 0.118172
0.866744 0.202190 0.119674
0.875458 0.202442 0.120714
0.000000 0.220111 0.038182
0.001432 0.220111 0.038434
0.067278 0.220111 0.039190
0.104582 0.220130 0.040384
0.139356 0.220355 0.041892
0.173390 0.220395 0.043704
0.206979 0.220638 0.046138
0.240726 0.220888 0.048675
0.274473 0.221139 0.051459
0.308023 0.221543 0.054630
0.341558 0.221852 0.057883
0.374989 0.222348 0.061357
0.408221 0.222600 0.064907
0.441144 0.223097 0.068522
0.473788 0.223790 0.072220
0.505928 0.224286 0.075938
0.537690 0.224807 0.079657
0.568721 0.225523 0.083375
0.599323 0.226133 0.087073
0.628855 0.226760 0.090567
0.657773 0.227453 0.094238
0.685486 0.228193 0.097578
0.712190 0.228863 0.100941
0.737705 0.229576 0.104171
0.761744 0.230171 0.107212
0.784236 0.230864 0.109945
0.805010 0.231565 0.112639
0.823940 0.232101 0.114955
0.840691 0.232597 0.117150
0.854961 0.233093 0.118957
0.866500 0.233542 0.120462
0.875214 0.233794 0.121462
0.000000 0.254354 0.041656
0.000987 0.254354 0.041963
0.060193 0.254354 0.042664
0.100574 0.254409 0.043657
0.136436 0.254598 0.044956
0.171184 0.254607 0.046886
0.205238 0.254843 0.048919
0.239293 0.255087 0.051400
0.273229 0.255331 0.054085
0.306991 0.255575 0.056977
0.340661 0.255880 0.060150
0.374194 0.256150 0.063398
0.407444 0.256591 0.066816
0.440403 0.256899 0.070290
0.473133 0.257370 0.073978
0.505403 0.257836 0.077574
0.537165 0.258332 0.081174
0.568199 0.258829 0.084864
0.598826 0.259435 0.088337
0.628556 0.260010 0.091927
0.657277 0.260562 0.095474
0.685155 0.261247 0.098759
0.711938 0.261743 0.102044
0.737250 0.262380 0.105227
0.761413 0.262968 0.108204
0.783946 0.263476 0.110985
0.804688 0.263973 0.113680
0.823687 0.264469 0.115955
0.840264 0.264910 0.118020
0.854697 0.265406 0.119950
0.866196 0.265658 0.121454
0.874914 0.265910 0.122455
0.000000 0.288660 0.045437
0.000000 0.288666 0.045689
0.049948 0.288842 0.046371
0.095581 0.288848 0.047211
0.132971 0.288905 0.048462
0.168445 0.289086 0.050161
0.203203 0.289184 0.052106
0.237511 0.289344 0.054378
0.271740 0.289574 0.056859
0.305731 0.289818 0.059656
0.339541 0.290063 0.062591
0.373160 0.290329 0.065792
0.406452 0.290646 0.069084
0.439626 0.291003 0.072444
0.472389 0.291394 0.075994
0.504658 0.291827 0.079467
0.536453 0.292230 0.082941
0.567674 0.292639 0.086415
0.598162 0.293135 0.090071
0.627926 0.293568 0.093544
0.656780 0.294064 0.096797
0.684659 0.294561 0.100248
0.711442 0.295185 0.103478
0.736894 0.295734 0.106526
0.760959 0.296231 0.109504
0.783450 0.296727 0.112238
0.804275 0.297223 0.114766
0.823191 0.297483 0.117193
0.839962 0.297972 0.119201
0.854212 0.298239 0.121017
0.865942 0.298484 0.122449
0.874662 0.298728 0.123510
0.000000 0.323156 0.049407
0.000000 0.323329 0.049659
0.032958 0.323329 0.050167
0.089295 0.323336 0.050936
0.128931 0.323400 0.052179
0.165437 0.323573 0.053645
0.200756 0.323644 0.055386
0.235567 0.323817 0.057616
0.269999 0.323933 0.059908
0.304192 0.324183 0.062563
0.338233 0.324385 0.065367
0.371980 0.324637 0.068345
0.405459 0.324889 0.071496
0.438710 0.325283 0.074790
0.471496 0.325637 0.078050
0.503914 0.325889 0.081489
0.535676 0.326349 0.084927
0.566930 0.326638 0.088400
0.597519 0.327134 0.091874
0.627319 0.327559 0.095171
0.656198 0.328055 0.098532
0.683997 0.328378 0.101760
0.710875 0.328824 0.104987
0.736398 0.329300 0.108015
0.760463 0.329796 0.110859
0.782953 0.330235 0.113529
0.803931 0.330545 0.116196
0.822695 0.330979 0.118492
0.839466 0.331310 0.120509
0.853782 0.331556 0.122266
0.865446 0.331803 0.123754
0.874166 0.332049 0.124755
0.000000 0.357816 0.053377
0.000000 0.357816 0.053630
0.003335 0.357816 0.054131
0.081326 0.357824 0.054890
0.123946 0.357895 0.055914
0.161965 0.358061 0.057403
0.197999 0.358076 0.059072
0.233258 0.358305 0.061089
0.268077 0.358426 0.063138
0.302501 0.358572 0.065667
0.336691 0.358793 0.068345
0.370735 0.359037 0.071078
0.404286 0.359282 0.074221
0.437569 0.359526 0.077347
0.470460 0.359880 0.080531
0.503005 0.360132 0.083761
0.534893 0.360503 0.087156
0.566143 0.360881 0.090421
0.596770 0.361202 0.093860
0.626548 0.361581 0.097089
0.655516 0.361940 0.100406
0.683475 0.362377 0.103602
0.710205 0.362795 0.106605
0.735720 0.363168 0.109583
0.759912 0.363543 0.112500
0.782457 0.363906 0.115230
0.803368 0.364292 0.117744
0.822199 0.364575 0.119981
0.838970 0.364969 0.121998
0.853375 0.365292 0.123744
0.864949 0.365468 0.125007
0.873670 0.365552 0.126244
0.000000 0.392304 0.057592
0.000000 0.392304 0.057839
0.001902 0.392304 0.058193
0.071184 0.392304 0.058860
0.118187 0.392315 0.059884
0.157744 0.392416 0.061129
0.194755 0.392548 0.062792
0.230521 0.392603 0.064563
0.265783 0.392792 0.066612
0.300587 0.392925 0.069006
0.335003 0.393115 0.071488
0.369089 0.393311 0.074213
0.402932 0.393525 0.077033
0.436394 0.393769 0.080011
0.469377 0.394084 0.083146
0.501926 0.394376 0.086287
0.533901 0.394628 0.089472
0.565284 0.394951 0.092702
0.595956 0.395326 0.095997
0.625751 0.395628 0.099222
0.654773 0.396038 0.102391
0.682732 0.396318 0.105562
0.709465 0.396674 0.108590
0.735097 0.397060 0.111504
0.759207 0.397412 0.114301
0.781844 0.397786 0.116838
0.802694 0.398052 0.119319
0.821702 0.398322 0.121577
0.838465 0.398566 0.123573
0.852724 0.398811 0.125243
0.864453 0.399055 0.126732
0.873173 0.399299 0.127732
0.000000 0.426547 0.061806
0.000000 0.426547 0.061909
0.000000 0.426547 0.062405
0.057407 0.426547 0.063060
0.111463 0.426566 0.063937
0.153058 0.426791 0.065099
0.191038 0.426791 0.066588
0.227600 0.426962 0.068282
0.263342 0.427035 0.070267
0.298401 0.427212 0.072323
0.333097 0.427328 0.074804
0.367453 0.427524 0.077339
0.401447 0.427710 0.080069
0.434905 0.427957 0.082989
0.468088 0.428204 0.085966
0.500727 0.428452 0.088944
0.532813 0.428699 0.092071
0.564292 0.429028 0.095183
0.595029 0.429320 0.098271
0.624908 0.429569 0.101493
0.653882 0.429932 0.104567
0.681877 0.430281 0.107598
0.708724 0.430560 0.110575
0.734350 0.430848 0.113372
0.758580 0.431281 0.116098
0.781202 0.431533 0.118823
0.802103 0.431810 0.121100
0.820962 0.432069 0.123329
0.837733 0.432313 0.125314
0.852212 0.432557 0.126976
0.863862 0.432799 0.128320
0.872433 0.432802 0.129316
0.000000 0.460546 0.066021
0.000000 0.460550 0.066131
0.000000 0.460688 0.066627
0.032006 0.460688 0.067137
0.103339 0.460688 0.068037
0.147624 0.460704 0.069069
0.187061 0.460818 0.070558
0.224333 0.460932 0.072079
0.260577 0.461071 0.073843
0.296097 0.461176 0.075970
0.331043 0.461324 0.078245
0.365557 0.461507 0.080657
0.399709 0.461665 0.083241
0.433476 0.461909 0.085966
0.466667 0.462153 0.088756
0.499486 0.462397 0.091677
0.531622 0.462641 0.094728
0.563119 0.462886 0.097775
0.593994 0.463130 0.100752
0.623916 0.463374 0.103880
0.652976 0.463710 0.106952
0.681002 0.464028 0.109860
0.707881 0.464280 0.112704
0.733578 0.464568 0.115565
0.757832 0.464816 0.118272
0.780460 0.465198 0.120808
0.801355 0.465446 0.123085
0.820363 0.465695 0.125314
0.837120 0.465944 0.127207
0.851480 0.466053 0.128812
0.863216 0.466202 0.130201
0.871937 0.466446 0.131199
0.000000 0.494324 0.070235
0.000000 0.494324 0.070483
0.000000 0.494331 0.070739
0.005539 0.494435 0.071359
0.093655 0.494435 0.072118
0.141500 0.494456 0.073244
0.182447 0.494569 0.074481
0.220702 0.494679 0.075932
0.257518 0.494713 0.077668
0.293442 0.494845 0.079554
0.328808 0.495057 0.081709
0.363622 0.495167 0.083989
0.397971 0.495344 0.086471
0.431863 0.495545 0.089132
0.465178 0.495716 0.091861
0.498066 0.495965 0.094655
0.530381 0.496213 0.097576
0.561952 0.496412 0.100500
0.592800 0.496664 0.103478
0.622923 0.496916 0.106456
0.651944 0.497168 0.109347
0.680106 0.497456 0.112167
0.707062 0.497743 0.115066
0.732648 0.497987 0.117796
0.756980 0.498232 0.120397
0.779603 0.498476 0.122815
0.800607 0.498720 0.125162
0.819615 0.498964 0.127299
0.836373 0.499208 0.129163
0.850739 0.499445 0.130797
0.862476 0.499582 0.132049
0.871196 0.499697 0.133042
0.000000 0.527701 0.074450
0.000000 0.527701 0.074698
0.000000 0.527701 0.074954
0.002650 0.527712 0.075461
0.081621 0.527819 0.076222
0.134616 0.527819 0.077215
0.177375 0.527844 0.078451
0.216703 0.527972 0.079743
0.254172 0.528063 0.081389
0.290633 0.528189 0.083246
0.326370 0.528308 0.085306
0.361393 0.528476 0.087463
0.396038 0.528601 0.089899
0.430052 0.528796 0.092308
0.463624 0.528975 0.094964
0.496577 0.529166 0.097633
0.528961 0.529349 0.100484
0.560707 0.529598 0.103279
0.591636 0.529846 0.106130
0.621687 0.530094 0.108983
0.650904 0.530342 0.111915
0.679113 0.530591 0.114648
0.706070 0.530839 0.117452
0.731837 0.531087 0.120148
0.756091 0.531336 0.122659
0.778833 0.531584 0.125046
0.799732 0.531813 0.127299
0.818740 0.532065 0.129402
0.835614 0.532097 0.131281
0.849998 0.532341 0.132782
0.861617 0.532577 0.134149
0.870338 0.532585 0.135027
0.000000 0.560455 0.078664
0.000000 0.560455 0.078908
0.000000 0.560573 0.079168
0.000000 0.560573 0.079664
0.065667 0.560590 0.080405
0.126790 0.560700 0.081185
0.171910 0.560700 0.082422
0.212446 0.560818 0.083713
0.250637 0.560850 0.085233
0.287602 0.560978 0.086970
0.323723 0.561103 0.088865
0.359124 0.561230 0.090937
0.393903 0.561355 0.093174
0.428193 0.561550 0.095656
0.461887 0.561730 0.098137
0.495088 0.561855 0.100737
0.527473 0.562104 0.103462
0.559288 0.562283 0.106188
0.590342 0.562527 0.108982
0.620568 0.562726 0.111711
0.649785 0.562974 0.114441
0.677914 0.563222 0.117208
0.705077 0.563470 0.119934
0.730844 0.563685 0.122503
0.755099 0.563937 0.125015
0.777841 0.564189 0.127378
0.798866 0.564342 0.129634
0.817874 0.564481 0.131640
0.834759 0.564725 0.133392
0.849132 0.564953 0.135011
0.860869 0.564969 0.136260
0.869589 0.565213 0.137256
0.000000 0.592698 0.082878
0.000000 0.592702 0.083016
0.000000 0.592832 0.083272
0.000000 0.592832 0.083779
0.038226 0.592846 0.084407
0.117870 0.592942 0.085155
0.165767 0.592942 0.086284
0.207742 0.592972 0.087525
0.246842 0.593104 0.088957
0.284446 0.593186 0.090693
0.320907 0.593356 0.092473
0.356643 0.593430 0.094569
0.391741 0.593607 0.096648
0.426208 0.593731 0.098885
0.460089 0.593919 0.101367
0.493355 0.594106 0.103901
0.525984 0.594232 0.106440
0.557864 0.594407 0.109165
0.589034 0.594651 0.111789
0.619281 0.594895 0.114522
0.648541 0.595053 0.117169
0.676884 0.595305 0.119898
0.703872 0.595557 0.122415
0.729718 0.595809 0.124897
0.754106 0.595872 0.127378
0.776848 0.596116 0.129751
0.797873 0.596361 0.131892
0.816881 0.596573 0.133877
0.833873 0.596704 0.135641
0.848375 0.596849 0.137241
0.860010 0.596956 0.138489
0.868841 0.597093 0.139375
0.000000 0.624318 0.086849
0.000000 0.624318 0.087093
0.000000 0.624318 0.087353
0.000000 0.624318 0.087849
0.008582 0.624331 0.088377
0.107436 0.624562 0.089125
0.159203 0.624562 0.090138
0.202750 0.624562 0.091378
0.242853 0.624588 0.092757
0.281004 0.624806 0.094287
0.317964 0.624806 0.096057
0.354070 0.625050 0.098042
0.389397 0.625050 0.100028
0.424081 0.625294 0.102300
0.458214 0.625341 0.104596
0.491599 0.625539 0.107009
0.524304 0.625714 0.109491
0.556375 0.625917 0.112143
0.587609 0.626086 0.114624
0.617921 0.626271 0.117350
0.647296 0.626515 0.119897
0.675647 0.626714 0.122511
0.702747 0.626963 0.125111
0.728615 0.627080 0.127622
0.753114 0.627327 0.129891
0.775856 0.627492 0.132144
0.796881 0.627714 0.134373
0.815889 0.627839 0.136235
0.832880 0.628073 0.137971
0.847383 0.628216 0.139470
0.859128 0.628324 0.140719
0.867848 0.628327 0.141613
0.000000 0.655040 0.090819
0.000000 0.655040 0.091063
0.000000 0.655040 0.091323
0.000000 0.655189 0.091819
0.005151 0.655201 0.092316
0.095108 0.655284 0.093095
0.151969 0.655284 0.094088
0.197403 0.655284 0.095136
0.238591 0.655458 0.096475
0.277427 0.655528 0.097964
0.314885 0.655576 0.099697
0.351426 0.655772 0.101516
0.386916 0.655772 0.103502
0.421954 0.656016 0.105589
0.456229 0.656084 0.107826
0.489812 0.656261 0.110158
0.522689 0.656459 0.112639
0.554886 0.656587 0.115121
0.586120 0.656749 0.117602
0.616553 0.656993 0.120084
0.646018 0.657151 0.122659
0.674410 0.657403 0.125141
0.701611 0.657482 0.127622
0.727473 0.657726 0.130104
0.751877 0.657970 0.132396
0.774863 0.658167 0.134625
0.795888 0.658214 0.136690
0.814979 0.658458 0.138595
0.831902 0.658679 0.140360
0.846390 0.658703 0.141849
0.858135 0.658942 0.142952
0.866856 0.658947 0.143850
0.000000 0.684997 0.094789
0.000000 0.684997 0.095033
0.000000 0.684997 0.095130
0.000000 0.684997 0.095545
0.000000 0.684997 0.096149
0.080091 0.685023 0.096894
0.144020 0.685155 0.097814
0.191709 0.685242 0.098826
0.234008 0.685242 0.100171
0.273622 0.685399 0.101483
0.311678 0.685486 0.103171
0.348538 0.685542 0.104934
0.384529 0.685677 0.106818
0.419725 0.685730 0.108869
0.454110 0.685974 0.110985
0.487873 0.686050 0.113338
0.520953 0.686218 0.115617
0.553153 0.686424 0.118098
0.584631 0.686554 0.120488
0.615101 0.686707 0.122904
0.644664 0.686951 0.125385
0.673123 0.687116 0.127866
0.700374 0.687307 0.130348
0.726345 0.687439 0.132626
0.750849 0.687684 0.134877
0.773713 0.687881 0.137107
0.794870 0.687928 0.139092
0.813904 0.688172 0.141077
0.830895 0.688393 0.142675
0.845413 0.688416 0.144092
0.857143 0.688416 0.145339
0.866107 0.688660 0.146174
0.000000 0.713868 0.098594
0.000000 0.713868 0.098762
0.000000 0.713868 0.099009
0.000000 0.713947 0.099350
0.000000 0.713947 0.099846
0.059229 0.713947 0.100587
0.135462 0.713947 0.101375
0.185695 0.713984 0.102405
0.229383 0.714133 0.103667
0.269771 0.714191 0.104990
0.308370 0.714245 0.106645
0.345591 0.714435 0.108271
0.381946 0.714435 0.110141
0.417400 0.714634 0.112025
0.452125 0.714680 0.114211
0.486006 0.714924 0.116357
0.519178 0.715009 0.118595
0.551554 0.715168 0.120985
0.583040 0.715379 0.123313
0.613714 0.715514 0.125795
0.643231 0.715656 0.128111
0.671771 0.715901 0.130592
0.699137 0.716074 0.132877
0.725149 0.716145 0.135252
0.749647 0.716389 0.137359
0.772634 0.716586 0.139588
0.793863 0.716633 0.141573
0.812911 0.716877 0.143346
0.829903 0.716949 0.145079
0.844410 0.717122 0.146413
0.856150 0.717122 0.147576
0.865115 0.717366 0.148403
0.000000 0.741471 0.102241
0.000000 0.741644 0.102318
0.000000 0.741644 0.102572
0.000000 0.741644 0.102824
0.000000 0.741644 0.103352
0.020109 0.741644 0.104100
0.125970 0.741644 0.104849
0.179510 0.741660 0.105857
0.224478 0.741888 0.107096
0.265874 0.741888 0.108386
0.304975 0.741911 0.109897
0.342700 0.742132 0.111496
0.379416 0.742132 0.113262
0.415125 0.742276 0.115247
0.449928 0.742377 0.117232
0.484021 0.742531 0.119335
0.517361 0.742657 0.121572
0.549853 0.742865 0.123810
0.581551 0.742906 0.126118
0.612273 0.743109 0.128528
0.641941 0.743292 0.130836
0.670504 0.743401 0.133129
0.697901 0.743598 0.135555
0.723965 0.743797 0.137792
0.748600 0.743913 0.139840
0.771468 0.744143 0.142069
0.792666 0.744302 0.143909
0.811919 0.744392 0.145795
0.828910 0.744574 0.147316
0.843413 0.744641 0.148805
0.855158 0.744813 0.149882
0.864122 0.744819 0.150632
0.000000 0.767907 0.105786
0.000000 0.767907 0.105788
0.000000 0.767907 0.106034
0.000000 0.767907 0.106298
0.000000 0.767931 0.106802
0.010726 0.768099 0.107535
0.115654 0.768152 0.108323
0.172857 0.768152 0.109315
0.219591 0.768152 0.110324
0.261796 0.768204 0.111660
0.301579 0.768396 0.113104
0.339786 0.768396 0.114656
0.376715 0.768601 0.116389
0.412714 0.768640 0.118224
0.447811 0.768750 0.120210
0.482036 0.768884 0.122225
0.515624 0.769098 0.124424
0.548151 0.769128 0.126571
0.579986 0.769373 0.128843
0.610784 0.769522 0.131151
0.640498 0.769617 0.133404
0.669203 0.769861 0.135799
0.696664 0.770034 0.138036
0.722722 0.770105 0.140139
0.747377 0.770294 0.142321
0.770405 0.770349 0.144307
0.791644 0.770594 0.146292
0.810903 0.770806 0.148041
0.827918 0.770838 0.149610
0.842420 0.770897 0.151042
0.854402 0.771082 0.152111
0.863130 0.771082 0.152861
0.000000 0.792902 0.109016
0.000000 0.792902 0.109071
0.000000 0.792902 0.109276
0.000000 0.792902 0.109583
0.000000 0.792902 0.110079
0.006277 0.793091 0.110773
0.104278 0.793102 0.111516
0.166189 0.793147 0.112356
0.214567 0.793147 0.113552
0.257852 0.793202 0.114656
0.298184 0.793391 0.116145
0.336831 0.793391 0.117634
0.374093 0.793464 0.119367
0.410335 0.793635 0.121123
0.445791 0.793720 0.122998
0.480169 0.793879 0.124983
0.513860 0.793977 0.127157
0.546599 0.794123 0.129198
0.578329 0.794265 0.131427
0.609295 0.794368 0.133656
0.639198 0.794612 0.135886
0.667903 0.794740 0.138152
0.695372 0.794856 0.140344
0.721620 0.795037 0.142574
0.746224 0.795100 0.144614
0.769375 0.795344 0.146599
0.790642 0.795549 0.148538
0.809902 0.795589 0.150277
0.826925 0.795809 0.151790
0.841427 0.795833 0.153102
0.853409 0.795833 0.154287
0.862137 0.796077 0.155091
0.000000 0.816385 0.112049
0.000000 0.816385 0.112056
0.000000 0.816385 0.112308
0.000000 0.816385 0.112738
0.000000 0.816385 0.113057
0.000000 0.816385 0.113797
0.091279 0.816385 0.114538
0.159313 0.816396 0.115333
0.209531 0.816629 0.116424
0.253813 0.816629 0.117634
0.294986 0.816629 0.118926
0.333940 0.816746 0.120414
0.371654 0.816873 0.122118
0.408181 0.816893 0.123853
0.443672 0.817118 0.125724
0.478380 0.817141 0.127709
0.512127 0.817362 0.129694
0.545000 0.817388 0.131813
0.576955 0.817606 0.133908
0.607927 0.817756 0.136138
0.637764 0.817850 0.138297
0.666667 0.818031 0.140533
0.694190 0.818128 0.142629
0.720395 0.818339 0.144811
0.745144 0.818538 0.146843
0.768175 0.818583 0.148828
0.789649 0.818795 0.150601
0.808909 0.818827 0.152342
0.825932 0.819052 0.153830
0.840448 0.819071 0.155091
0.852424 0.819119 0.156328
0.861145 0.819315 0.157076
0.000000 0.837906 0.114821
0.000000 0.837906 0.115027
0.000000 0.837906 0.115273
0.000000 0.837906 0.115538
0.000000 0.837906 0.116035
0.000000 0.837906 0.116537
0.076226 0.837946 0.117279
0.152394 0.838120 0.118106
0.204661 0.838150 0.119099
0.249939 0.838150 0.120336
0.291704 0.838216 0.121651
0.331279 0.838395 0.123140
0.369191 0.838395 0.124629
0.405947 0.838480 0.126362
0.441687 0.838639 0.128205
0.476542 0.838738 0.130190
0.510415 0.838883 0.132175
0.543377 0.838995 0.134160
0.575493 0.839127 0.136185
0.606547 0.839277 0.138399
0.636506 0.839371 0.140532
0.665430 0.839603 0.142629
0.693127 0.839616 0.144847
0.719390 0.839860 0.146843
0.744141 0.840049 0.148828
0.767183 0.840104 0.150813
0.788657 0.840309 0.152594
0.807917 0.840348 0.154327
0.824940 0.840569 0.155816
0.839686 0.840592 0.157076
0.851432 0.840592 0.158108
0.860396 0.840837 0.159061
0.000000 0.857411 0.117547
0.000000 0.857411 0.117547
0.000000 0.857411 0.117791
0.000000 0.857411 0.118059
0.000000 0.857438 0.118555
0.000000 0.857628 0.119052
0.056911 0.857655 0.119798
0.145523 0.857655 0.120588
0.200047 0.857655 0.121588
0.246286 0.857717 0.122817
0.288700 0.857899 0.124064
0.328615 0.857899 0.125409
0.366935 0.857981 0.126980
0.403939 0.858143 0.128720
0.439915 0.858143 0.130460
0.474805 0.858387 0.132325
0.508905 0.858387 0.134200
0.542022 0.858617 0.136302
