gsg/01_Basics/GSG_LUT_Basic_CleanCoolLook.cube
# GSG LUTs 1.0
# Copyright (c) 2016-2020 Greyscalegorilla
# See EULA for licensing and distribution information
# Converted by Briz LUT Converter
LUT_3D_SIZE 32
0.000000 0.000000 0.000000
0.004939 0.001245 0.000740
0.010004 0.002993 0.001268
0.019591 0.004514 0.002245
0.032203 0.007271 0.002930
0.047658 0.010855 0.003781
0.064217 0.015030 0.004490
0.083446 0.018402 0.005128
0.105959 0.020883 0.005435
0.131931 0.021836 0.006003
0.161015 0.020276 0.006759
0.192288 0.017291 0.006593
0.226248 0.011958 0.006255
0.262137 0.004057 0.005758
0.300020 0.000000 0.004553
0.341912 0.000000 0.003182
0.383725 0.000000 0.001442
0.424767 0.000000 0.000000
0.465068 0.000000 0.000000
0.503982 0.000000 0.000000
0.542132 0.000000 0.000000
0.578865 0.000000 0.000000
0.615337 0.000000 0.000000
0.651991 0.000000 0.000000
0.688716 0.000000 0.000000
0.724802 0.000000 0.000000
0.760124 0.000000 0.000000
0.793737 0.000000 0.000000
0.826303 0.000000 0.000000
0.858088 0.000000 0.000000
0.891047 0.000000 0.000000
0.927473 0.000000 0.000000
0.000000 0.015140 0.004482
0.000588 0.015889 0.003734
0.008097 0.017379 0.002970
0.019593 0.019403 0.001275
0.033513 0.021912 0.000617
0.050094 0.024662 0.001283
0.067015 0.027524 0.002266
0.087298 0.029456 0.003192
0.110500 0.030809 0.003931
0.136888 0.030787 0.004191
0.165652 0.029564 0.004692
0.197009 0.026334 0.004524
0.230821 0.021731 0.004178
0.266758 0.013990 0.003427
0.305585 0.003509 0.002076
0.347135 0.000000 0.000839
0.388196 0.000000 0.000000
0.428492 0.000000 0.000000
0.468255 0.000000 0.000000
0.506958 0.000000 0.000000
0.544700 0.000000 0.000000
0.581094 0.000000 0.000000
0.617490 0.000000 0.000000
0.653793 0.000000 0.000000
0.690450 0.000000 0.000000
0.726292 0.000000 0.000000
0.761156 0.000000 0.000000
0.794509 0.000000 0.000000
0.826601 0.000000 0.000000
0.858332 0.000000 0.000000
0.891276 0.000000 0.000000
0.927717 0.000000 0.000000
0.000000 0.032652 0.010201
0.000000 0.033415 0.009482
0.003639 0.034391 0.008659
0.016519 0.035630 0.006926
0.032975 0.037077 0.004857
0.051972 0.038978 0.002534
0.070969 0.040448 0.001294
0.092418 0.041801 0.000679
0.116279 0.042314 0.001252
0.142770 0.042495 0.001994
0.171623 0.041023 0.002251
0.203290 0.038558 0.002326
0.237166 0.033443 0.001520
0.273390 0.026059 0.000987
0.313011 0.015886 0.000000
0.353658 0.003334 0.000000
0.393840 0.000023 0.000000
0.433486 0.000000 0.000000
0.472306 0.000000 0.000000
0.510580 0.000000 0.000000
0.547820 0.000000 0.000000
0.583964 0.000000 0.000000
0.619941 0.000000 0.000000
0.656331 0.000000 0.000000
0.692544 0.000000 0.000000
0.728290 0.000000 0.000000
0.762464 0.000000 0.000000
0.795297 0.000000 0.000000
0.827076 0.000000 0.000000
0.858364 0.000000 0.000000
0.891032 0.000000 0.000000
0.927213 0.000000 0.000000
0.000000 0.053787 0.016133
0.000000 0.054521 0.015446
0.000242 0.054825 0.014225
0.013173 0.054832 0.013397
0.032304 0.055556 0.011621
0.053381 0.056442 0.008657
0.075573 0.057197 0.006287
0.099243 0.057802 0.004133
0.124284 0.058137 0.002628
0.151593 0.058143 0.001174
0.181181 0.057561 0.000088
0.212793 0.055630 0.000000
0.246599 0.051892 0.000000
0.284036 0.045778 0.000000
0.323287 0.037117 0.000000
0.362421 0.024885 0.000000
0.401555 0.011050 0.000000
0.440167 0.000967 0.000000
0.478436 0.000000 0.000000
0.515941 0.000000 0.000000
0.552721 0.000000 0.000000
0.588436 0.000000 0.000000
0.624213 0.000000 0.000000
0.660142 0.000000 0.000000
0.695871 0.000000 0.000000
0.730648 0.000000 0.000000
0.764177 0.000000 0.000000
0.796285 0.000000 0.000000
0.827337 0.000000 0.000000
0.858257 0.000000 0.000000
0.890437 0.000000 0.000000
0.925803 0.015897 0.000000
0.000000 0.079688 0.023270
0.000000 0.080122 0.022333
0.000000 0.080397 0.021549
0.002645 0.080599 0.020290
0.026276 0.081035 0.018409
0.058447 0.080578 0.015931
0.084801 0.080218 0.012840
0.111150 0.079838 0.009641
0.138745 0.079531 0.006436
0.167519 0.078710 0.004050
0.197510 0.077414 0.002258
0.230052 0.075773 0.000302
0.266694 0.073248 0.000000
0.304268 0.069174 0.000000
0.342514 0.063191 0.000000
0.380780 0.055386 0.000000
0.419032 0.045377 0.000000
0.456584 0.032155 0.000000
0.493631 0.017104 0.000000
0.530025 0.004304 0.000000
0.565516 0.001564 0.000000
0.599656 0.000142 0.000000
0.634101 0.000000 0.000000
0.668715 0.000000 0.000000
0.703422 0.000000 0.000000
0.737272 0.000000 0.000000
0.770512 0.000000 0.000000
0.802572 0.000000 0.000000
0.833392 0.002440 0.000000
0.864107 0.007671 0.000000
0.895554 0.045798 0.000000
0.930009 0.090370 0.000000
0.000000 0.106148 0.028682
0.000000 0.107623 0.027813
0.000000 0.108155 0.027159
0.000000 0.108161 0.025996
0.009193 0.108559 0.024462
0.049190 0.108313 0.022459
0.089063 0.107714 0.019796
0.119097 0.105982 0.016685
0.148158 0.104652 0.013242
0.179353 0.103731 0.009606
0.213190 0.102876 0.005869
0.247765 0.101123 0.002481
0.283068 0.098499 0.000174
0.319415 0.094868 0.000000
0.356300 0.090472 0.000000
0.393301 0.085066 0.000000
0.430275 0.078808 0.000000
0.466907 0.071676 0.000000
0.503139 0.063931 0.000000
0.538619 0.055555 0.000000
0.573406 0.048208 0.000000
0.607200 0.040422 0.000000
0.640731 0.032043 0.000000
0.674846 0.026794 0.000000
0.708850 0.026631 0.000000
0.742085 0.030218 0.000000
0.774390 0.038707 0.000000
0.805653 0.053428 0.000000
0.835901 0.070415 0.000000
0.865879 0.089833 0.000000
0.897050 0.112014 0.000000
0.931214 0.140778 0.000000
0.000000 0.137036 0.034259
0.000000 0.138751 0.034051
0.000000 0.139184 0.033322
0.000000 0.139363 0.031604
0.000076 0.139782 0.030103
0.026142 0.140857 0.028162
0.080507 0.141489 0.025671
0.126787 0.141643 0.022066
0.161835 0.139001 0.018602
0.194647 0.136957 0.014081
0.228856 0.134917 0.009579
0.264492 0.132862 0.004464
0.300954 0.130450 0.000179
0.336792 0.127071 0.000000
0.372741 0.123319 0.000000
0.408091 0.119358 0.000000
0.443877 0.114862 0.000000
0.479331 0.110186 0.000000
0.514247 0.105510 0.000000
0.548579 0.101130 0.000000
0.582341 0.097638 0.000000
0.615258 0.095293 0.000000
0.648696 0.095169 0.000000
0.682150 0.098446 0.000000
0.715459 0.103589 0.000000
0.747725 0.108430 0.000000
0.779156 0.114806 0.000000
0.809232 0.123467 0.000000
0.838698 0.133766 0.000000
0.867883 0.146698 0.000000
0.898310 0.162933 0.000000
0.932160 0.186238 0.000000
0.000000 0.174241 0.041309
0.000000 0.176874 0.040941
0.000000 0.178124 0.039766
0.000000 0.178581 0.038358
0.000000 0.179102 0.036529
0.002165 0.179644 0.034209
0.055432 0.180406 0.031242
0.115809 0.180768 0.027497
0.168148 0.181325 0.022532
0.208154 0.177982 0.017732
0.243570 0.174759 0.011956
0.279487 0.171799 0.005783
0.316100 0.168784 0.000565
0.352656 0.165820 0.000000
0.388691 0.162474 0.000000
0.423464 0.158516 0.000000
0.457847 0.154692 0.000000
0.492066 0.150899 0.000000
0.525896 0.147835 0.000000
0.559100 0.144897 0.000000
0.591796 0.142652 0.000000
0.624107 0.141795 0.000000
0.656867 0.142897 0.000000
0.689477 0.146620 0.000000
0.721692 0.152456 0.000000
0.752888 0.160422 0.000000
0.783332 0.169580 0.000000
0.812367 0.176974 0.000000
0.840868 0.185114 0.000000
0.869132 0.195099 0.000000
0.898488 0.208004 0.000000
0.930773 0.226594 0.000000
0.000000 0.230848 0.048375
0.000000 0.232995 0.047991
0.000000 0.233684 0.046402
0.000000 0.233656 0.044930
0.000000 0.233667 0.042498
0.000000 0.233642 0.039500
0.007962 0.233771 0.035675
0.094430 0.233834 0.031392
0.159822 0.233274 0.025497
0.216988 0.232224 0.019108
0.263133 0.228542 0.012003
0.299980 0.223569 0.004742
0.336383 0.218795 0.000000
0.372258 0.214174 0.000000
0.408087 0.210116 0.000000
0.443626 0.206073 0.000000
0.478217 0.202223 0.000000
0.511494 0.198403 0.000000
0.544257 0.195266 0.000000
0.576108 0.192651 0.000000
0.607207 0.190713 0.000000
0.637827 0.190030 0.000000
0.668906 0.191303 0.000000
0.699909 0.194549 0.000000
0.730608 0.199519 0.000000
0.761011 0.206601 0.000000
0.790707 0.216018 0.000000
0.819899 0.226799 0.000000
0.848021 0.237174 0.000000
0.875749 0.245937 0.000000
0.904370 0.257549 0.000000
0.935114 0.272520 0.000000
0.000000 0.273961 0.053771
0.000000 0.282532 0.053107
0.000000 0.285001 0.051948
0.000000 0.284848 0.050354
0.000000 0.283564 0.047895
0.000000 0.282639 0.044456
0.000000 0.282148 0.040269
0.034396 0.281618 0.034905
0.131220 0.280930 0.028668
0.198626 0.279966 0.021422
0.258447 0.278872 0.012977
0.308870 0.275541 0.003524
0.346946 0.269735 0.000000
0.383525 0.264162 0.000000
0.419583 0.259277 0.000000
0.454953 0.254745 0.000000
0.489902 0.250578 0.000000
0.523897 0.246799 0.000000
0.556534 0.243286 0.000000
0.587467 0.240348 0.000000
0.617428 0.238002 0.000000
0.647241 0.237040 0.000000
0.677437 0.238166 0.000000
0.707616 0.240726 0.000000
0.737556 0.245185 0.000000
0.766805 0.251436 0.000000
0.795679 0.259490 0.000000
0.823862 0.268440 0.000000
0.851384 0.279141 0.000000
0.878543 0.290825 0.000000
0.906550 0.301624 0.000000
0.936965 0.315428 0.000000
0.000000 0.321604 0.059230
0.000000 0.331269 0.058561
0.000000 0.333971 0.057545
0.000000 0.333751 0.055496
0.000000 0.332443 0.052571
0.000000 0.331312 0.049397
0.000000 0.330962 0.044295
0.000000 0.330478 0.038605
0.075220 0.329957 0.031922
0.170464 0.329441 0.024059
0.239587 0.328703 0.014882
0.301461 0.328206 0.004361
0.355482 0.325418 0.000000
0.394360 0.319074 0.000000
0.430915 0.313238 0.000000
0.466250 0.307523 0.000000
0.500823 0.302327 0.000000
0.534188 0.297791 0.000000
0.566781 0.293647 0.000000
0.598165 0.290244 0.000000
0.627830 0.287482 0.000000
0.657113 0.286039 0.000000
0.686486 0.286612 0.000000
0.715511 0.288378 0.000000
0.744387 0.292042 0.000000
0.772610 0.297065 0.000000
0.800470 0.303432 0.000000
0.827644 0.311021 0.000000
0.854094 0.319823 0.000000
0.880555 0.329935 0.000000
0.908136 0.343164 0.000000
0.938131 0.357454 0.000000
0.000000 0.369751 0.064619
0.000000 0.379597 0.064959
0.000000 0.382887 0.063930
0.000000 0.382953 0.062137
0.000000 0.381816 0.059208
0.000000 0.380748 0.055208
0.000000 0.380024 0.051106
0.000000 0.379972 0.044933
0.010164 0.379850 0.037230
0.125937 0.379580 0.028301
0.213085 0.379168 0.018083
0.282213 0.378455 0.006566
0.344991 0.378047 0.000000
0.400553 0.375930 0.000000
0.440277 0.368987 0.000000
0.475663 0.362243 0.000000
0.509861 0.356062 0.000000
0.542762 0.350372 0.000000
0.574899 0.345364 0.000000
0.605688 0.341132 0.000000
0.635975 0.338082 0.000000
0.665701 0.336394 0.000000
0.694373 0.336076 0.000000
0.722556 0.336916 0.000000
0.750167 0.339166 0.000000
0.777322 0.342521 0.000000
0.804150 0.347287 0.000000
0.830092 0.352912 0.000000
0.855835 0.359936 0.000000
0.881424 0.368399 0.000000
0.907837 0.379107 0.000000
0.936350 0.393194 0.000000
0.000000 0.432077 0.075426
0.000000 0.436645 0.075335
0.000000 0.437883 0.074418
0.000000 0.437516 0.072001
0.000000 0.436515 0.068879
0.000000 0.435387 0.064887
0.000000 0.434249 0.060081
0.000000 0.433324 0.054046
0.000000 0.432849 0.046244
0.048717 0.432258 0.036964
0.177856 0.431439 0.025605
0.259461 0.430507 0.013039
0.327495 0.429396 0.001043
0.389608 0.428695 0.000000
0.445937 0.427103 0.000000
0.486957 0.420759 0.000000
0.521525 0.413888 0.000000
0.554552 0.407616 0.000000
0.586230 0.401954 0.000000
0.616592 0.396799 0.000000
0.645988 0.392741 0.000000
0.674843 0.389899 0.000000
0.703281 0.388526 0.000000
0.730851 0.388238 0.000000
0.757696 0.388979 0.000000
0.784200 0.391253 0.000000
0.810635 0.394926 0.000000
0.836398 0.399694 0.000000
0.862022 0.405413 0.000000
0.887239 0.412411 0.000000
0.913025 0.421241 0.000000
0.940604 0.433219 0.000000
0.000000 0.472913 0.085021
0.000000 0.484024 0.087573
0.000000 0.487605 0.087715
0.000000 0.487252 0.085474
0.000000 0.485158 0.082033
0.000000 0.483398 0.078261
0.000000 0.481602 0.073001
0.000000 0.479972 0.066845
0.000000 0.478932 0.059916
0.002593 0.478113 0.050879
0.119643 0.477474 0.039877
0.226528 0.476684 0.027081
0.303338 0.475891 0.012287
0.369642 0.475111 0.001130
0.430335 0.474119 0.000000
0.486872 0.473639 0.000000
0.528201 0.468079 0.000000
0.561242 0.460977 0.000000
0.592296 0.454515 0.000000
0.622065 0.448651 0.000000
0.650969 0.443654 0.000000
0.679215 0.439981 0.000000
0.707125 0.437528 0.000000
0.734672 0.436370 0.000000
0.761952 0.436536 0.000000
0.788554 0.437926 0.000000
0.814314 0.440027 0.000000
0.839558 0.443378 0.000000
0.864439 0.447599 0.000000
0.889141 0.452610 0.000000
0.914470 0.459678 0.000000
0.941597 0.469644 0.000000
0.000000 0.517531 0.099744
0.000000 0.527646 0.103612
0.000000 0.530994 0.103779
0.000000 0.530548 0.102228
0.000000 0.528676 0.098641
0.000000 0.527071 0.094385
0.000000 0.525692 0.089717
0.000000 0.524259 0.084270
0.000000 0.523329 0.078132
0.000000 0.522826 0.070558
0.031716 0.522356 0.062111
0.186499 0.521950 0.050714
0.277059 0.521402 0.036283
0.349643 0.520534 0.019198
0.413454 0.519619 0.003472
0.471713 0.518382 0.000000
0.526666 0.518553 0.000000
0.567260 0.512915 0.000000
0.598045 0.505927 0.000000
0.627122 0.499030 0.000000
0.655591 0.493521 0.000000
0.683516 0.489058 0.000000
0.711024 0.485943 0.000000
0.738238 0.484060 0.000000
0.765071 0.483102 0.000000
0.791474 0.483268 0.000000
0.817441 0.484350 0.000000
0.842444 0.486058 0.000000
0.866682 0.488422 0.000000
0.890542 0.491652 0.000000
0.915215 0.496715 0.000000
0.942125 0.505156 0.000000
0.000000 0.559384 0.118532
0.000000 0.568616 0.122911
0.000000 0.571720 0.123235
0.000000 0.571405 0.121786
0.000000 0.569931 0.118816
0.000000 0.568585 0.115234
0.000000 0.567592 0.111481
0.000000 0.566691 0.106533
0.000000 0.565764 0.100363
0.000000 0.565266 0.094577
0.000732 0.564685 0.087345
0.134544 0.564029 0.078714
0.247710 0.563236 0.068006
0.327547 0.562125 0.054812
0.395105 0.560904 0.037103
0.455302 0.559419 0.016517
0.510384 0.558053 0.002401
0.562780 0.558423 0.000000
0.602153 0.552983 0.000000
0.631540 0.546227 0.000000
0.659556 0.540289 0.000000
0.687227 0.535372 0.000000
0.714320 0.531627 0.000000
0.741068 0.528771 0.000000
0.767194 0.526861 0.000000
0.793059 0.525651 0.000000
0.818295 0.525365 0.000000
0.842908 0.525676 0.000000
0.867147 0.526554 0.000000
0.890835 0.528355 0.000000
0.915022 0.531919 0.000000
0.940722 0.538013 0.000000
0.000000 0.601071 0.141274
0.000000 0.604633 0.143937
0.000000 0.606113 0.143811
0.000000 0.606316 0.142761
0.000000 0.605812 0.140138
0.000000 0.605403 0.137627
0.000000 0.604994 0.134466
0.000000 0.604359 0.130394
0.000000 0.603576 0.125742
0.000000 0.602807 0.120064
0.000000 0.602433 0.114577
0.059113 0.602017 0.108102
0.215754 0.601472 0.100506
0.305457 0.600677 0.091265
0.377864 0.599860 0.080806
0.441014 0.598998 0.066895
0.498040 0.598131 0.049960
0.550087 0.597265 0.029263
0.600256 0.598171 0.008461
0.639647 0.594133 0.000000
0.668200 0.588063 0.000000
0.694838 0.582474 0.000000
0.721089 0.577854 0.000000
0.746930 0.573996 0.000000
0.772610 0.571386 0.000000
0.797976 0.569445 0.000000
0.823180 0.568708 0.000000
0.848013 0.568436 0.000000
0.872366 0.569007 0.000000
0.896443 0.570082 0.000000
0.920855 0.572638 0.000000
0.947016 0.577801 0.000000
0.000000 0.634747 0.165339
0.000000 0.640986 0.170109
0.000000 0.643137 0.171516
0.000000 0.642832 0.169974
0.000000 0.641591 0.167578
0.000000 0.640482 0.164262
0.000000 0.639379 0.161059
0.000000 0.638387 0.157265
0.000000 0.637394 0.152854
0.000000 0.636362 0.147877
0.000000 0.635732 0.142932
0.018275 0.635370 0.138061
0.178898 0.634763 0.132159
0.281362 0.634211 0.125316
0.358224 0.633416 0.117951
0.423989 0.632599 0.108365
0.482065 0.631732 0.098332
0.534806 0.630793 0.085498
0.583638 0.629942 0.070034
0.630143 0.630086 0.046158
0.669758 0.627823 0.022922
0.698149 0.622466 0.002851
0.724069 0.617677 0.000000
0.749663 0.613601 0.000000
0.775122 0.610587 0.000000
0.800239 0.608392 0.000000
0.825054 0.606836 0.000000
0.849425 0.606034 0.000000
0.873483 0.605493 0.000000
0.896829 0.605326 0.000000
0.920848 0.606610 0.000000
0.946741 0.610280 0.000000
0.000000 0.667053 0.192028
0.000000 0.672283 0.196977
0.000000 0.674049 0.197915
0.000000 0.673638 0.196701
0.000000 0.672425 0.194179
0.000000 0.671353 0.191610
0.000000 0.670582 0.188649
0.000000 0.669865 0.185545
0.000000 0.669187 0.181805
0.000000 0.668447 0.177927
0.000000 0.667951 0.173806
0.000000 0.667454 0.169390
0.141289 0.666958 0.165228
0.260068 0.666402 0.160382
0.341393 0.665611 0.154195
0.408490 0.664619 0.147487
0.467610 0.663484 0.139589
0.520942 0.662492 0.130596
0.570121 0.661440 0.120314
0.615826 0.660452 0.108346
0.659592 0.660369 0.093610
0.699167 0.659667 0.075125
0.727791 0.655331 0.041113
0.753090 0.651122 0.008530
0.778046 0.647832 0.000000
0.802769 0.645264 0.000000
0.827209 0.643175 0.000000
0.851035 0.641385 0.000000
0.874024 0.639842 0.000000
0.896949 0.638783 0.000000
0.920600 0.639100 0.000000
0.945748 0.641656 0.000000
0.000000 0.697381 0.220702
0.000000 0.701753 0.225373
0.000000 0.703092 0.226681
0.000000 0.702800 0.225309
0.000000 0.701820 0.223273
0.000000 0.701060 0.220954
0.000000 0.700358 0.218614
0.000000 0.699862 0.216207
0.000000 0.699366 0.213029
0.000000 0.698826 0.209768
0.000000 0.698224 0.205909
0.000000 0.697525 0.201954
0.098068 0.696837 0.198151
0.239748 0.695971 0.193824
0.325563 0.694947 0.189126
0.394078 0.693787 0.183418
0.453667 0.692640 0.177072
0.507417 0.691398 0.170114
0.556816 0.690488 0.162678
0.602872 0.689495 0.154100
0.646225 0.688905 0.144903
0.688170 0.689129 0.133833
0.727122 0.689342 0.122052
0.755767 0.685636 0.100569
0.780088 0.681928 0.060920
0.804102 0.678617 0.019694
0.827666 0.675938 0.000000
0.850794 0.673438 0.000000
0.873772 0.671576 0.000000
0.896656 0.670218 0.000000
0.920351 0.670267 0.000000
0.945039 0.671779 0.000000
0.000000 0.726598 0.251999
0.000000 0.728436 0.254052
0.000000 0.729136 0.254358
0.000000 0.729230 0.253796
0.000000 0.729086 0.252963
0.000000 0.729100 0.251767
0.000000 0.729026 0.250275
0.000000 0.728812 0.248604
0.000000 0.728591 0.246533
0.000000 0.728227 0.243978
0.000000 0.727929 0.240655
0.000000 0.727433 0.237433
0.066357 0.727024 0.234485
0.230068 0.726527 0.231650
0.318233 0.725992 0.228430
0.388352 0.725448 0.224859
0.448677 0.724952 0.220783
0.502769 0.724211 0.216407
0.552271 0.723573 0.211000
0.598186 0.722764 0.204979
0.641270 0.722046 0.198503
0.682028 0.721249 0.191013
0.721535 0.721354 0.182177
0.759062 0.721814 0.173280
0.787360 0.718492 0.159708
0.811004 0.715018 0.133632
0.834346 0.712224 0.100588
0.857513 0.709950 0.053456
0.880460 0.708031 0.011232
0.903131 0.706361 0.000000
0.926677 0.706153 0.000000
0.952137 0.707952 0.000000
0.000000 0.753901 0.284336
0.000000 0.756362 0.287542
0.000000 0.756989 0.288524
0.000000 0.756721 0.287439
0.000000 0.755991 0.286008
0.000000 0.755563 0.284230
0.000000 0.755099 0.282367
0.000000 0.754736 0.280397
0.000000 0.754240 0.278119
0.000000 0.753792 0.275821
0.000000 0.753413 0.273180
0.000000 0.753082 0.270401
0.048628 0.752616 0.267266
0.217581 0.752168 0.265313
0.308086 0.751672 0.262626
0.378492 0.751176 0.259963
0.438703 0.750553 0.256740
0.492457 0.749848 0.252803
0.541991 0.749102 0.248438
0.587610 0.748308 0.243682
0.630596 0.747501 0.238167
0.671080 0.746758 0.232746
0.709914 0.746237 0.226333
0.747631 0.746506 0.219770
0.784358 0.747661 0.212956
0.813229 0.745299 0.204633
0.836595 0.742558 0.183412
0.859141 0.739911 0.158285
0.881563 0.737501 0.126223
0.903730 0.735500 0.080114
0.926856 0.734546 0.032594
0.951727 0.735673 0.000000
0.000000 0.778597 0.316271
0.000000 0.780740 0.320112
0.000000 0.781279 0.320569
0.000000 0.780928 0.319524
0.000000 0.780204 0.317580
0.000000 0.779562 0.316113
0.000000 0.779225 0.314396
0.000000 0.778999 0.313017
0.000000 0.778752 0.311473
0.000000 0.778629 0.309699
0.000000 0.778328 0.307683
0.000000 0.778079 0.305156
0.079108 0.777628 0.302525
0.214295 0.777232 0.300309
0.303235 0.776636 0.297995
0.372366 0.776021 0.295688
0.431699 0.775189 0.292623
0.484855 0.774351 0.289606
0.533530 0.773573 0.285843
0.578739 0.772760 0.281838
0.621323 0.771974 0.277703
0.661697 0.771279 0.273204
0.700335 0.770956 0.268320
0.737335 0.770641 0.263705
0.773136 0.770860 0.258475
0.809082 0.772529 0.253299
0.838323 0.770813 0.248046
0.860672 0.767953 0.229292
0.882423 0.765049 0.205775
0.904075 0.762779 0.178799
0.926622 0.761505 0.148930
0.951231 0.762125 0.116901
0.000000 0.801741 0.349191
0.000000 0.803710 0.352767
0.000000 0.804242 0.353495
0.000000 0.803891 0.352006
0.000000 0.803151 0.350443
0.000000 0.802526 0.348749
0.000000 0.802280 0.347745
0.000000 0.802048 0.346374
0.000000 0.802048 0.345393
0.000000 0.801933 0.344115
0.000000 0.801725 0.342126
0.009129 0.801292 0.339996
0.129973 0.800796 0.337263
0.218860 0.800223 0.334410
0.300779 0.799512 0.332161
0.367850 0.798637 0.329867
0.425799 0.797771 0.327021
0.477801 0.796813 0.324091
0.525768 0.795954 0.320997
0.570458 0.795187 0.317760
0.612629 0.794574 0.314429
0.652668 0.794136 0.311379
0.691155 0.793743 0.307603
0.727724 0.793493 0.303991
0.762962 0.793306 0.300002
0.796636 0.793056 0.294710
0.831629 0.794940 0.289205
0.859966 0.793210 0.285469
0.882727 0.790851 0.270004
0.904668 0.788731 0.250169
0.927228 0.787640 0.229346
0.950979 0.787814 0.208728
0.000000 0.828422 0.392280
0.000000 0.829556 0.393945
0.000000 0.829556 0.394225
0.000000 0.829349 0.393438
0.000000 0.829020 0.392213
0.000000 0.828635 0.391130
0.000000 0.828288 0.390019
0.000000 0.828099 0.388923
0.000000 0.828099 0.387941
0.000000 0.827910 0.386853
0.005123 0.827831 0.385813
0.110837 0.827666 0.384158
0.197286 0.827455 0.382215
0.258786 0.827177 0.380211
0.319009 0.826823 0.378587
0.381920 0.826571 0.377749
0.436950 0.826172 0.376577
0.486904 0.825767 0.374944
0.532971 0.825161 0.372988
0.575895 0.824530 0.370748
0.616555 0.823790 0.368281
0.655181 0.823110 0.365243
0.692000 0.822514 0.361936
0.727433 0.822002 0.358461
0.761613 0.821450 0.354930
0.794570 0.820998 0.350956
0.826634 0.820702 0.346664
0.860710 0.822912 0.342078
0.888086 0.821274 0.340608
0.911233 0.819284 0.328969
0.933410 0.818252 0.313889
0.957753 0.819032 0.302525
0.000000 0.849833 0.427555
0.000000 0.850865 0.429816
0.000000 0.851085 0.429769
0.000000 0.850565 0.428359
0.000000 0.849848 0.426604
0.000000 0.849352 0.424956
0.000000 0.848903 0.423892
0.000000 0.848659 0.422886
0.000000 0.848612 0.421926
0.001601 0.848598 0.421088
0.089996 0.848367 0.420041
0.178523 0.848564 0.419165
0.238435 0.848349 0.417895
0.288248 0.848320 0.416389
0.333737 0.848163 0.414724
0.387891 0.847911 0.413724
0.439996 0.847414 0.412754
0.487568 0.846944 0.411615
0.531813 0.846422 0.410099
0.573372 0.845805 0.408205
0.612800 0.845185 0.406121
0.650258 0.844555 0.403821
0.686545 0.844135 0.401288
0.721434 0.843696 0.399024
0.755267 0.843397 0.396455
0.787774 0.843145 0.393945
0.819378 0.843058 0.390720
0.849825 0.842422 0.386341
0.882315 0.844165 0.381800
0.909544 0.843247 0.381146
0.933474 0.841995 0.374813
0.957312 0.842711 0.366056
0.000000 0.869770 0.461751
0.000000 0.870511 0.463462
0.000000 0.870487 0.463019
0.000000 0.869987 0.461716
0.000000 0.869455 0.459987
0.000000 0.868965 0.458775
0.000000 0.868754 0.457994
0.000000 0.868800 0.457573
0.022847 0.868959 0.457237
0.119720 0.869018 0.456922
0.186545 0.869164 0.456347
0.237809 0.869203 0.455851
0.282346 0.869203 0.455047
0.322461 0.869187 0.453637
0.359792 0.869054 0.451816
0.399384 0.868696 0.450123
0.447480 0.868100 0.449443
0.492012 0.867604 0.448344
0.533946 0.867108 0.446926
0.573714 0.866572 0.445642
0.611802 0.866076 0.444128
0.648363 0.865784 0.442863
0.683584 0.865461 0.441439
0.717797 0.865422 0.440114
0.750971 0.865422 0.438957
0.782914 0.865217 0.437031
0.813825 0.864967 0.434754
0.843541 0.864477 0.430935
0.872401 0.863516 0.425984
0.902393 0.864172 0.420530
0.931111 0.865107 0.422956
0.956816 0.865587 0.425145
0.000000 0.889795 0.497333
0.000000 0.890315 0.498737
0.000000 0.890299 0.498277
0.000000 0.889800 0.497182
0.000000 0.889279 0.495770
0.005832 0.889062 0.494637
0.073166 0.889062 0.494258
0.126801 0.889069 0.493908
0.177236 0.889149 0.493883
0.219123 0.889338 0.493609
0.257085 0.889338 0.493258
0.292511 0.889369 0.492520
0.326251 0.889357 0.491566
0.358429 0.889249 0.490131
0.389801 0.888881 0.488394
0.420088 0.888622 0.486423
0.458665 0.888235 0.484863
0.500166 0.887739 0.484203
