gsg/01_Basics/GSG_LUT_Basic_BlueBoost.cube
# GSG LUTs 1.0
# Copyright (c) 2016-2020 Greyscalegorilla
# See EULA for licensing and distribution information
# Converted by Briz LUT Converter
LUT_3D_SIZE 32
0.000000 0.000000 0.000000
0.032502 0.000000 0.000236
0.064989 0.000000 0.000000
0.096774 0.000000 0.000024
0.129032 0.000213 0.000000
0.161330 0.000000 0.000000
0.193548 0.000197 0.000000
0.225806 0.000189 0.000189
0.258065 0.000362 0.000000
0.290323 0.000071 0.000173
0.322581 0.000000 0.000165
0.354839 0.000418 0.000000
0.387097 0.000244 0.000095
0.419355 0.000488 0.000488
0.451613 0.000599 0.000000
0.483871 0.000126 0.000126
0.516129 0.000126 0.000000
0.548387 0.000110 0.000000
0.580645 0.000205 0.000000
0.612903 0.000000 0.000000
0.645161 0.000244 0.000000
0.677419 0.000654 0.000000
0.709677 0.000488 0.000000
0.741935 0.000488 0.000000
0.774194 0.000110 0.000000
0.806452 0.000244 0.000000
0.838710 0.000937 0.000000
0.870968 0.000488 0.000000
0.903226 0.000339 0.000000
0.935484 0.000961 0.000000
0.967742 0.000977 0.000000
1.000000 0.000977 0.000000
0.000008 0.032494 0.000244
0.032479 0.032502 0.000000
0.064523 0.032464 0.000222
0.096775 0.032487 0.000000
0.129032 0.032228 0.000008
0.161489 0.032028 0.000008
0.193555 0.032261 0.000000
0.225806 0.032677 0.000000
0.258065 0.032492 0.000181
0.290323 0.032422 0.000069
0.322581 0.032497 0.000003
0.354839 0.032261 0.000178
0.387097 0.032751 0.000299
0.419355 0.032365 0.000374
0.451613 0.032387 0.000107
0.483871 0.032613 0.000000
0.516129 0.032388 0.000000
0.548387 0.032739 0.000000
0.580645 0.032221 0.000000
0.612903 0.032494 0.000091
0.645161 0.032579 0.000000
0.677419 0.032654 0.000000
0.709677 0.032516 0.000000
0.741935 0.032815 0.000000
0.774194 0.033172 0.000000
0.806452 0.032602 0.000000
0.838710 0.032946 0.000000
0.870968 0.032923 0.000000
0.903226 0.032746 0.000000
0.935484 0.032975 0.000000
0.967742 0.032975 0.000000
1.000000 0.033471 0.000000
0.000228 0.064272 0.000228
0.031816 0.064737 0.000008
0.064287 0.064715 0.000016
0.096776 0.064708 0.000014
0.128818 0.064546 0.000215
0.161290 0.064708 0.000242
0.193548 0.064516 0.000000
0.225810 0.064528 0.000177
0.258065 0.064575 0.000181
0.290323 0.064749 0.000005
0.322581 0.064595 0.000105
0.354839 0.065055 0.000488
0.387097 0.064843 0.000235
0.419355 0.064754 0.000007
0.451613 0.064760 0.000007
0.483871 0.064634 0.000111
0.516129 0.064634 0.000000
0.548387 0.064657 0.000000
0.580645 0.064628 0.000000
0.612903 0.064888 0.000000
0.645161 0.064760 0.000000
0.677419 0.064818 0.000005
0.709677 0.064861 0.000000
0.741935 0.064977 0.000000
0.774194 0.064757 0.000000
0.806452 0.064986 0.000000
0.838710 0.065230 0.000000
0.870968 0.065005 0.000000
0.903226 0.064762 0.000000
0.935484 0.065019 0.000000
0.967742 0.065226 0.000000
1.000000 0.065249 0.000000
0.000000 0.096309 0.000221
0.032037 0.096774 0.000000
0.064496 0.096774 0.000002
0.096755 0.096774 0.000021
0.129035 0.096795 0.000003
0.161290 0.096774 0.000020
0.193596 0.096793 0.000197
0.225806 0.096792 0.000042
0.258065 0.096780 0.000093
0.290259 0.097002 0.000214
0.322581 0.096995 0.000221
0.354839 0.096940 0.000078
0.387097 0.096798 0.000000
0.419355 0.096890 0.000010
0.451613 0.096798 0.000134
0.483871 0.096899 0.000000
0.516129 0.097018 0.000000
0.548387 0.096798 0.000121
0.580645 0.097008 0.000000
0.612903 0.097018 0.000000
0.645161 0.097120 0.000000
0.677419 0.096940 0.000000
0.709677 0.097018 0.000000
0.741935 0.096961 0.000000
0.774194 0.096866 0.000000
0.806452 0.097196 0.000000
0.838710 0.097239 0.000020
0.870968 0.097193 0.000000
0.903226 0.097239 0.000000
0.935484 0.097277 0.000000
0.967742 0.097255 0.000000
1.000000 0.097483 0.000000
0.000000 0.128512 0.000000
0.031635 0.129002 0.000032
0.064548 0.129032 0.000036
0.096749 0.129032 0.000055
0.129064 0.129032 0.000095
0.161295 0.129067 0.000061
0.193548 0.129245 0.000619
0.225806 0.129245 0.000309
0.258065 0.129190 0.000394
0.290323 0.129183 0.000160
0.322581 0.129032 0.000000
0.354839 0.129265 0.000075
0.387097 0.129115 0.000032
0.419355 0.129245 0.000013
0.451613 0.129128 0.000000
0.483871 0.129150 0.000000
0.516129 0.129245 0.000000
0.548387 0.129146 0.000096
0.580645 0.129032 0.000000
0.612903 0.129257 0.000000
0.645161 0.129128 0.000000
0.677419 0.129266 0.000000
0.709677 0.129267 0.000000
0.741935 0.129276 0.000000
0.774194 0.129317 0.000000
0.806452 0.129464 0.000000
0.838710 0.129279 0.000000
0.870968 0.129245 0.000000
0.903226 0.129489 0.000000
0.935484 0.129477 0.000000
0.967742 0.129483 0.000206
1.000000 0.129521 0.000000
0.000614 0.160314 0.000000
0.032341 0.160772 0.000205
0.064695 0.161327 0.000205
0.096959 0.161290 0.000260
0.129206 0.161290 0.000061
0.161290 0.161290 0.000178
0.193548 0.161290 0.000008
0.225965 0.161321 0.000030
0.258117 0.161290 0.000152
0.290323 0.161350 0.000059
0.322647 0.161290 0.000000
0.354839 0.161290 0.000025
0.387097 0.161306 0.000039
0.419355 0.161290 0.000000
0.451613 0.161290 0.000000
0.483871 0.161311 0.000019
0.516129 0.161311 0.000019
0.548387 0.161403 0.000000
0.580645 0.161290 0.000119
0.612903 0.161330 0.000000
0.645161 0.161462 0.000000
0.677419 0.161468 0.000000
0.709677 0.161464 0.000000
0.741935 0.161320 0.000000
0.774194 0.161488 0.000000
0.806452 0.161535 0.000000
0.838710 0.161535 0.000000
0.870968 0.161535 0.000000
0.903226 0.161535 0.000000
0.935484 0.161535 0.000000
0.967742 0.161535 0.000000
1.000000 0.161535 0.000000
0.000197 0.192280 0.000000
0.032307 0.192776 0.000000
0.064225 0.193276 0.000013
0.096774 0.193548 0.000221
0.129073 0.193548 0.000244
0.161251 0.193548 0.000205
0.193548 0.193548 0.000000
0.225806 0.193593 0.000037
0.258065 0.193513 0.000181
0.290289 0.193702 0.000057
0.322581 0.193548 0.000000
0.354839 0.193548 0.000000
0.387097 0.193548 0.000018
0.419355 0.193548 0.000020
0.451613 0.193548 0.000110
0.483871 0.193548 0.000023
0.516129 0.193548 0.000000
0.548387 0.193548 0.000000
0.580645 0.193596 0.000114
0.612903 0.193625 0.000000
0.645161 0.193548 0.000000
0.677419 0.193612 0.000015
0.709677 0.193735 0.000000
0.741935 0.193646 0.000000
0.774194 0.193640 0.000000
0.806452 0.193783 0.000000
0.838710 0.193714 0.000000
0.870968 0.193793 0.000000
0.903226 0.193774 0.000000
0.935484 0.193793 0.000000
0.967742 0.193786 0.000000
1.000000 0.193793 0.000000
0.000000 0.224231 0.000000
0.031584 0.224540 0.000189
0.064152 0.225279 0.000012
0.096774 0.225977 0.000018
0.128984 0.225806 0.000000
0.161321 0.225806 0.000009
0.193559 0.225806 0.000000
0.225806 0.225806 0.000043
0.258065 0.225806 0.000000
0.290323 0.225941 0.000000
0.322581 0.225806 0.000018
0.354839 0.225806 0.000103
0.387097 0.225806 0.000055
0.419355 0.225806 0.000142
0.451613 0.225806 0.000000
0.483871 0.225806 0.000027
0.516129 0.225835 0.000000
0.548387 0.225806 0.000085
0.580645 0.225916 0.000000
0.612903 0.225901 0.000116
0.645161 0.225826 0.000000
0.677419 0.225806 0.000000
0.709677 0.225846 0.000016
0.741935 0.226010 0.000000
0.774194 0.225996 0.000000
0.806452 0.225854 0.000000
0.838710 0.225892 0.000000
0.870968 0.226051 0.000048
0.903226 0.226051 0.000000
0.935484 0.226051 0.000000
0.967742 0.226051 0.000000
1.000000 0.226051 0.000000
0.000000 0.256048 0.000000
0.031151 0.256300 0.000000
0.063445 0.256981 0.000000
0.096700 0.257617 0.000006
0.129001 0.258065 0.000023
0.161237 0.258065 0.000039
0.193402 0.258065 0.000047
0.225855 0.258065 0.000049
0.258065 0.258065 0.000134
0.290323 0.258065 0.000000
0.322581 0.258065 0.000121
0.354839 0.258065 0.000158
0.387097 0.258065 0.000109
0.419355 0.258065 0.000000
0.451613 0.258164 0.000000
0.483871 0.258152 0.000030
0.516129 0.258065 0.000000
0.548387 0.258065 0.000000
0.580645 0.258065 0.000076
0.612903 0.258103 0.000000
0.645161 0.258181 0.000022
0.677419 0.258107 0.000058
0.709677 0.258264 0.000000
0.741935 0.258292 0.000000
0.774194 0.258205 0.000000
0.806452 0.258274 0.000000
0.838710 0.258309 0.000000
0.870968 0.258065 0.000000
0.903226 0.258309 0.000000
0.935484 0.258250 0.000000
0.967742 0.258309 0.000000
1.000000 0.258309 0.000000
0.000000 0.287565 0.000000
0.030558 0.288062 0.000000
0.063251 0.288574 0.000000
0.096018 0.289479 0.000000
0.129099 0.290261 0.000009
0.161251 0.290323 0.000059
0.193535 0.290323 0.000173
0.225806 0.290323 0.000039
0.258065 0.290323 0.000045
0.290373 0.290323 0.000123
0.322581 0.290323 0.000000
0.354839 0.290323 0.000061
0.387097 0.290323 0.000027
0.419355 0.290323 0.000000
0.451613 0.290323 0.000032
0.483871 0.290323 0.000000
0.516129 0.290323 0.000000
0.548387 0.290323 0.000173
0.580645 0.290323 0.000145
0.612903 0.290323 0.000027
0.645161 0.290323 0.000000
0.677419 0.290323 0.000071
0.709677 0.290323 0.000000
0.741935 0.290323 0.000000
0.774194 0.290473 0.000000
0.806452 0.290380 0.000034
0.838710 0.290393 0.000000
0.870968 0.290384 0.000000
0.903226 0.290486 0.000157
0.935484 0.290400 0.000000
0.967742 0.290567 0.000000
1.000000 0.290393 0.000000
0.000000 0.319327 0.000000
0.029910 0.319745 0.000000
0.062741 0.320320 0.000000
0.095451 0.321076 0.000000
0.128587 0.322008 0.000000
0.161278 0.322581 0.000013
0.193485 0.322581 0.000149
0.225806 0.322581 0.000098
0.258065 0.322581 0.000043
0.290323 0.322581 0.000229
0.322581 0.322581 0.000079
0.354839 0.322581 0.000059
0.387097 0.322581 0.000079
0.419355 0.322581 0.000096
0.451613 0.322581 0.000000
0.483871 0.322581 0.000038
0.516129 0.322581 0.000000
0.548387 0.322581 0.000165
0.580645 0.322581 0.000000
0.612903 0.322629 0.000101
0.645161 0.322581 0.000135
0.677419 0.322581 0.000079
0.709677 0.322698 0.000023
0.741935 0.322703 0.000058
0.774194 0.322598 0.000146
0.806452 0.322581 0.000000
0.838710 0.322746 0.000013
0.870968 0.322825 0.000000
0.903226 0.322659 0.000008
0.935484 0.322670 0.000074
0.967742 0.322825 0.000000
1.000000 0.322825 0.000165
0.000000 0.350845 0.000000
0.028824 0.351341 0.000000
0.061805 0.351848 0.000000
0.095113 0.352602 0.000000
0.128245 0.353614 0.000000
0.161145 0.354766 0.000158
0.193351 0.354839 0.000254
0.225806 0.354839 0.000087
0.258065 0.354839 0.000180
0.290323 0.354839 0.000219
0.322581 0.354839 0.000059
0.354839 0.354839 0.000031
0.387097 0.354839 0.000000
0.419355 0.354839 0.000116
0.451613 0.354910 0.000086
0.483871 0.354839 0.000000
0.516129 0.354839 0.000000
0.548387 0.354839 0.000039
0.580645 0.354839 0.000091
0.612903 0.354839 0.000053
0.645161 0.354839 0.000000
0.677419 0.354897 0.000059
0.709677 0.354951 0.000000
0.741935 0.354861 0.000105
0.774194 0.354858 0.000000
0.806452 0.354966 0.000127
0.838710 0.354864 0.000000
0.870968 0.354839 0.000000
0.903226 0.354847 0.000000
0.935484 0.354996 0.000000
0.967742 0.354928 0.000000
1.000000 0.355083 0.000000
0.000000 0.382362 0.000000
0.027675 0.382859 0.000000
0.060898 0.383365 0.000000
0.094399 0.384119 0.000000
0.127304 0.385131 0.000000
0.160535 0.386373 0.000024
0.193548 0.387097 0.000029
0.225733 0.387097 0.000116
0.258065 0.387097 0.000206
0.290323 0.387097 0.000095
0.322581 0.387097 0.000000
0.354839 0.387097 0.000252
0.387097 0.387097 0.000174
0.419355 0.387097 0.000095
0.451613 0.387097 0.000119
0.483871 0.387097 0.000072
0.516129 0.387097 0.000121
0.548387 0.387097 0.000095
0.580645 0.387097 0.000087
0.612903 0.387097 0.000058
0.645161 0.387097 0.000000
0.677419 0.387097 0.000101
0.709677 0.387097 0.000150
0.741935 0.387097 0.000039
0.774194 0.387131 0.000034
0.806452 0.387097 0.000018
0.838710 0.387302 0.000000
0.870968 0.387097 0.000012
0.903226 0.387191 0.000000
0.935484 0.387097 0.000000
0.967742 0.387246 0.000000
1.000000 0.387341 0.000095
0.000000 0.413778 0.000000
0.026972 0.414274 0.000000
0.060075 0.414770 0.000000
0.093706 0.415534 0.000000
0.126960 0.416527 0.000000
0.159966 0.417803 0.000000
0.193419 0.419190 0.000027
0.225806 0.419355 0.000133
0.258065 0.419355 0.000105
0.290323 0.419355 0.000274
0.322581 0.419355 0.000277
0.354839 0.419355 0.000036
0.387097 0.419355 0.000142
0.419355 0.419355 0.000059
0.451613 0.419355 0.000064
0.483871 0.419355 0.000121
0.516129 0.419355 0.000000
0.548387 0.419355 0.000386
0.580645 0.419355 0.000145
0.612903 0.419355 0.000000
0.645161 0.419355 0.000066
0.677419 0.419355 0.000046
0.709677 0.419355 0.000030
0.741935 0.419355 0.000000
0.774194 0.419355 0.000110
0.806452 0.419355 0.000000
0.838710 0.419355 0.000086
0.870968 0.419355 0.000000
0.903226 0.419355 0.000000
0.935484 0.419355 0.000000
0.967742 0.419359 0.000000
1.000000 0.419457 0.000000
0.000000 0.445287 0.000000
0.024591 0.445650 0.000000
0.059422 0.446280 0.000000
0.092849 0.446800 0.000000
0.126398 0.447920 0.000000
0.159345 0.449068 0.000000
0.192908 0.450605 0.000000
0.225696 0.451613 0.000025
0.257965 0.451613 0.000145
0.290228 0.451613 0.000205
0.322490 0.451613 0.000071
0.354839 0.451613 0.000259
0.387097 0.451613 0.000000
0.419355 0.451613 0.000230
0.451613 0.451613 0.000134
0.483871 0.451613 0.000268
0.516129 0.451613 0.000126
0.548387 0.451613 0.000221
0.580645 0.451613 0.000000
0.612903 0.451613 0.000119
0.645161 0.451613 0.000086
0.677419 0.451613 0.000000
0.709677 0.451613 0.000078
0.741935 0.451613 0.000000
0.774194 0.451613 0.000000
0.806452 0.451613 0.000000
0.838710 0.451613 0.000000
0.870968 0.451613 0.000000
0.903226 0.451613 0.000000
0.935484 0.451613 0.000000
0.967742 0.451613 0.000000
1.000000 0.451613 0.000000
0.000000 0.476553 0.000000
0.024105 0.477049 0.000000
0.057420 0.477545 0.000000
0.091874 0.478172 0.000000
0.125463 0.479089 0.000000
0.158684 0.480334 0.000000
0.192186 0.481870 0.000000
0.225408 0.483590 0.000153
0.258065 0.483871 0.000368
0.290239 0.483871 0.000399
0.322581 0.483871 0.000204
0.354839 0.483871 0.000163
0.387051 0.483871 0.000118
0.419355 0.483871 0.000053
0.451613 0.483871 0.000183
0.483871 0.483871 0.000057
0.516129 0.483871 0.000183
0.548387 0.483871 0.000256
0.580645 0.483871 0.000073
0.612903 0.483871 0.000000
0.645161 0.483871 0.000000
0.677419 0.483871 0.000000
0.709677 0.483871 0.000118
0.741935 0.483871 0.000118
0.774194 0.483871 0.000189
0.806452 0.483871 0.000000
0.838710 0.483871 0.000000
0.870968 0.483871 0.000000
0.903226 0.483871 0.000011
0.935484 0.483871 0.000000
0.967742 0.483871 0.000000
1.000000 0.483871 0.000000
0.000000 0.507818 0.000000
0.022212 0.508196 0.000000
0.056277 0.508811 0.000000
0.090524 0.509438 0.000000
0.124560 0.510339 0.000000
0.157963 0.511600 0.000000
0.191342 0.513111 0.000000
0.224771 0.514877 0.000000
0.258065 0.516129 0.000063
0.290323 0.516129 0.000210
0.322501 0.516129 0.000000
0.354839 0.516129 0.000042
0.387097 0.516129 0.000000
0.419355 0.516129 0.000053
0.451613 0.516129 0.000065
0.483871 0.516129 0.000061
0.516129 0.516129 0.000065
0.548387 0.516129 0.000179
0.580645 0.516129 0.000073
0.612903 0.516129 0.000072
0.645161 0.516129 0.000045
0.677419 0.516129 0.000038
0.709677 0.516129 0.000000
0.741935 0.516129 0.000033
0.774194 0.516129 0.000000
0.806452 0.516129 0.000120
0.838710 0.516129 0.000020
0.870968 0.516129 0.000032
0.903226 0.516129 0.000000
0.935484 0.516129 0.000000
0.967742 0.516129 0.000000
1.000000 0.516129 0.000000
0.000000 0.539218 0.000000
0.020327 0.539580 0.000000
0.054718 0.539973 0.000000
0.089666 0.540730 0.000000
0.123620 0.541737 0.000000
0.157011 0.542865 0.000000
0.190600 0.544354 0.000000
0.224129 0.546112 0.000000
0.257721 0.548007 0.000028
0.290189 0.548387 0.000268
0.322581 0.548387 0.000189
0.354791 0.548387 0.000268
0.387045 0.548387 0.000403
0.419355 0.548387 0.000120
0.451613 0.548387 0.000134
0.483871 0.548387 0.000057
0.516129 0.548387 0.000122
0.548387 0.548387 0.000110
0.580645 0.548387 0.000180
0.612903 0.548387 0.000119
0.645161 0.548387 0.000244
0.677419 0.548387 0.000205
0.709677 0.548387 0.000127
0.741935 0.548387 0.000035
0.774194 0.548387 0.000000
0.806452 0.548387 0.000000
0.838710 0.548387 0.000000
0.870968 0.548387 0.000000
0.903226 0.548387 0.000000
0.935484 0.548387 0.000000
0.967742 0.548387 0.000000
1.000000 0.548387 0.000000
0.000000 0.570980 0.000000
0.017686 0.571232 0.000000
0.052494 0.571728 0.000000
0.088164 0.572468 0.000000
0.122281 0.573240 0.000000
0.155974 0.574358 0.000000
0.189716 0.575761 0.000000
0.223167 0.577408 0.000000
0.256993 0.579287 0.000000
0.290149 0.580645 0.000399
0.322548 0.580645 0.000359
0.354839 0.580645 0.000189
0.387097 0.580645 0.000102
0.419355 0.580645 0.000208
0.451549 0.580645 0.000166
0.483802 0.580645 0.000146
0.516129 0.580645 0.000126
0.548387 0.580645 0.000142
0.580645 0.580645 0.000102
0.612903 0.580645 0.000040
0.645161 0.580645 0.000000
0.677419 0.580645 0.000000
0.709677 0.580645 0.000000
0.741935 0.580645 0.000273
0.774194 0.580645 0.000299
0.806452 0.580645 0.000027
0.838710 0.580645 0.000000
0.870968 0.580645 0.000018
0.903226 0.580645 0.000010
0.935484 0.580645 0.000007
0.967742 0.580645 0.000005
1.000000 0.580645 0.000142
0.000000 0.602741 0.000000
0.013661 0.602993 0.000000
0.049528 0.603490 0.000000
0.086532 0.604010 0.000000
0.120924 0.604852 0.000000
0.155163 0.605869 0.000000
0.188717 0.607129 0.000000
0.222327 0.608673 0.000000
0.256046 0.610414 0.000000
0.289764 0.612344 0.000043
0.322517 0.612903 0.000079
0.354778 0.612903 0.000264
0.387002 0.612903 0.000152
0.419300 0.612903 0.000063
0.451613 0.612903 0.000162
0.483871 0.612903 0.000191
0.516129 0.612903 0.000077
0.548387 0.612903 0.000299
0.580645 0.612903 0.000244
0.612903 0.612903 0.000241
0.645161 0.612903 0.000260
0.677419 0.612903 0.000132
0.709677 0.612903 0.000260
0.741935 0.612903 0.000285
0.774194 0.612903 0.000055
0.806452 0.612903 0.000029
0.838710 0.612903 0.000141
0.870968 0.612903 0.000000
0.903226 0.612903 0.000009
0.935484 0.612903 0.000000
0.967742 0.612903 0.000005
1.000000 0.612903 0.000000
0.000000 0.634503 0.000000
0.009521 0.634755 0.000000
0.046010 0.635251 0.000000
0.084014 0.635763 0.000000
0.119524 0.636520 0.000000
0.153893 0.637526 0.000000
0.187789 0.638766 0.000000
0.221505 0.640128 0.000000
0.255230 0.641796 0.000000
0.288933 0.643665 0.000000
0.322522 0.645161 0.000244
0.354706 0.645161 0.000244
0.387000 0.645161 0.000244
0.419355 0.645161 0.000274
0.451613 0.645161 0.000283
0.483829 0.645161 0.000326
0.516129 0.645161 0.000370
0.548301 0.645161 0.000000
0.580645 0.645161 0.000137
0.612903 0.645161 0.000254
0.645161 0.645161 0.000198
0.677419 0.645161 0.000186
0.709677 0.645161 0.000295
0.741935 0.645161 0.000181
0.774194 0.645161 0.000244
0.806452 0.645161 0.000254
0.838710 0.645161 0.000000
0.870968 0.645161 0.000137
0.903226 0.645161 0.000087
0.935484 0.645161 0.000000
0.967742 0.645161 0.000000
1.000000 0.645161 0.000000
0.000000 0.666430 0.000000
0.004198 0.666759 0.000000
0.041133 0.667013 0.000000
0.081051 0.667533 0.000000
0.117543 0.668282 0.000000
0.152187 0.669274 0.000000
0.186515 0.670314 0.000000
0.220556 0.671637 0.000000
0.254461 0.673189 0.000000
0.288029 0.674930 0.000000
0.322026 0.676864 0.000051
0.354622 0.677419 0.000300
0.387002 0.677419 0.000264
0.419259 0.677419 0.000261
0.451613 0.677419 0.000476
0.483871 0.677419 0.000117
0.516049 0.677419 0.000286
0.548312 0.677419 0.000079
0.580645 0.677419 0.000000
0.612903 0.677419 0.000290
0.645161 0.677419 0.000158
0.677419 0.677419 0.000000
0.709677 0.677419 0.000152
0.741935 0.677419 0.000000
0.774194 0.677419 0.000000
0.806452 0.677419 0.000165
0.838710 0.677419 0.000205
0.870968 0.677419 0.000032
0.903226 0.677419 0.000149
0.935484 0.677419 0.000000
0.967742 0.677419 0.000160
1.000000 0.677419 0.000079
0.000000 0.698444 0.000000
0.000833 0.698696 0.000000
0.036547 0.699019 0.000000
0.077781 0.699532 0.000000
0.115412 0.700217 0.000000
0.150372 0.701036 0.000000
0.185159 0.702042 0.000000
0.219347 0.703320 0.000000
0.253364 0.704681 0.000000
0.287135 0.706319 0.000000
0.321109 0.708181 0.000000
0.354839 0.709677 0.000107
0.387069 0.709677 0.000485
0.419284 0.709677 0.000345
0.451613 0.709677 0.000188
0.483871 0.709677 0.000034
0.516045 0.709677 0.000163
0.548387 0.709677 0.000173
0.580645 0.709677 0.000172
0.612903 0.709677 0.000280
0.645161 0.709677 0.000137
0.677419 0.709677 0.000127
0.709677 0.709677 0.000071
0.741935 0.709677 0.000320
0.774194 0.709677 0.000071
0.806452 0.709677 0.000140
0.838710 0.709677 0.000130
0.870968 0.709677 0.000062
0.903226 0.709677 0.000000
0.935484 0.709677 0.000011
0.967742 0.709677 0.000000
1.000000 0.709677 0.000071
0.000000 0.730702 0.000000
0.000255 0.730946 0.000000
0.029111 0.731206 0.000000
0.073844 0.731703 0.000000
0.112064 0.732230 0.000000
0.148512 0.733032 0.000000
0.183667 0.733984 0.000000
0.217962 0.735041 0.000000
0.252305 0.736327 0.000000
0.286092 0.737834 0.000000
0.320091 0.739446 0.000000
0.354109 0.741387 0.000045
0.386964 0.741935 0.000133
0.419252 0.741935 0.000291
0.451514 0.741935 0.000408
0.483871 0.741935 0.000218
0.516099 0.741935 0.000364
0.548288 0.741935 0.000082
0.580645 0.741935 0.000468
0.612833 0.741935 0.000283
0.645161 0.741935 0.000162
0.677419 0.741935 0.000303
0.709677 0.741935 0.000279
0.741935 0.741935 0.000379
0.774194 0.741935 0.000049
0.806452 0.741935 0.000137
0.838710 0.741935 0.000145
0.870968 0.741935 0.000000
0.903226 0.741935 0.000006
0.935484 0.741935 0.000059
0.967742 0.741935 0.000181
1.000000 0.741935 0.000181
0.000000 0.762960 0.000000
0.000023 0.763211 0.000000
0.022088 0.763464 0.000000
0.068026 0.763961 0.000000
0.108843 0.764457 0.000000
0.145978 0.765198 0.000000
0.181543 0.765985 0.000000
0.216522 0.766990 0.000000
0.250898 0.768229 0.000000
0.285005 0.769577 0.000000
0.319099 0.771066 0.000000
0.353255 0.772697 0.000000
0.386810 0.774078 0.000183
0.419300 0.774194 0.000435
0.451454 0.774194 0.000348
0.483871 0.774194 0.000145
0.516011 0.774194 0.000460
0.548302 0.774194 0.000080
0.580645 0.774194 0.000111
0.612869 0.774194 0.000034
0.645161 0.774194 0.000036
0.677419 0.774194 0.000201
0.709677 0.774194 0.000228
0.741935 0.774194 0.000049
0.774194 0.774194 0.000043
0.806452 0.774194 0.000349
0.838710 0.774194 0.000039
0.870968 0.774194 0.000172
0.903226 0.774194 0.000118
0.935484 0.774194 0.000189
0.967742 0.774194 0.000053
1.000000 0.774194 0.000000
0.000000 0.795660 0.000000
0.000000 0.795713 0.000000
0.011505 0.795964 0.000000
0.061304 0.796416 0.000000
0.104715 0.796912 0.000000
0.142928 0.797487 0.000000
0.179613 0.798243 0.000000
0.214794 0.799236 0.000000
0.249474 0.800241 0.000000
0.283897 0.801479 0.000000
0.318106 0.802828 0.000000
0.352263 0.804317 0.000000
0.386312 0.805835 0.000000
0.419111 0.806452 0.000331
0.451566 0.806452 0.000460
0.483848 0.806452 0.000239
0.516009 0.806452 0.000215
0.548279 0.806452 0.000329
0.580645 0.806452 0.000347
0.612783 0.806452 0.000171
0.645161 0.806452 0.000161
0.677419 0.806452 0.000244
0.709677 0.806452 0.000034
0.741935 0.806452 0.000000
0.774194 0.806452 0.000118
0.806452 0.806452 0.000197
0.838710 0.806452 0.000244
0.870968 0.806452 0.000032
0.903226 0.806452 0.000356
0.935484 0.806452 0.000000
0.967742 0.806452 0.000000
1.000000 0.806452 0.000000
0.000000 0.828414 0.000000
0.000000 0.828620 0.000000
0.002106 0.828865 0.000000
0.053477 0.829170 0.000000
0.099707 0.829632 0.000000
0.139427 0.830163 0.000000
0.176864 0.830738 0.000000
0.212666 0.831494 0.000000
0.247816 0.832487 0.000000
0.282520 0.833491 0.000000
0.316962 0.834729 0.000000
0.351113 0.835967 0.000000
0.385341 0.837338 0.000000
0.419197 0.838591 0.000142
0.451390 0.838710 0.000473
0.483627 0.838710 0.000251
0.515991 0.838710 0.000323
0.548275 0.838710 0.000205
0.580559 0.838710 0.000426
0.612809 0.838710 0.000204
0.645029 0.838710 0.000291
0.677419 0.838710 0.000172
0.709677 0.838710 0.000180
0.741935 0.838710 0.000353
0.774194 0.838710 0.000039
0.806452 0.838710 0.000165
0.838710 0.838710 0.000000
0.870968 0.838710 0.000061
0.903226 0.838710 0.000079
0.935484 0.838710 0.000063
0.967742 0.838710 0.000205
1.000000 0.838710 0.000205
0.000000 0.861381 0.000000
0.000000 0.861626 0.000000
0.000746 0.861871 0.000000
0.042953 0.862117 0.000000
0.093556 0.862421 0.000000
0.135476 0.862917 0.000000
0.173853 0.863461 0.000000
0.210312 0.864161 0.000000
0.246106 0.864902 0.000000
0.281065 0.865737 0.000000
0.315664 0.866740 0.000000
0.349983 0.867978 0.000000
0.384363 0.869085 0.000000
0.418491 0.870348 0.000026
0.451400 0.870968 0.000492
0.483627 0.870968 0.000472
0.515988 0.870968 0.000126
0.548277 0.870968 0.000244
