gsg/01_Basics/GSG_LUT_Basic_WarmlFadedBlacks.cube
# GSG LUTs 1.0
# Copyright (c) 2016-2020 Greyscalegorilla
# See EULA for licensing and distribution information
# Converted by Briz LUT Converter
LUT_3D_SIZE 8
DOMAIN_MIN 0.000000 0.000000 0.000000
DOMAIN_MAX 0.903226 0.903226 0.903226
0.102564 0.097680 0.087424
0.197030 0.096947 0.086171
0.311174 0.095175 0.083146
0.444074 0.091874 0.077033
0.589058 0.086313 0.065784
0.732971 0.078089 0.045902
0.860727 0.067486 0.000000
0.963504 0.055331 0.000000
0.107086 0.190618 0.085927
0.199228 0.190161 0.084674
0.312427 0.189428 0.081563
0.444838 0.187983 0.075280
0.589791 0.185671 0.063783
0.733480 0.182583 0.042719
0.860978 0.178920 0.000000
0.963992 0.175470 0.000000
0.116925 0.301768 0.082658
0.203994 0.301745 0.081319
0.315372 0.301280 0.078026
0.446753 0.300453 0.071377
0.591075 0.299113 0.058843
0.734499 0.297278 0.034067
0.861948 0.295356 0.000000
0.964561 0.293598 0.000000
0.133058 0.431187 0.075962
0.212742 0.430943 0.074446
0.320573 0.430698 0.070645
0.450274 0.430210 0.063127
0.593594 0.429351 0.048090
0.736484 0.428193 0.002390
0.863508 0.426941 0.000000
0.966040 0.425688 0.000000
0.154626 0.572201 0.063461
0.225760 0.572201 0.061459
0.328646 0.571956 0.056764
0.455741 0.571545 0.046373
0.597487 0.570980 0.014736
0.739491 0.570171 0.000000
0.866010 0.569299 0.000000
0.968270 0.568419 0.000000
0.178936 0.712056 0.039568
0.241900 0.712056 0.035975
0.339178 0.711812 0.025510
0.462886 0.711568 0.000000
0.602710 0.711080 0.000000
0.743542 0.710434 0.000000
0.869400 0.709859 0.000000
0.971153 0.709126 0.000000
0.201646 0.836173 0.000000
0.258419 0.836118 0.000000
0.350429 0.835929 0.000000
0.470731 0.835685 0.000000
0.608421 0.835288 0.000000
0.747911 0.834775 0.000000
0.872980 0.834220 0.000000
0.974406 0.833731 0.000000
0.220812 0.936177 0.000000
0.272816 0.936177 0.000000
0.360731 0.935950 0.000000
0.477868 0.935712 0.000000
0.613773 0.935444 0.000000
0.752145 0.934964 0.000000
0.876437 0.934473 0.000000
0.977423 0.933982 0.000000
0.104061 0.098413 0.171689
0.197550 0.097653 0.170956
0.311608 0.095931 0.169703
0.444318 0.092626 0.167148
0.589302 0.087061 0.163087
0.733129 0.078990 0.157454
0.860727 0.068494 0.150909
0.963748 0.056584 0.144480
0.108555 0.190866 0.170956
0.199775 0.190429 0.170416
0.312852 0.189696 0.169156
0.445099 0.188357 0.166617
0.589850 0.185946 0.162477
0.733628 0.182830 0.156787
0.861215 0.179377 0.150166
0.963992 0.175912 0.143716
0.118177 0.302013 0.169459
0.204699 0.301776 0.168967
0.315656 0.301463 0.167687
0.446997 0.300586 0.165131
0.591319 0.299263 0.160939
0.734657 0.297523 0.155193
0.862011 0.295588 0.148557
0.964731 0.293615 0.141777
0.134196 0.431187 0.166891
0.213349 0.431187 0.166188
0.320940 0.430909 0.164906
0.450518 0.430280 0.162220
0.593761 0.429477 0.158067
0.736545 0.428305 0.152180
0.863563 0.427066 0.145333
0.966064 0.425909 0.138493
0.155618 0.572217 0.162370
0.226386 0.572201 0.161747
0.329106 0.571956 0.160369
0.455985 0.571672 0.157594
0.597731 0.571041 0.153287
0.739572 0.570247 0.147174
0.866134 0.569299 0.139999
0.968282 0.568431 0.132809
0.179668 0.712143 0.156233
0.242406 0.712056 0.155492
0.339545 0.711899 0.154060
0.463134 0.711568 0.151223
0.602954 0.711122 0.146549
0.743629 0.710591 0.140183
0.869400 0.709859 0.132540
0.971247 0.709150 0.124894
0.202355 0.836173 0.148955
0.258886 0.836173 0.148244
0.350828 0.835929 0.146726
0.470976 0.835685 0.143708
0.608568 0.835412 0.138726
0.748088 0.834917 0.131798
0.873126 0.834262 0.123686
0.974456 0.833731 0.115237
0.221329 0.936177 0.141605
0.273329 0.936177 0.140894
0.360977 0.935957 0.139302
0.478113 0.935730 0.136135
0.613907 0.935456 0.130883
0.752302 0.934966 0.123431
0.876613 0.934475 0.114464
0.977449 0.934006 0.105071
0.107086 0.099941 0.272331
0.199047 0.099177 0.271897
0.312442 0.097436 0.271156
0.444845 0.094135 0.269794
0.589791 0.088818 0.267414
0.733459 0.080838 0.264327
0.860986 0.070772 0.260908
0.963992 0.059364 0.257653
0.111584 0.191437 0.271842
0.201272 0.191183 0.271575
0.313648 0.190440 0.270799
0.445728 0.188932 0.269369
0.590311 0.186678 0.267127
0.733897 0.183600 0.264072
0.861460 0.180069 0.260585
0.964236 0.176651 0.257237
0.120958 0.302501 0.271063
0.206065 0.302257 0.270668
0.316563 0.301768 0.269935
0.447543 0.300984 0.268573
0.591618 0.299697 0.266282
0.734971 0.297963 0.263120
0.862255 0.295891 0.259677
0.964971 0.294104 0.256306
0.136508 0.431431 0.269550
0.214747 0.431431 0.269124
0.321804 0.431140 0.268392
0.451021 0.430604 0.266895
0.594114 0.429733 0.264666
0.736933 0.428603 0.261587
0.863807 0.427328 0.258087
0.966291 0.426157 0.254691
0.157619 0.572445 0.267046
0.227626 0.572445 0.266681
0.329890 0.572201 0.265917
0.456493 0.571808 0.264433
0.598068 0.571224 0.262159
0.739890 0.570415 0.259000
0.866378 0.569543 0.255475
0.968526 0.568675 0.252045
0.181197 0.712301 0.263635
0.243565 0.712178 0.263350
0.340335 0.712056 0.262571
0.463642 0.711812 0.261121
0.603242 0.711324 0.258699
0.743914 0.710636 0.255527
0.869644 0.709931 0.251928
0.971433 0.709370 0.248492
0.203852 0.836222 0.259931
0.259923 0.836173 0.259504
0.351560 0.836163 0.258757
0.471464 0.835913 0.257214
0.609028 0.835441 0.254803
0.748349 0.834952 0.251529
0.873370 0.834421 0.247840
0.974663 0.833922 0.244402
0.222805 0.936201 0.256268
0.274310 0.936201 0.255837
0.361755 0.936177 0.255085
0.478658 0.935933 0.253551
0.614292 0.935575 0.251108
0.752569 0.935200 0.247813
0.876870 0.934712 0.244096
0.977719 0.934223 0.240500
0.112860 0.102509 0.389011
0.201828 0.101776 0.388767
0.314136 0.100248 0.388278
0.445878 0.097097 0.387360
0.590523 0.091874 0.385805
0.734009 0.084296 0.383914
0.861481 0.074723 0.381685
0.964246 0.064152 0.379700
0.116975 0.192666 0.388767
0.204042 0.192422 0.388523
0.315326 0.191634 0.388090
0.446784 0.190161 0.387115
0.591073 0.187957 0.385628
0.734514 0.184864 0.383670
0.861948 0.181418 0.381441
0.964607 0.177974 0.379438
0.125936 0.303084 0.388240
0.208779 0.302984 0.387996
0.318106 0.302501 0.387479
0.448571 0.301711 0.386612
0.592390 0.300380 0.385072
0.735521 0.298594 0.383157
0.862730 0.296647 0.380952
0.965357 0.294833 0.378793
0.140817 0.431977 0.387244
0.217233 0.431912 0.386999
0.323329 0.431594 0.386530
0.452091 0.431000 0.385534
0.594880 0.430163 0.384097
0.737461 0.429067 0.382110
0.864296 0.427831 0.379881
0.966773 0.426647 0.377804
0.161210 0.572783 0.385561
0.230013 0.572689 0.385316
0.331394 0.572515 0.384864
0.457508 0.572201 0.384001
0.598840 0.571551 0.382504
0.740499 0.570753 0.380537
0.866807 0.569835 0.378268
0.969007 0.568965 0.376204
0.184340 0.712545 0.383479
0.245812 0.712448 0.383228
0.341832 0.712301 0.382733
0.464689 0.712056 0.381829
0.604025 0.711568 0.380369
0.744553 0.710888 0.378322
0.870133 0.710231 0.376017
0.971892 0.709614 0.373933
0.206475 0.836417 0.381123
0.261908 0.836417 0.380928
0.352917 0.836348 0.380401
0.472441 0.836086 0.379401
0.609760 0.835685 0.377907
0.748956 0.835196 0.375857
0.873859 0.834665 0.373634
0.975139 0.834060 0.371431
0.225143 0.936445 0.378723
0.276277 0.936421 0.378561
0.363041 0.936264 0.378061
0.479663 0.936125 0.377072
0.615040 0.935705 0.375517
0.753121 0.935302 0.373532
0.877365 0.934785 0.371305
0.978154 0.934346 0.369168
0.121265 0.106605 0.516373
0.206223 0.105976 0.516129
0.316579 0.104432 0.515885
0.447619 0.101406 0.515229
0.591683 0.096459 0.514114
0.735006 0.089369 0.512755
0.862221 0.080605 0.511182
0.964969 0.070952 0.509685
0.125023 0.194651 0.516129
0.208238 0.194390 0.516127
0.317827 0.193640 0.515641
0.448501 0.192189 0.515048
0.592302 0.189970 0.513992
0.735423 0.186910 0.512624
0.862684 0.183476 0.511017
0.965341 0.180161 0.509648
0.133332 0.304304 0.515854
0.212866 0.304088 0.515641
0.320673 0.303669 0.515335
0.450274 0.302823 0.514652
0.593626 0.301540 0.513609
0.736442 0.299814 0.512190
0.863474 0.297861 0.510686
0.966018 0.296018 0.509194
0.147338 0.432729 0.515106
0.221159 0.432606 0.514975
0.325820 0.432343 0.514606
0.453724 0.431752 0.513961
0.596085 0.430905 0.512884
0.738365 0.429814 0.511504
0.865126 0.428577 0.509940
0.967399 0.427340 0.508460
0.166844 0.573422 0.513992
0.233697 0.573230 0.513805
0.333822 0.573059 0.513472
0.459191 0.572689 0.512823
0.600024 0.572080 0.511763
0.741428 0.571268 0.510355
0.867567 0.570352 0.508845
0.969628 0.569521 0.507298
0.189169 0.712957 0.512435
0.249176 0.712834 0.512303
0.344083 0.712713 0.511946
0.466202 0.712421 0.511260
0.605236 0.711938 0.510237
0.745449 0.711340 0.508858
0.870910 0.710620 0.507243
0.972546 0.709996 0.505747
0.210690 0.836906 0.510694
0.265120 0.836759 0.510662
0.355119 0.836662 0.510205
0.474032 0.836417 0.509606
0.610863 0.835976 0.508543
0.749842 0.835475 0.507117
0.874598 0.834952 0.505502
0.975780 0.834440 0.504006
0.228879 0.936689 0.509197
0.279236 0.936678 0.508953
0.365202 0.936665 0.508666
0.481164 0.936421 0.507971
0.616210 0.936012 0.506932
0.754056 0.935620 0.505498
0.878104 0.935118 0.503932
0.978876 0.934712 0.502475
0.131348 0.111828 0.642577
0.211785 0.111095 0.642566
0.319910 0.109654 0.642206
0.449754 0.106903 0.641697
0.593286 0.102170 0.640944
0.736247 0.095671 0.639835
0.863327 0.087629 0.638639
0.965868 0.079113 0.637465
0.134937 0.197251 0.642566
0.213770 0.196969 0.642333
0.321163 0.196233 0.642089
0.450701 0.194821 0.641601
0.593871 0.192603 0.640813
0.736628 0.189617 0.639703
0.863662 0.186231 0.638479
0.966192 0.183001 0.637384
0.142495 0.305770 0.642089
0.218260 0.305545 0.642089
0.323880 0.305138 0.641839
0.452503 0.304344 0.641307
0.595258 0.303021 0.640487
0.737651 0.301295 0.639430
0.864471 0.299358 0.638217
0.966963 0.297617 0.637125
0.155477 0.433725 0.641601
0.226302 0.433595 0.641559
0.329078 0.433322 0.641248
0.455953 0.432786 0.640753
0.597681 0.431949 0.639921
0.739584 0.430766 0.638859
0.866127 0.429568 0.637689
0.968253 0.428330 0.636575
0.173934 0.574068 0.640742
0.238444 0.573910 0.640624
0.336956 0.573802 0.640368
0.461332 0.573404 0.639874
0.601613 0.572765 0.639050
0.742608 0.571985 0.637965
0.868560 0.571088 0.636786
0.970483 0.570217 0.635665
0.195281 0.713466 0.639591
0.253622 0.713364 0.639459
0.347140 0.713263 0.639215
0.468394 0.712977 0.638705
0.606775 0.712516 0.637909
0.746661 0.711879 0.636784
0.871921 0.711165 0.635594
0.973417 0.710591 0.634519
0.216038 0.837307 0.638359
0.269210 0.837150 0.638150
0.358062 0.837145 0.637897
0.476114 0.836898 0.637404
0.612360 0.836417 0.636594
0.751049 0.835929 0.635531
0.875604 0.835425 0.634294
0.976640 0.834900 0.633217
0.233826 0.937154 0.637127
0.283083 0.937154 0.636898
0.368034 0.936933 0.636650
0.483286 0.936776 0.636159
0.617709 0.936429 0.635347
0.755233 0.935951 0.634290
0.879087 0.935462 0.633044
0.979635 0.934986 0.631922
0.141605 0.117295 0.754642
0.217684 0.116562 0.754453
0.323573 0.115278 0.754209
0.452343 0.112594 0.753836
0.595011 0.108252 0.753177
0.737556 0.102170 0.752286
0.864433 0.094792 0.751278
0.966873 0.087053 0.750490
0.144874 0.200024 0.754453
0.219690 0.199772 0.754398
0.324826 0.199033 0.754153
0.453122 0.197683 0.753699
0.595715 0.195509 0.753079
0.738044 0.192568 0.752200
0.864836 0.189227 0.751223
0.967169 0.185985 0.750267
0.151932 0.307511 0.754194
0.223940 0.307267 0.754153
0.327543 0.306779 0.753909
0.454912 0.306046 0.753455
0.596999 0.304738 0.752827
0.739084 0.303021 0.751956
0.865663 0.301050 0.750979
0.967948 0.299308 0.750020
0.164055 0.434828 0.753836
0.231785 0.434719 0.753665
0.332552 0.434426 0.753446
0.458332 0.433852 0.753050
0.599412 0.433064 0.752406
0.740947 0.431925 0.751520
0.867214 0.430656 0.750524
0.969233 0.429454 0.749537
0.181406 0.574858 0.753079
0.243685 0.574734 0.752956
0.340370 0.574562 0.752708
0.463709 0.574154 0.752335
0.603307 0.573573 0.751646
0.743999 0.572756 0.750776
0.869673 0.571914 0.749784
0.971463 0.570998 0.748884
0.201879 0.714077 0.752078
0.258477 0.714010 0.751975
0.350536 0.713847 0.751781
0.470773 0.713563 0.751331
0.608434 0.713100 0.750672
0.747970 0.712522 0.749789
0.873036 0.711812 0.748801
0.974400 0.711098 0.747903
0.221994 0.837827 0.751034
0.273811 0.837638 0.750979
0.361238 0.837638 0.750735
0.478396 0.837394 0.750280
0.614101 0.836906 0.749660
0.752416 0.836417 0.748773
0.876746 0.835919 0.747781
0.977619 0.835429 0.746833
0.239206 0.937642 0.750026
0.287297 0.937592 0.750002
0.371241 0.937416 0.749758
0.485521 0.937175 0.749284
0.619441 0.936910 0.748640
0.756540 0.936428 0.747772
0.880232 0.935937 0.746793
0.980593 0.935446 0.745807
0.150577 0.122053 0.844941
0.223136 0.121533 0.844720
0.327016 0.120257 0.844476
0.454606 0.117698 0.844223
0.596723 0.113605 0.843606
0.738832 0.107881 0.842845
0.865417 0.100955 0.842016
0.967876 0.093797 0.841280
0.153602 0.202710 0.844720
0.225075 0.202420 0.844720
0.328245 0.201663 0.844476
0.455370 0.200279 0.844123
0.597253 0.198209 0.843499
0.739300 0.195286 0.842765
0.865846 0.191948 0.841840
0.968125 0.188922 0.841078
0.160172 0.309008 0.844476
0.229346 0.308779 0.844476
0.330968 0.308419 0.844232
0.457261 0.307557 0.843953
0.598626 0.306333 0.843334
0.740343 0.304699 0.842522
0.866683 0.302777 0.841726
0.968866 0.300865 0.840834
0.171752 0.435817 0.844223
0.236944 0.435718 0.843988
0.335947 0.435471 0.843879
0.460562 0.434929 0.843496
0.601026 0.434056 0.842950
0.742234 0.432938 0.842205
0.868203 0.431718 0.841294
0.970213 0.430475 0.840547
0.188235 0.575607 0.843499
0.248509 0.575482 0.843487
0.343681 0.575331 0.843243
0.466022 0.574887 0.842873
0.604914 0.574322 0.842323
0.745259 0.573500 0.841538
0.870790 0.572671 0.840704
0.972422 0.571734 0.839835
0.207854 0.714585 0.842751
0.262972 0.714584 0.842601
0.353611 0.714446 0.842363
0.472963 0.714097 0.842028
0.610130 0.713677 0.841453
0.749228 0.713061 0.840700
0.874058 0.712320 0.839842
0.975305 0.711798 0.839081
0.227290 0.838347 0.841771
0.277884 0.838127 0.841595
0.364333 0.838125 0.841527
0.480552 0.837880 0.841088
0.615718 0.837394 0.840550
0.753655 0.836906 0.839704
0.877763 0.836413 0.838856
0.978539 0.835862 0.838115
0.243985 0.937910 0.840834
0.291255 0.937910 0.840792
0.374034 0.937886 0.840585
0.487653 0.937642 0.840225
0.620961 0.937274 0.839602
0.757761 0.936896 0.838853
0.881281 0.936405 0.837949
0.981572 0.935933 0.837191
