gsg/01_Basics/GSG_LUT_Basic_CoolFadedBlacks.cube
# GSG LUTs 1.0
# Copyright (c) 2016-2020 Greyscalegorilla
# See EULA for licensing and distribution information
# Converted by Briz LUT Converter
LUT_3D_SIZE 5
DOMAIN_MIN 0.000000 0.000000 0.000000
DOMAIN_MAX 0.903226 0.903226 0.903226
0.088400 0.100366 0.125031
0.259254 0.104384 0.131057
0.478916 0.116192 0.148025
0.712986 0.135303 0.174950
0.895931 0.153263 0.200102
0.037583 0.279499 0.131600
0.249620 0.280720 0.137327
0.474380 0.284548 0.153452
0.710189 0.291630 0.179456
0.893923 0.299256 0.203876
0.000000 0.514278 0.150467
0.216254 0.514791 0.155272
0.459855 0.516586 0.169394
0.701233 0.520194 0.192875
0.887153 0.524046 0.215574
0.000000 0.764930 0.179755
0.124260 0.765174 0.183607
0.430880 0.766395 0.195451
0.684162 0.768514 0.215582
0.874324 0.771019 0.235795
0.000000 0.961062 0.206916
0.000000 0.961306 0.210220
0.395313 0.962162 0.220324
0.664532 0.963914 0.237977
0.859837 0.965723 0.256174
0.074717 0.095073 0.344251
0.255780 0.099579 0.346016
0.477152 0.111986 0.351713
0.711954 0.131774 0.362110
0.895199 0.150443 0.373398
0.000000 0.278034 0.346260
0.246103 0.279264 0.348214
0.472731 0.283087 0.353716
0.709119 0.290194 0.364063
0.893135 0.297979 0.375352
0.000000 0.513515 0.352665
0.211933 0.514076 0.354399
0.458201 0.515957 0.359920
0.700218 0.519451 0.370034
0.886321 0.523396 0.381051
0.000000 0.764441 0.364191
0.115424 0.764814 0.365938
0.429087 0.765964 0.371204
0.683156 0.768092 0.380945
0.873573 0.770530 0.391632
0.000000 0.960768 0.376688
0.000000 0.961062 0.378281
0.393304 0.961882 0.383455
0.663378 0.963516 0.392837
0.859033 0.965436 0.403033
0.000000 0.076419 0.632746
0.244540 0.081927 0.633613
0.471968 0.097081 0.636409
0.708689 0.119819 0.641573
0.892659 0.140344 0.647278
0.000000 0.273284 0.633668
0.234185 0.274706 0.634626
0.467432 0.278564 0.637370
0.705867 0.285804 0.642539
0.890638 0.293718 0.648284
0.000000 0.511347 0.636837
0.197601 0.511866 0.637708
0.452663 0.513789 0.640433
0.696936 0.517263 0.645555
0.883989 0.521115 0.651240
0.000000 0.763067 0.642625
0.079113 0.763429 0.643499
0.423122 0.764585 0.646247
0.679747 0.766730 0.651282
0.871035 0.769202 0.656909
0.000000 0.959610 0.648987
0.000000 0.959975 0.649868
0.386656 0.960824 0.652582
0.659911 0.962504 0.657631
0.856308 0.964368 0.663140
0.000000 0.000000 0.940959
0.221328 0.006551 0.941465
0.461944 0.056643 0.943267
0.702564 0.092333 0.946550
0.888180 0.118681 0.950049
0.000000 0.264327 0.941563
0.209660 0.265603 0.942184
0.457278 0.269745 0.943854
0.699768 0.277191 0.947064
0.885998 0.285415 0.950654
0.000000 0.507050 0.943511
0.166402 0.507691 0.944078
0.442036 0.509618 0.945768
0.690758 0.513143 0.949012
0.879212 0.517062 0.952602
0.000000 0.760481 0.947064
0.003626 0.760796 0.947607
0.411611 0.762035 0.949372
0.673288 0.764197 0.952602
0.866277 0.766694 0.956154
0.000000 0.957722 0.951105
0.000000 0.957966 0.951746
0.373836 0.958900 0.953409
0.653161 0.960525 0.956643
0.851582 0.962369 0.960117
0.000000 0.000000 1.000000
0.191243 0.000000 1.000000
0.450368 0.000000 1.000000
0.695609 0.036463 1.000000
0.882989 0.086515 1.000000
0.000000 0.253826 1.000000
0.177249 0.255103 1.000000
0.445542 0.259364 1.000000
0.692741 0.267293 1.000000
0.880738 0.275720 1.000000
0.000000 0.502323 1.000000
0.119515 0.502951 1.000000
0.429879 0.504864 1.000000
0.683540 0.508472 1.000000
0.873890 0.512435 1.000000
0.000000 0.757549 1.000000
0.000000 0.757899 1.000000
0.398193 0.759117 1.000000
0.665981 0.761265 1.000000
0.860909 0.763723 1.000000
0.000000 0.955469 1.000000
0.000000 0.955713 1.000000
0.358784 0.956677 1.000000
0.645618 0.958321 1.000000
0.845963 0.960128 1.000000
