gsg/01_Basics/GSG_LUT_Basic_WarmlFadedBlacks.cube
# GSG LUTs 1.0
# Copyright (c) 2016-2020 Greyscalegorilla
# See EULA for licensing and distribution information
# Converted by Briz LUT Converter
LUT_3D_SIZE 32
0.102564 0.097680 0.087424
0.124172 0.097672 0.087179
0.147276 0.097436 0.086920
0.171413 0.097192 0.086667
0.197030 0.096947 0.086171
0.223656 0.096664 0.085636
0.251581 0.096215 0.084887
0.280720 0.095916 0.084139
0.311174 0.095175 0.083146
0.342826 0.094608 0.081839
0.375485 0.093860 0.080594
0.409398 0.092867 0.078861
0.444074 0.091874 0.077033
0.479657 0.090779 0.074702
0.515743 0.089535 0.072110
0.552334 0.088046 0.069132
0.589058 0.086313 0.065784
0.625783 0.084446 0.061932
0.662224 0.082461 0.057434
0.698050 0.080326 0.052078
0.732971 0.078089 0.045902
0.766883 0.075608 0.038213
0.799543 0.073126 0.027658
0.830832 0.070401 0.004474
0.860727 0.067486 0.000000
0.888928 0.064508 0.000000
0.915412 0.061531 0.000000
0.940336 0.058553 0.000000
0.963504 0.055331 0.000000
0.985175 0.051881 0.000000
0.999866 0.048651 0.000000
1.000000 0.045177 0.000000
0.103312 0.119280 0.087179
0.124912 0.119272 0.086935
0.147773 0.119036 0.086675
0.171909 0.118799 0.086415
0.197282 0.118760 0.085919
0.223946 0.118509 0.085385
0.251833 0.118065 0.084637
0.280972 0.117768 0.083887
0.311418 0.117271 0.082894
0.343070 0.116775 0.081589
0.375730 0.116279 0.080266
0.409406 0.115543 0.078609
0.444082 0.114711 0.076690
0.479660 0.113963 0.074450
0.515858 0.112970 0.071861
0.552578 0.111741 0.068884
0.589302 0.110512 0.065532
0.626027 0.109146 0.061546
0.662366 0.107665 0.056938
0.698200 0.106180 0.051676
0.733129 0.104539 0.045405
0.767049 0.102806 0.037549
0.799620 0.101073 0.026736
0.831013 0.099340 0.004086
0.860727 0.097365 0.000000
0.888928 0.095630 0.000000
0.915412 0.093661 0.000000
0.940336 0.091921 0.000000
0.963535 0.089952 0.000000
0.985182 0.088219 0.000000
0.999874 0.086486 0.000000
1.000000 0.084761 0.000000
0.104305 0.141888 0.086920
0.125661 0.141888 0.086668
0.148498 0.141659 0.086415
0.172420 0.141644 0.085957
0.197779 0.141414 0.085667
0.224404 0.141169 0.084940
0.252270 0.140924 0.084383
0.281276 0.140679 0.083406
0.311674 0.140376 0.082410
0.343248 0.139879 0.081334
0.375974 0.139383 0.079846
0.409648 0.138887 0.078270
0.444334 0.138302 0.076285
0.479901 0.137564 0.074065
0.515994 0.136815 0.071472
0.552578 0.135838 0.068510
0.589318 0.134846 0.065036
0.626034 0.133853 0.061050
0.662381 0.132728 0.056442
0.698206 0.131500 0.051075
0.733215 0.130256 0.044655
0.767127 0.129017 0.036785
0.799787 0.127555 0.025315
0.831013 0.126310 0.003371
0.860731 0.124838 0.000000
0.888931 0.123550 0.000000
0.915617 0.122121 0.000000
0.940350 0.120848 0.000000
0.963748 0.119406 0.000000
0.985403 0.118176 0.000000
0.999874 0.116948 0.000000
1.000000 0.115932 0.000000
0.105565 0.165749 0.086423
0.126676 0.165528 0.086202
0.149276 0.165505 0.085935
0.173146 0.165483 0.085667
0.198488 0.165281 0.085171
0.224901 0.165040 0.084639
0.252582 0.164796 0.083891
0.281720 0.164722 0.083138
0.311930 0.164307 0.082146
0.343575 0.163992 0.080838
0.376218 0.163591 0.079499
0.409910 0.163244 0.077774
0.444586 0.162662 0.075789
0.480145 0.162031 0.073687
0.516242 0.161424 0.070965
0.552822 0.160676 0.068002
0.589547 0.159928 0.064528
0.626271 0.158959 0.060431
0.662610 0.158210 0.055794
0.698309 0.157218 0.050416
0.733373 0.156083 0.043886
0.767144 0.155012 0.035543
0.799875 0.154043 0.023679
0.831094 0.152869 0.002065
0.860971 0.151814 0.000000
0.889172 0.150821 0.000000
0.915656 0.149632 0.000000
0.940581 0.148639 0.000000
0.963748 0.147647 0.000000
0.985405 0.146654 0.000000
0.999874 0.145685 0.000000
1.000000 0.144716 0.000000
0.107086 0.190618 0.085927
0.128126 0.190405 0.085683
0.150286 0.190405 0.085437
0.174135 0.190353 0.085171
0.199228 0.190161 0.084674
0.225607 0.190122 0.084139
0.253275 0.189917 0.083390
0.282217 0.189673 0.082618
0.312427 0.189428 0.081563
0.343834 0.189123 0.080342
0.376494 0.188861 0.078853
0.410162 0.188397 0.077257
0.444838 0.187983 0.075280
0.480402 0.187527 0.072961
0.516490 0.186908 0.070352
0.553066 0.186411 0.067257
0.589791 0.185671 0.063783
0.626399 0.184945 0.059782
0.662854 0.184222 0.054929
0.698539 0.183331 0.049423
0.733480 0.182583 0.042719
0.767372 0.181622 0.034104
0.800032 0.180864 0.021092
0.831258 0.179881 0.000000
0.860978 0.178920 0.000000
0.889179 0.178166 0.000000
0.915683 0.177179 0.000000
0.940581 0.176431 0.000000
0.963992 0.175470 0.000000
0.985448 0.174721 0.000000
0.999882 0.173973 0.000000
1.000000 0.173256 0.000000
0.109071 0.216535 0.085431
0.129640 0.216535 0.085185
0.151722 0.216535 0.084890
0.175147 0.216326 0.084450
0.200008 0.216291 0.084112
0.226348 0.216257 0.083438
0.253850 0.216046 0.082855
0.282752 0.215833 0.081902
0.312952 0.215587 0.080899
0.344330 0.215342 0.079661
0.376990 0.215096 0.078251
0.410658 0.214778 0.076512
0.445240 0.214487 0.074537
0.480673 0.214030 0.072220
0.516759 0.213533 0.069589
0.553310 0.213037 0.066493
0.590035 0.212435 0.062893
0.626647 0.211818 0.058789
0.662979 0.211185 0.053914
0.698704 0.210453 0.048162
0.733631 0.209863 0.041205
0.767550 0.209122 0.032227
0.800276 0.208236 0.017190
0.831502 0.207499 0.000000
0.861215 0.206751 0.000000
0.889417 0.206034 0.000000
0.915901 0.205287 0.000000
0.940825 0.204540 0.000000
0.963996 0.203982 0.000000
0.985650 0.203277 0.000000
0.999882 0.202576 0.000000
1.000000 0.202040 0.000000
0.111347 0.243917 0.084643
0.131419 0.243720 0.084399
0.153247 0.243720 0.084142
0.176391 0.243672 0.083709
0.201219 0.243647 0.083365
0.227209 0.243468 0.082690
0.254803 0.243390 0.081948
0.283501 0.243221 0.081114
0.313613 0.242987 0.080121
0.345000 0.242743 0.078827
0.377486 0.242499 0.077357
0.411154 0.242255 0.075749
0.445587 0.241916 0.073670
0.481142 0.241664 0.071413
0.517100 0.241167 0.068597
0.553602 0.240694 0.065501
0.590327 0.240222 0.061854
0.626896 0.239726 0.057527
0.663228 0.239202 0.052625
0.698951 0.238565 0.046705
0.733878 0.237993 0.039379
0.767797 0.237268 0.029626
0.800380 0.236756 0.009117
0.831600 0.236063 0.000000
0.861460 0.235367 0.000000
0.889502 0.234826 0.000000
0.916113 0.234086 0.000000
0.940872 0.233589 0.000000
0.964236 0.232896 0.000000
0.985892 0.232400 0.000000
0.999890 0.231856 0.000000
1.000000 0.231407 0.000000
0.113884 0.272307 0.083650
0.133641 0.272118 0.083589
0.155020 0.272118 0.083162
0.177930 0.272118 0.082894
0.202505 0.272111 0.082398
0.228422 0.271874 0.081816
0.255796 0.271874 0.081114
0.284438 0.271629 0.080121
0.314396 0.271566 0.079129
0.345606 0.271385 0.077821
0.378020 0.271141 0.076332
0.411651 0.270897 0.074702
0.446117 0.270579 0.072643
0.481421 0.270306 0.070196
0.517508 0.269950 0.067549
0.553980 0.269558 0.064209
0.590579 0.269117 0.060483
0.627273 0.268620 0.056127
0.663610 0.268124 0.050990
0.699305 0.267628 0.044815
0.734160 0.267131 0.037059
0.768043 0.266635 0.026252
0.800630 0.266005 0.004162
0.831850 0.265454 0.000000
0.861558 0.264915 0.000000
0.889753 0.264406 0.000000
0.916358 0.263721 0.000000
0.941124 0.263224 0.000000
0.964481 0.262728 0.000000
0.985959 0.262232 0.000000
0.999898 0.261791 0.000000
1.000000 0.261294 0.000000
0.116925 0.301768 0.082658
0.136169 0.301768 0.082412
0.157064 0.301768 0.082154
0.179653 0.301768 0.081675
0.203994 0.301745 0.081319
0.229666 0.301524 0.080655
0.256839 0.301524 0.079912
0.285431 0.301329 0.079066
0.315372 0.301280 0.078026
0.346499 0.301036 0.076766
0.378766 0.300834 0.075218
0.412327 0.300705 0.073457
0.446753 0.300453 0.071377
0.482162 0.300096 0.068896
0.518004 0.299849 0.066060
0.554476 0.299483 0.062720
0.591075 0.299113 0.058843
0.627666 0.298767 0.054331
0.663894 0.298271 0.049021
0.699579 0.297775 0.042484
0.734499 0.297278 0.034067
0.768391 0.296845 0.021112
0.800898 0.296349 0.000000
0.832234 0.295853 0.000000
0.861948 0.295356 0.000000
0.890003 0.294860 0.000000
0.916452 0.294364 0.000000
0.941376 0.293867 0.000000
0.964561 0.293598 0.000000
0.986210 0.293119 0.000000
0.999900 0.292623 0.000000
1.000000 0.292371 0.000000
0.120399 0.332672 0.081350
0.138963 0.332672 0.081106
0.159534 0.332498 0.080846
0.181858 0.332491 0.080350
0.205789 0.332427 0.079853
0.231360 0.332427 0.079357
0.258293 0.332254 0.078569
0.286667 0.332183 0.077577
0.316381 0.332010 0.076584
0.347292 0.331939 0.075277
0.379700 0.331743 0.073765
0.413070 0.331522 0.071968
0.447497 0.331384 0.069818
0.482699 0.331134 0.067264
0.518571 0.330789 0.064295
0.555007 0.330510 0.060916
0.591571 0.330174 0.056912
0.628162 0.329812 0.052141
0.664390 0.329426 0.046499
0.700075 0.328973 0.039489
0.734909 0.328678 0.030038
0.768664 0.328181 0.011420
0.801323 0.327736 0.000000
0.832550 0.327260 0.000000
0.862208 0.326898 0.000000
0.890267 0.326498 0.000000
0.916849 0.326015 0.000000
0.941628 0.325519 0.000000
0.964969 0.325267 0.000000
0.986462 0.324771 0.000000
0.999913 0.324513 0.000000
1.000000 0.324093 0.000000
0.124196 0.364418 0.079861
0.142251 0.364418 0.079609
0.162322 0.364418 0.079284
0.184166 0.364339 0.078861
0.207820 0.364339 0.078365
0.233159 0.364312 0.077763
0.259782 0.364173 0.077002
0.287983 0.364095 0.076009
0.317634 0.363929 0.074954
0.348529 0.363850 0.073544
0.380692 0.363685 0.071976
0.413923 0.363548 0.070156
0.448289 0.363298 0.067897
0.483444 0.363094 0.065318
0.519284 0.362842 0.062326
0.555628 0.362590 0.058734
0.592106 0.362300 0.054559
0.628658 0.361976 0.049581
0.664886 0.361590 0.043373
0.700571 0.361274 0.035605
0.735354 0.360841 0.024281
0.769160 0.360536 0.002775
0.801646 0.360093 0.000000
0.832844 0.359675 0.000000
0.862553 0.359345 0.000000
0.890716 0.358927 0.000000
0.917188 0.358570 0.000000
0.942046 0.358179 0.000000
0.965292 0.357903 0.000000
0.986873 0.357430 0.000000
0.999921 0.357178 0.000000
1.000000 0.356926 0.000000
0.128497 0.397345 0.078042
0.145808 0.397343 0.077790
0.165381 0.397259 0.077538
0.186947 0.397259 0.077041
0.210056 0.397259 0.076545
0.235118 0.397101 0.075804
0.261585 0.397084 0.075047
0.289539 0.397014 0.074146
0.318878 0.396857 0.072969
0.349781 0.396770 0.071637
0.381772 0.396613 0.069963
0.414943 0.396470 0.068029
0.449281 0.396335 0.065761
0.484317 0.396088 0.062933
0.520068 0.395880 0.059845
0.556372 0.395636 0.056166
0.592850 0.395392 0.051613
0.629327 0.395100 0.046224
0.665419 0.394762 0.039534
0.701067 0.394509 0.030474
0.735901 0.394171 0.013035
0.769656 0.393761 0.000000
0.802143 0.393463 0.000000
0.833298 0.393013 0.000000
0.863012 0.392761 0.000000
0.891016 0.392334 0.000000
0.917585 0.392012 0.000000
0.942377 0.391740 0.000000
0.965559 0.391351 0.000000
0.987199 0.391093 0.000000
0.999932 0.390844 0.000000
1.000000 0.390594 0.000000
0.133058 0.431187 0.075962
0.149766 0.431187 0.075710
0.168829 0.431187 0.075318
0.189909 0.431163 0.074962
0.212742 0.430943 0.074446
0.237426 0.430943 0.073701
0.263539 0.430943 0.072937
0.291244 0.430887 0.071945
0.320573 0.430698 0.070645
0.351164 0.430698 0.069262
0.383016 0.430454 0.067588
0.416094 0.430401 0.065570
0.450274 0.430210 0.063127
0.485218 0.430021 0.060317
0.520950 0.429773 0.056930
0.557117 0.429603 0.052976
0.593594 0.429351 0.048090
0.629989 0.429099 0.042045
0.666076 0.428784 0.034291
0.701658 0.428537 0.022762
0.736484 0.428193 0.002390
0.770152 0.427911 0.000000
0.802639 0.427618 0.000000
0.833794 0.427193 0.000000
0.863508 0.426941 0.000000
0.891512 0.426670 0.000000
0.917949 0.426397 0.000000
0.942873 0.425940 0.000000
0.966040 0.425688 0.000000
0.987695 0.425436 0.000000
0.999948 0.425184 0.000000
1.000000 0.424932 0.000000
0.138020 0.465777 0.073481
0.154075 0.465772 0.073229
0.172634 0.465635 0.072874
0.193210 0.465635 0.072378
0.215558 0.465622 0.071863
0.239883 0.465532 0.071118
0.265824 0.465532 0.070353
0.293309 0.465391 0.069306
0.322384 0.465364 0.068061
0.352759 0.465247 0.066501
0.384472 0.465113 0.064760
0.417433 0.464994 0.062586
0.451456 0.464862 0.060010
0.486352 0.464658 0.056990
0.521943 0.464491 0.053300
0.558037 0.464296 0.048935
0.594460 0.464117 0.043617
0.630738 0.463869 0.036801
0.666824 0.463622 0.027179
0.702344 0.463287 0.006175
0.737083 0.463035 0.000000
0.770751 0.462783 0.000000
0.803309 0.462460 0.000000
0.834353 0.462216 0.000000
0.864004 0.461972 0.000000
0.892008 0.461531 0.000000
0.918445 0.461279 0.000000
0.943369 0.461026 0.000000
0.966537 0.460774 0.000000
0.987963 0.460522 0.000000
0.999961 0.460270 0.000000
1.000000 0.460121 0.000000
0.143338 0.500870 0.070645
0.158884 0.500870 0.070393
0.176707 0.500870 0.069905
0.196770 0.500870 0.069521
0.218748 0.500737 0.068890
0.242680 0.500737 0.068146
0.268305 0.500715 0.067265
0.295514 0.500626 0.066218
0.324340 0.500592 0.064839
0.354531 0.500460 0.063240
0.386069 0.500382 0.061393
0.418835 0.500248 0.059002
0.452763 0.500086 0.056316
0.487511 0.499958 0.052991
0.523045 0.499760 0.049003
0.559030 0.499585 0.044129
0.595384 0.499389 0.037950
0.631730 0.499211 0.029393
0.667650 0.498963 0.013124
0.703155 0.498715 0.000000
0.737831 0.498468 0.000000
0.771499 0.498129 0.000000
0.803954 0.497877 0.000000
0.835031 0.497625 0.000000
0.864556 0.497373 0.000000
0.892702 0.497121 0.000000
0.919052 0.496869 0.000000
0.943865 0.496617 0.000000
0.967033 0.496365 0.000000
0.988688 0.496112 0.000000
0.999976 0.495860 0.000000
1.000000 0.495719 0.000000
0.148915 0.536469 0.067305
0.163835 0.536469 0.067053
0.181142 0.536469 0.066556
0.200485 0.536469 0.066060
0.222176 0.536469 0.065549
0.245658 0.536224 0.064685
0.270882 0.536224 0.063673
0.297940 0.536224 0.062626
0.326442 0.536224 0.061137
0.356517 0.535980 0.059459
0.387766 0.535980 0.057395
0.420442 0.535893 0.054872
0.454252 0.535736 0.051881
0.488894 0.535634 0.048186
0.524290 0.535492 0.043633
0.560205 0.535248 0.037957
0.596434 0.535061 0.030098
0.632589 0.534869 0.014911
0.668565 0.534686 0.000000
0.703952 0.534438 0.000000
0.738580 0.534189 0.000000
0.772248 0.533941 0.000000
0.804616 0.533693 0.000000
0.835678 0.533445 0.000000
0.865268 0.533196 0.000000
0.893245 0.532948 0.000000
0.919682 0.532825 0.000000
0.944377 0.532577 0.000000
0.967541 0.532329 0.000000
0.989184 0.532191 0.000000
0.999996 0.531947 0.000000
1.000000 0.531703 0.000000
0.154626 0.572201 0.063461
0.168919 0.572201 0.063087
0.185718 0.572201 0.062712
0.204663 0.572201 0.062204
0.225760 0.572201 0.061459
0.248946 0.572182 0.060570
0.273811 0.571956 0.059577
0.300421 0.571956 0.058285
0.328646 0.571956 0.056764
0.358502 0.571922 0.054866
0.389673 0.571712 0.052558
0.422138 0.571712 0.049864
0.455741 0.571545 0.046373
0.490189 0.571468 0.042144
0.525535 0.571224 0.036721
0.561385 0.571167 0.029289
0.597487 0.570980 0.014736
0.633715 0.570735 0.000000
0.669558 0.570544 0.000000
0.704896 0.570341 0.000000
0.739491 0.570171 0.000000
0.773034 0.569923 0.000000
0.805446 0.569675 0.000000
0.836424 0.569427 0.000000
0.866010 0.569299 0.000000
0.893986 0.569050 0.000000
0.920403 0.568802 0.000000
0.945102 0.568664 0.000000
0.968270 0.568419 0.000000
0.989696 0.568183 0.000000
1.000000 0.567939 0.000000
1.000000 0.567931 0.000000
0.160581 0.607933 0.058978
0.174367 0.607933 0.058619
0.190436 0.607933 0.058230
0.208999 0.607933 0.057489
0.229578 0.607799 0.056749
0.252401 0.607799 0.055948
0.276874 0.607688 0.054795
0.303226 0.607688 0.053307
0.331128 0.607688 0.051621
0.360699 0.607554 0.049565
0.391658 0.607444 0.046871
0.423924 0.607444 0.043625
0.457312 0.607268 0.039579
0.491819 0.607200 0.034280
0.526963 0.607016 0.026843
0.562686 0.606956 0.012621
0.598724 0.606712 0.000000
0.634768 0.606578 0.000000
0.670550 0.606390 0.000000
0.705888 0.606223 0.000000
0.740360 0.605979 0.000000
0.773989 0.605735 0.000000
0.806231 0.605561 0.000000
0.837205 0.605309 0.000000
0.866752 0.605161 0.000000
0.894705 0.605002 0.000000
0.921052 0.604758 0.000000
0.945843 0.604531 0.000000
0.968911 0.604293 0.000000
0.990430 0.604166 0.000000
1.000000 0.604025 0.000000
1.000000 0.603781 0.000000
0.166781 0.643279 0.053630
0.179818 0.643279 0.053236
0.195376 0.643279 0.052739
0.213441 0.643279 0.052127
0.233534 0.643279 0.051227
0.255875 0.643256 0.050211
0.280082 0.643117 0.048923
0.306039 0.643034 0.047288
0.333790 0.643034 0.045319
0.363031 0.643034 0.042796
0.393739 0.642860 0.039625
0.425822 0.642790 0.035548
0.459112 0.642735 0.030069
0.493390 0.642546 0.021880
0.528402 0.642546 0.005887
0.564000 0.642302 0.000000
0.600029 0.642176 0.000000
0.636009 0.642058 0.000000
0.671728 0.641813 0.000000
0.706936 0.641664 0.000000
0.741400 0.641503 0.000000
0.774816 0.641325 0.000000
0.807224 0.641081 0.000000
0.838161 0.640873 0.000000
0.867627 0.640648 0.000000
0.895467 0.640510 0.000000
0.921801 0.640348 0.000000
0.946494 0.640122 0.000000
0.969658 0.639883 0.000000
0.991171 0.639860 0.000000
1.000000 0.639620 0.000000
1.000000 0.639513 0.000000
0.172736 0.678120 0.047383
0.185422 0.678120 0.046981
0.200567 0.678120 0.046240
0.218033 0.677971 0.045571
0.237717 0.677971 0.044578
0.259553 0.677971 0.043302
0.283312 0.677971 0.041664
0.309126 0.677876 0.039692
0.336453 0.677876 0.037245
0.365469 0.677727 0.034030
0.395974 0.677727 0.029648
0.427904 0.677632 0.023308
0.460995 0.677574 0.011466
0.495041 0.677443 0.001537
0.530041 0.677320 0.000000
0.565489 0.677192 0.000000
0.601347 0.677066 0.000000
0.637197 0.676899 0.000000
0.672842 0.676695 0.000000
0.707968 0.676564 0.000000
0.742392 0.676411 0.000000
0.775808 0.676197 0.000000
0.808110 0.675994 0.000000
0.838946 0.675812 0.000000
0.868408 0.675678 0.000000
0.896357 0.675453 0.000000
0.922644 0.675229 0.000000
0.947324 0.675190 0.000000
0.970406 0.674946 0.000000
0.991823 0.674717 0.000000
1.000000 0.674702 0.000000
1.000000 0.674457 0.000000
0.178936 0.712056 0.039568
0.190965 0.712056 0.038914
0.205514 0.712056 0.038164
0.222585 0.712056 0.037252
0.241900 0.712056 0.035975
0.263364 0.712031 0.034312
0.286738 0.711899 0.032212
0.312068 0.711879 0.029394
0.339178 0.711812 0.025510
0.367923 0.711812 0.019755
0.398267 0.711761 0.006776
0.429950 0.711624 0.002013
0.462886 0.711568 0.000000
0.496866 0.711502 0.000000
0.531624 0.711324 0.000000
0.566978 0.711248 0.000000
0.602710 0.711080 0.000000
0.638489 0.710946 0.000000
0.674082 0.710835 0.000000
0.709205 0.710591 0.000000
0.743542 0.710434 0.000000
0.776801 0.710347 0.000000
0.809035 0.710103 0.000000
0.839939 0.709922 0.000000
0.869400 0.709859 0.000000
0.897175 0.709614 0.000000
0.923542 0.709410 0.000000
0.948084 0.709370 0.000000
0.971153 0.709126 0.000000
0.992572 0.708898 0.000000
1.000000 0.708882 0.000000
1.000000 0.708638 0.000000
0.184891 0.745063 0.028666
0.196418 0.745060 0.027912
0.210705 0.744984 0.026749
0.227256 0.744984 0.025152
0.246083 0.744984 0.023109
0.267089 0.744984 0.019949
0.290165 0.744952 0.014825
0.315270 0.744819 0.006028
0.342027 0.744819 0.003286
0.370578 0.744740 0.000000
0.400608 0.744740 0.000000
0.432101 0.744574 0.000000
0.464871 0.744544 0.000000
0.498603 0.744496 0.000000
0.533247 0.744330 0.000000
0.568467 0.744251 0.000000
0.604199 0.744086 0.000000
0.639840 0.744007 0.000000
0.675322 0.743796 0.000000
0.710363 0.743662 0.000000
0.744622 0.743519 0.000000
0.777959 0.743300 0.000000
0.810028 0.743157 0.000000
0.840931 0.743030 0.000000
0.870209 0.742804 0.000000
0.898098 0.742786 0.000000
0.924290 0.742542 0.000000
0.948970 0.742398 0.000000
0.971917 0.742298 0.000000
0.993394 0.742059 0.000000
1.000000 0.742054 0.000000
1.000000 0.741809 0.000000
0.190602 0.776730 0.005175
0.201869 0.776730 0.004739
0.215652 0.776730 0.004014
0.231715 0.776730 0.002888
0.250266 0.776730 0.000000
0.270862 0.776730 0.000000
0.293605 0.776730 0.000000
0.318382 0.776730 0.000000
0.344811 0.776486 0.000000
0.373059 0.776486 0.000000
0.402891 0.776486 0.000000
0.434276 0.776486 0.000000
0.466856 0.776242 0.000000
0.500382 0.776242 0.000000
0.534941 0.776131 0.000000
0.570082 0.775997 0.000000
0.605561 0.775961 0.000000
0.641175 0.775753 0.000000
0.676562 0.775611 0.000000
0.711501 0.775509 0.000000
0.745726 0.775326 0.000000
0.779030 0.775265 0.000000
0.811021 0.775021 0.000000
0.841924 0.774839 0.000000
0.871141 0.774776 0.000000
0.898950 0.774532 0.000000
0.925137 0.774473 0.000000
0.949750 0.774288 0.000000
0.972729 0.774068 0.000000
0.994135 0.774044 0.000000
1.000000 0.773805 0.000000
1.000000 0.773800 0.000000
0.196313 0.807208 0.000000
0.207145 0.807208 0.000000
0.220604 0.807208 0.000000
0.236384 0.807208 0.000000
0.254394 0.807208 0.000000
0.274704 0.807145 0.000000
0.297066 0.807110 0.000000
0.321415 0.806964 0.000000
0.347671 0.806964 0.000000
0.375714 0.806964 0.000000
0.405243 0.806943 0.000000
0.436307 0.806836 0.000000
0.468746 0.806719 0.000000
0.502220 0.806693 0.000000
0.536650 0.806575 0.000000
0.571570 0.806475 0.000000
0.606963 0.806319 0.000000
0.642530 0.806231 0.000000
0.677829 0.806063 0.000000
0.712671 0.805987 0.000000
0.746851 0.805807 0.000000
0.780023 0.805700 0.000000
0.812013 0.805498 0.000000
0.842916 0.805301 0.000000
0.872134 0.805254 0.000000
0.899839 0.805045 0.000000
0.926031 0.804957 0.000000
0.950553 0.804766 0.000000
0.973640 0.804709 0.000000
0.995049 0.804522 0.000000
1.000000 0.804459 0.000000
1.000000 0.804277 0.000000
0.201646 0.836173 0.000000
0.212344 0.836173 0.000000
0.225306 0.836173 0.000000
0.240606 0.836168 0.000000
0.258419 0.836118 0.000000
0.278231 0.836088 0.000000
0.300303 0.835929 0.000000
0.324350 0.835929 0.000000
0.350429 0.835929 0.000000
0.378195 0.835929 0.000000
0.407515 0.835874 0.000000
0.438536 0.835685 0.000000
0.470731 0.835685 0.000000
0.503958 0.835662 0.000000
0.538202 0.835441 0.000000
0.573059 0.835441 0.000000
0.608421 0.835288 0.000000
0.643805 0.835196 0.000000
0.679066 0.835031 0.000000
0.713874 0.834952 0.000000
0.747911 0.834775 0.000000
0.781015 0.834671 0.000000
0.813006 0.834519 0.000000
0.843728 0.834423 0.000000
0.872980 0.834220 0.000000
0.900831 0.834164 0.000000
0.926865 0.833975 0.000000
0.951466 0.833756 0.000000
0.974406 0.833731 0.000000
0.995809 0.833499 0.000000
1.000000 0.833487 0.000000
1.000000 0.833432 0.000000
0.206853 0.863579 0.000000
0.217108 0.863579 0.000000
0.229824 0.863382 0.000000
0.244870 0.863382 0.000000
0.262186 0.863382 0.000000
0.281909 0.863382 0.000000
0.303684 0.863382 0.000000
0.327352 0.863382 0.000000
0.353106 0.863382 0.000000
0.380677 0.863368 0.000000
0.409878 0.863138 0.000000
0.440521 0.863138 0.000000
0.472520 0.863138 0.000000
0.505723 0.863035 0.000000
0.539824 0.862893 0.000000
0.574650 0.862893 0.000000
0.609784 0.862649 0.000000
0.645067 0.862649 0.000000
0.680275 0.862488 0.000000
0.714995 0.862405 0.000000
0.749080 0.862231 0.000000
0.782087 0.862161 0.000000
0.813998 0.861917 0.000000
0.844669 0.861882 0.000000
0.873885 0.861672 0.000000
0.901589 0.861634 0.000000
0.927772 0.861428 0.000000
0.952239 0.861387 0.000000
0.975155 0.861184 0.000000
0.996558 0.861140 0.000000
1.000000 0.860940 0.000000
1.000000 0.860893 0.000000
0.211816 0.889322 0.000000
0.221813 0.889322 0.000000
0.234277 0.889322 0.000000
0.248820 0.889322 0.000000
0.266057 0.889322 0.000000
0.285350 0.889322 0.000000
0.306700 0.889322 0.000000
0.330246 0.889108 0.000000
0.355768 0.889078 0.000000
0.383087 0.889078 0.000000
0.412112 0.889078 0.000000
0.442507 0.889078 0.000000
0.474457 0.888834 0.000000
0.507456 0.888834 0.000000
0.541423 0.888834 0.000000
0.576163 0.888590 0.000000
0.611273 0.888590 0.000000
0.646508 0.888456 0.000000
0.681516 0.888345 0.000000
0.716216 0.888196 0.000000
0.750073 0.888101 0.000000
0.783079 0.887936 0.000000
0.814991 0.887857 0.000000
0.845650 0.887676 0.000000
0.874867 0.887613 0.000000
0.902407 0.887369 0.000000
0.928560 0.887369 0.000000
0.953022 0.887124 0.000000
0.975939 0.887124 0.000000
0.997306 0.886893 0.000000
1.000000 0.886880 0.000000
1.000000 0.886636 0.000000
0.216535 0.913506 0.000000
0.226271 0.913506 0.000000
0.238284 0.913506 0.000000
0.252766 0.913506 0.000000
0.269566 0.913506 0.000000
0.288579 0.913506 0.000000
0.309677 0.913506 0.000000
0.332995 0.913458 0.000000
0.358250 0.913293 0.000000
0.385347 0.913262 0.000000
0.414124 0.913262 0.000000
0.444405 0.913262 0.000000
0.476218 0.913179 0.000000
0.509087 0.913017 0.000000
0.543046 0.913017 0.000000
0.577423 0.912915 0.000000
0.612517 0.912773 0.000000
0.647636 0.912773 0.000000
