gsg/01_Basics/GSG_LUT_Basic_BlueBoost.cube
# GSG LUTs 1.0
# Copyright (c) 2016-2020 Greyscalegorilla
# See EULA for licensing and distribution information
# Converted by Briz LUT Converter
LUT_3D_SIZE 5
DOMAIN_MIN 0.000000 0.000000 0.000000
DOMAIN_MAX 0.903226 0.903226 0.903226
0.000000 0.000000 0.000000
0.225806 0.000189 0.000189
0.451613 0.000599 0.000000
0.677419 0.000654 0.000000
0.903226 0.000339 0.000000
0.000000 0.224231 0.000000
0.225806 0.225806 0.000043
0.451613 0.225806 0.000000
0.677419 0.225806 0.000000
0.903226 0.226051 0.000000
0.000000 0.445287 0.000000
0.225696 0.451613 0.000025
0.451613 0.451613 0.000134
0.677419 0.451613 0.000000
0.903226 0.451613 0.000000
0.000000 0.666430 0.000000
0.220556 0.671637 0.000000
0.451613 0.677419 0.000476
0.677419 0.677419 0.000000
0.903226 0.677419 0.000149
0.000000 0.894632 0.000000
0.207856 0.896958 0.000000
0.451248 0.903105 0.000024
0.677419 0.903226 0.000259
0.903226 0.903226 0.000202
0.000000 0.000000 0.208216
0.225806 0.000000 0.225806
0.451613 0.000238 0.225806
0.677419 0.000258 0.225789
0.903226 0.001011 0.225806
0.000000 0.215396 0.215378
0.224663 0.224856 0.225560
0.451613 0.225806 0.225806
0.677419 0.225896 0.225806
0.903226 0.226051 0.225806
0.000000 0.439853 0.212747
0.220568 0.446893 0.220647
0.451613 0.451613 0.225806
0.677419 0.451613 0.225806
0.903226 0.451615 0.225806
0.000000 0.661924 0.206830
0.212882 0.667486 0.213245
0.451613 0.677419 0.225840
0.677419 0.677419 0.225806
0.903226 0.677419 0.225806
0.000000 0.892838 0.184639
0.192881 0.895120 0.193402
0.448666 0.901805 0.219931
0.677419 0.903226 0.225823
0.903226 0.903226 0.225806
0.000000 0.000000 0.386979
0.197360 0.000000 0.408043
0.451613 0.000268 0.451613
0.677419 0.000260 0.451613
0.903226 0.000730 0.451613
0.000000 0.137045 0.387466
0.153389 0.153689 0.407931
0.451613 0.225806 0.451613
0.677419 0.225835 0.451613
0.903226 0.226042 0.451613
0.000000 0.406785 0.406906
0.075791 0.417315 0.417510
0.448962 0.449705 0.450600
0.677419 0.451613 0.451613
0.903226 0.451613 0.451613
0.000000 0.642436 0.409752
0.143103 0.650648 0.415926
0.441042 0.670477 0.441209
0.677419 0.677419 0.451613
0.903226 0.677419 0.451613
0.000000 0.885769 0.394294
0.033076 0.888443 0.402389
0.427069 0.896273 0.427363
0.677419 0.903226 0.451613
0.903226 0.903226 0.451613
0.000000 0.000000 0.559368
0.171523 0.000000 0.576439
0.410016 0.000000 0.625712
0.677419 0.000323 0.677419
0.903226 0.000394 0.677419
0.000000 0.097785 0.556369
0.103005 0.103413 0.573370
0.398621 0.143300 0.622581
0.677419 0.225806 0.677419
0.903226 0.225870 0.677419
0.000000 0.276740 0.521523
0.000000 0.276354 0.543097
0.327959 0.328484 0.608797
0.677419 0.451613 0.677419
0.903226 0.451613 0.677419
0.000000 0.584261 0.584261
0.000000 0.591303 0.591451
0.255312 0.615584 0.615907
0.674510 0.675376 0.675824
0.903226 0.677419 0.677419
0.000000 0.861302 0.595573
0.000000 0.864991 0.598327
0.290207 0.876899 0.612832
0.661677 0.897578 0.661888
0.903226 0.903226 0.677419
0.000000 0.000000 0.805491
0.151874 0.000000 0.813578
0.395584 0.000000 0.837058
0.649730 0.000000 0.875891
0.903226 0.000488 0.903226
0.000000 0.002779 0.801914
0.006689 0.000239 0.810264
0.370137 0.000150 0.834599
0.643754 0.091715 0.874371
0.903226 0.225849 0.903226
0.000000 0.201847 0.784925
0.000000 0.200010 0.795189
0.228528 0.229605 0.823547
0.615561 0.321793 0.868570
0.903226 0.451613 0.903226
0.000000 0.472622 0.764386
0.000000 0.458129 0.765030
0.000000 0.403264 0.771615
0.470745 0.471835 0.845289
0.903226 0.677419 0.903226
0.000000 0.818465 0.818507
0.000000 0.819539 0.819587
0.000000 0.823915 0.824010
0.326130 0.836646 0.836937
0.901863 0.902272 0.902320
