gsg/01_Basics/GSG_LUT_Basic_GreenShadows.cube
# GSG LUTs 1.0
# Copyright (c) 2016-2020 Greyscalegorilla
# See EULA for licensing and distribution information
# Converted by Briz LUT Converter
LUT_3D_SIZE 8
DOMAIN_MIN 0.000000 0.000000 0.000000
DOMAIN_MAX 0.903226 0.903226 0.903226
0.000000 0.000000 0.000000
0.129064 0.000213 0.000000
0.258616 0.000000 0.000000
0.388901 0.000000 0.000095
0.519918 0.000000 0.000000
0.651912 0.000000 0.000000
0.784584 0.000000 0.000000
0.916854 0.000000 0.000000
0.000244 0.129032 0.000032
0.129123 0.129005 0.000095
0.258829 0.128977 0.000370
0.389145 0.128287 0.000000
0.520179 0.126371 0.000000
0.652314 0.123164 0.000000
0.784828 0.117437 0.000000
0.917098 0.109843 0.000000
0.002143 0.257820 0.000000
0.130584 0.257757 0.000000
0.259837 0.257529 0.000000
0.390052 0.257063 0.000000
0.521202 0.255985 0.000000
0.653110 0.254285 0.000000
0.785624 0.251630 0.000000
0.917610 0.248145 0.000000
0.012045 0.386025 0.000000
0.134787 0.385876 0.000000
0.262335 0.385781 0.000000
0.392170 0.385351 0.000000
0.523115 0.384606 0.000000
0.654937 0.383276 0.000000
0.787142 0.381535 0.000000
0.918681 0.379306 0.000000
0.038426 0.513805 0.000000
0.144749 0.513671 0.000000
0.268060 0.513530 0.000000
0.396510 0.513073 0.000000
0.526764 0.512401 0.000000
0.658025 0.511450 0.000000
0.789622 0.510079 0.000000
0.920446 0.508570 0.000000
0.078695 0.641097 0.000000
0.162877 0.641097 0.000000
0.278474 0.640969 0.000000
0.403750 0.640608 0.000000
0.532433 0.640075 0.000000
0.662540 0.639230 0.000000
0.793032 0.638202 0.000000
0.922675 0.637205 0.000000
0.120509 0.768876 0.000000
0.187261 0.768821 0.000000
0.293143 0.768632 0.000000
0.413717 0.768388 0.000000
0.539958 0.768089 0.000000
0.668195 0.767443 0.000000
0.797038 0.766868 0.000000
0.924684 0.766329 0.000000
0.157375 0.898074 0.000000
0.212901 0.897853 0.000000
0.309510 0.897830 0.000000
0.424931 0.897609 0.000000
0.547773 0.897472 0.000000
0.673606 0.897184 0.000000
0.800110 0.897079 0.000000
0.925275 0.897074 0.000000
0.000977 0.000032 0.127992
0.129521 0.000000 0.128020
0.258860 0.000000 0.127756
0.389050 0.000000 0.127748
0.520059 0.000000 0.127268
0.652081 0.000000 0.126696
0.784663 0.000000 0.125770
0.916877 0.000000 0.124353
0.001469 0.129028 0.127776
0.129982 0.128847 0.127563
0.259289 0.128922 0.127524
0.389389 0.128152 0.127262
0.520423 0.126381 0.126889
0.652439 0.123080 0.126252
0.785072 0.117527 0.125265
0.917125 0.109648 0.123837
0.003899 0.257757 0.126795
0.131355 0.257714 0.126932
0.260153 0.257560 0.126708
0.390213 0.257063 0.126420
0.521446 0.256066 0.125862
0.653418 0.254266 0.125030
0.785825 0.251451 0.123982
0.917839 0.247981 0.122348
0.014599 0.386025 0.124825
0.135785 0.385876 0.124757
0.262959 0.385781 0.124753
0.392535 0.385351 0.124097
0.523453 0.384539 0.123508
0.655255 0.383276 0.122545
0.787372 0.381533 0.121213
0.918926 0.379171 0.119324
0.042886 0.513790 0.120793
0.146370 0.513561 0.120644
0.269119 0.513443 0.120278
0.397030 0.513073 0.119749
0.527252 0.512451 0.118861
0.658438 0.511408 0.117610
0.789991 0.510051 0.115832
0.920690 0.508560 0.113318
0.083012 0.641097 0.112245
0.164864 0.641097 0.111879
0.279609 0.640852 0.111592
0.404594 0.640608 0.110698
0.532989 0.640004 0.109494
0.663041 0.639199 0.107465
0.793501 0.638202 0.104812
0.922919 0.637205 0.101371
0.123827 0.768828 0.094578
0.189493 0.768821 0.094277
0.294541 0.768632 0.093548
0.414822 0.768369 0.092112
0.540616 0.768089 0.090004
0.668773 0.767443 0.086730
0.797362 0.766868 0.082620
0.925024 0.766379 0.076879
0.161130 0.898046 0.052296
0.215231 0.897853 0.052100
0.311230 0.897830 0.050470
0.426096 0.897609 0.047165
0.548652 0.897472 0.042303
0.674289 0.897184 0.034889
0.800606 0.897074 0.025607
0.925743 0.897095 0.013800
0.009059 0.000063 0.251952
0.132900 0.000032 0.251865
0.260679 0.000000 0.251707
0.390334 0.000000 0.251330
0.521202 0.000000 0.250731
0.653047 0.000000 0.250085
0.785379 0.000000 0.249062
0.917592 0.000000 0.247761
0.010194 0.129001 0.251455
0.133377 0.128981 0.251432
0.261136 0.128876 0.251211
0.390678 0.127991 0.250888
0.521544 0.126228 0.250319
0.653365 0.122841 0.249560
0.785825 0.116975 0.248520
0.917846 0.109241 0.247233
0.014637 0.257623 0.250179
0.135472 0.257593 0.250118
0.262405 0.257513 0.249923
0.391758 0.256983 0.249628
0.522557 0.255985 0.249046
0.654441 0.254197 0.248215
0.786664 0.251436 0.247186
0.918452 0.247920 0.245744
0.028048 0.385876 0.247706
0.140946 0.385876 0.247681
0.265632 0.385743 0.247519
0.394431 0.385235 0.247108
0.524849 0.384483 0.246501
0.656412 0.383243 0.245595
0.788356 0.381393 0.244395
0.919721 0.379156 0.242921
0.057520 0.513561 0.243696
0.152539 0.513561 0.243604
0.272211 0.513410 0.243310
0.399264 0.513073 0.242864
0.528858 0.512340 0.242215
0.659798 0.511396 0.241118
0.791005 0.510026 0.239817
0.921483 0.508474 0.237922
0.094857 0.641097 0.236873
0.171410 0.641097 0.236851
0.283545 0.640852 0.236509
0.407122 0.640575 0.235960
0.534915 0.639952 0.235003
0.664500 0.639199 0.233785
0.794596 0.638202 0.232140
0.923842 0.637126 0.229948
0.134857 0.768821 0.225923
0.196530 0.768821 0.225580
0.299052 0.768622 0.225268
0.417866 0.768341 0.224537
0.542843 0.767991 0.223382
0.670473 0.767376 0.221747
0.798811 0.766868 0.219628
0.925985 0.766342 0.216907
0.170986 0.897853 0.207060
0.222699 0.897853 0.206816
0.316042 0.897830 0.206285
0.429424 0.897609 0.205179
0.551155 0.897460 0.203686
0.676150 0.897182 0.201511
0.801938 0.897079 0.198728
0.926781 0.897095 0.195134
0.042562 0.000488 0.368419
0.145335 0.000082 0.368289
0.267227 0.000000 0.368175
0.394706 0.000000 0.367687
0.524430 0.000000 0.367121
0.655711 0.000000 0.366222
0.787703 0.000000 0.365056
0.919399 0.000000 0.363559
0.044707 0.129032 0.367899
0.146383 0.129039 0.367769
0.267805 0.128757 0.367504
0.395152 0.127807 0.367167
0.524930 0.125892 0.366450
0.656177 0.122366 0.365564
0.787984 0.116526 0.364488
0.919658 0.108702 0.362826
0.050982 0.257576 0.366364
0.148859 0.257576 0.366159
0.269405 0.257332 0.365985
0.396573 0.256912 0.365511
0.526144 0.255741 0.364938
0.657253 0.254000 0.363994
0.788994 0.251156 0.362795
0.920391 0.247730 0.361298
0.065281 0.385876 0.363475
0.155314 0.385789 0.363346
0.273378 0.385632 0.363102
0.399535 0.385179 0.362649
0.528664 0.384362 0.361971
0.659372 0.383091 0.361015
0.790770 0.381291 0.359767
0.921654 0.379062 0.358242
0.088736 0.513561 0.358888
0.167594 0.513561 0.358762
0.280744 0.513317 0.358517
0.404882 0.512876 0.358059
0.532980 0.512279 0.357296
0.662946 0.511255 0.356406
0.793589 0.509835 0.355039
0.923515 0.508338 0.353413
0.120649 0.641097 0.352160
0.187048 0.641002 0.352160
0.292748 0.640852 0.351867
0.413284 0.640460 0.351243
0.539459 0.639876 0.350451
0.668045 0.639087 0.349373
0.797389 0.638099 0.347899
0.925953 0.637120 0.346079
0.156478 0.768821 0.342377
0.211816 0.768821 0.342224
0.308847 0.768577 0.341943
0.424559 0.768333 0.341342
0.547721 0.767871 0.340451
0.674182 0.767356 0.339161
0.801673 0.766825 0.337432
0.928206 0.766360 0.335413
0.190414 0.897853 0.327931
0.237478 0.897853 0.327786
0.326098 0.897830 0.327305
0.436536 0.897594 0.326575
0.556279 0.897353 0.325528
0.679997 0.897145 0.324005
0.804994 0.897086 0.322099
0.928896 0.897097 0.319626
0.099626 0.000740 0.476277
0.172949 0.000489 0.476151
0.282579 0.000000 0.476000
0.404884 0.000000 0.475496
0.531961 0.000000 0.474869
0.661696 0.000000 0.473998
0.792441 0.000000 0.472761
0.923234 0.000000 0.471291
0.101264 0.129245 0.475647
0.174154 0.129017 0.475618
0.283299 0.128753 0.475284
0.405404 0.127655 0.474869
0.532473 0.125645 0.474243
0.662047 0.121866 0.473363
0.792832 0.116019 0.472136
0.923506 0.108222 0.470656
0.105952 0.257670 0.474016
0.176995 0.257550 0.473890
0.285335 0.257332 0.473715
0.407091 0.256783 0.473271
0.533916 0.255606 0.472608
0.663224 0.253639 0.471628
0.793848 0.250912 0.470408
0.924256 0.247484 0.468912
0.116383 0.385876 0.471078
0.183663 0.385771 0.470960
0.289637 0.385537 0.470716
0.410388 0.385077 0.470300
0.536642 0.384239 0.469599
0.665618 0.382884 0.468634
0.795667 0.381047 0.467387
0.925546 0.378912 0.465897
0.134330 0.513561 0.466558
0.195666 0.513500 0.466375
0.297687 0.513302 0.466131
0.416222 0.512828 0.465720
0.541248 0.512157 0.465060
0.669361 0.511080 0.464059
0.798603 0.509807 0.462815
0.927542 0.508321 0.461271
0.159836 0.641010 0.460220
0.214142 0.640852 0.460018
0.309921 0.640725 0.459774
0.424909 0.640364 0.459286
0.547968 0.639809 0.458592
0.674552 0.638955 0.457578
0.802481 0.638017 0.456341
0.929922 0.637107 0.454669
0.190090 0.768821 0.451429
0.237291 0.768632 0.451282
0.325881 0.768577 0.451038
0.436343 0.768295 0.450549
0.556487 0.767844 0.449817
0.680829 0.767356 0.448683
0.806773 0.766678 0.447339
0.932167 0.766379 0.445598
0.219544 0.897853 0.439576
0.261027 0.897830 0.439561
0.342847 0.897830 0.439202
0.448334 0.897586 0.438669
0.564887 0.897341 0.437806
0.686648 0.897097 0.436691
0.809961 0.897097 0.435118
0.932654 0.897318 0.433377
0.158573 0.001292 0.579133
0.212383 0.000881 0.579133
0.307281 0.000000 0.578888
0.421689 0.000000 0.578497
0.544532 0.000000 0.577912
0.671290 0.000000 0.577123
0.800201 0.000000 0.576135
0.929497 0.000000 0.574903
0.159923 0.129489 0.578613
0.213306 0.129168 0.578400
0.308002 0.128740 0.578349
0.422392 0.127526 0.577901
0.544953 0.125167 0.577363
0.671786 0.121241 0.576618
0.800631 0.115206 0.575629
0.929741 0.107795 0.574385
0.163820 0.257757 0.577116
0.216388 0.257576 0.577116
0.310264 0.257285 0.576872
0.424160 0.256599 0.576480
0.546485 0.255408 0.575971
0.673054 0.253316 0.575177
0.801621 0.250486 0.574154
0.930391 0.247237 0.572902
0.171854 0.385728 0.574706
0.222518 0.385716 0.574602
0.314756 0.385427 0.574365
0.427474 0.384899 0.573994
0.549232 0.384011 0.573435
0.675381 0.382640 0.572655
0.803449 0.380803 0.571659
0.931734 0.378791 0.570482
0.185411 0.513443 0.570935
0.233306 0.513317 0.570882
0.322439 0.513073 0.570680
0.433331 0.512679 0.570294
0.553862 0.511933 0.569714
0.679119 0.510920 0.568954
0.806316 0.509591 0.567989
0.933554 0.508241 0.566765
0.205483 0.640852 0.565890
0.249266 0.640852 0.565788
0.334041 0.640608 0.565544
0.441973 0.640238 0.565232
0.560554 0.639631 0.564696
0.684202 0.638863 0.563956
0.810048 0.637914 0.563015
0.935801 0.637103 0.561804
0.229871 0.768632 0.559435
0.269487 0.768577 0.559285
0.348855 0.768388 0.559123
0.452798 0.768122 0.558738
0.568675 0.767844 0.558221
0.690244 0.767198 0.557438
0.813951 0.766666 0.556446
0.937658 0.766379 0.555253
0.253945 0.897830 0.551136
0.289847 0.897830 0.551121
0.364173 0.897830 0.550892
0.463881 0.897586 0.550546
0.576553 0.897341 0.549984
0.695411 0.897125 0.549233
0.816616 0.897097 0.548342
0.937609 0.897339 0.547121
0.208909 0.001166 0.688078
0.251423 0.000977 0.688078
0.334498 0.000000 0.688022
0.441034 0.000000 0.687812
0.558951 0.000000 0.687436
0.682666 0.000000 0.687046
0.809193 0.000000 0.686368
0.936534 0.000000 0.685775
0.210100 0.129252 0.687833
0.252183 0.129199 0.687826
0.335262 0.128493 0.687711
0.441601 0.127120 0.687510
0.559471 0.124483 0.687097
0.683031 0.120373 0.686675
0.809462 0.114129 0.686106
0.936779 0.106963 0.685508
0.212754 0.257576 0.686997
0.254881 0.257454 0.686997
0.337110 0.257071 0.686842
0.443154 0.256276 0.686684
0.560758 0.255008 0.686333
0.684194 0.252918 0.685979
0.810425 0.250007 0.685357
0.937322 0.246817 0.684749
0.218866 0.385632 0.685730
0.260007 0.385537 0.685675
0.340991 0.385254 0.685540
0.446430 0.384726 0.685386
0.563402 0.383723 0.685015
0.686423 0.382321 0.684698
0.812029 0.380542 0.684167
0.938360 0.378465 0.683484
0.229340 0.513317 0.683879
0.268809 0.513073 0.683690
0.347977 0.512922 0.683635
0.451688 0.512501 0.683417
0.567666 0.511696 0.683146
0.689633 0.510675 0.682884
0.814524 0.509367 0.682371
0.939864 0.508094 0.681870
0.244791 0.640644 0.681437
0.281915 0.640608 0.681409
0.358089 0.640364 0.681341
0.459370 0.640053 0.681147
0.573620 0.639463 0.680876
0.694155 0.638710 0.680569
0.817692 0.637835 0.680121
0.941500 0.637103 0.679604
0.263689 0.768577 0.678724
0.298162 0.768425 0.678724
0.370539 0.768333 0.678724
0.468723 0.768089 0.678480
0.580593 0.767606 0.678278
0.699212 0.767112 0.677998
0.820790 0.766623 0.677692
0.942526 0.766379 0.677207
0.281799 0.897830 0.675833
0.314030 0.897830 0.675833
0.382905 0.897604 0.675833
0.477631 0.897586 0.675608
0.586786 0.897341 0.675534
0.703025 0.897115 0.675290
0.822218 0.897097 0.674909
0.941408 0.897562 0.674559
0.229595 0.000000 0.822600
0.268675 0.000000 0.822408
0.347365 0.000000 0.822600
0.450715 0.000000 0.822600
0.566292 0.000000 0.822600
0.688322 0.000000 0.822821
0.813570 0.000000 0.822821
0.939638 0.000000 0.823063
0.230357 0.128564 0.822600
0.269383 0.128264 0.822600
0.347854 0.127320 0.822600
0.451087 0.125800 0.822600
0.566781 0.122901 0.822714
0.688661 0.118471 0.822821
0.813821 0.112357 0.823041
0.939680 0.105543 0.823267
0.232419 0.257105 0.822821
0.271170 0.256861 0.822821
0.349326 0.256500 0.822821
0.452267 0.255574 0.822821
0.567793 0.254196 0.823044
0.689567 0.252004 0.823065
0.814416 0.249228 0.823286
0.939927 0.246262 0.823512
0.236740 0.385293 0.823286
0.274834 0.385058 0.823286
0.352327 0.384776 0.823286
0.454796 0.384142 0.823375
0.569815 0.383153 0.823530
0.691196 0.381763 0.823615
0.815552 0.379916 0.823845
0.940659 0.378180 0.824202
0.244330 0.512841 0.824121
0.281495 0.512828 0.824227
0.357498 0.512557 0.824236
0.458739 0.512054 0.824353
0.572929 0.511302 0.824459
0.693614 0.510199 0.824662
0.817212 0.509050 0.824936
0.941298 0.507850 0.825294
0.255701 0.640364 0.825799
0.291200 0.640296 0.825799
0.365058 0.640120 0.825814
0.464571 0.639641 0.826035
0.577358 0.639143 0.826157
0.696766 0.638354 0.826472
0.819252 0.637591 0.826744
0.941928 0.636860 0.827230
0.269180 0.768333 0.828388
0.302816 0.768162 0.828388
0.374136 0.768089 0.828456
0.471234 0.767844 0.828632
0.582142 0.767359 0.828874
0.699841 0.766874 0.829151
0.820588 0.766581 0.829585
0.941299 0.766533 0.830118
0.280132 0.897586 0.832282
0.312658 0.897586 0.832282
0.381555 0.897586 0.832483
0.476348 0.897341 0.832725
0.585228 0.897341 0.832969
0.701018 0.897097 0.833235
0.819565 0.897268 0.833878
0.937925 0.897783 0.834430
