gsg/01_Basics/GSG_LUT_Basic_WarmlCreamyWhites.cube
# GSG LUTs 1.0
# Copyright (c) 2016-2020 Greyscalegorilla
# See EULA for licensing and distribution information
# Converted by Briz LUT Converter
LUT_3D_SIZE 8
DOMAIN_MIN 0.000000 0.000000 0.000000
DOMAIN_MAX 0.903226 0.903226 0.903226
0.023443 0.022466 0.020024
0.154311 0.018677 0.012809
0.292568 0.000000 0.000000
0.432014 0.000000 0.000000
0.567781 0.000000 0.000000
0.693860 0.000000 0.000000
0.803104 0.000000 0.000000
0.886132 0.000000 0.000000
0.038718 0.150065 0.011769
0.156568 0.149608 0.000000
0.293576 0.148568 0.000000
0.432664 0.146615 0.000000
0.568270 0.143819 0.000000
0.694190 0.140308 0.000000
0.803427 0.136428 0.000000
0.886376 0.132842 0.000000
0.064374 0.284139 0.000000
0.163283 0.283958 0.000000
0.296782 0.283469 0.000000
0.434693 0.282642 0.000000
0.569680 0.281390 0.000000
0.695230 0.279829 0.000000
0.804388 0.278174 0.000000
0.887172 0.276701 0.000000
0.092505 0.419859 0.000000
0.174457 0.419615 0.000000
0.302319 0.419371 0.000000
0.438271 0.418882 0.000000
0.572317 0.418024 0.000000
0.697460 0.417076 0.000000
0.806129 0.416080 0.000000
0.888692 0.415084 0.000000
0.120446 0.551656 0.000000
0.189279 0.551538 0.000000
0.310251 0.551382 0.000000
0.443387 0.551001 0.000000
0.575966 0.550374 0.000000
0.700345 0.549671 0.000000
0.808631 0.548907 0.000000
0.890910 0.548363 0.000000
0.146457 0.674095 0.000000
0.205522 0.674095 0.000000
0.319554 0.673851 0.000000
0.449541 0.673607 0.000000
0.580501 0.673195 0.000000
0.703872 0.672574 0.000000
0.811600 0.672055 0.000000
0.893631 0.671566 0.000000
0.169168 0.780448 0.000000
0.221332 0.780259 0.000000
0.329102 0.780204 0.000000
0.455890 0.779960 0.000000
0.585246 0.779527 0.000000
0.707598 0.779105 0.000000
0.814770 0.778592 0.000000
0.896527 0.778250 0.000000
0.186624 0.861003 0.000000
0.234204 0.861003 0.000000
0.337282 0.860759 0.000000
0.461521 0.860514 0.000000
0.589346 0.860270 0.000000
0.710937 0.859782 0.000000
0.817543 0.859349 0.000000
0.899029 0.859049 0.000000
0.029217 0.025216 0.135224
0.155044 0.021978 0.134708
0.292812 0.000608 0.132940
0.432258 0.000000 0.129513
0.567907 0.000000 0.124519
0.693946 0.000000 0.117972
0.803348 0.000000 0.110513
0.886132 0.000000 0.103446
0.041983 0.150309 0.134708
0.157273 0.149876 0.134192
0.293820 0.148821 0.132255
0.432908 0.146880 0.128808
0.568315 0.144079 0.123772
0.694240 0.140630 0.117219
0.803592 0.136746 0.109750
0.886407 0.133118 0.102472
0.066328 0.284383 0.132696
0.163937 0.284139 0.132041
0.297026 0.283697 0.130222
0.434916 0.282751 0.126740
0.569798 0.281520 0.121556
0.695474 0.279956 0.114818
0.804583 0.278215 0.107063
0.887354 0.276775 0.099752
0.093694 0.419859 0.129024
0.175091 0.419848 0.128422
0.302704 0.419385 0.126435
0.438465 0.418882 0.122824
0.572375 0.418150 0.117462
0.697464 0.417177 0.110364
0.806193 0.416080 0.102296
0.888913 0.415228 0.094392
0.121328 0.551782 0.123448
0.189769 0.551656 0.122825
0.310511 0.551412 0.120808
0.443592 0.551050 0.116990
0.576160 0.550496 0.111215
0.700400 0.549829 0.103701
0.808670 0.549096 0.094817
0.891049 0.548363 0.086019
0.147221 0.674253 0.116370
0.206010 0.674095 0.115620
0.319804 0.674008 0.113379
0.449699 0.673619 0.109203
0.580630 0.673195 0.102990
0.703945 0.672686 0.094540
0.811746 0.672074 0.084531
0.893774 0.671566 0.074311
0.169852 0.780448 0.107945
0.221814 0.780448 0.107142
0.329357 0.780259 0.104716
0.456135 0.779994 0.100213
0.585435 0.779618 0.093183
0.707736 0.779121 0.083582
0.814831 0.778739 0.071547
0.896580 0.778250 0.058450
0.187136 0.861003 0.099898
0.234647 0.861003 0.099148
0.337527 0.860759 0.096448
0.461668 0.860664 0.091321
0.589471 0.860270 0.083438
0.711088 0.859868 0.072197
0.817616 0.859538 0.057053
0.899072 0.859049 0.036850
0.041467 0.031998 0.256410
0.157084 0.029714 0.256166
0.293789 0.020694 0.255370
0.432785 0.000000 0.253874
0.568302 0.000000 0.251614
0.694231 0.000000 0.248895
0.803592 0.000000 0.245951
0.886382 0.000000 0.243255
0.050881 0.151105 0.256166
0.159289 0.150852 0.255918
0.294844 0.149827 0.255103
0.433502 0.147891 0.253448
0.568807 0.145083 0.251350
0.694679 0.141632 0.248564
0.803838 0.137759 0.245641
0.886707 0.134318 0.243003
0.071826 0.284737 0.255189
0.165797 0.284627 0.254939
0.298015 0.284104 0.254127
0.435511 0.283207 0.252653
0.570286 0.281911 0.250362
0.695735 0.280392 0.247622
0.804840 0.278703 0.244650
0.887613 0.277221 0.241977
0.097459 0.420103 0.253630
0.176869 0.420094 0.253362
0.303575 0.419754 0.252437
0.439105 0.419150 0.250912
0.572873 0.418394 0.248746
0.697876 0.417426 0.245911
0.806531 0.416360 0.242948
0.889157 0.415495 0.240271
0.124109 0.551900 0.251219
0.191295 0.551813 0.250881
0.311403 0.551634 0.250021
0.444151 0.551245 0.248501
0.576503 0.550634 0.246238
0.700742 0.549935 0.243446
0.808999 0.549175 0.240409
0.891307 0.548608 0.237726
0.149451 0.674339 0.248163
0.207507 0.674331 0.247910
0.320759 0.674095 0.247086
0.450274 0.673826 0.245445
0.581021 0.673362 0.243202
0.704360 0.672818 0.240290
0.812021 0.672299 0.237246
0.894025 0.671705 0.234519
0.171673 0.780503 0.244988
0.223091 0.780503 0.244701
0.330312 0.780412 0.243793
0.456748 0.780131 0.242215
0.585783 0.779742 0.239852
0.708091 0.779256 0.236952
0.815150 0.778762 0.233838
0.896826 0.778310 0.231063
0.188664 0.861247 0.242051
0.235924 0.861008 0.241790
0.338311 0.861003 0.240873
0.462193 0.860759 0.239316
0.589867 0.860421 0.236914
0.711414 0.860026 0.233976
0.818018 0.859538 0.230820
0.899317 0.859278 0.227967
0.056434 0.041010 0.378904
0.160755 0.039269 0.378660
0.295530 0.033596 0.378172
0.433967 0.017952 0.377253
0.569097 0.000000 0.375897
0.694923 0.000000 0.374201
0.804081 0.000000 0.372311
0.886864 0.000000 0.370805
0.063385 0.152814 0.378660
0.162952 0.152543 0.378488
0.296538 0.151538 0.377989
0.434538 0.149608 0.377009
0.569605 0.146806 0.375692
0.695281 0.143377 0.373957
0.804360 0.139549 0.372212
0.887131 0.136125 0.370570
0.080712 0.285454 0.378133
0.169238 0.285360 0.377922
0.299744 0.284843 0.377400
0.436594 0.283986 0.376447
0.571019 0.282693 0.375113
0.696426 0.281184 0.373430
0.805335 0.279506 0.371573
0.888088 0.278025 0.370012
0.103832 0.420592 0.377100
0.180098 0.420534 0.376893
0.305281 0.420256 0.376371
0.440167 0.419650 0.375413
0.573645 0.418882 0.374066
0.698449 0.417918 0.372365
0.807105 0.416866 0.370507
0.889645 0.415994 0.368996
0.128906 0.552271 0.375652
0.194262 0.552193 0.375454
0.313032 0.552007 0.374903
0.445203 0.551566 0.373913
0.577321 0.551010 0.372532
0.701396 0.550317 0.370801
0.809534 0.549584 0.369010
0.891809 0.548861 0.367359
0.153273 0.674583 0.373713
0.210067 0.674583 0.373551
0.322313 0.674385 0.373051
0.451308 0.674095 0.372062
0.581787 0.673636 0.370735
0.704943 0.673084 0.369010
0.812509 0.672543 0.367120
0.894422 0.672055 0.365599
0.174973 0.780748 0.371822
0.225610 0.780748 0.371578
0.331819 0.780577 0.371065
0.457729 0.780304 0.370105
0.586540 0.779987 0.368766
0.708722 0.779505 0.367025
0.815747 0.779012 0.365135
0.897286 0.778557 0.363479
0.191721 0.861342 0.370082
0.238161 0.861247 0.369837
0.339761 0.861247 0.369343
0.463234 0.861003 0.368311
0.590657 0.860560 0.366945
0.711978 0.860270 0.365135
0.818509 0.859782 0.363394
0.899793 0.859316 0.361738
0.071826 0.050935 0.497909
0.165748 0.049651 0.497774
0.298003 0.045467 0.497390
0.435464 0.036411 0.496688
0.570223 0.011342 0.495711
0.695782 0.000000 0.494458
0.804813 0.000000 0.493206
0.887597 0.000000 0.492174
0.077230 0.155138 0.497774
0.167867 0.154782 0.497662
0.298981 0.153788 0.497257
0.436197 0.151979 0.496563
0.570728 0.149238 0.495584
0.696160 0.145884 0.494408
0.805102 0.142149 0.493151
0.887843 0.138833 0.491952
0.091464 0.286581 0.497390
0.173987 0.286458 0.497176
0.302122 0.285966 0.496870
0.438143 0.285090 0.496135
0.572122 0.283865 0.495161
0.697289 0.282293 0.493958
0.806074 0.280626 0.492703
0.888730 0.279149 0.491549
0.112094 0.421278 0.496642
0.184450 0.421220 0.496505
0.307634 0.420913 0.496122
0.441664 0.420377 0.495393
0.574762 0.419554 0.494444
0.699337 0.418591 0.493204
0.807782 0.417570 0.491928
0.890260 0.416689 0.490798
0.135350 0.552759 0.495528
0.198296 0.552698 0.495406
0.315334 0.552454 0.495023
0.446664 0.552064 0.494323
0.578408 0.551507 0.493330
0.702262 0.550827 0.492134
0.810282 0.550087 0.490869
0.892434 0.549352 0.489683
0.158644 0.675030 0.494214
0.213759 0.674985 0.494117
0.324501 0.674817 0.493714
0.452747 0.674495 0.492993
0.582906 0.674030 0.492056
0.705825 0.673487 0.490824
0.813277 0.672892 0.489501
0.895088 0.672394 0.488365
0.179585 0.781181 0.492717
0.229015 0.781077 0.492717
0.333894 0.780958 0.492301
0.459153 0.780710 0.491612
0.587614 0.780259 0.490625
0.709596 0.779805 0.489439
0.816409 0.779304 0.488085
0.897910 0.778983 0.486983
0.195703 0.861735 0.491579
0.241340 0.861617 0.491453
0.341949 0.861491 0.491061
0.464724 0.861247 0.490423
0.591731 0.860942 0.489380
0.712850 0.860514 0.488195
0.819161 0.860026 0.486845
0.900409 0.859771 0.485709
0.086573 0.060373 0.608437
0.171849 0.059364 0.608350
0.300943 0.056095 0.608106
0.437449 0.049557 0.607523
0.571602 0.037615 0.606759
0.696877 0.003187 0.605751
0.805723 0.000000 0.604742
0.888345 0.000000 0.603954
0.090862 0.157942 0.608350
0.173759 0.157591 0.608312
0.301925 0.156608 0.607918
0.438053 0.154809 0.607373
0.572101 0.152116 0.606641
0.697282 0.148883 0.605664
0.806039 0.145212 0.604687
0.888608 0.141996 0.603733
0.103037 0.287919 0.608065
0.179597 0.287779 0.607862
0.305052 0.287274 0.607617
0.439993 0.286433 0.607113
0.573537 0.285159 0.606364
0.698349 0.283665 0.605379
0.806970 0.281973 0.604394
0.889496 0.280533 0.603477
0.121391 0.422153 0.607373
0.189799 0.422023 0.607365
0.310522 0.421763 0.607059
0.443591 0.421246 0.606488
0.576088 0.420424 0.605736
0.700412 0.419426 0.604762
0.808748 0.418429 0.603744
0.891032 0.417491 0.602892
0.142920 0.553366 0.606641
0.203114 0.553324 0.606515
0.318161 0.553080 0.606183
0.448627 0.552683 0.605664
0.579787 0.552123 0.604866
0.703304 0.551414 0.603953
0.811162 0.550665 0.602960
0.893257 0.550073 0.602081
0.164843 0.675530 0.605506
0.218225 0.675418 0.605495
0.327182 0.675285 0.605175
0.454638 0.674998 0.604626
0.584293 0.674524 0.603846
0.706894 0.673972 0.602876
0.814163 0.673385 0.601866
0.895926 0.672846 0.600979
0.185045 0.781480 0.604478
0.233030 0.781480 0.604376
0.336544 0.781326 0.604010
0.460987 0.781067 0.603514
0.588958 0.780710 0.602760
0.710614 0.780247 0.601842
0.817280 0.779756 0.600764
0.898769 0.779294 0.599852
0.200653 0.861980 0.603481
0.245172 0.861980 0.603456
0.344438 0.861852 0.603107
0.466472 0.861588 0.602597
0.593086 0.861247 0.601764
0.713868 0.860815 0.600849
0.820131 0.860447 0.599790
0.901186 0.860026 0.598985
0.099547 0.068888 0.704289
0.177975 0.068124 0.704289
0.304094 0.065343 0.704045
0.439434 0.059929 0.703557
0.573099 0.051080 0.702851
0.698042 0.036512 0.702091
0.806724 0.000000 0.701359
0.889257 0.000000 0.700626
0.103147 0.160793 0.704289
0.179747 0.160528 0.704100
0.305053 0.159553 0.703854
0.440085 0.157824 0.703483
0.573590 0.155168 0.702824
0.698425 0.151996 0.702076
0.806979 0.148431 0.701170
0.889551 0.145260 0.700403
0.113733 0.289393 0.704045
0.185483 0.289197 0.703842
0.308204 0.288701 0.703587
0.442089 0.287882 0.703204
0.574997 0.286644 0.702580
0.699554 0.285147 0.701807
0.807967 0.283458 0.700911
0.890360 0.281973 0.700138
0.130374 0.423128 0.703483
0.195207 0.422939 0.703346
0.313537 0.422661 0.703093
0.445539 0.422120 0.702698
0.577575 0.421369 0.702054
0.701601 0.420375 0.701298
0.809659 0.419328 0.700416
0.891861 0.418412 0.699661
0.150399 0.554072 0.702824
0.208150 0.553952 0.702698
0.321127 0.553707 0.702454
0.450518 0.553355 0.702043
0.581283 0.552789 0.701359
0.704486 0.552059 0.700545
0.812146 0.551315 0.699676
0.894082 0.550665 0.698928
0.171287 0.676049 0.701934
0.222848 0.676016 0.701847
0.330069 0.675799 0.701603
0.456582 0.675501 0.701127
0.585651 0.675062 0.700469
0.708000 0.674498 0.699680
0.815160 0.673878 0.698795
0.896784 0.673374 0.698042
0.190547 0.781969 0.700926
0.237220 0.781956 0.700920
0.339256 0.781724 0.700667
0.462938 0.781480 0.700172
0.590416 0.781159 0.699552
0.711789 0.780708 0.698772
0.818268 0.780214 0.697950
0.899530 0.779760 0.697212
0.205779 0.862468 0.700161
0.249139 0.862413 0.700138
0.347117 0.862224 0.699894
0.468354 0.861980 0.699405
0.594436 0.861707 0.698776
0.715024 0.861247 0.697948
0.821005 0.860759 0.697169
0.902005 0.860510 0.696430
0.109307 0.075631 0.777069
0.182945 0.074675 0.777069
0.306763 0.072331 0.776825
0.441104 0.067533 0.776336
0.574363 0.060081 0.775848
0.699059 0.048840 0.775115
0.807549 0.031870 0.774383
0.890039 0.000000 0.773652
0.112821 0.163315 0.777069
0.184881 0.163036 0.776848
0.307771 0.162031 0.776768
0.441845 0.160321 0.776336
0.574866 0.157753 0.775732
0.699416 0.154568 0.775097
0.807816 0.151128 0.774361
0.890286 0.148124 0.773650
0.122390 0.290646 0.776825
0.190351 0.290419 0.776746
0.310901 0.289930 0.776480
0.443767 0.289095 0.776092
0.576254 0.287878 0.775487
0.700551 0.286400 0.774834
0.808816 0.284682 0.774090
0.891095 0.283241 0.773406
0.137776 0.423892 0.776336
0.199704 0.423672 0.776325
0.316159 0.423427 0.776070
0.447280 0.422930 0.775604
0.578824 0.422117 0.775071
0.702603 0.421133 0.774383
0.810563 0.420134 0.773650
0.892597 0.419149 0.772919
0.156524 0.554587 0.775722
0.212360 0.554575 0.775604
0.323620 0.554339 0.775368
0.452259 0.553854 0.774997
0.582542 0.553360 0.774440
0.705506 0.552666 0.773692
0.812932 0.551917 0.772944
0.894816 0.551283 0.772315
0.176620 0.676529 0.774958
0.226794 0.676435 0.774871
0.332529 0.676284 0.774627
0.458286 0.675892 0.774225
0.586888 0.675504 0.773692
0.708990 0.674884 0.772948
0.815928 0.674339 0.772204
0.897529 0.673843 0.771553
0.195305 0.782384 0.774138
0.240938 0.782213 0.774116
0.341691 0.782195 0.773894
0.464489 0.781906 0.773409
0.591665 0.781480 0.772820
0.712792 0.780992 0.772185
0.819152 0.780542 0.771452
0.900263 0.780187 0.770725
0.210067 0.862712 0.773406
0.252613 0.862712 0.773406
0.349512 0.862468 0.773162
0.469886 0.862237 0.772688
0.595672 0.861980 0.772185
0.716029 0.861569 0.771452
0.821904 0.861229 0.770720
0.902737 0.860759 0.769989
