gsg/01_Basics/GSG_LUT_Basic_MidBoost.cube
# GSG LUTs 1.0
# Copyright (c) 2016-2020 Greyscalegorilla
# See EULA for licensing and distribution information
# Converted by Briz LUT Converter
LUT_3D_SIZE 5
DOMAIN_MIN 0.000000 0.000000 0.000000
DOMAIN_MAX 0.903226 0.903226 0.903226
0.000000 0.000000 0.000000
0.301060 0.000000 0.000000
0.559234 0.000000 0.000000
0.741746 0.000000 0.000000
0.908543 0.000000 0.000000
0.000000 0.301060 0.000000
0.301060 0.301060 0.000000
0.559234 0.301060 0.000000
0.741746 0.301060 0.000000
0.908543 0.301060 0.000000
0.000000 0.559234 0.000000
0.301060 0.559234 0.000000
0.559234 0.559234 0.000000
0.741746 0.559234 0.000000
0.908543 0.559234 0.000000
0.000000 0.741746 0.000000
0.301060 0.741746 0.000000
0.559234 0.741746 0.000000
0.741746 0.741746 0.000000
0.908543 0.741746 0.000000
0.000000 0.908543 0.000000
0.301060 0.908543 0.000000
0.559234 0.908543 0.000000
0.741746 0.908543 0.000000
0.908543 0.908543 0.000000
0.000000 0.000000 0.301060
0.301060 0.000000 0.301060
0.559234 0.000000 0.301060
0.741746 0.000000 0.301060
0.908543 0.000000 0.301060
0.000000 0.301060 0.301060
0.301060 0.301060 0.301060
0.559234 0.301060 0.301060
0.741746 0.301060 0.301060
0.908543 0.301060 0.301060
0.000000 0.559234 0.301060
0.301060 0.559234 0.301060
0.559234 0.559234 0.301060
0.741746 0.559234 0.301060
0.908543 0.559234 0.301060
0.000000 0.741746 0.301060
0.301060 0.741746 0.301060
0.559234 0.741746 0.301060
0.741746 0.741746 0.301060
0.908543 0.741746 0.301060
0.000000 0.908543 0.301060
0.301060 0.908543 0.301060
0.559234 0.908543 0.301060
0.741746 0.908543 0.301060
0.908543 0.908543 0.301060
0.000000 0.000000 0.559234
0.301060 0.000000 0.559234
0.559234 0.000000 0.559234
0.741746 0.000000 0.559234
0.908543 0.000000 0.559234
0.000000 0.301060 0.559234
0.301060 0.301060 0.559234
0.559234 0.301060 0.559234
0.741746 0.301060 0.559234
0.908543 0.301060 0.559234
0.000000 0.559234 0.559234
0.301060 0.559234 0.559234
0.559234 0.559234 0.559234
0.741746 0.559234 0.559234
0.908543 0.559234 0.559234
0.000000 0.741746 0.559234
0.301060 0.741746 0.559234
0.559234 0.741746 0.559234
0.741746 0.741746 0.559234
0.908543 0.741746 0.559234
0.000000 0.908543 0.559234
0.301060 0.908543 0.559234
0.559234 0.908543 0.559234
0.741746 0.908543 0.559234
0.908543 0.908543 0.559234
0.000000 0.000000 0.741746
0.301060 0.000000 0.741746
0.559234 0.000000 0.741746
0.741746 0.000000 0.741746
0.908543 0.000000 0.741746
0.000000 0.301060 0.741746
0.301060 0.301060 0.741746
0.559234 0.301060 0.741746
0.741746 0.301060 0.741746
0.908543 0.301060 0.741746
0.000000 0.559234 0.741746
0.301060 0.559234 0.741746
0.559234 0.559234 0.741746
0.741746 0.559234 0.741746
0.908543 0.559234 0.741746
0.000000 0.741746 0.741746
0.301060 0.741746 0.741746
0.559234 0.741746 0.741746
0.741746 0.741746 0.741746
0.908543 0.741746 0.741746
0.000000 0.908543 0.741746
0.301060 0.908543 0.741746
0.559234 0.908543 0.741746
0.741746 0.908543 0.741746
0.908543 0.908543 0.741746
0.000000 0.000000 0.908543
0.301060 0.000000 0.908543
0.559234 0.000000 0.908543
0.741746 0.000000 0.908543
0.908543 0.000000 0.908543
0.000000 0.301060 0.908543
0.301060 0.301060 0.908543
0.559234 0.301060 0.908543
0.741746 0.301060 0.908543
0.908543 0.301060 0.908543
0.000000 0.559234 0.908543
0.301060 0.559234 0.908543
0.559234 0.559234 0.908543
0.741746 0.559234 0.908543
0.908543 0.559234 0.908543
0.000000 0.741746 0.908543
0.301060 0.741746 0.908543
0.559234 0.741746 0.908543
0.741746 0.741746 0.908543
0.908543 0.741746 0.908543
0.000000 0.908543 0.908543
0.301060 0.908543 0.908543
0.559234 0.908543 0.908543
0.741746 0.908543 0.908543
0.908543 0.908543 0.908543
