gsg/01_Basics/GSG_LUT_Basic_BlueBoost.cube
# GSG LUTs 1.0
# Copyright (c) 2016-2020 Greyscalegorilla
# See EULA for licensing and distribution information
# Converted by Briz LUT Converter
LUT_3D_SIZE 8
DOMAIN_MIN 0.000000 0.000000 0.000000
DOMAIN_MAX 0.903226 0.903226 0.903226
0.000000 0.000000 0.000000
0.129032 0.000213 0.000000
0.258065 0.000362 0.000000
0.387097 0.000244 0.000095
0.516129 0.000126 0.000000
0.645161 0.000244 0.000000
0.774194 0.000110 0.000000
0.903226 0.000339 0.000000
0.000000 0.128512 0.000000
0.129064 0.129032 0.000095
0.258065 0.129190 0.000394
0.387097 0.129115 0.000032
0.516129 0.129245 0.000000
0.645161 0.129128 0.000000
0.774194 0.129317 0.000000
0.903226 0.129489 0.000000
0.000000 0.256048 0.000000
0.129001 0.258065 0.000023
0.258065 0.258065 0.000134
0.387097 0.258065 0.000109
0.516129 0.258065 0.000000
0.645161 0.258181 0.000022
0.774194 0.258205 0.000000
0.903226 0.258309 0.000000
0.000000 0.382362 0.000000
0.127304 0.385131 0.000000
0.258065 0.387097 0.000206
0.387097 0.387097 0.000174
0.516129 0.387097 0.000121
0.645161 0.387097 0.000000
0.774194 0.387131 0.000034
0.903226 0.387191 0.000000
0.000000 0.507818 0.000000
0.124560 0.510339 0.000000
0.258065 0.516129 0.000063
0.387097 0.516129 0.000000
0.516129 0.516129 0.000065
0.645161 0.516129 0.000045
0.774194 0.516129 0.000000
0.903226 0.516129 0.000000
0.000000 0.634503 0.000000
0.119524 0.636520 0.000000
0.255230 0.641796 0.000000
0.387000 0.645161 0.000244
0.516129 0.645161 0.000370
0.645161 0.645161 0.000198
0.774194 0.645161 0.000244
0.903226 0.645161 0.000087
0.000000 0.762960 0.000000
0.108843 0.764457 0.000000
0.250898 0.768229 0.000000
0.386810 0.774078 0.000183
0.516011 0.774194 0.000460
0.645161 0.774194 0.000036
0.774194 0.774194 0.000043
0.903226 0.774194 0.000118
0.000000 0.894632 0.000000
0.086624 0.895637 0.000000
0.243966 0.897649 0.000000
0.383371 0.901082 0.000000
0.516118 0.903226 0.000572
0.645153 0.903226 0.000410
0.774194 0.903226 0.000312
0.903226 0.903226 0.000202
0.000000 0.000000 0.123439
0.129249 0.000027 0.129032
0.258065 0.000008 0.129032
0.387097 0.000150 0.129039
0.516129 0.000135 0.129135
0.645161 0.000666 0.129032
0.774194 0.000752 0.129173
0.903226 0.000977 0.129029
0.000000 0.125378 0.125382
0.128641 0.128722 0.128930
0.258068 0.129087 0.129031
0.387210 0.129117 0.129015
0.516129 0.129061 0.129122
0.645161 0.129329 0.129032
0.774194 0.129420 0.129154
0.903226 0.129294 0.129001
0.000000 0.254252 0.123801
0.127204 0.256733 0.127268
0.257947 0.258082 0.129155
0.387097 0.258065 0.129224
0.516129 0.258152 0.129114
0.645161 0.258189 0.129032
0.774194 0.258114 0.129032
0.903226 0.258117 0.129030
0.000000 0.380508 0.121761
0.124373 0.383131 0.124559
0.258065 0.387097 0.129211
0.387097 0.387097 0.129032
0.516129 0.387097 0.129115
0.645161 0.387097 0.129085
0.774194 0.387097 0.129032
0.903226 0.387097 0.128956
0.000000 0.505802 0.119210
0.121424 0.508352 0.121598
0.257121 0.514931 0.128102
0.387097 0.516129 0.129032
0.516129 0.516129 0.129040
0.645161 0.516129 0.129216
0.774194 0.516129 0.129117
0.903226 0.516129 0.129130
0.000000 0.632751 0.112987
0.115299 0.634964 0.115647
0.253422 0.640180 0.122561
0.387080 0.645161 0.129245
0.516129 0.645161 0.129038
0.645161 0.645161 0.129121
0.774194 0.645161 0.129235
0.903226 0.645161 0.129046
0.000000 0.761701 0.099093
0.101888 0.763226 0.102642
0.248409 0.767061 0.111806
0.386182 0.773411 0.127417
0.516034 0.774194 0.129146
0.645161 0.774194 0.129122
0.774194 0.774194 0.129117
0.903226 0.774194 0.129028
0.000000 0.894088 0.069317
0.073665 0.894901 0.075394
0.240349 0.896963 0.089948
0.381737 0.900492 0.112619
0.515886 0.903226 0.129276
0.644969 0.903226 0.129133
0.774194 0.903226 0.129251
0.903226 0.903226 0.129032
0.000000 0.000000 0.235637
0.119555 0.000000 0.243972
0.258246 0.000016 0.258065
0.387097 0.000196 0.258065
0.516129 0.000214 0.258065
0.645161 0.000331 0.258065
0.774194 0.000216 0.258065
0.903226 0.001105 0.258065
0.000000 0.097168 0.237166
0.101892 0.101827 0.245500
0.258065 0.129049 0.258065
0.387097 0.129066 0.258065
0.516129 0.129141 0.258065
0.645161 0.129258 0.258065
0.774194 0.129140 0.258065
0.903226 0.129276 0.258065
0.000000 0.244494 0.244587
0.072750 0.248086 0.248408
0.256617 0.256917 0.257749
0.387097 0.258065 0.258065
0.516129 0.258176 0.258065
0.645161 0.258095 0.258065
0.774194 0.258154 0.258065
0.903226 0.258246 0.258065
0.000000 0.373887 0.242585
0.105814 0.377548 0.245815
0.254735 0.384634 0.254782
0.387097 0.387097 0.258065
0.516129 0.387097 0.258065
0.645161 0.387097 0.258065
0.774194 0.387183 0.258065
0.903226 0.387135 0.258065
0.000000 0.500729 0.242239
0.108090 0.503264 0.244907
0.251693 0.509835 0.251717
0.387097 0.516129 0.258065
0.516129 0.516129 0.258065
0.645161 0.516129 0.258065
0.774194 0.516129 0.258065
0.903226 0.516129 0.258065
0.000000 0.628367 0.238938
0.098393 0.630470 0.241266
0.247215 0.636031 0.247376
0.386747 0.644963 0.257801
0.516129 0.645161 0.258065
0.645161 0.645161 0.258065
0.774194 0.645161 0.258065
0.903226 0.645161 0.258065
0.000000 0.758321 0.231275
0.073470 0.759886 0.233599
0.239833 0.763860 0.240101
0.382408 0.770609 0.251721
0.516061 0.774194 0.258109
0.645161 0.774194 0.258070
0.774194 0.774194 0.258096
0.903226 0.774194 0.258065
0.000000 0.892260 0.217710
0.014646 0.893098 0.220710
0.227740 0.895304 0.228263
0.376599 0.898942 0.241579
0.515917 0.903226 0.258065
0.645083 0.903226 0.258065
0.774194 0.903226 0.258065
0.903226 0.903226 0.258065
0.000000 0.000000 0.338698
0.107881 0.000000 0.346847
0.241757 0.000000 0.366797
0.387097 0.000150 0.387097
0.516129 0.000364 0.387097
0.645161 0.000158 0.387097
0.774194 0.000299 0.387097
0.903226 0.000488 0.387097
0.000000 0.073583 0.341660
0.076723 0.076654 0.348714
0.236417 0.094461 0.366688
0.387147 0.129032 0.387097
0.516129 0.129081 0.387097
0.645161 0.129342 0.387097
0.774194 0.129276 0.387097
0.903226 0.129273 0.387097
0.000000 0.186238 0.335554
0.000000 0.181675 0.343992
0.205061 0.205847 0.365457
0.387097 0.258065 0.387097
0.516129 0.258098 0.387097
0.645161 0.258065 0.387097
0.774194 0.258119 0.387097
0.903226 0.258291 0.387097
0.000000 0.355077 0.355193
0.000000 0.358891 0.359120
0.190122 0.368121 0.368688
0.384753 0.385359 0.386331
0.516129 0.387097 0.387097
0.645161 0.387129 0.387097
0.774194 0.387105 0.387097
0.903226 0.387097 0.387097
0.000000 0.485391 0.355948
0.051974 0.489106 0.358890
0.230334 0.498695 0.367090
0.382426 0.512308 0.382466
0.516129 0.516129 0.387097
0.645161 0.516129 0.387097
0.774194 0.516129 0.387097
0.903226 0.516129 0.387097
0.000000 0.618559 0.355256
0.012393 0.621616 0.357679
0.225441 0.627801 0.364790
0.377264 0.637806 0.377439
0.516129 0.645161 0.387097
0.645161 0.645161 0.387097
0.774194 0.645161 0.387097
0.903226 0.645161 0.387097
0.000000 0.751577 0.348649
0.000000 0.753225 0.351365
0.211372 0.757567 0.358265
0.370376 0.764935 0.370562
0.516047 0.774158 0.387026
0.645161 0.774194 0.387097
0.774194 0.774194 0.387097
0.903226 0.774194 0.387097
0.000000 0.888502 0.338854
0.000000 0.889518 0.341620
0.187926 0.891835 0.348775
0.361122 0.895858 0.361424
0.511322 0.901461 0.380362
0.645097 0.903226 0.387097
0.774194 0.903226 0.387097
0.903226 0.903226 0.387097
0.000000 0.000000 0.433637
0.094607 0.000000 0.440939
0.221340 0.000000 0.459576
0.366181 0.000000 0.491441
0.516129 0.000000 0.516129
0.645161 0.000234 0.516129
0.774194 0.000393 0.516129
0.903226 0.000930 0.516129
0.000000 0.055693 0.434873
0.055964 0.055573 0.441776
0.211122 0.061252 0.459555
0.363524 0.090791 0.490519
0.516129 0.129261 0.516129
0.645161 0.129214 0.516129
0.774194 0.129345 0.516129
0.903226 0.129276 0.516129
0.000000 0.150908 0.431919
0.000000 0.152621 0.440621
0.171754 0.172035 0.457680
0.354842 0.213697 0.487546
0.516129 0.258113 0.516129
0.645161 0.258117 0.516129
0.774194 0.258253 0.516129
0.903226 0.258278 0.516129
0.000000 0.283885 0.427484
0.000000 0.281274 0.431657
0.000000 0.274391 0.444586
0.320290 0.320850 0.482177
0.516129 0.387097 0.516129
0.645161 0.387097 0.516129
0.774194 0.387097 0.516129
0.903226 0.387111 0.516129
0.000000 0.456603 0.456725
0.000000 0.460369 0.460430
0.080691 0.469910 0.470109
0.313943 0.486740 0.487375
0.513271 0.514118 0.514945
0.645161 0.516129 0.516129
0.774194 0.516129 0.516129
0.903226 0.516129 0.516129
0.000000 0.595589 0.463610
0.000000 0.598894 0.465958
0.160472 0.607129 0.472171
0.340507 0.621886 0.484817
0.509215 0.640479 0.509320
0.645161 0.645161 0.516129
0.774194 0.645161 0.516129
0.903226 0.645161 0.516129
0.000000 0.735818 0.459007
0.000000 0.738323 0.460395
0.091585 0.744295 0.465575
0.331745 0.754148 0.479830
0.501706 0.766363 0.501889
0.645161 0.774194 0.516129
0.774194 0.774194 0.516129
0.903226 0.774194 0.516129
0.000000 0.881614 0.449239
0.000000 0.882646 0.452122
0.014860 0.885462 0.460093
0.318805 0.890181 0.474027
0.493887 0.896585 0.494187
0.645161 0.903226 0.516129
0.774194 0.903226 0.516129
0.903226 0.903226 0.516129
0.000000 0.000000 0.531340
0.078911 0.000000 0.538016
0.206081 0.000000 0.554853
0.341292 0.000000 0.583389
0.496228 0.000000 0.622805
0.645161 0.000503 0.645161
0.774194 0.000434 0.645161
0.903226 0.000575 0.645161
0.000000 0.028192 0.531096
0.025430 0.024841 0.537614
0.191536 0.019952 0.554216
0.335548 0.027393 0.582433
0.494349 0.084260 0.621760
0.645161 0.129190 0.645161
0.774194 0.129241 0.645161
0.903226 0.129356 0.645161
0.000000 0.127441 0.528086
0.000000 0.130926 0.534606
0.141239 0.141307 0.551104
0.318928 0.166847 0.579354
0.489232 0.216312 0.618832
0.645161 0.258091 0.645161
0.774194 0.258070 0.645161
0.903226 0.258077 0.645161
0.000000 0.230846 0.508104
0.000000 0.231087 0.517689
0.000000 0.235924 0.542056
0.270046 0.270455 0.572344
0.475869 0.330749 0.613029
0.645161 0.387097 0.645161
0.774194 0.387097 0.645161
0.903226 0.387127 0.645161
0.000000 0.378492 0.520131
0.000000 0.377802 0.523389
0.000000 0.374665 0.531789
0.018441 0.364746 0.548755
0.425786 0.426666 0.601857
0.645161 0.516129 0.645161
0.774194 0.516129 0.645161
0.903226 0.516129 0.645161
0.000000 0.558651 0.558707
0.000000 0.561480 0.561619
0.000000 0.569031 0.569184
0.165080 0.582845 0.583001
0.417551 0.605034 0.605791
0.642204 0.643089 0.643605
0.774194 0.645161 0.645161
0.903226 0.645161 0.645161
0.000000 0.708114 0.566800
0.000000 0.710445 0.568196
0.000000 0.716764 0.572228
0.228627 0.727787 0.581823
0.449837 0.745295 0.601998
0.636249 0.768690 0.636452
0.774194 0.774194 0.645161
0.903226 0.774194 0.645161
0.000000 0.866250 0.566072
0.000000 0.867591 0.567089
0.000000 0.871074 0.570609
0.179704 0.877458 0.579238
0.441172 0.886754 0.598642
0.628019 0.897328 0.628141
0.774194 0.903226 0.645161
0.903226 0.903226 0.645161
0.000000 0.000000 0.651306
0.053098 0.000000 0.656323
0.195847 0.000000 0.668784
0.328089 0.000000 0.690283
0.471343 0.000000 0.720659
0.630092 0.000000 0.758238
0.774194 0.000348 0.774194
0.903226 0.000299 0.774194
0.000000 0.000000 0.649809
0.000378 0.000000 0.654847
0.175791 0.000000 0.667391
0.318953 0.000000 0.689026
0.467400 0.000000 0.719521
0.628788 0.073363 0.757474
0.774194 0.129125 0.774194
0.903226 0.129276 0.774194
0.000000 0.097776 0.644760
0.000000 0.098532 0.650014
0.101360 0.102268 0.662838
0.292743 0.115379 0.685060
0.456284 0.149764 0.716349
0.625232 0.215788 0.755100
0.774194 0.258077 0.774194
0.903226 0.258291 0.774194
0.000000 0.190753 0.631630
0.000000 0.189289 0.638186
0.000000 0.199427 0.652133
0.221685 0.222178 0.675957
0.429013 0.263968 0.709389
0.616656 0.334493 0.750467
0.774194 0.387097 0.774194
0.903226 0.387097 0.774194
0.000000 0.305892 0.595439
0.000000 0.302371 0.599852
0.000000 0.300048 0.618592
0.000000 0.301522 0.653748
0.349551 0.350188 0.694679
0.595242 0.438599 0.741517
0.774194 0.516129 0.774194
0.903226 0.516129 0.774194
0.000000 0.476573 0.626894
0.000000 0.475026 0.628428
0.000000 0.470631 0.632376
0.000000 0.460641 0.640255
0.002358 0.438445 0.655455
0.528350 0.529320 0.721367
0.774194 0.645161 0.774194
0.903226 0.645161 0.774194
0.000000 0.666002 0.666044
0.000000 0.667561 0.667665
0.000000 0.671984 0.672037
0.000000 0.680717 0.680862
0.210896 0.695934 0.696255
0.522074 0.722183 0.722866
0.771639 0.772395 0.772617
0.903226 0.774194 0.774194
0.000000 0.842328 0.684848
0.000000 0.843636 0.685394
0.000000 0.847122 0.687188
0.000000 0.853298 0.691423
0.287723 0.863045 0.700684
0.552968 0.877847 0.721809
0.763698 0.898527 0.763831
0.903226 0.903226 0.774194
0.000000 0.000000 0.805491
0.003449 0.000000 0.808508
0.188973 0.000000 0.815895
0.326966 0.000000 0.828667
0.465568 0.000000 0.846911
0.611816 0.000000 0.869494
0.766106 0.000000 0.895432
0.903226 0.000488 0.903226
0.000000 0.000000 0.804235
0.000000 0.000000 0.807263
0.160982 0.000000 0.814878
0.314568 0.000000 0.827687
0.459422 0.000000 0.846136
0.609203 0.000000 0.868979
0.765361 0.061741 0.895093
0.903226 0.129271 0.903226
0.000000 0.038469 0.800835
0.000000 0.034629 0.803862
0.030485 0.026661 0.811612
0.277865 0.022818 0.825069
0.441891 0.047121 0.843860
0.601534 0.115040 0.867447
0.763280 0.215629 0.893882
0.903226 0.258212 0.903226
0.000000 0.155020 0.792539
0.000000 0.156151 0.795843
0.000000 0.160661 0.804363
0.170871 0.172065 0.818830
0.400448 0.198521 0.839096
0.583855 0.250462 0.864224
0.758568 0.338725 0.891820
0.903226 0.387097 0.903226
0.000000 0.280722 0.771625
0.000000 0.273631 0.775949
0.000000 0.254591 0.787308
0.000000 0.252111 0.805566
0.285584 0.286612 0.829038
0.541907 0.348763 0.857538
0.748098 0.450989 0.888035
0.903226 0.516129 0.903226
0.000000 0.427083 0.757249
0.000000 0.420842 0.757509
0.000000 0.403330 0.758060
0.000000 0.377280 0.769064
0.000000 0.360417 0.803008
0.425776 0.426806 0.841939
0.723671 0.556152 0.879633
0.903226 0.645161 0.903226
0.000000 0.614345 0.787026
0.000000 0.612221 0.787339
0.000000 0.605861 0.788145
0.000000 0.593230 0.789896
0.000000 0.569201 0.792846
0.000000 0.521503 0.799280
0.633517 0.634641 0.856714
0.903226 0.774194 0.903226
0.000000 0.818465 0.818507
0.000000 0.818761 0.818823
0.000000 0.820019 0.820083
0.000000 0.822161 0.822225
0.000000 0.826076 0.826215
0.164901 0.833688 0.833950
0.609354 0.850881 0.851250
0.901863 0.902272 0.902320
