gsg/01_Basics/GSG_LUT_Basic_SatBoost.cube
# GSG LUTs 1.0
# Copyright (c) 2016-2020 Greyscalegorilla
# See EULA for licensing and distribution information
# Converted by Briz LUT Converter
LUT_3D_SIZE 8
DOMAIN_MIN 0.000000 0.000000 0.000000
DOMAIN_MAX 0.903226 0.903226 0.903226
0.000000 0.000000 0.000000
0.141739 0.000000 0.000000
0.282492 0.000000 0.000000
0.418977 0.000000 0.000000
0.554847 0.000000 0.000000
0.690898 0.000000 0.000000
0.820592 0.000000 0.000000
0.948671 0.000000 0.000000
0.000000 0.134011 0.000000
0.130194 0.130013 0.000000
0.273764 0.127331 0.000000
0.412796 0.121726 0.000000
0.550482 0.112482 0.000000
0.687806 0.097270 0.000000
0.818575 0.069241 0.000000
0.947415 0.006676 0.000000
0.000000 0.265454 0.000000
0.114940 0.263744 0.000000
0.259530 0.259530 0.000000
0.400922 0.259041 0.000000
0.541841 0.256536 0.000000
0.681035 0.250732 0.000000
0.813998 0.239593 0.000000
0.944614 0.222565 0.000000
0.000000 0.396959 0.000000
0.072320 0.396046 0.000000
0.246311 0.393509 0.000000
0.389145 0.389108 0.000000
0.530269 0.387631 0.000000
0.671301 0.385559 0.000000
0.807350 0.378694 0.000000
0.940037 0.367931 0.000000
0.000000 0.529080 0.000000
0.000000 0.528450 0.000000
0.218713 0.526575 0.000000
0.376068 0.523446 0.000000
0.518758 0.518754 0.000000
0.659514 0.515895 0.000000
0.798837 0.511907 0.000000
0.934302 0.503927 0.000000
0.000000 0.659325 0.000000
0.000000 0.658963 0.000000
0.165523 0.657710 0.000000
0.351376 0.655481 0.000000
0.504368 0.652306 0.000000
0.648005 0.648036 0.000000
0.788790 0.643897 0.000000
0.927552 0.637757 0.000000
0.000000 0.789279 0.000000
0.000000 0.788838 0.000000
0.012478 0.788009 0.000000
0.306541 0.786498 0.000000
0.478176 0.784269 0.000000
0.631313 0.781130 0.000000
0.777167 0.777325 0.000000
0.919233 0.772164 0.000000
0.000000 0.918855 0.000000
0.000000 0.918587 0.000000
0.000000 0.917872 0.000000
0.210425 0.916792 0.000000
0.431608 0.915286 0.000000
0.600032 0.913042 0.000000
0.754017 0.910315 0.000000
0.903520 0.906645 0.000000
0.000000 0.000000 0.148332
0.143353 0.000000 0.143299
0.280752 0.000000 0.134996
0.417004 0.000000 0.120513
0.554255 0.000000 0.100747
0.691544 0.000000 0.073326
0.822009 0.000000 0.023416
0.950635 0.000000 0.000000
0.000000 0.132998 0.133002
0.129053 0.129060 0.128998
0.273129 0.121278 0.121451
0.412596 0.109154 0.109106
0.551142 0.090138 0.090019
0.689059 0.058922 0.058796
0.820261 0.006356 0.005154
0.949432 0.000000 0.000000
0.000000 0.265020 0.106329
0.103169 0.263287 0.103190
0.259266 0.259192 0.094621
0.402646 0.255196 0.079801
0.543708 0.248765 0.053886
0.682957 0.239451 0.009714
0.815990 0.224758 0.000000
0.946823 0.202995 0.000000
0.000000 0.397204 0.043826
0.037399 0.396195 0.038198
0.240624 0.393594 0.023187
0.389031 0.389050 0.004186
0.532120 0.385667 0.000093
0.673168 0.381001 0.000000
0.809335 0.371970 0.000000
0.942370 0.358532 0.000000
0.000000 0.529324 0.000000
0.000000 0.528575 0.000000
0.209015 0.526782 0.000000
0.372698 0.523518 0.000000
0.518681 0.518682 0.000000
0.660879 0.514775 0.000000
0.800578 0.509094 0.000000
0.936523 0.499084 0.000000
0.000000 0.659569 0.000000
0.000000 0.659087 0.000000
0.150145 0.657837 0.000000
0.346231 0.655691 0.000000
0.502312 0.652306 0.000000
0.647953 0.648084 0.000000
0.790040 0.643189 0.000000
0.929374 0.635435 0.000000
0.000000 0.789530 0.000000
0.000000 0.789105 0.000000
0.001692 0.788307 0.000000
0.297638 0.786742 0.000000
0.474104 0.784488 0.000000
0.629473 0.781338 0.000000
0.777324 0.777368 0.000000
0.920900 0.771597 0.000000
0.000000 0.919371 0.000000
0.000000 0.919127 0.000000
0.000000 0.918539 0.000000
0.180523 0.917515 0.000000
0.421188 0.915775 0.000000
0.596572 0.913399 0.000000
0.755191 0.910373 0.000000
0.905266 0.906865 0.000000
0.000000 0.000000 0.290370
0.142518 0.000000 0.287597
0.280429 0.000000 0.280295
0.416402 0.000000 0.272354
0.554122 0.000000 0.262273
0.691788 0.000000 0.247461
0.822734 0.000000 0.227335
0.952310 0.000000 0.201059
0.000000 0.130923 0.279751
0.126680 0.126751 0.277420
0.272604 0.118094 0.272449
0.412320 0.101106 0.265513
0.551373 0.068955 0.255361
0.689548 0.005867 0.240491
0.821206 0.000000 0.221968
0.951309 0.000000 0.194755
0.000000 0.264279 0.264414
0.095234 0.262365 0.262428
0.258042 0.258146 0.258065
0.403243 0.250906 0.250838
0.544661 0.240720 0.240640
0.683769 0.227297 0.227016
0.817295 0.208350 0.208070
0.948762 0.177814 0.177394
0.000000 0.396565 0.241175
0.006855 0.395581 0.238897
0.234508 0.392982 0.234434
0.388390 0.388345 0.227061
0.533269 0.383127 0.216475
0.674306 0.375849 0.202210
0.810787 0.364363 0.179708
0.944555 0.347071 0.139129
0.000000 0.529017 0.203704
0.000000 0.528315 0.202021
0.197584 0.526422 0.197529
0.368909 0.523156 0.189234
0.518193 0.518312 0.176220
0.662050 0.513285 0.156681
0.802143 0.505338 0.121210
0.938852 0.492465 0.030494
0.000000 0.659569 0.136979
0.000000 0.659070 0.134285
0.126708 0.657902 0.126932
0.339098 0.655632 0.112228
0.499406 0.652306 0.085050
0.647701 0.647833 0.031507
0.791525 0.642006 0.001263
0.931844 0.631803 0.000000
0.000000 0.789871 0.000000
0.000000 0.789535 0.000000
0.000000 0.788727 0.000000
0.282848 0.787206 0.000000
0.467309 0.784773 0.000000
0.626603 0.781583 0.000000
0.777311 0.777325 0.000000
0.923179 0.770328 0.000000
0.000000 0.920377 0.000000
0.000000 0.920115 0.000000
0.000000 0.919601 0.000000
0.108867 0.918482 0.000000
0.401486 0.916734 0.000000
0.586022 0.914287 0.000000
0.750392 0.911103 0.000000
0.906867 0.906962 0.000000
0.000000 0.000000 0.429911
0.138781 0.000000 0.427913
0.279845 0.000000 0.423397
0.416779 0.000000 0.416779
0.553389 0.000000 0.409376
0.690707 0.000000 0.400738
0.821791 0.000000 0.387207
0.951822 0.000000 0.370074
0.000000 0.126169 0.422439
0.122497 0.122810 0.421242
0.271924 0.113865 0.417775
0.412265 0.095869 0.412269
0.550764 0.061344 0.405414
0.688530 0.003976 0.396698
0.820359 0.000000 0.383495
0.951036 0.000000 0.366003
0.000000 0.263287 0.412006
0.085157 0.260907 0.410568
0.255933 0.256027 0.407602
0.402533 0.248593 0.402488
0.544037 0.237048 0.395969
0.682894 0.221176 0.386885
0.816773 0.199413 0.374180
0.948916 0.163596 0.356585
0.000000 0.395796 0.395830
0.003669 0.394631 0.394703
0.230791 0.391843 0.391850
0.387061 0.387155 0.387052
0.533126 0.380405 0.380367
0.673974 0.371447 0.371339
0.810971 0.358733 0.358617
0.945371 0.339232 0.338987
0.000000 0.528126 0.374526
0.000000 0.527427 0.373289
0.187860 0.525586 0.369975
0.365141 0.522279 0.365120
0.517366 0.517500 0.358218
0.662358 0.511269 0.348329
0.802972 0.501645 0.332953
0.940360 0.486717 0.308102
0.000000 0.659238 0.341475
0.000000 0.658746 0.339841
0.095830 0.657578 0.336646
0.331094 0.655320 0.331199
0.496012 0.652028 0.322672
0.647298 0.647359 0.310377
0.792642 0.640234 0.289539
0.933806 0.627600 0.251824
0.000000 0.790256 0.278637
0.000000 0.789992 0.276694
0.000000 0.789080 0.272133
0.263151 0.787475 0.263254
0.458740 0.785064 0.249131
0.622811 0.781630 0.227475
0.777081 0.777124 0.194224
0.925354 0.768296 0.112051
0.000000 0.921603 0.045797
0.000000 0.921357 0.042188
0.000000 0.920733 0.032182
0.009993 0.919546 0.005412
0.377269 0.917750 0.001258
0.573810 0.915134 0.000000
0.744859 0.911812 0.000000
0.907088 0.907132 0.000000
0.000000 0.000000 0.569010
0.133389 0.000000 0.567758
0.277606 0.000000 0.564739
0.416621 0.000000 0.560110
0.553870 0.000000 0.553927
0.688905 0.000000 0.545528
0.820410 0.000000 0.534100
0.950707 0.000000 0.520985
0.000000 0.119839 0.564016
0.116840 0.116400 0.563024
0.269944 0.107036 0.560684
0.411969 0.088105 0.556613
0.550792 0.049546 0.550784
0.686696 0.002294 0.542642
0.818910 0.000000 0.531648
0.949838 0.000000 0.518587
0.000000 0.259222 0.555667
0.069948 0.257166 0.554764
0.253081 0.252967 0.552728
0.401835 0.245595 0.549027
0.543623 0.233951 0.543623
0.681366 0.218094 0.535836
0.815484 0.195755 0.525638
0.947904 0.157851 0.512648
0.000000 0.395092 0.543818
0.000743 0.393821 0.542899
0.225817 0.390491 0.540694
0.385223 0.385236 0.537116
0.532120 0.378278 0.532097
0.672793 0.369018 0.524763
0.810054 0.355819 0.515280
0.944899 0.336028 0.501963
0.000000 0.527118 0.527057
0.000000 0.526301 0.526354
0.182727 0.524354 0.524401
0.362275 0.521052 0.521076
0.516068 0.516129 0.516098
0.661966 0.509165 0.509126
0.803065 0.498901 0.498793
0.940860 0.483173 0.482936
0.000000 0.658380 0.505261
0.000000 0.657957 0.504399
0.071978 0.656809 0.502170
0.323254 0.654763 0.497889
0.492381 0.651361 0.492353
0.646445 0.646538 0.484221
0.793203 0.637842 0.471067
0.935132 0.623527 0.449485
0.000000 0.790200 0.467497
0.000000 0.789980 0.466121
0.000000 0.789218 0.462955
0.244894 0.787664 0.458528
0.450561 0.785125 0.450527
0.618848 0.781537 0.438967
0.776585 0.776706 0.422732
0.926735 0.765518 0.391749
0.000000 0.922470 0.386401
0.000000 0.922226 0.384539
0.000000 0.921502 0.379410
0.000000 0.920415 0.369755
0.354172 0.918437 0.354276
0.562300 0.915782 0.330859
0.739318 0.912056 0.295106
0.906854 0.906996 0.238528
0.000000 0.000000 0.697105
0.124960 0.000000 0.696361
0.270360 0.000000 0.694693
0.409406 0.000000 0.691920
0.546691 0.000000 0.688204
0.683155 0.000000 0.683099
0.818425 0.000000 0.676419
0.949056 0.000000 0.664974
0.000000 0.113077 0.694269
0.110151 0.109676 0.693672
0.263801 0.100859 0.692171
0.405549 0.081876 0.689785
0.544095 0.043159 0.686122
0.681271 0.001021 0.681267
0.817118 0.000000 0.674647
0.948229 0.000000 0.663438
0.000000 0.255049 0.688842
0.070259 0.253548 0.688345
0.249792 0.249682 0.687047
0.396975 0.242726 0.684753
0.538084 0.231514 0.681399
0.677007 0.214720 0.676876
0.813834 0.190187 0.670282
0.946437 0.149448 0.659456
0.000000 0.390537 0.681145
0.000836 0.389476 0.680593
0.225427 0.387199 0.679208
0.382895 0.382916 0.677118
0.528232 0.376224 0.673961
0.669676 0.366494 0.669813
0.808533 0.352759 0.663122
0.943455 0.332102 0.652453
0.000000 0.523636 0.670789
0.000000 0.522920 0.670285
0.179577 0.521164 0.668986
0.360652 0.518372 0.666972
0.514201 0.514270 0.664141
0.659881 0.507424 0.659931
0.801573 0.497893 0.653004
0.938757 0.484458 0.642470
0.000000 0.656583 0.656583
0.000000 0.656188 0.656094
0.042160 0.655032 0.655046
0.319615 0.653073 0.653017
0.491333 0.649920 0.649864
0.645161 0.645161 0.645105
0.791020 0.638131 0.637996
0.932005 0.626980 0.626749
0.000000 0.789487 0.632920
0.000000 0.789241 0.632274
0.000000 0.788343 0.630912
0.243884 0.786687 0.628824
0.453637 0.784115 0.625724
0.620257 0.780551 0.620335
0.775576 0.775623 0.611217
0.923772 0.764749 0.594725
0.000000 0.921738 0.587161
0.000000 0.921494 0.586643
0.000000 0.920720 0.585388
0.001956 0.919445 0.583561
0.371933 0.917445 0.579760
0.568398 0.914811 0.568434
0.740590 0.911160 0.552216
0.905954 0.906119 0.528824
0.000000 0.000000 0.821490
0.114270 0.000000 0.821049
0.262096 0.000000 0.820254
0.401032 0.000000 0.818675
0.537757 0.000000 0.816516
0.673804 0.000000 0.813616
0.810000 0.000000 0.809957
0.946896 0.000000 0.805556
0.000000 0.104188 0.819993
0.100960 0.100666 0.819735
0.256934 0.091295 0.818910
0.397792 0.071383 0.817401
0.535649 0.027740 0.815361
0.672409 0.000005 0.812608
0.809010 0.000000 0.809138
0.946179 0.000000 0.804669
0.000000 0.250675 0.816913
0.068314 0.249033 0.816649
0.245462 0.245525 0.815922
0.391012 0.238506 0.814565
0.530826 0.227139 0.812608
0.668874 0.209777 0.810016
0.806650 0.182641 0.806639
0.944428 0.137549 0.801920
0.000000 0.387036 0.812271
0.003462 0.386488 0.812024
0.226439 0.384200 0.811343
0.379826 0.379871 0.810181
0.522993 0.372980 0.808289
0.663150 0.362842 0.805809
0.802661 0.348256 0.802644
0.941702 0.326672 0.797417
0.000000 0.518130 0.806086
0.000000 0.517829 0.805865
0.182892 0.516963 0.805302
0.362400 0.516122 0.804398
0.511854 0.511928 0.802658
0.655020 0.504735 0.800246
0.796967 0.495056 0.796967
0.936999 0.481196 0.790652
0.000000 0.650093 0.797747
0.000000 0.649604 0.797592
0.031552 0.648825 0.797009
0.320007 0.647792 0.795998
0.491315 0.646428 0.794494
0.643364 0.643420 0.792052
0.788271 0.636457 0.788243
0.929647 0.626913 0.780996
0.000000 0.786117 0.786117
0.000000 0.785724 0.785865
0.000000 0.785131 0.785137
0.239791 0.783867 0.783824
0.451827 0.781827 0.781827
0.620309 0.778881 0.778839
0.774184 0.774194 0.774151
0.919812 0.766749 0.766653
0.000000 0.920816 0.759198
0.000000 0.920517 0.758769
0.000000 0.919735 0.757945
0.001514 0.918457 0.756551
0.374863 0.916292 0.754661
0.578567 0.913390 0.752175
0.746518 0.909670 0.746513
0.904696 0.904723 0.735206
0.000000 0.000000 0.941928
0.098147 0.000000 0.941899
0.251821 0.000000 0.941433
0.390782 0.000000 0.940697
0.526905 0.000000 0.939580
0.662152 0.000000 0.938083
0.797637 0.000000 0.936319
0.934310 0.000000 0.934310
0.000000 0.090235 0.941387
0.086593 0.086446 0.941163
0.247669 0.074881 0.940704
0.388362 0.048327 0.940089
0.525248 0.004087 0.939075
0.660918 0.000000 0.937585
0.796889 0.000000 0.935830
0.933819 0.000000 0.933819
0.000000 0.244618 0.939887
0.059960 0.242939 0.939643
0.239061 0.238940 0.939336
0.383173 0.231256 0.938657
0.521490 0.218577 0.937677
0.658261 0.198333 0.936324
0.794832 0.165709 0.934767
0.932758 0.104578 0.932758
0.000000 0.383615 0.937405
0.007058 0.382622 0.937379
0.226021 0.379937 0.937013
0.375245 0.375241 0.936410
0.515793 0.367491 0.935497
0.653758 0.355997 0.934279
0.791697 0.339115 0.932758
0.930917 0.313930 0.930985
0.000000 0.513608 0.934279
0.000000 0.513947 0.934279
0.200489 0.515042 0.934034
0.365467 0.513805 0.933542
0.508204 0.508250 0.932670
0.647878 0.500185 0.931485
0.787236 0.489117 0.929891
0.927882 0.474038 0.927882
0.000000 0.640640 0.930025
0.000000 0.640862 0.929875
0.051764 0.641349 0.929626
0.326353 0.642438 0.929284
0.495781 0.644369 0.928638
0.640866 0.640813 0.927402
0.781368 0.633127 0.925605
0.923242 0.622861 0.923221
0.000000 0.773406 0.923668
0.000000 0.773235 0.923668
0.000000 0.773217 0.923424
0.235584 0.773256 0.922895
0.451942 0.773463 0.922056
0.621317 0.773861 0.920946
0.772399 0.772414 0.919087
0.916056 0.765202 0.916039
0.000000 0.914459 0.914438
0.000000 0.914236 0.914236
0.000000 0.913766 0.913745
0.000000 0.913153 0.913144
0.370856 0.911912 0.912005
0.577503 0.910171 0.910136
0.748487 0.907618 0.907438
0.903204 0.903226 0.903202
