gsg/01_Basics/GSG_LUT_Basic_CleanLook.cube
# GSG LUTs 1.0
# Copyright (c) 2016-2020 Greyscalegorilla
# See EULA for licensing and distribution information
# Converted by Briz LUT Converter
LUT_3D_SIZE 8
DOMAIN_MIN 0.000000 0.000000 0.000000
DOMAIN_MAX 0.903226 0.903226 0.903226
0.010989 0.009768 0.012210
0.084044 0.009311 0.015203
0.181378 0.004380 0.017827
0.323164 0.000000 0.017149
0.491670 0.000000 0.009138
0.649840 0.000000 0.000000
0.788625 0.000000 0.000000
0.917240 0.000000 0.000000
0.022608 0.095081 0.039174
0.101159 0.086755 0.033116
0.206555 0.082839 0.012533
0.350056 0.066137 0.000000
0.511851 0.002259 0.000000
0.661723 0.000000 0.000000
0.795573 0.000000 0.000000
0.920748 0.000000 0.000000
0.000000 0.249911 0.067612
0.111271 0.242506 0.058396
0.247707 0.229170 0.049336
0.391744 0.214164 0.009757
0.551695 0.201481 0.000000
0.685172 0.181966 0.000000
0.809540 0.158650 0.000000
0.927762 0.125666 0.000000
0.000000 0.434661 0.109528
0.004257 0.430418 0.100303
0.261808 0.415518 0.078255
0.421405 0.405010 0.062596
0.563778 0.380913 0.008813
0.705815 0.366442 0.000000
0.827217 0.355364 0.000000
0.935145 0.353910 0.000000
0.000000 0.588515 0.180243
0.000000 0.586718 0.173728
0.255677 0.574714 0.152325
0.428017 0.564449 0.132949
0.575420 0.559116 0.120731
0.697504 0.537122 0.090555
0.823522 0.526787 0.000000
0.939418 0.520013 0.000000
0.000000 0.711056 0.272331
0.120848 0.709681 0.268143
0.292413 0.703020 0.253149
0.445010 0.690849 0.225193
0.579075 0.688834 0.221264
0.704132 0.687613 0.217976
0.808027 0.671940 0.218885
0.921855 0.667871 0.110825
0.265918 0.815991 0.386459
0.307208 0.815581 0.383977
0.385802 0.811510 0.372872
0.490263 0.805036 0.353447
0.603499 0.798409 0.333877
0.712998 0.798897 0.339198
0.817822 0.799562 0.343460
0.904499 0.788861 0.361120
0.481106 0.915396 0.533711
0.498784 0.915518 0.532698
0.535291 0.913326 0.524895
0.594820 0.910205 0.511732
0.672930 0.905817 0.492028
0.759982 0.904266 0.489764
0.846188 0.905187 0.501112
0.929568 0.905951 0.510775
0.019331 0.010682 0.082154
0.080896 0.005403 0.072246
0.179401 0.002536 0.069141
0.328626 0.000000 0.057222
0.495120 0.000000 0.030737
0.647855 0.000000 0.000134
0.785970 0.000000 0.000000
0.915070 0.000000 0.000000
0.012089 0.085749 0.110425
0.096249 0.086827 0.105371
0.209206 0.078842 0.091764
0.357053 0.053088 0.070938
0.514902 0.000591 0.035404
0.660801 0.000000 0.000110
0.793544 0.000000 0.000000
0.919262 0.000000 0.000000
0.000000 0.248414 0.153083
0.085674 0.245768 0.140671
0.247892 0.230581 0.129200
0.399823 0.215378 0.097296
0.553215 0.193184 0.045000
0.686095 0.167388 0.000000
0.809672 0.153129 0.000000
0.926866 0.143720 0.000000
0.000000 0.439502 0.185986
0.000050 0.434868 0.178700
0.261169 0.417645 0.157309
0.423376 0.407365 0.148010
0.567480 0.384193 0.111795
0.708544 0.366251 0.003390
0.827381 0.350428 0.000000
0.936151 0.345824 0.000000
0.000000 0.593848 0.239828
0.000000 0.591579 0.234325
0.254026 0.579262 0.215719
0.430196 0.566664 0.196665
0.576788 0.561133 0.189531
0.698403 0.539811 0.165872
0.824349 0.528371 0.033823
0.940318 0.519821 0.000000
0.000000 0.714900 0.315454
0.130432 0.713635 0.311617
0.295194 0.706566 0.297546
0.445960 0.694066 0.271793
0.580104 0.690184 0.265426
0.704023 0.688561 0.263529
0.807783 0.673582 0.262442
0.922086 0.669702 0.177699
0.275181 0.818740 0.415966
0.313789 0.817749 0.413015
0.389922 0.813880 0.402508
0.491840 0.807158 0.383833
0.603988 0.799141 0.361324
0.712618 0.799141 0.366233
0.817173 0.799971 0.371196
0.904525 0.790639 0.389246
0.484276 0.916228 0.549981
0.501855 0.916515 0.549162
0.537513 0.914286 0.541429
0.596041 0.911064 0.528870
0.672786 0.906568 0.509440
0.759236 0.904266 0.503920
0.845692 0.905408 0.515287
0.929121 0.906663 0.525701
0.027902 0.007200 0.185537
0.106393 0.000000 0.179748
0.184336 0.000000 0.166269
0.327339 0.000000 0.169197
0.505156 0.000000 0.143632
0.654063 0.000000 0.114904
0.790760 0.000000 0.079254
0.917423 0.000000 0.001266
0.000000 0.067574 0.216724
0.106645 0.072610 0.213400
0.213714 0.065488 0.199366
0.359641 0.032807 0.189838
0.523719 0.000000 0.154675
0.665917 0.000000 0.132041
0.798361 0.000000 0.085389
0.921627 0.000000 0.001380
0.000000 0.223955 0.266635
0.059323 0.227878 0.264769
0.246061 0.235151 0.257846
0.404898 0.215793 0.230296
0.554633 0.186470 0.195287
0.688125 0.151909 0.154730
0.812933 0.118459 0.099660
0.929802 0.096484 0.002409
0.000000 0.437174 0.317805
0.000000 0.437638 0.311100
0.241675 0.430228 0.291246
0.427277 0.413888 0.277189
0.576758 0.392959 0.244310
0.710779 0.368245 0.191922
0.827270 0.347064 0.131810
0.937346 0.333688 0.011639
0.000000 0.598481 0.348055
0.000000 0.599448 0.342596
0.244440 0.589609 0.330583
0.432460 0.571271 0.306645
0.579108 0.566109 0.304453
0.701432 0.547110 0.281620
0.826483 0.533508 0.213655
0.939402 0.519198 0.109582
0.000000 0.720921 0.399395
0.141993 0.719532 0.398276
0.297750 0.712578 0.386055
0.445173 0.700482 0.364012
0.580767 0.692242 0.351282
0.703550 0.691000 0.352295
0.807783 0.678132 0.347173
0.921520 0.672510 0.280746
0.287586 0.821332 0.475423
0.323220 0.820573 0.473026
0.394784 0.816784 0.463740
0.492561 0.810131 0.446773
0.602300 0.799742 0.419861
0.711051 0.799400 0.423949
0.815303 0.800844 0.430512
0.903270 0.793114 0.444097
0.485862 0.916972 0.583731
0.502624 0.917035 0.582887
0.537597 0.915067 0.576119
0.594978 0.912001 0.564531
0.670133 0.907454 0.546574
0.756689 0.904009 0.535168
0.843902 0.905408 0.546699
0.927492 0.906708 0.556687
0.016543 0.000000 0.325338
0.122215 0.000000 0.322765
0.235118 0.000000 0.317028
0.348218 0.000000 0.303045
0.505384 0.000000 0.294183
0.668287 0.000000 0.271501
0.804125 0.000000 0.223464
0.920766 0.000000 0.183637
0.009722 0.051515 0.351097
0.116577 0.043863 0.348784
0.246302 0.015441 0.343428
0.375090 0.000067 0.328168
0.525541 0.000000 0.314744
0.677710 0.000000 0.283610
0.808680 0.000000 0.232598
0.922738 0.000000 0.198749
0.000000 0.183473 0.389492
0.002275 0.184976 0.390914
0.254622 0.202991 0.388913
0.411280 0.202988 0.373646
0.554909 0.208695 0.355689
0.691429 0.142181 0.311181
0.810478 0.111775 0.276482
0.929130 0.020884 0.219287
0.000000 0.397865 0.435430
0.000000 0.402686 0.435967
0.232332 0.411588 0.434414
0.431197 0.425637 0.430967
0.577235 0.402864 0.398817
0.702733 0.377527 0.360295
0.821616 0.352253 0.313535
0.934315 0.326094 0.250958
0.000000 0.598576 0.483334
0.000000 0.599576 0.480878
0.235284 0.597377 0.470864
0.429725 0.589618 0.453053
0.582615 0.576130 0.441495
0.706316 0.559331 0.414235
0.827104 0.539909 0.363723
0.934357 0.517870 0.303514
0.000000 0.722502 0.505071
0.142397 0.723039 0.503913
0.296803 0.721414 0.497071
0.446876 0.712574 0.484464
0.581249 0.696806 0.460310
0.703297 0.696372 0.464290
0.808218 0.685517 0.452226
0.921354 0.676205 0.395333
0.272061 0.825247 0.547500
0.316106 0.825294 0.548012
0.403740 0.822968 0.548498
0.495730 0.816107 0.534825
0.598756 0.804986 0.509600
0.708524 0.800481 0.502429
0.812827 0.802728 0.510823
0.902320 0.796946 0.516151
0.470266 0.919540 0.627914
0.497823 0.919368 0.632240
0.534970 0.917429 0.627745
0.590483 0.914349 0.617349
0.663608 0.909468 0.600530
0.750341 0.903754 0.579724
0.840185 0.905598 0.591386
0.924836 0.907160 0.601393
0.012982 0.000000 0.465832
0.134562 0.000000 0.464579
0.261599 0.000000 0.461554
0.400173 0.000000 0.457135
0.526163 0.000000 0.443734
0.664590 0.000000 0.421994
0.816309 0.000000 0.414876
0.936142 0.000000 0.369178
0.034715 0.005426 0.482232
0.135269 0.000899 0.481787
0.263978 0.000000 0.479255
0.411732 0.000000 0.473300
0.542977 0.000000 0.459328
0.675839 0.000000 0.437025
0.819512 0.000000 0.425197
0.936941 0.000000 0.376425
0.000000 0.157642 0.512229
0.103482 0.168945 0.512923
0.269023 0.163600 0.509644
0.431362 0.151905 0.503633
0.569165 0.147950 0.490768
0.692419 0.200327 0.472601
0.822389 0.161165 0.447066
0.936195 0.006187 0.391435
0.000000 0.340691 0.538507
0.000000 0.345107 0.539571
0.211283 0.353579 0.539612
0.434809 0.384078 0.540760
0.583282 0.396332 0.530900
0.701292 0.416331 0.517431
0.819906 0.364834 0.471829
0.927126 0.316327 0.416876
0.000000 0.554021 0.574442
0.000000 0.558031 0.575767
0.248360 0.564159 0.575666
0.429494 0.575502 0.576460
0.589646 0.591337 0.577240
0.705526 0.568295 0.546129
0.816593 0.539803 0.504547
0.926564 0.507377 0.449353
0.000000 0.725540 0.620769
0.152117 0.726355 0.620180
0.302969 0.724647 0.614421
0.445329 0.721913 0.603957
0.583201 0.714407 0.588399
0.705738 0.705999 0.580222
0.811469 0.694406 0.557974
0.922501 0.675233 0.505038
0.259941 0.828469 0.637593
0.301684 0.828926 0.637052
0.377945 0.827481 0.631845
0.482856 0.824542 0.624272
0.596544 0.815697 0.611939
0.704192 0.803190 0.589107
0.810731 0.806168 0.598684
0.902684 0.800588 0.591925
0.413445 0.923789 0.679183
0.440812 0.924266 0.680383
0.495173 0.922534 0.679531
0.573296 0.919435 0.678959
0.652015 0.913848 0.667237
0.738202 0.906737 0.644783
0.833526 0.905896 0.645174
0.921257 0.907443 0.655374
0.067840 0.000000 0.593722
0.164311 0.000000 0.593147
0.293646 0.000000 0.591980
0.428605 0.000000 0.589295
0.574566 0.000000 0.585106
0.695710 0.000000 0.576218
0.807523 0.000000 0.547276
0.939913 0.000000 0.549610
0.117132 0.000000 0.603737
0.183886 0.000000 0.603416
0.295564 0.000000 0.601780
0.432574 0.000000 0.598619
0.582673 0.000000 0.594310
0.705244 0.000000 0.585664
0.812842 0.000000 0.557072
0.939655 0.000000 0.556431
0.074957 0.125977 0.622158
0.168402 0.121949 0.622005
0.296994 0.108722 0.620078
0.443508 0.078006 0.617132
0.596832 0.023626 0.613232
0.719531 0.026896 0.605431
0.819289 0.157732 0.579256
0.936100 0.201586 0.570395
0.000000 0.282167 0.638688
0.000000 0.287345 0.640624
0.276489 0.325751 0.641490
0.445256 0.334097 0.639527
0.600485 0.340378 0.636729
0.723766 0.359649 0.630596
0.818283 0.410884 0.612141
0.928019 0.387381 0.587240
0.000000 0.496942 0.659175
0.000000 0.500125 0.659852
0.215637 0.504985 0.659211
0.392057 0.513672 0.658716
0.583359 0.545212 0.661890
0.715479 0.564658 0.658727
0.812262 0.585451 0.648311
0.918527 0.522298 0.597205
0.040020 0.680003 0.686755
0.166164 0.682362 0.687700
0.301054 0.685767 0.687731
0.439835 0.692401 0.688263
0.580384 0.704556 0.690878
0.715456 0.723098 0.696716
0.810338 0.699320 0.665439
0.910944 0.665018 0.618518
0.259144 0.829682 0.735232
0.303595 0.830662 0.735871
0.383296 0.830281 0.733824
0.482661 0.828446 0.727053
0.590377 0.825681 0.715503
0.704652 0.819260 0.700430
0.811474 0.813588 0.694978
0.905182 0.803668 0.673179
0.406529 0.924809 0.761802
0.431086 0.926031 0.762514
0.473442 0.925130 0.758383
0.537510 0.923573 0.750270
0.623137 0.920689 0.739645
0.725452 0.914003 0.729481
0.822326 0.906200 0.709696
0.916625 0.907897 0.721085
0.144858 0.000000 0.717760
0.213965 0.000000 0.717319
0.329377 0.000000 0.716476
0.466974 0.000000 0.715168
0.611291 0.000000 0.713154
0.748044 0.000000 0.710252
0.856025 0.000000 0.703048
0.927957 0.000000 0.654695
0.220475 0.000000 0.722430
0.264845 0.000000 0.722043
0.354718 0.000000 0.720991
0.475844 0.000000 0.719524
0.612963 0.000000 0.717728
0.751883 0.000000 0.714855
0.859677 0.000000 0.707703
0.929627 0.000000 0.660178
0.190676 0.031906 0.731041
0.244737 0.017245 0.730975
0.346020 0.003780 0.729916
0.475486 0.000000 0.728701
0.616792 0.000000 0.726960
0.756850 0.000000 0.724542
0.863125 0.000000 0.717467
0.930414 0.023486 0.673234
0.103109 0.266092 0.741434
0.210371 0.275017 0.741574
0.330250 0.274066 0.740768
0.468586 0.271096 0.739788
0.612219 0.269324 0.738421
0.751201 0.274941 0.736364
0.857364 0.294805 0.729862
0.924747 0.362243 0.693067
0.000000 0.432452 0.748305
0.000000 0.433523 0.748797
0.166588 0.435277 0.749627
0.409315 0.465112 0.750842
0.584491 0.485885 0.750101
0.729234 0.499641 0.749073
0.839468 0.520573 0.744007
0.912630 0.560590 0.720551
0.000000 0.629698 0.764694
0.000808 0.632167 0.765935
0.213258 0.632686 0.764661
0.374925 0.635548 0.763522
0.525733 0.642472 0.762116
0.701426 0.675285 0.766272
0.820438 0.695044 0.765500
0.903264 0.710072 0.754427
0.208972 0.785286 0.787069
0.262779 0.787899 0.788935
0.348197 0.789329 0.788428
0.458253 0.793321 0.788745
0.577284 0.800343 0.790229
0.699529 0.811833 0.794169
0.820803 0.829837 0.802780
0.903349 0.800459 0.763868
0.378708 0.922079 0.843087
0.406988 0.923446 0.844418
0.457688 0.923397 0.843585
0.534198 0.923964 0.842496
0.620908 0.923624 0.836900
0.711355 0.921785 0.824333
0.811781 0.914936 0.806442
0.912533 0.910373 0.802091
0.226996 0.000000 0.842641
0.278486 0.000000 0.842368
0.377636 0.000000 0.841607
0.503958 0.000000 0.840348
0.638986 0.000000 0.838029
0.772492 0.000000 0.833369
0.898476 0.000000 0.828666
0.997558 0.000000 0.820987
0.279212 0.000000 0.845350
0.320853 0.000000 0.845203
0.407203 0.000000 0.844439
0.523307 0.000000 0.843104
0.651843 0.000000 0.840743
0.780869 0.000000 0.835817
0.903368 0.000000 0.831076
0.998063 0.000000 0.823623
0.309616 0.000000 0.850729
0.346369 0.000000 0.850674
0.424664 0.000000 0.849834
0.533634 0.000000 0.848336
0.656993 0.000000 0.845718
0.782712 0.000000 0.840743
0.904593 0.000000 0.835795
0.998022 0.000000 0.828402
0.265620 0.208227 0.856057
0.310104 0.205607 0.856180
0.398996 0.196799 0.855323
0.516373 0.180365 0.853908
0.644136 0.154301 0.851086
0.772444 0.116246 0.846432
0.897171 0.074809 0.841653
0.992299 0.061017 0.834118
0.000000 0.361524 0.862349
0.011613 0.372457 0.862908
0.284421 0.398975 0.861123
0.461926 0.416412 0.858806
0.605574 0.413877 0.855945
0.743463 0.413432 0.851858
0.872936 0.420149 0.847167
0.970848 0.434408 0.840093
0.000000 0.579512 0.866579
0.000000 0.580368 0.867643
0.003386 0.576255 0.866075
0.294243 0.570405 0.864336
0.516836 0.587902 0.862261
0.698351 0.612202 0.858000
0.836926 0.624527 0.854374
0.940299 0.642660 0.849078
0.000000 0.758995 0.880014
0.072504 0.760852 0.881268
0.235328 0.760487 0.880107
0.372931 0.759788 0.878316
0.503086 0.757944 0.874726
0.630895 0.754385 0.869151
0.798959 0.777759 0.868212
0.916932 0.797836 0.868143
0.347134 0.893056 0.902168
0.375787 0.894828 0.903507
0.425933 0.895222 0.903029
0.500867 0.896492 0.902476
0.591001 0.898265 0.901132
0.691417 0.901189 0.899536
0.800855 0.907593 0.899552
0.919900 0.925338 0.909934
