gsg/01_Basics/GSG_LUT_Basic_GreenShadows.cube
# GSG LUTs 1.0
# Copyright (c) 2016-2020 Greyscalegorilla
# See EULA for licensing and distribution information
# Converted by Briz LUT Converter
LUT_3D_SIZE 32
0.000000 0.000000 0.000000
0.032502 0.000000 0.000236
0.064989 0.000000 0.000000
0.096774 0.000000 0.000024
0.129064 0.000213 0.000000
0.161574 0.000000 0.000000
0.193793 0.000197 0.000000
0.226240 0.000000 0.000189
0.258616 0.000000 0.000000
0.291126 0.000000 0.000000
0.323636 0.000000 0.000165
0.356146 0.000000 0.000000
0.388901 0.000000 0.000095
0.421553 0.000000 0.000386
0.454165 0.000000 0.000000
0.487164 0.000000 0.000000
0.519918 0.000000 0.000000
0.552806 0.000000 0.000000
0.585813 0.000000 0.000000
0.618819 0.000000 0.000000
0.651912 0.000000 0.000000
0.685076 0.000000 0.000000
0.718154 0.000000 0.000000
0.751333 0.000000 0.000000
0.784584 0.000000 0.000000
0.817590 0.000000 0.000000
0.850636 0.000000 0.000000
0.883847 0.000000 0.000000
0.916854 0.000000 0.000000
0.949632 0.000000 0.000000
0.982386 0.000000 0.000000
1.000000 0.000000 0.000000
0.000008 0.032494 0.000244
0.032479 0.032502 0.000000
0.064523 0.032464 0.000222
0.096775 0.032487 0.000000
0.129313 0.032221 0.000008
0.161535 0.032022 0.000008
0.193800 0.032253 0.000000
0.226295 0.032433 0.000000
0.258622 0.032071 0.000181
0.291124 0.031865 0.000069
0.323636 0.031686 0.000000
0.356151 0.031098 0.000092
0.388756 0.030709 0.000299
0.421556 0.030054 0.000274
0.454405 0.028768 0.000000
0.487164 0.027996 0.000000
0.519922 0.026637 0.000000
0.552810 0.025034 0.000000
0.585915 0.023077 0.000000
0.618914 0.021175 0.000000
0.651917 0.018785 0.000000
0.685076 0.015883 0.000000
0.718327 0.012814 0.000000
0.751333 0.009341 0.000000
0.784584 0.005926 0.000000
0.817638 0.001213 0.000000
0.850841 0.000429 0.000000
0.883847 0.000292 0.000000
0.916854 0.000133 0.000000
0.949632 0.000003 0.000000
0.982386 0.000000 0.000000
1.000000 0.000000 0.000000
0.000000 0.064745 0.000228
0.031816 0.064737 0.000008
0.064287 0.064715 0.000016
0.096798 0.064708 0.000014
0.129276 0.064516 0.000215
0.161535 0.064516 0.000242
0.194037 0.064319 0.000000
0.226298 0.064336 0.000177
0.258616 0.064327 0.000181
0.291126 0.064194 0.000005
0.323802 0.064017 0.000105
0.356385 0.063925 0.000488
0.388901 0.063201 0.000140
0.421655 0.062855 0.000000
0.454409 0.062121 0.000000
0.487164 0.061247 0.000000
0.520044 0.060034 0.000000
0.552917 0.059042 0.000000
0.585915 0.057570 0.000000
0.619054 0.055853 0.000000
0.652070 0.053826 0.000000
0.685081 0.051529 0.000000
0.718327 0.048854 0.000000
0.751408 0.045697 0.000000
0.784584 0.041806 0.000000
0.817834 0.038170 0.000000
0.850841 0.034474 0.000000
0.883849 0.029871 0.000000
0.916876 0.025340 0.000000
0.949646 0.020504 0.000000
0.982386 0.016724 0.000000
1.000000 0.012990 0.000000
0.000000 0.096774 0.000024
0.032037 0.096774 0.000000
0.064496 0.096774 0.000002
0.096755 0.096774 0.000021
0.129280 0.096774 0.000003
0.161755 0.096774 0.000020
0.193859 0.096732 0.000197
0.226345 0.096504 0.000042
0.258633 0.096536 0.000093
0.291126 0.096523 0.000214
0.323809 0.096451 0.000292
0.356391 0.096121 0.000000
0.388915 0.095776 0.000000
0.421655 0.095333 0.000000
0.454420 0.094967 0.000000
0.487175 0.094268 0.000000
0.520162 0.093734 0.000000
0.552930 0.092659 0.000000
0.586057 0.091677 0.000000
0.619063 0.090535 0.000000
0.652078 0.089085 0.000000
0.685320 0.087370 0.000000
0.718334 0.085722 0.000000
0.751577 0.083704 0.000000
0.784608 0.081458 0.000000
0.817834 0.079086 0.000000
0.850845 0.076679 0.000000
0.883899 0.073799 0.000000
0.916877 0.070873 0.000000
0.949655 0.067768 0.000000
0.982417 0.064581 0.000000
1.000000 0.061885 0.000000
0.000244 0.129032 0.000032
0.032078 0.129032 0.000062
0.064618 0.129019 0.000049
0.096878 0.129029 0.000055
0.129123 0.129005 0.000095
0.161569 0.129032 0.000095
0.194037 0.129032 0.000607
0.226367 0.129025 0.000309
0.258829 0.128977 0.000370
0.291370 0.128779 0.000000
0.323880 0.128544 0.000000
0.356548 0.128457 0.000000
0.389145 0.128287 0.000000
0.421687 0.127953 0.000000
0.454537 0.127553 0.000000
0.487408 0.126992 0.000000
0.520179 0.126371 0.000000
0.553178 0.125851 0.000000
0.586159 0.125015 0.000000
0.619177 0.124156 0.000000
0.652314 0.123164 0.000000
0.685389 0.121958 0.000000
0.718571 0.120722 0.000000
0.751586 0.119091 0.000000
0.784828 0.117437 0.000000
0.817907 0.115704 0.000000
0.851085 0.113811 0.000000
0.884092 0.111824 0.000000
0.917098 0.109843 0.000000
0.949876 0.107663 0.000000
0.982630 0.105510 0.000000
1.000000 0.103801 0.000000
0.000449 0.161290 0.000205
0.033029 0.161290 0.000403
0.065236 0.161290 0.000205
0.097298 0.161251 0.000189
0.129699 0.161080 0.000178
0.161812 0.161251 0.000033
0.194116 0.161078 0.000000
0.226548 0.161046 0.000000
0.259041 0.160983 0.000000
0.291410 0.160889 0.000000
0.324125 0.160802 0.000000
0.356635 0.160690 0.000000
0.389169 0.160353 0.000000
0.421916 0.160211 0.000000
0.454671 0.159736 0.000000
0.487553 0.159502 0.000000
0.520406 0.158987 0.000000
0.553313 0.158492 0.000000
0.586318 0.157974 0.000000
0.619323 0.157044 0.000000
0.652426 0.156302 0.000000
0.685565 0.155283 0.000000
0.718610 0.154224 0.000000
0.751822 0.153222 0.000000
0.784867 0.151964 0.000000
0.818079 0.150593 0.000000
0.851125 0.148907 0.000000
0.884123 0.147445 0.000000
0.917122 0.145744 0.000000
0.949876 0.144443 0.000000
0.982630 0.142786 0.000000
1.000000 0.141337 0.000000
0.001465 0.193304 0.000000
0.033169 0.193311 0.000191
0.065566 0.193304 0.000000
0.097492 0.193304 0.000005
0.129812 0.193304 0.000000
0.162023 0.193304 0.000000
0.194328 0.193304 0.000000
0.226783 0.193115 0.000152
0.259286 0.193060 0.000000
0.291662 0.193200 0.000000
0.324172 0.193045 0.000000
0.356879 0.192746 0.000000
0.389418 0.192692 0.000000
0.422143 0.192489 0.000000
0.454924 0.192217 0.000000
0.487699 0.191870 0.000000
0.520675 0.191469 0.000000
0.553452 0.191109 0.000000
0.586565 0.190496 0.000000
0.619570 0.189859 0.000000
0.652605 0.189129 0.000000
0.685675 0.188381 0.000000
0.718829 0.187575 0.000000
0.751920 0.186494 0.000000
0.785083 0.185495 0.000000
0.818323 0.184458 0.000000
0.851337 0.183056 0.000000
0.884342 0.181844 0.000000
0.917342 0.180617 0.000000
0.950120 0.179421 0.000000
0.982684 0.178173 0.000000
1.000000 0.176935 0.000000
0.001654 0.225562 0.000000
0.033666 0.225562 0.000000
0.065624 0.225562 0.000000
0.097580 0.225562 0.000000
0.130064 0.225555 0.000000
0.162298 0.225553 0.000000
0.194580 0.225526 0.000000
0.226936 0.225464 0.000000
0.259530 0.225318 0.000000
0.291898 0.225302 0.000000
0.324406 0.225111 0.000000
0.356934 0.225074 0.000000
0.389667 0.224946 0.000000
0.422388 0.224617 0.000000
0.455167 0.224475 0.000000
0.487951 0.224223 0.000000
0.520803 0.223853 0.000000
0.553704 0.223475 0.000000
0.586680 0.222899 0.000000
0.619701 0.222482 0.000000
0.652822 0.221797 0.000000
0.685925 0.221117 0.000000
0.719075 0.220371 0.000000
0.752170 0.219638 0.000000
0.785329 0.218646 0.000000
0.818415 0.217664 0.000000
0.851574 0.216716 0.000000
0.884415 0.215723 0.000000
0.917366 0.214560 0.000000
0.950175 0.213726 0.000000
0.982876 0.212557 0.000000
1.000000 0.211808 0.000000
0.002143 0.257820 0.000000
0.034996 0.257637 0.000000
0.066395 0.257757 0.000000
0.098422 0.257576 0.000000
0.130584 0.257757 0.000000
0.162667 0.257576 0.000000
0.194880 0.257576 0.000000
0.227335 0.257576 0.000000
0.259837 0.257529 0.000000
0.292294 0.257332 0.000000
0.324799 0.257312 0.000000
0.357344 0.257269 0.000000
0.390052 0.257063 0.000000
0.422695 0.256949 0.000000
0.455449 0.256699 0.000000
0.488204 0.256355 0.000000
0.521202 0.255985 0.000000
0.554090 0.255733 0.000000
0.587060 0.255237 0.000000
0.620065 0.254873 0.000000
0.653110 0.254285 0.000000
0.686297 0.253790 0.000000
0.719367 0.253123 0.000000
0.752420 0.252377 0.000000
0.785624 0.251630 0.000000
0.818665 0.250715 0.000000
0.851666 0.249904 0.000000
0.884666 0.248966 0.000000
0.917610 0.248145 0.000000
0.950368 0.247064 0.000000
0.983119 0.246304 0.000000
1.000000 0.245555 0.000000
0.003947 0.289834 0.000000
0.036601 0.289834 0.000000
0.067705 0.289834 0.000000
0.098957 0.289834 0.000000
0.131309 0.289763 0.000000
0.163255 0.289795 0.000000
0.195526 0.289763 0.000000
0.227697 0.289724 0.000000
0.260152 0.289590 0.000000
0.292662 0.289569 0.000000
0.325149 0.289346 0.000000
0.357794 0.289346 0.000000
0.390370 0.289102 0.000000
0.423150 0.288999 0.000000
0.455875 0.288857 0.000000
0.488700 0.288579 0.000000
0.521454 0.288369 0.000000
0.554453 0.287991 0.000000
0.587451 0.287636 0.000000
0.620355 0.287243 0.000000
0.653448 0.286746 0.000000
0.686564 0.286133 0.000000
0.719619 0.285580 0.000000
0.752817 0.284885 0.000000
0.785876 0.284344 0.000000
0.818916 0.283603 0.000000
0.852073 0.282717 0.000000
0.884917 0.281971 0.000000
0.917854 0.281144 0.000000
0.950609 0.280468 0.000000
0.983195 0.279727 0.000000
1.000000 0.278987 0.000000
0.006026 0.321848 0.000000
0.038169 0.321848 0.000000
0.068935 0.321848 0.000000
0.100422 0.321848 0.000000
0.132089 0.321848 0.000000
0.163983 0.321848 0.000000
0.196084 0.321833 0.000000
0.228516 0.321732 0.000000
0.260888 0.321647 0.000000
0.293158 0.321604 0.000000
0.325722 0.321472 0.000000
0.358179 0.321360 0.000000
0.390933 0.321217 0.000000
0.423513 0.321082 0.000000
0.456399 0.320962 0.000000
0.489111 0.320712 0.000000
0.521950 0.320463 0.000000
0.554949 0.320139 0.000000
0.587948 0.319753 0.000000
0.620916 0.319406 0.000000
0.653917 0.319004 0.000000
0.687055 0.318508 0.000000
0.720115 0.318012 0.000000
0.753121 0.317457 0.000000
0.786311 0.316793 0.000000
0.819315 0.316113 0.000000
0.852385 0.315538 0.000000
0.885179 0.314808 0.000000
0.918098 0.314136 0.000000
0.950853 0.313396 0.000000
0.983447 0.312734 0.000000
1.000000 0.312159 0.000000
0.008579 0.354019 0.000000
0.041120 0.354019 0.000000
0.071159 0.353872 0.000000
0.101808 0.354004 0.000000
0.133157 0.353999 0.000000
0.164944 0.353848 0.000000
0.196769 0.353862 0.000000
0.229154 0.353775 0.000000
0.261412 0.353775 0.000000
0.293853 0.353618 0.000000
0.326358 0.353590 0.000000
0.358863 0.353531 0.000000
0.391482 0.353374 0.000000
0.424184 0.353221 0.000000
0.456938 0.353043 0.000000
0.489692 0.352722 0.000000
0.522447 0.352515 0.000000
0.555445 0.352224 0.000000
0.588378 0.351974 0.000000
0.621348 0.351514 0.000000
0.654385 0.351206 0.000000
0.687439 0.350766 0.000000
0.720611 0.350270 0.000000
0.753618 0.349774 0.000000
0.786624 0.349155 0.000000
0.819678 0.348554 0.000000
0.852662 0.348040 0.000000
0.885568 0.347387 0.000000
0.918421 0.346812 0.000000
0.951103 0.346150 0.000000
0.983610 0.345501 0.000000
1.000000 0.345000 0.000000
0.012045 0.386025 0.000000
0.044246 0.386025 0.000000
0.073134 0.386025 0.000000
0.103478 0.386011 0.000000
0.134787 0.385876 0.000000
0.166198 0.385876 0.000000
0.198115 0.385857 0.000000
0.230147 0.385854 0.000000
0.262335 0.385781 0.000000
0.294706 0.385632 0.000000
0.327165 0.385601 0.000000
0.359668 0.385537 0.000000
0.392170 0.385351 0.000000
0.424775 0.385230 0.000000
0.457611 0.385049 0.000000
0.490283 0.384853 0.000000
0.523115 0.384606 0.000000
0.555993 0.384359 0.000000
0.588940 0.384025 0.000000
0.621939 0.383736 0.000000
0.654937 0.383276 0.000000
0.688000 0.382881 0.000000
0.721108 0.382528 0.000000
0.754114 0.382032 0.000000
0.787142 0.381535 0.000000
0.820174 0.381010 0.000000
0.853133 0.380528 0.000000
0.885927 0.379802 0.000000
0.918681 0.379306 0.000000
0.951436 0.378670 0.000000
0.983951 0.378164 0.000000
1.000000 0.377667 0.000000
0.016716 0.418031 0.000000
0.048263 0.418027 0.000000
0.076223 0.417890 0.000000
0.105869 0.417890 0.000000
0.136626 0.417890 0.000000
0.167749 0.417873 0.000000
0.199508 0.417787 0.000000
0.231431 0.417787 0.000000
0.263474 0.417645 0.000000
0.295726 0.417645 0.000000
0.327992 0.417543 0.000000
0.360503 0.417401 0.000000
0.393013 0.417299 0.000000
0.425605 0.417114 0.000000
0.458277 0.417055 0.000000
0.491032 0.416810 0.000000
0.523859 0.416616 0.000000
0.556738 0.416368 0.000000
0.589621 0.416078 0.000000
0.622624 0.415747 0.000000
0.655627 0.415382 0.000000
0.688597 0.415038 0.000000
0.721634 0.414542 0.000000
0.754637 0.414151 0.000000
0.787672 0.413793 0.000000
0.820643 0.413297 0.000000
0.853630 0.412801 0.000000
0.886423 0.412181 0.000000
0.919178 0.411680 0.000000
0.951697 0.411170 0.000000
0.984202 0.410816 0.000000
1.000000 0.410319 0.000000
0.022238 0.449904 0.000000
0.053506 0.449904 0.000000
0.080412 0.449904 0.000000
0.108816 0.449904 0.000000
0.138996 0.449889 0.000000
0.169711 0.449793 0.000000
0.201132 0.449793 0.000000
0.232779 0.449793 0.000000
0.264826 0.449659 0.000000
0.296971 0.449627 0.000000
0.329186 0.449549 0.000000
0.361495 0.449376 0.000000
0.394005 0.449305 0.000000
0.426515 0.449171 0.000000
0.459270 0.449000 0.000000
0.491967 0.448873 0.000000
0.524722 0.448626 0.000000
0.557533 0.448328 0.000000
0.590485 0.448052 0.000000
0.623286 0.447800 0.000000
0.656371 0.447438 0.000000
0.689373 0.447143 0.000000
0.722344 0.446768 0.000000
0.755251 0.446304 0.000000
0.788253 0.445807 0.000000
0.821167 0.445445 0.000000
0.854144 0.445059 0.000000
0.886920 0.444563 0.000000
0.919574 0.444066 0.000000
0.952081 0.443570 0.000000
0.984458 0.443184 0.000000
1.000000 0.442822 0.000000
0.030100 0.481799 0.000000
0.059341 0.481799 0.000000
0.084124 0.481799 0.000000
0.112124 0.481799 0.000000
0.141588 0.481799 0.000000
0.171915 0.481799 0.000000
0.203159 0.481673 0.000000
0.234527 0.481646 0.000000
0.266445 0.481555 0.000000
0.298247 0.481555 0.000000
0.330505 0.481429 0.000000
0.362763 0.481311 0.000000
0.395148 0.481185 0.000000
0.427650 0.481067 0.000000
0.460262 0.480887 0.000000
0.492894 0.480761 0.000000
0.525584 0.480513 0.000000
0.558525 0.480387 0.000000
0.591280 0.480017 0.000000
0.624184 0.479768 0.000000
0.657114 0.479520 0.000000
0.690116 0.479151 0.000000
0.723030 0.478779 0.000000
0.755910 0.478443 0.000000
0.788880 0.478065 0.000000
0.821781 0.477569 0.000000
0.854661 0.477073 0.000000
0.887416 0.476805 0.000000
0.919950 0.476324 0.000000
0.952452 0.476057 0.000000
0.984832 0.475576 0.000000
1.000000 0.475324 0.000000
0.038426 0.513805 0.000000
0.065603 0.513687 0.000000
0.089275 0.513687 0.000000
0.115921 0.513675 0.000000
0.144749 0.513671 0.000000
0.174627 0.513561 0.000000
0.205442 0.513561 0.000000
0.236512 0.513561 0.000000
0.268060 0.513530 0.000000
0.299946 0.513317 0.000000
0.331914 0.513317 0.000000
0.364252 0.513275 0.000000
0.396510 0.513073 0.000000
0.428939 0.512970 0.000000
0.461434 0.512828 0.000000
0.494009 0.512649 0.000000
0.526764 0.512401 0.000000
0.559453 0.512206 0.000000
0.592272 0.511954 0.000000
0.625176 0.511702 0.000000
0.658025 0.511450 0.000000
0.690983 0.511160 0.000000
0.723778 0.510828 0.000000
0.756744 0.510449 0.000000
0.789622 0.510079 0.000000
0.822403 0.509678 0.000000
0.855158 0.509310 0.000000
0.887912 0.508937 0.000000
0.920446 0.508570 0.000000
0.952948 0.508315 0.000000
0.985206 0.507834 0.000000
1.000000 0.507582 0.000000
0.048344 0.545567 0.000000
0.072913 0.545567 0.000000
0.094977 0.545567 0.000000
0.120512 0.545567 0.000000
0.148672 0.545567 0.000000
0.177791 0.545549 0.000000
0.208130 0.545431 0.000000
0.239034 0.545323 0.000000
0.270295 0.545323 0.000000
0.301887 0.545323 0.000000
0.333692 0.545212 0.000000
0.365827 0.545079 0.000000
0.397999 0.544968 0.000000
0.430313 0.544834 0.000000
0.462759 0.544724 0.000000
0.495380 0.544590 0.000000
0.528000 0.544346 0.000000
0.560644 0.544162 0.000000
0.593445 0.543914 0.000000
0.626263 0.543708 0.000000
0.659018 0.543417 0.000000
0.691937 0.543168 0.000000
0.724771 0.542803 0.000000
0.757525 0.542455 0.000000
0.790390 0.542093 0.000000
0.823144 0.541815 0.000000
0.855898 0.541437 0.000000
0.888426 0.541093 0.000000
0.920942 0.540817 0.000000
0.953319 0.540344 0.000000
0.985462 0.540092 0.000000
1.000000 0.539840 0.000000
0.057923 0.577471 0.000000
0.080324 0.577570 0.000000
0.101251 0.577461 0.000000
0.125909 0.577329 0.000000
0.152780 0.577329 0.000000
0.181441 0.577329 0.000000
0.211080 0.577329 0.000000
0.241655 0.577329 0.000000
0.272811 0.577226 0.000000
0.304006 0.577085 0.000000
0.335767 0.577085 0.000000
0.367682 0.577048 0.000000
0.399693 0.576840 0.000000
0.431990 0.576797 0.000000
0.464248 0.576596 0.000000
0.496677 0.576425 0.000000
0.529306 0.576299 0.000000
0.561889 0.576108 0.000000
0.594643 0.575864 0.000000
0.627398 0.575674 0.000000
0.660152 0.575375 0.000000
0.693009 0.575062 0.000000
0.725763 0.574814 0.000000
0.758517 0.574567 0.000000
0.791272 0.574107 0.000000
0.823912 0.573855 0.000000
0.856639 0.573580 0.000000
0.889149 0.573319 0.000000
0.921438 0.572854 0.000000
0.953696 0.572602 0.000000
0.985955 0.572350 0.000000
1.000000 0.572098 0.000000
0.067951 0.609335 0.000000
0.088841 0.609335 0.000000
0.108159 0.609335 0.000000
0.131445 0.609335 0.000000
0.157707 0.609335 0.000000
0.185411 0.609170 0.000000
0.214628 0.609091 0.000000
0.244726 0.609091 0.000000
0.275268 0.609091 0.000000
0.306558 0.609020 0.000000
0.338004 0.608846 0.000000
0.369759 0.608846 0.000000
0.401520 0.608694 0.000000
0.433668 0.608602 0.000000
0.465981 0.608440 0.000000
0.498389 0.608358 0.000000
0.530868 0.608114 0.000000
0.563378 0.607937 0.000000
0.595928 0.607728 0.000000
0.628642 0.607567 0.000000
0.661397 0.607320 0.000000
0.694001 0.607073 0.000000
0.726756 0.606719 0.000000
0.759510 0.606443 0.000000
0.792127 0.606194 0.000000
0.824775 0.605945 0.000000
0.857300 0.605592 0.000000
0.889677 0.605345 0.000000
0.922084 0.605098 0.000000
0.954209 0.604845 0.000000
0.986215 0.604603 0.000000
1.000000 0.604356 0.000000
0.078695 0.641097 0.000000
0.097121 0.641097 0.000000
0.115363 0.641097 0.000000
0.137312 0.641097 0.000000
0.162877 0.641097 0.000000
0.189915 0.641097 0.000000
0.218614 0.641097 0.000000
0.248159 0.641010 0.000000
0.278474 0.640969 0.000000
0.309304 0.640852 0.000000
0.340490 0.640852 0.000000
0.371957 0.640608 0.000000
0.403750 0.640608 0.000000
0.435705 0.640455 0.000000
0.467872 0.640364 0.000000
0.500130 0.640201 0.000000
0.532433 0.640075 0.000000
0.564867 0.639876 0.000000
0.597443 0.639697 0.000000
0.629887 0.639448 0.000000
0.662540 0.639230 0.000000
0.695179 0.639056 0.000000
0.727794 0.638725 0.000000
0.760503 0.638473 0.000000
0.793032 0.638202 0.000000
0.825570 0.637952 0.000000
0.858047 0.637703 0.000000
0.890417 0.637454 0.000000
0.922675 0.637205 0.000000
0.954699 0.637103 0.000000
0.986706 0.636858 0.000000
1.000000 0.636772 0.000000
0.089354 0.673103 0.000000
0.106363 0.673103 0.000000
0.123021 0.673103 0.000000
0.143944 0.673095 0.000000
0.168527 0.673024 0.000000
0.194593 0.672858 0.000000
0.222720 0.672858 0.000000
0.251824 0.672858 0.000000
0.281701 0.672858 0.000000
0.312127 0.672732 0.000000
0.343143 0.672614 0.000000
0.374489 0.672614 0.000000
0.406050 0.672471 0.000000
0.437810 0.672370 0.000000
0.469782 0.672260 0.000000
0.501871 0.672126 0.000000
0.534170 0.671962 0.000000
0.566466 0.671838 0.000000
0.598968 0.671637 0.000000
0.631440 0.671457 0.000000
0.663914 0.671208 0.000000
0.696421 0.670958 0.000000
0.729033 0.670849 0.000000
0.761538 0.670602 0.000000
0.794043 0.670355 0.000000
0.826515 0.670109 0.000000
0.858821 0.669862 0.000000
0.891079 0.669615 0.000000
0.923187 0.669384 0.000000
0.955201 0.669206 0.000000
0.986963 0.669117 0.000000
1.000000 0.669117 0.000000
0.100028 0.704864 0.000000
0.115037 0.704864 0.000000
0.131246 0.704864 0.000000
0.150977 0.704864 0.000000
0.174298 0.704864 0.000000
0.199933 0.704864 0.000000
0.227266 0.704851 0.000000
0.255812 0.704793 0.000000
0.285336 0.704793 0.000000
0.315449 0.704620 0.000000
0.346118 0.704620 0.000000
0.377195 0.704549 0.000000
0.408488 0.704376 0.000000
0.440143 0.704346 0.000000
0.471976 0.704227 0.000000
0.503856 0.704097 0.000000
0.536025 0.703971 0.000000
0.568199 0.703817 0.000000
0.600530 0.703602 0.000000
0.632932 0.703466 0.000000
0.665263 0.703328 0.000000
0.697719 0.703107 0.000000
0.730171 0.702860 0.000000
0.762551 0.702614 0.000000
0.795053 0.702407 0.000000
0.827311 0.702154 0.000000
0.859640 0.702107 0.000000
0.891676 0.701863 0.000000
0.923691 0.701626 0.000000
0.955697 0.701619 0.000000
0.987217 0.701375 0.000000
1.000000 0.701375 0.000000
0.110150 0.736870 0.000000
0.124538 0.736870 0.000000
0.139241 0.736870 0.000000
0.158212 0.736870 0.000000
0.180511 0.736870 0.000000
0.205483 0.736860 0.000000
0.232176 0.736807 0.000000
0.260221 0.736626 0.000000
0.289172 0.736626 0.000000
0.318902 0.736626 0.000000
0.349195 0.736606 0.000000
0.379969 0.736382 0.000000
0.411013 0.736382 0.000000
0.442522 0.736319 0.000000
0.474177 0.736138 0.000000
0.505967 0.736107 0.000000
0.537943 0.735893 0.000000
0.570014 0.735830 0.000000
0.602190 0.735649 0.000000
0.634448 0.735475 0.000000
0.666823 0.735342 0.000000
0.699007 0.735118 0.000000
0.731466 0.734969 0.000000
0.763771 0.734719 0.000000
0.796046 0.734609 0.000000
0.828304 0.734377 0.000000
0.860380 0.734160 0.000000
0.892418 0.734121 0.000000
0.924188 0.733877 0.000000
0.955949 0.733877 0.000000
0.987536 0.733816 0.000000
1.000000 0.733814 0.000000
0.120509 0.768876 0.000000
0.133701 0.768876 0.000000
0.147816 0.768876 0.000000
0.165544 0.768821 0.000000
0.187261 0.768821 0.000000
0.210996 0.768821 0.000000
0.237121 0.768821 0.000000
0.264674 0.768778 0.000000
0.293143 0.768632 0.000000
0.322376 0.768616 0.000000
0.352422 0.768577 0.000000
0.383008 0.768577 0.000000
0.413717 0.768388 0.000000
0.445004 0.768333 0.000000
0.476410 0.768247 0.000000
0.508168 0.768117 0.000000
0.539958 0.768089 0.000000
0.571879 0.767869 0.000000
0.603891 0.767844 0.000000
0.636010 0.767600 0.000000
0.668195 0.767443 0.000000
0.700453 0.767356 0.000000
0.732711 0.767112 0.000000
0.764780 0.766931 0.000000
0.797038 0.766868 0.000000
0.829107 0.766623 0.000000
0.861151 0.766623 0.000000
0.892922 0.766379 0.000000
0.924684 0.766329 0.000000
0.956269 0.766324 0.000000
0.987727 0.766324 0.000000
1.000000 0.766324 0.000000
0.130340 0.801079 0.000000
0.142874 0.801079 0.000000
0.155748 0.801079 0.000000
0.172938 0.800882 0.000000
0.193696 0.800882 0.000000
0.216866 0.800875 0.000000
0.242287 0.800835 0.000000
0.269193 0.800835 0.000000
0.297101 0.800835 0.000000
0.326196 0.800835 0.000000
0.355879 0.800638 0.000000
0.386041 0.800591 0.000000
0.416613 0.800591 0.000000
0.447599 0.800508 0.000000
0.478969 0.800347 0.000000
0.510379 0.800347 0.000000
0.541943 0.800102 0.000000
0.573705 0.800102 0.000000
0.605711 0.799961 0.000000
0.637641 0.799858 0.000000
0.669684 0.799701 0.000000
0.701776 0.799614 0.000000
0.733816 0.799427 0.000000
0.765836 0.799370 0.000000
0.798031 0.799126 0.000000
0.829886 0.799087 0.000000
0.861822 0.798913 0.000000
0.893418 0.798840 0.000000
0.925180 0.798834 0.000000
0.956514 0.798834 0.000000
0.987782 0.798834 0.000000
1.000000 0.798834 0.000000
0.139911 0.833093 0.000000
0.151449 0.833093 0.000000
0.163924 0.833093 0.000000
0.180306 0.833093 0.000000
0.200320 0.833093 0.000000
0.222703 0.833093 0.000000
0.247485 0.833093 0.000000
0.273710 0.833093 0.000000
0.301363 0.833093 0.000000
0.330060 0.832994 0.000000
0.359274 0.832849 0.000000
0.389064 0.832849 0.000000
0.419449 0.832849 0.000000
0.450330 0.832724 0.000000
0.481232 0.832605 0.000000
0.512517 0.832605 0.000000
0.543928 0.832460 0.000000
0.575578 0.832360 0.000000
0.607452 0.832338 0.000000
0.639253 0.832116 0.000000
0.671040 0.832091 0.000000
0.703048 0.831938 0.000000
0.735027 0.831844 0.000000
0.766828 0.831833 0.000000
0.798834 0.831628 0.000000
0.830628 0.831588 0.000000
0.862397 0.831588 0.000000
0.893915 0.831384 0.000000
0.925251 0.831344 0.000000
0.956530 0.831344 0.000000
0.987584 0.831587 0.000000
1.000000 0.831588 0.000000
0.149128 0.865564 0.000000
0.160100 0.865564 0.000000
0.171829 0.865564 0.000000
0.187270 0.865351 0.000000
0.206534 0.865351 0.000000
0.228380 0.865351 0.000000
0.252366 0.865351 0.000000
0.278348 0.865351 0.000000
0.305416 0.865351 0.000000
0.333562 0.865351 0.000000
0.362525 0.865341 0.000000
0.392079 0.865107 0.000000
0.422214 0.865107 0.000000
0.452731 0.865107 0.000000
0.483617 0.865093 0.000000
0.514632 0.864973 0.000000
0.546016 0.864863 0.000000
0.577431 0.864845 0.000000
