gsg/01_Basics/GSG_LUT_Basic_CoolContrasty.cube
# GSG LUTs 1.0
# Copyright (c) 2016-2020 Greyscalegorilla
# See EULA for licensing and distribution information
# Converted by Briz LUT Converter
LUT_3D_SIZE 32
0.000000 0.000000 0.000000
0.020859 0.002978 0.003734
0.043231 0.005955 0.007956
0.066871 0.009201 0.012202
0.092024 0.012675 0.016921
0.118894 0.016188 0.021883
0.147111 0.020158 0.026894
0.176801 0.024184 0.032408
0.208003 0.028406 0.038119
0.240718 0.032873 0.044145
0.274867 0.037662 0.050353
0.310355 0.042381 0.056891
0.347016 0.047438 0.063594
0.384686 0.052653 0.070542
0.423254 0.057868 0.077601
0.462326 0.063327 0.084801
0.501532 0.068541 0.092000
0.540848 0.074001 0.099200
0.579802 0.079318 0.106400
0.617968 0.084525 0.113451
0.655126 0.089732 0.120154
0.691276 0.094529 0.126693
0.725826 0.099240 0.133144
0.758541 0.103706 0.139171
0.789744 0.107984 0.144937
0.818796 0.111954 0.150199
0.845981 0.115719 0.155162
0.871196 0.119193 0.159912
0.894395 0.122423 0.164134
0.915578 0.125196 0.167899
0.934988 0.127922 0.171618
0.952381 0.130403 0.174603
0.000000 0.022356 0.003978
0.020088 0.022592 0.005467
0.042743 0.022868 0.008704
0.066619 0.023845 0.012690
0.092016 0.025097 0.017180
0.118681 0.026891 0.022136
0.146867 0.029158 0.027146
0.176793 0.032105 0.032605
0.208001 0.035123 0.038363
0.240718 0.038818 0.044321
0.274867 0.042675 0.050597
0.310355 0.046876 0.057051
0.347016 0.051421 0.063747
0.384686 0.056123 0.070550
0.423254 0.061070 0.077734
0.462326 0.066143 0.084805
0.501532 0.071220 0.092004
0.540738 0.076419 0.099311
0.579802 0.081613 0.106404
0.617968 0.086573 0.113451
0.655126 0.091531 0.120241
0.691276 0.096325 0.126937
0.725824 0.101028 0.133147
0.758541 0.105489 0.139171
0.789555 0.109520 0.144937
0.818796 0.113490 0.150199
0.845981 0.117248 0.155163
0.871196 0.120509 0.159912
0.894395 0.123731 0.164135
0.915578 0.126480 0.167899
0.934988 0.129198 0.171618
0.952381 0.131443 0.174847
0.000000 0.046225 0.008445
0.016012 0.046453 0.008964
0.041476 0.046469 0.011193
0.065871 0.046964 0.014430
0.091504 0.047477 0.018415
0.118222 0.048454 0.022908
0.146607 0.049491 0.027858
0.176541 0.051003 0.033117
0.207744 0.052960 0.038808
0.240474 0.055240 0.044660
0.274697 0.057996 0.050857
0.310339 0.060948 0.057308
0.347001 0.064331 0.064004
0.384671 0.068024 0.070802
0.423113 0.071960 0.077986
0.462082 0.076254 0.085053
0.501525 0.080460 0.092252
0.540738 0.085138 0.099452
0.579654 0.089589 0.106512
0.617962 0.094179 0.113466
0.655126 0.098718 0.120404
0.691110 0.103168 0.126937
0.725744 0.107374 0.133226
0.758541 0.111410 0.139245
0.789555 0.115365 0.144949
0.818792 0.119122 0.150396
0.845981 0.122583 0.155406
0.871182 0.125812 0.159912
0.894381 0.128805 0.164158
0.915578 0.131538 0.168128
0.934972 0.134034 0.171618
0.952381 0.136272 0.174847
0.000000 0.071826 0.012935
0.000758 0.071826 0.013415
0.038439 0.071864 0.014698
0.064117 0.072094 0.017200
0.090275 0.072567 0.020659
0.117457 0.073063 0.024648
0.145909 0.073804 0.029378
0.176021 0.074649 0.034322
0.207247 0.075869 0.039813
0.240206 0.077405 0.045587
0.274434 0.079121 0.051613
0.310087 0.081389 0.057906
0.346749 0.083832 0.064510
0.384418 0.086405 0.071312
0.422986 0.089566 0.078257
0.462058 0.092871 0.085439
0.501288 0.096309 0.092631
0.540714 0.099881 0.099712
0.579558 0.103803 0.106771
0.617724 0.107519 0.113719
0.655118 0.111450 0.120651
0.691103 0.115373 0.127205
0.725582 0.119074 0.133476
0.758524 0.122776 0.139438
0.789555 0.126288 0.145199
0.818729 0.129517 0.150462
0.845776 0.132758 0.155430
0.870983 0.135715 0.160156
0.894175 0.138424 0.164381
0.915556 0.140927 0.168166
0.934743 0.143172 0.171862
0.952357 0.145378 0.174871
0.000000 0.098744 0.017685
0.000316 0.098744 0.018150
0.032353 0.098956 0.019134
0.061316 0.099008 0.020935
0.088271 0.099232 0.023853
0.116161 0.099689 0.027366
0.144866 0.100193 0.031378
0.175084 0.100769 0.036111
0.206719 0.101729 0.041348
0.239679 0.102698 0.046793
0.273938 0.104003 0.052645
0.309591 0.105546 0.058852
0.346252 0.107267 0.065386
0.384166 0.109310 0.072071
0.422618 0.111741 0.079018
0.461806 0.114191 0.085966
0.501154 0.116995 0.093143
0.540462 0.119940 0.100223
0.579314 0.122904 0.107267
0.617610 0.126075 0.114215
0.654882 0.129390 0.121005
0.690866 0.132587 0.127467
0.725489 0.135784 0.133908
0.758297 0.138824 0.139935
0.789310 0.141990 0.145457
0.818545 0.144763 0.150890
0.845736 0.147667 0.155716
0.870925 0.150183 0.160432
0.894151 0.152633 0.164675
0.915333 0.154854 0.168419
0.934743 0.156840 0.172106
0.952137 0.158793 0.175336
0.000000 0.127394 0.022900
0.000000 0.127394 0.023152
0.018451 0.127394 0.023884
0.056552 0.127602 0.025397
0.085491 0.127669 0.027645
0.113938 0.128093 0.030627
0.143345 0.128378 0.034353
0.173808 0.128875 0.038584
0.205546 0.129586 0.043400
0.238686 0.130387 0.048596
0.273158 0.131380 0.054338
0.308923 0.132445 0.060367
0.345732 0.133869 0.066573
0.383647 0.135358 0.073244
0.422238 0.137162 0.080033
0.461310 0.139128 0.086959
0.500760 0.141423 0.093907
0.540006 0.143639 0.101081
0.579030 0.146222 0.108047
0.617361 0.148749 0.114955
0.654598 0.151436 0.121673
0.690609 0.154122 0.128197
0.725239 0.156808 0.134416
0.758053 0.159441 0.140431
0.789225 0.161976 0.145953
0.818300 0.164425 0.151247
0.845525 0.166866 0.156184
0.870734 0.169123 0.160928
0.893927 0.171298 0.164965
0.915102 0.173264 0.168900
0.934499 0.175005 0.172390
0.952097 0.176706 0.175619
0.000000 0.157556 0.028359
0.000000 0.157558 0.028611
0.001669 0.157801 0.029123
0.048970 0.157801 0.030341
0.080992 0.157832 0.032132
0.110906 0.158084 0.034842
0.141070 0.158336 0.037913
0.172035 0.158822 0.041798
0.204068 0.159282 0.046126
0.237473 0.159882 0.051111
0.272133 0.160597 0.056536
0.308032 0.161573 0.062279
0.344987 0.162629 0.068329
0.382902 0.163854 0.074780
0.421586 0.165316 0.081429
0.460789 0.167001 0.088243
0.500241 0.168712 0.095166
0.539693 0.170554 0.102091
0.578534 0.172626 0.109039
0.616944 0.174824 0.115761
0.654346 0.177030 0.122533
0.690330 0.179219 0.128985
0.724975 0.181441 0.135159
0.757761 0.183694 0.141025
0.788822 0.185876 0.146693
0.818054 0.188020 0.151956
0.845240 0.190043 0.156918
0.870448 0.191981 0.161424
0.893682 0.193726 0.165670
0.914858 0.195431 0.169456
0.934255 0.196920 0.172933
0.951845 0.198409 0.176116
0.000000 0.189476 0.034117
0.000000 0.189531 0.034308
0.000000 0.189531 0.034814
0.035487 0.189720 0.035648
0.074699 0.189727 0.037307
0.106701 0.189964 0.039362
0.137879 0.190208 0.042141
0.169554 0.190508 0.045614
0.202188 0.190760 0.049604
0.235929 0.191311 0.054126
0.270708 0.191959 0.059238
0.306857 0.192769 0.064741
0.343942 0.193517 0.070519
0.381992 0.194589 0.076798
0.420812 0.195776 0.083217
0.460045 0.197019 0.089787
0.499594 0.198480 0.096582
0.538974 0.200072 0.103408
0.578038 0.201756 0.110299
0.616427 0.203495 0.117001
0.653831 0.205423 0.123581
0.689834 0.207224 0.129995
0.724479 0.209091 0.136067
0.757509 0.211019 0.141981
0.788523 0.212801 0.147489
0.817716 0.214686 0.152751
0.844949 0.216425 0.157714
0.870164 0.218109 0.162220
0.893363 0.219623 0.166460
0.914549 0.221060 0.170204
0.933956 0.222362 0.173682
0.951404 0.223546 0.176911
0.000000 0.222971 0.040135
0.000000 0.222971 0.040319
0.000000 0.223152 0.040651
0.003938 0.223152 0.041585
0.065495 0.223215 0.042798
0.101074 0.223396 0.044602
0.133834 0.223494 0.047068
0.166275 0.223744 0.050086
0.199512 0.224192 0.053802
0.233708 0.224444 0.057797
0.268912 0.224998 0.062566
0.305189 0.225680 0.067794
0.342526 0.226382 0.073307
0.380729 0.227201 0.079263
0.419757 0.228193 0.085509
0.459144 0.229274 0.091961
0.498689 0.230486 0.098506
0.538205 0.231812 0.105179
0.577271 0.233156 0.111847
0.615794 0.234645 0.118437
0.653110 0.236315 0.125070
0.689259 0.237804 0.131298
0.723938 0.239474 0.137311
0.756769 0.241097 0.143220
0.788026 0.242633 0.148740
0.817220 0.244121 0.153953
0.844452 0.245610 0.158717
0.869668 0.247036 0.163221
0.892891 0.248468 0.167458
0.914294 0.249707 0.171200
0.933459 0.250890 0.174674
0.951097 0.251889 0.177904
0.000000 0.258167 0.046414
0.000000 0.258167 0.046587
0.000000 0.258167 0.046847
0.000386 0.258167 0.047611
0.050697 0.258340 0.048635
0.093098 0.258411 0.050337
0.128313 0.258598 0.052369
0.162236 0.258845 0.055079
0.196229 0.259091 0.058293
0.230932 0.259388 0.062132
0.266642 0.259884 0.066500
0.303275 0.260380 0.071275
0.340817 0.260944 0.076549
0.379204 0.261690 0.082282
0.418378 0.262436 0.088196
0.457836 0.263390 0.094479
0.497609 0.264382 0.100894
0.537178 0.265548 0.107346
0.576456 0.266785 0.113898
0.614896 0.267994 0.120422
0.652344 0.269345 0.126716
0.688519 0.270646 0.132916
0.723192 0.272028 0.139044
0.756202 0.273496 0.144774
0.787420 0.274780 0.150144
0.816667 0.276159 0.155296
0.843897 0.277404 0.160054
0.869110 0.278609 0.164520
0.892371 0.279829 0.168678
0.913564 0.280838 0.172426
0.932963 0.281831 0.175913
0.950601 0.282823 0.178967
0.000000 0.294797 0.053039
0.000000 0.294797 0.053123
0.000000 0.294797 0.053377
0.000000 0.294876 0.054047
0.019289 0.294876 0.055055
0.082135 0.295041 0.056358
0.121201 0.295152 0.058277
0.156834 0.295303 0.060599
0.191985 0.295550 0.063516
0.227452 0.295845 0.066997
0.263721 0.296262 0.070962
0.300804 0.296593 0.075482
0.338753 0.297153 0.080351
0.377346 0.297784 0.085762
0.416736 0.298527 0.091496
0.456347 0.299350 0.097452
0.496294 0.300098 0.103572
0.535996 0.301091 0.109906
0.575312 0.302180 0.116279
0.613809 0.303242 0.122581
0.651412 0.304341 0.128887
0.687699 0.305583 0.134980
0.722423 0.306802 0.140879
0.755453 0.307866 0.146588
0.786656 0.309085 0.151883
0.815905 0.310260 0.156863
0.843149 0.311392 0.161621
0.868431 0.312490 0.166088
0.891646 0.313411 0.170239
0.912983 0.314396 0.173986
0.932388 0.315389 0.177234
0.949860 0.316137 0.180456
0.000000 0.332766 0.059821
0.000000 0.332766 0.060065
0.000000 0.332766 0.060310
0.000000 0.332853 0.060822
0.002460 0.333010 0.061594
0.065748 0.333010 0.062783
0.111668 0.333128 0.064319
0.150175 0.333255 0.066517
0.186733 0.333499 0.069061
0.223208 0.333743 0.072268
0.260160 0.334066 0.075978
0.297829 0.334476 0.080035
0.336035 0.334875 0.084753
0.375128 0.335468 0.089782
0.414581 0.336004 0.095191
0.454569 0.336705 0.100970
0.494600 0.337445 0.106881
0.534507 0.338320 0.112923
0.573823 0.339226 0.119127
0.612486 0.340218 0.125298
0.650171 0.341211 0.131348
0.686463 0.342203 0.137461
0.721344 0.343196 0.143172
0.754438 0.344346 0.148702
0.785663 0.345339 0.153953
0.814912 0.346331 0.158935
0.842184 0.347251 0.163606
0.867604 0.348230 0.167936
0.890811 0.349144 0.172075
0.912230 0.349970 0.175572
0.931640 0.350724 0.179046
0.949277 0.351467 0.182032
0.000000 0.372153 0.067013
0.000000 0.372153 0.067016
0.000000 0.372153 0.067273
0.000000 0.372162 0.067770
0.000000 0.372248 0.068541
0.030392 0.372272 0.069558
0.099037 0.372416 0.070986
0.141669 0.372526 0.072811
0.180402 0.372705 0.075222
0.218130 0.372957 0.078065
0.255866 0.373209 0.081445
0.294159 0.373522 0.085250
0.332942 0.373957 0.089616
0.372343 0.374454 0.094277
0.412205 0.374950 0.099500
0.452368 0.375518 0.104864
0.492615 0.376264 0.110568
0.532680 0.376966 0.116405
0.572240 0.377715 0.122447
0.610997 0.378558 0.128407
0.648801 0.379456 0.134326
0.685131 0.380354 0.140116
0.720099 0.381346 0.145819
0.753199 0.382119 0.151208
0.784460 0.383087 0.156420
0.813919 0.384003 0.161219
0.841176 0.384852 0.165930
0.866612 0.385726 0.170172
0.889825 0.386474 0.174154
0.911237 0.387232 0.177792
0.930647 0.387971 0.181034
0.948285 0.388475 0.184017
0.000000 0.412549 0.074308
0.000000 0.412549 0.074308
0.000000 0.412549 0.074561
0.000000 0.412549 0.074834
0.000000 0.412651 0.075579
0.004231 0.412674 0.076498
0.081128 0.412793 0.077766
0.130811 0.412927 0.079531
0.172419 0.413064 0.081602
0.211940 0.413281 0.084267
0.250716 0.413526 0.087250
0.289863 0.413856 0.090811
0.329214 0.414108 0.094836
0.369077 0.414605 0.099299
0.409295 0.415101 0.104203
0.449788 0.415597 0.109234
0.490283 0.416167 0.114713
0.530584 0.416788 0.120375
0.570337 0.417472 0.126086
0.609311 0.418213 0.131852
0.647126 0.419045 0.137650
0.683609 0.419859 0.143292
0.718610 0.420649 0.148797
0.751822 0.421497 0.154075
0.783142 0.422269 0.159282
0.812580 0.423041 0.164000
0.840057 0.423782 0.168514
0.865375 0.424522 0.172665
0.888818 0.425253 0.176636
0.910142 0.425901 0.180133
0.929655 0.426637 0.183371
0.947292 0.427138 0.186348
0.000000 0.453708 0.081752
0.000000 0.453842 0.081752
0.000000 0.453842 0.081996
0.000000 0.453952 0.082264
0.000000 0.453952 0.082792
0.000000 0.453952 0.083692
0.048106 0.453978 0.084824
0.116681 0.454197 0.086447
0.162694 0.454231 0.088277
0.204420 0.454480 0.090677
0.244708 0.454685 0.093481
0.284769 0.454977 0.096837
0.324857 0.455268 0.100492
0.365346 0.455654 0.104699
0.406013 0.456016 0.109226
0.446822 0.456513 0.114128
0.487630 0.457078 0.119282
0.528195 0.457639 0.124616
0.568057 0.458277 0.130223
0.607216 0.458876 0.135810
0.645232 0.459616 0.141321
0.681799 0.460321 0.146780
0.716877 0.461065 0.152161
0.750251 0.461728 0.157407
0.781629 0.462468 0.162284
0.811091 0.463208 0.166999
0.838568 0.463931 0.171379
0.864028 0.464562 0.175501
0.887471 0.465186 0.179251
0.908898 0.465816 0.182859
0.928414 0.466312 0.185962
0.946055 0.466808 0.188940
0.000000 0.495758 0.089196
0.000000 0.495758 0.089200
0.000000 0.495758 0.089448
0.000000 0.495758 0.089708
0.000000 0.495758 0.090236
0.000000 0.495758 0.090984
0.009531 0.495884 0.092126
0.097799 0.496002 0.093513
0.150808 0.496035 0.095191
0.195463 0.496246 0.097457
0.237653 0.496491 0.100013
0.278871 0.496659 0.102997
0.319855 0.496955 0.106520
0.361038 0.497276 0.110418
0.402283 0.497704 0.114624
0.443413 0.498139 0.119335
0.484604 0.498570 0.124237
0.525401 0.499193 0.129330
0.565576 0.499689 0.134662
0.604884 0.500262 0.139950
0.643048 0.500926 0.145409
0.679776 0.501507 0.150750
0.714992 0.502252 0.155881
0.748482 0.502872 0.160911
0.779991 0.503525 0.165746
0.809484 0.504218 0.170365
0.837079 0.504762 0.174627
0.862539 0.505368 0.178597
0.885982 0.505999 0.182347
0.907409 0.506495 0.185829
0.927055 0.506991 0.188940
0.944700 0.507487 0.191918
0.000000 0.537942 0.096884
0.000000 0.537942 0.096884
0.000000 0.537942 0.097018
0.000000 0.537942 0.097266
0.000000 0.537942 0.097680
0.000000 0.537942 0.098428
0.000000 0.537942 0.099421
0.068232 0.538186 0.100713
0.136003 0.538186 0.102352
0.185067 0.538430 0.104368
0.229496 0.538509 0.106714
0.272144 0.538761 0.109530
0.314287 0.539013 0.112679
0.356060 0.539265 0.116373
0.397873 0.539635 0.120397
0.439686 0.540013 0.124794
0.481130 0.540510 0.129387
0.522256 0.540880 0.134350
0.562724 0.541376 0.139430
0.602277 0.541999 0.144589
0.640648 0.542613 0.149718
0.677624 0.543109 0.154925
0.712844 0.543779 0.159888
0.746370 0.544346 0.164757
0.778006 0.544934 0.169499
0.807696 0.545558 0.173965
0.835220 0.546079 0.178101
0.860806 0.546678 0.182071
0.884367 0.547190 0.185797
0.905912 0.547686 0.189058
0.925444 0.548182 0.192162
0.943212 0.548434 0.195021
0.000000 0.579881 0.104329
0.000000 0.579881 0.104333
0.000000 0.579881 0.104573
0.000000 0.579991 0.104841
0.000000 0.579991 0.105337
0.000000 0.579991 0.105873
0.000000 0.580125 0.106865
0.015643 0.580150 0.107913
0.117100 0.580270 0.109430
0.172663 0.580401 0.111316
0.220036 0.580523 0.113490
0.264540 0.580771 0.116145
0.307894 0.581020 0.119130
0.350679 0.581268 0.122604
0.393139 0.581567 0.126299
0.435456 0.581888 0.130444
0.477404 0.582315 0.134964
0.518847 0.582811 0.139564
0.559588 0.583308 0.144393
0.599299 0.583804 0.149356
0.637874 0.584300 0.154390
0.675064 0.584797 0.159392
0.710568 0.585293 0.164181
0.744133 0.585899 0.168974
0.775862 0.586396 0.173469
0.805603 0.586892 0.177738
0.833235 0.587522 0.181953
0.858939 0.588018 0.185710
0.882503 0.588381 0.189295
0.904053 0.588877 0.192540
0.923704 0.589373 0.195652
0.941479 0.589625 0.198385
0.000000 0.621679 0.111915
0.000000 0.621679 0.112017
0.000000 0.621679 0.112024
0.000000 0.621679 0.112285
0.000000 0.621679 0.112781
0.000000 0.621781 0.113294
0.000000 0.621781 0.114065
0.002266 0.621813 0.115192
0.090762 0.621949 0.116602
0.157835 0.622066 0.118264
0.209346 0.622200 0.120328
0.255999 0.622448 0.122845
0.300792 0.622608 0.125669
0.344610 0.622860 0.128812
0.387964 0.623190 0.132388
0.430791 0.623490 0.136274
0.473247 0.623861 0.140492
0.515121 0.624301 0.144946
0.556178 0.624609 0.149660
0.596266 0.625105 0.154374
0.634968 0.625602 0.159190
0.672338 0.626098 0.163904
0.707954 0.626594 0.168648
0.741833 0.627090 0.173322
0.773595 0.627587 0.177683
0.803482 0.628083 0.181933
0.831227 0.628579 0.185923
0.856936 0.629076 0.189649
0.880618 0.629444 0.193155
0.902068 0.629926 0.196391
0.921859 0.630324 0.199240
0.939604 0.630675 0.201969
0.000000 0.662578 0.119217
0.000000 0.662578 0.119312
0.000000 0.662578 0.119461
0.000000 0.662578 0.119715
0.000000 0.662673 0.119981
0.000000 0.662697 0.120572
0.000000 0.662822 0.121341
0.000000 0.662822 0.122352
0.037851 0.662917 0.123652
0.140026 0.663067 0.125212
0.197057 0.663209 0.127197
0.246622 0.663344 0.129363
0.293051 0.663555 0.132125
0.338013 0.663799 0.135161
0.382268 0.664086 0.138536
0.425800 0.664333 0.142180
0.468833 0.664704 0.146199
0.511083 0.665005 0.150459
0.552515 0.665501 0.154870
0.592855 0.665903 0.159468
0.631937 0.666249 0.164087
0.669463 0.666745 0.168749
0.705179 0.667242 0.173331
0.739132 0.667738 0.177825
0.771113 0.668234 0.182047
0.801103 0.668731 0.186073
0.828996 0.669077 0.190043
0.854705 0.669479 0.193651
0.878412 0.669975 0.197125
0.900083 0.670322 0.200126
0.919828 0.670724 0.203104
0.937619 0.670976 0.205688
0.000000 0.702556 0.126504
0.000000 0.702556 0.126504
0.000000 0.702556 0.126519
0.000000 0.702556 0.126771
0.000000 0.702556 0.127161
0.000000 0.702714 0.127691
0.000000 0.702714 0.128308
0.000000 0.702800 0.129300
0.011679 0.702800 0.130559
0.117570 0.702983 0.131977
0.183199 0.703045 0.133743
0.236136 0.703233 0.136059
0.284710 0.703480 0.138540
0.331076 0.703635 0.141368
0.376203 0.703888 0.144543
0.420550 0.704140 0.148059
0.464091 0.704468 0.151948
0.506912 0.704888 0.156052
0.548726 0.705140 0.160274
0.589320 0.705636 0.164583
0.628524 0.705975 0.169050
0.666407 0.706385 0.173516
0.702339 0.706881 0.177983
0.736469 0.707377 0.182292
0.768597 0.707752 0.186514
0.798621 0.708142 0.190412
0.826594 0.708622 0.194133
0.852475 0.708981 0.197779
0.876246 0.709379 0.201095
0.897934 0.709719 0.204096
0.917747 0.710119 0.206921
0.935634 0.710371 0.209563
0.000000 0.741187 0.133451
0.000000 0.741187 0.133451
0.000000 0.741187 0.133467
0.000000 0.741187 0.133719
0.000000 0.741187 0.134040
0.000000 0.741266 0.134480
0.000000 0.741266 0.135223
0.000000 0.741431 0.136083
0.000000 0.741431 0.137261
0.085556 0.741510 0.138627
0.167241 0.741676 0.140385
0.224832 0.741813 0.142424
0.275650 0.741950 0.144778
0.323532 0.742197 0.147410
0.369865 0.742444 0.150498
0.414961 0.742690 0.153972
0.459174 0.742937 0.157610
0.502426 0.743310 0.161377
0.544653 0.743605 0.165591
0.585617 0.744053 0.169790
0.625208 0.744354 0.174012
0.663185 0.744850 0.178367
0.699397 0.745173 0.182701
0.733614 0.745598 0.186821
0.765869 0.746095 0.190791
0.796108 0.746394 0.194762
0.824113 0.746843 0.198500
0.850069 0.747195 0.201857
0.874008 0.747591 0.205089
0.895698 0.747849 0.208066
0.915593 0.748180 0.210808
0.933483 0.748592 0.213368
0.000000 0.778219 0.139982
0.000000 0.778219 0.140155
0.000000 0.778219 0.140226
0.000000 0.778219 0.140406
0.000000 0.778219 0.140746
0.000000 0.778219 0.141183
0.000000 0.778252 0.141786
0.000000 0.778408 0.142534
0.000000 0.778463 0.143642
0.031158 0.778463 0.145079
0.148796 0.778707 0.146646
0.212424 0.778769 0.148519
0.266116 0.778952 0.150782
0.315699 0.779196 0.153407
0.363220 0.779306 0.156343
0.409245 0.779558 0.159510
0.454089 0.779928 0.163021
0.497830 0.780173 0.166836
0.540480 0.780559 0.170806
0.581827 0.780811 0.174847
0.621734 0.781307 0.178975
0.659907 0.781582 0.183103
0.696196 0.782055 0.187297
0.730694 0.782326 0.191288
0.763142 0.782804 0.195258
0.793414 0.783160 0.199088
0.821631 0.783552 0.202576
0.847588 0.783875 0.206050
0.871527 0.784144 0.209216
0.893450 0.784557 0.212052
0.913356 0.784807 0.214778
0.931419 0.785127 0.217259
0.000000 0.813415 0.146433
0.000000 0.813415 0.146436
0.000000 0.813415 0.146508
0.000000 0.813415 0.146684
0.000000 0.813478 0.147008
0.000000 0.813478 0.147450
0.000000 0.813478 0.148009
0.000000 0.813659 0.148805
0.000000 0.813659 0.149797
0.011183 0.813722 0.151105
0.126777 0.813904 0.152672
0.198965 0.813967 0.154436
0.255991 0.814172 0.156667
0.307603 0.814287 0.159113
0.356397 0.814537 0.161873
0.403318 0.814787 0.165002
0.448880 0.815037 0.168443
0.493182 0.815322 0.171980
0.536290 0.815650 0.175840
0.577968 0.816031 0.179810
0.618173 0.816322 0.183780
0.656481 0.816633 0.187814
0.693198 0.817070 0.191784
0.727717 0.817369 0.195754
0.760400 0.817819 0.199584
0.790740 0.818106 0.203304
0.819111 0.818567 0.206790
0.845106 0.818819 0.210052
0.869290 0.819095 0.213267
0.891213 0.819398 0.216011
0.911119 0.819820 0.218742
0.929190 0.820072 0.221048
0.000000 0.846721 0.152452
0.000000 0.846721 0.152452
0.000000 0.846721 0.152455
0.000000 0.846721 0.152701
0.000000 0.846721 0.152972
0.000000 0.846721 0.153468
0.000000 0.846758 0.153964
0.000000 0.846910 0.154717
0.000000 0.846924 0.155612
0.000000 0.846965 0.156871
0.098127 0.847154 0.158360
0.184340 0.847209 0.160180
0.245552 0.847420 0.162186
0.299264 0.847533 0.164520
0.349424 0.847783 0.167247
0.397263 0.848034 0.170212
0.443676 0.848284 0.173469
0.488520 0.848534 0.176943
0.532049 0.848816 0.180693
0.574152 0.849142 0.184529
0.614475 0.849529 0.188310
0.653251 0.849817 0.192280
0.690149 0.850124 0.196250
0.724920 0.850565 0.200032
0.757632 0.850817 0.203800
0.788160 0.851269 0.207287
0.816629 0.851566 0.210761
0.842837 0.851842 0.214022
0.866808 0.852093 0.216999
0.888920 0.852514 0.219800
0.908882 0.852818 0.222474
0.926960 0.853070 0.224767
0.000000 0.877947 0.157966
0.000000 0.877947 0.157966
0.000000 0.877947 0.158210
0.000000 0.877947 0.158234
0.000000 0.877947 0.158486
0.000000 0.877947 0.158982
0.000000 0.877985 0.159479
0.000000 0.878144 0.160274
0.000000 0.878156 0.161121
0.000000 0.878191 0.162330
0.042143 0.878388 0.163819
0.168569 0.878436 0.165425
0.234748 0.878651 0.167427
0.290862 0.878762 0.169759
0.342426 0.878924 0.172350
0.391296 0.879168 0.175131
0.438371 0.879389 0.178330
0.483832 0.879657 0.181709
0.527894 0.880015 0.185297
0.570215 0.880295 0.188930
0.610981 0.880547 0.192776
0.649943 0.880878 0.196550
0.686941 0.881295 0.200333
0.721943 0.881547 0.204065
0.754905 0.881854 0.207783
0.785473 0.882295 0.211257
0.814148 0.882548 0.214731
0.840356 0.882831 0.217789
0.864567 0.883075 0.220773
0.886678 0.883548 0.223519
0.906645 0.883800 0.226003
0.924778 0.884052 0.228241
0.000000 0.907117 0.163220
0.000000 0.907117 0.163220
0.000000 0.907157 0.163428
0.000000 0.907157 0.163484
0.000000 0.907157 0.163740
0.000000 0.907157 0.164197
0.000000 0.907157 0.164733
0.000000 0.907157 0.165443
0.000000 0.907361 0.166277
0.000000 0.907401 0.167340
0.025045 0.907401 0.168829
0.151109 0.907620 0.170405
0.223555 0.907645 0.172390
0.282373 0.907889 0.174517
0.335458 0.908112 0.176998
0.385435 0.908252 0.179842
0.433243 0.908504 0.182840
0.479338 0.908756 0.186175
0.523676 0.909008 0.189649
0.566615 0.909260 0.193162
0.607665 0.909599 0.196881
0.646852 0.910008 0.200599
0.683950 0.910260 0.204345
0.719199 0.910575 0.208035
0.752168 0.910850 0.211548
0.782953 0.911261 0.215022
0.811666 0.911513 0.218285
0.838085 0.911796 0.221474
0.862275 0.912041 0.224267
0.884449 0.912285 0.226996
0.904606 0.912567 0.229477
0.922746 0.912773 0.231715
0.000000 0.934105 0.168183
0.000000 0.934105 0.168183
0.000000 0.934105 0.168215
0.000000 0.934105 0.168430
0.000000 0.934105 0.168676
0.000000 0.934105 0.168987
0.000000 0.934105 0.169483
0.000000 0.934160 0.170199
0.000000 0.934350 0.171027
0.000000 0.934350 0.172090
0.002063 0.934428 0.173335
0.131595 0.934594 0.175068
0.212023 0.934688 0.176896
0.273856 0.934838 0.179001
0.328601 0.935082 0.181464
0.379700 0.935200 0.184205
0.428272 0.935452 0.187073
0.474875 0.935704 0.190295
