gsg/01_Basics/GSG_LUT_Basic_WarmHighlights.cube
# GSG LUTs 1.0
# Copyright (c) 2016-2020 Greyscalegorilla
# See EULA for licensing and distribution information
# Converted by Briz LUT Converter
LUT_3D_SIZE 8
DOMAIN_MIN 0.000000 0.000000 0.000000
DOMAIN_MAX 0.903226 0.903226 0.903226
0.000000 0.000000 0.000000
0.129064 0.000213 0.000000
0.258490 0.000000 0.000000
0.388318 0.000000 0.000095
0.518697 0.000000 0.000000
0.649959 0.000000 0.000000
0.781653 0.000000 0.000000
0.912970 0.000000 0.000000
0.000244 0.129032 0.000032
0.129068 0.129005 0.000095
0.258584 0.129001 0.000394
0.388562 0.128512 0.000000
0.519076 0.127300 0.000000
0.650223 0.124841 0.000000
0.781733 0.120818 0.000000
0.913194 0.115809 0.000000
0.001646 0.257820 0.000000
0.130119 0.257820 0.000000
0.259332 0.257576 0.000000
0.389184 0.257332 0.000000
0.519704 0.256687 0.000000
0.650871 0.255465 0.000000
0.782260 0.253543 0.000000
0.913465 0.251069 0.000000
0.008437 0.386364 0.000000
0.133085 0.386282 0.000000
0.261114 0.386120 0.000000
0.390763 0.385876 0.000000
0.521185 0.385339 0.000000
0.652217 0.384411 0.000000
0.783513 0.383107 0.000000
0.914300 0.381589 0.000000
0.027776 0.514420 0.000000
0.140384 0.514294 0.000000
0.265280 0.514263 0.000000
0.393824 0.514004 0.000000
0.523768 0.513500 0.000000
0.654480 0.512797 0.000000
0.785253 0.511789 0.000000
0.915562 0.510768 0.000000
0.061357 0.642318 0.000000
0.153865 0.642306 0.000000
0.272646 0.642190 0.000000
0.399047 0.641926 0.000000
0.527835 0.641540 0.000000
0.657600 0.641010 0.000000
0.787727 0.640297 0.000000
0.917059 0.639545 0.000000
0.097097 0.770341 0.000000
0.172532 0.770286 0.000000
0.283548 0.770286 0.000000
0.406296 0.770042 0.000000
0.533204 0.769798 0.000000
0.661657 0.769377 0.000000
0.790543 0.769023 0.000000
0.918579 0.768577 0.000000
0.129363 0.899539 0.000000
0.192638 0.899539 0.000000
0.295764 0.899319 0.000000
0.414472 0.899295 0.000000
0.539017 0.899074 0.000000
0.665713 0.898908 0.000000
0.792784 0.898807 0.000000
0.919125 0.898807 0.000000
0.000733 0.000032 0.128237
0.129493 0.000000 0.128268
0.258639 0.000000 0.128087
0.388432 0.000000 0.128024
0.518941 0.000000 0.127780
0.650127 0.000000 0.127291
0.781709 0.000000 0.126723
0.912970 0.000000 0.125626
0.000926 0.129213 0.128051
0.129620 0.128847 0.128209
0.258876 0.128943 0.128000
0.388806 0.128401 0.127763
0.519187 0.127101 0.127598
0.650447 0.124898 0.127027
0.781953 0.120913 0.126416
0.913214 0.115612 0.125330
0.002615 0.257820 0.127473
0.130646 0.257773 0.127527
0.259552 0.257681 0.127332
0.389394 0.257311 0.127081
0.519926 0.256687 0.126795
0.651014 0.255394 0.126073
0.782502 0.253482 0.125496
0.913703 0.250933 0.124304
0.010319 0.386364 0.125976
0.133827 0.386270 0.126001
0.261651 0.386120 0.126019
0.391091 0.385871 0.125579
0.521435 0.385261 0.125087
0.652442 0.384411 0.124511
0.783672 0.383079 0.123509
0.914530 0.381504 0.122027
0.030362 0.514420 0.123132
0.141727 0.514294 0.123013
0.265977 0.514175 0.122845
0.394212 0.513931 0.122415
0.524085 0.513500 0.121853
0.654658 0.512752 0.121043
0.785498 0.511868 0.119731
0.915784 0.510757 0.118140
0.065010 0.642318 0.117402
0.155436 0.642231 0.117170
0.273649 0.642073 0.116828
0.399647 0.641842 0.116399
0.528257 0.641540 0.115376
0.658000 0.640908 0.114150
0.788007 0.640277 0.112281
0.917304 0.639545 0.109895
0.100438 0.770341 0.105496
0.174350 0.770335 0.105192
0.284661 0.770286 0.104753
0.407171 0.770042 0.103990
0.533777 0.769798 0.102574
0.662145 0.769312 0.100601
0.790806 0.769004 0.097968
0.918830 0.768577 0.094558
0.132606 0.899539 0.080747
0.194644 0.899539 0.080649
0.297011 0.899319 0.079859
0.415322 0.899295 0.078228
0.539536 0.899074 0.076060
0.666010 0.899051 0.072370
0.793081 0.898807 0.067842
0.919372 0.898807 0.061428
0.006239 0.000063 0.253724
0.132002 0.000023 0.253724
0.260034 0.000000 0.253480
0.389358 0.000000 0.253236
0.519737 0.000000 0.252898
0.650732 0.000000 0.252503
0.782246 0.000000 0.251722
0.913459 0.000000 0.250811
0.007114 0.129001 0.253448
0.132243 0.128981 0.253243
0.260151 0.128905 0.253234
0.389696 0.128333 0.252988
0.519981 0.127111 0.252579
0.651014 0.124626 0.252009
0.782492 0.120598 0.251318
0.913703 0.115394 0.250326
0.010669 0.257820 0.252487
0.133720 0.257798 0.252440
0.261121 0.257623 0.252259
0.390474 0.257326 0.252008
0.520768 0.256664 0.251685
0.651788 0.255251 0.250991
0.783156 0.253299 0.250323
0.914191 0.250846 0.249283
0.020322 0.386270 0.250699
0.137523 0.386270 0.250699
0.263463 0.386120 0.250636
0.392383 0.385824 0.250322
0.522440 0.385273 0.249887
0.653228 0.384365 0.249218
0.784303 0.383086 0.248398
0.915033 0.381493 0.247262
0.042520 0.514294 0.247855
0.146108 0.514294 0.247851
0.268266 0.514175 0.247611
0.395859 0.513931 0.247343
0.525235 0.513443 0.246830
0.655614 0.512752 0.246115
0.786238 0.511760 0.245094
0.916322 0.510757 0.243928
0.075030 0.642318 0.243217
0.160463 0.642231 0.243161
0.276559 0.642073 0.242962
0.401466 0.641829 0.242507
0.529618 0.641498 0.241975
0.659046 0.640908 0.241041
0.788800 0.640246 0.239876
0.918035 0.639545 0.238379
0.110218 0.770341 0.235644
0.179864 0.770286 0.235441
0.288023 0.770286 0.235196
0.409271 0.770042 0.234654
0.535417 0.769798 0.233927
0.663420 0.769310 0.232800
0.791805 0.768873 0.231407
0.919570 0.768577 0.229521
0.141341 0.899539 0.223026
0.200634 0.899518 0.222782
0.300647 0.899319 0.222491
0.417764 0.899295 0.221802
0.541338 0.899074 0.220774
0.667486 0.898908 0.219349
0.794109 0.898807 0.217411
0.920107 0.898807 0.215162
0.030761 0.000339 0.373831
0.140801 0.000000 0.373831
0.264729 0.000000 0.373587
0.392509 0.000000 0.373343
0.522061 0.000000 0.372900
0.652739 0.000000 0.372366
0.783830 0.000000 0.371560
0.914774 0.000000 0.370436
0.032042 0.129032 0.373555
0.141693 0.129022 0.373343
0.265098 0.128765 0.373256
0.392960 0.128150 0.372985
0.522439 0.126740 0.372506
0.652996 0.124319 0.371870
0.784077 0.120378 0.371118
0.915018 0.115069 0.369946
0.037252 0.257820 0.372477
0.143524 0.257754 0.372303
0.266227 0.257576 0.372115
0.393876 0.257222 0.371838
0.523312 0.256473 0.371430
0.653849 0.255207 0.370777
0.784788 0.253095 0.369870
0.915509 0.250829 0.368888
0.049533 0.386270 0.370410
0.148341 0.386120 0.370313
0.269049 0.386096 0.370142
0.396057 0.385781 0.369815
0.525131 0.385143 0.369385
0.655370 0.384299 0.368682
0.786049 0.382967 0.367848
0.916440 0.381351 0.366675
0.069659 0.514294 0.367230
0.157570 0.514294 0.367175
0.274486 0.514118 0.366986
0.399918 0.513853 0.366645
0.528252 0.513378 0.366143
0.657889 0.512629 0.365491
0.788073 0.511733 0.364561
0.917854 0.510577 0.363342
0.097661 0.642231 0.362580
0.172617 0.642231 0.362519
0.283305 0.642073 0.362320
0.406007 0.641816 0.361881
0.532908 0.641417 0.361393
0.661538 0.640796 0.360599
0.790842 0.640155 0.359610
0.919595 0.639545 0.358297
0.128817 0.770286 0.355758
0.192007 0.770286 0.355737
0.295298 0.770286 0.355493
0.414169 0.770042 0.355096
0.538937 0.769798 0.354516
0.666064 0.769310 0.353572
0.793873 0.768871 0.352472
0.921118 0.768577 0.351109
0.158292 0.899539 0.345984
0.212598 0.899436 0.345983
0.308382 0.899319 0.345693
0.423102 0.899295 0.345154
0.545215 0.899062 0.344437
0.670298 0.898878 0.343385
0.796319 0.898807 0.342132
0.921683 0.899006 0.340478
0.079460 0.000496 0.488133
0.161660 0.000363 0.487888
0.275882 0.000000 0.487770
0.399920 0.000000 0.487477
0.527557 0.000000 0.487030
0.656972 0.000000 0.486423
0.787333 0.000000 0.485599
0.917618 0.000000 0.484607
0.080798 0.129260 0.487629
0.162666 0.129032 0.487599
0.276376 0.128788 0.487385
0.400350 0.128068 0.487085
0.527874 0.126671 0.486644
0.657271 0.124037 0.485974
0.787581 0.119938 0.485178
0.917862 0.114872 0.484104
0.085328 0.257820 0.486486
0.164946 0.257765 0.486360
0.277907 0.257553 0.486241
0.401520 0.257141 0.485892
0.528906 0.256338 0.485476
0.658193 0.254998 0.484838
0.788317 0.253047 0.483973
0.918357 0.250616 0.482957
0.094145 0.386120 0.484452
0.170134 0.386120 0.484375
0.281169 0.386006 0.484188
0.403968 0.385676 0.483869
0.530913 0.385055 0.483398
0.659798 0.384105 0.482736
0.789643 0.382756 0.481915
0.919267 0.381260 0.480857
0.109707 0.514294 0.481287
0.179392 0.514233 0.481222
0.287038 0.514049 0.481043
0.408161 0.513783 0.480753
0.534192 0.513256 0.480222
0.662560 0.512508 0.479578
0.791731 0.511544 0.478754
0.920698 0.510536 0.477695
0.131884 0.642150 0.476873
0.193852 0.642073 0.476797
0.296200 0.641987 0.476629
0.414556 0.641742 0.476291
0.539182 0.641341 0.475797
0.666367 0.640781 0.475115
0.794492 0.640053 0.474288
0.922462 0.639545 0.473149
0.158076 0.770286 0.470897
0.212525 0.770286 0.470842
0.308344 0.770097 0.470646
0.422999 0.770042 0.470262
0.545323 0.769686 0.469818
0.670913 0.769310 0.469083
0.797639 0.768821 0.468135
0.924007 0.768577 0.466975
0.183674 0.899425 0.462862
0.231983 0.899319 0.462860
0.321378 0.899319 0.462618
0.431945 0.899295 0.462309
0.551534 0.899056 0.461696
0.675132 0.898908 0.460941
0.799939 0.898807 0.459951
0.924424 0.899048 0.458712
0.131238 0.000961 0.598811
0.192694 0.000657 0.598790
0.294301 0.000000 0.598566
0.412222 0.000000 0.598322
0.536647 0.000000 0.597834
0.664107 0.000000 0.597345
0.792962 0.000000 0.596613
0.922100 0.000000 0.595802
0.132131 0.129256 0.598322
0.193615 0.129050 0.598322
0.294977 0.128768 0.598078
0.412742 0.127982 0.597834
0.536959 0.126290 0.597563
0.664362 0.123569 0.596932
0.793225 0.119362 0.596286
0.922269 0.114462 0.595395
0.135374 0.257780 0.597345
0.195969 0.257792 0.597282
0.296631 0.257505 0.597188
0.413961 0.257063 0.596929
0.538088 0.256173 0.596550
0.665342 0.254759 0.596020
0.793958 0.252688 0.595288
0.922768 0.250400 0.594522
0.142548 0.386120 0.595638
0.200882 0.386120 0.595541
0.299954 0.385915 0.595455
0.416561 0.385595 0.595243
0.540177 0.384925 0.594809
0.666974 0.383956 0.594299
0.795274 0.382626 0.593597
0.923762 0.381157 0.592774
0.154290 0.514175 0.593099
0.209590 0.514175 0.593023
0.305846 0.514030 0.592855
0.420874 0.513656 0.592638
0.543535 0.513157 0.592249
0.669677 0.512385 0.591787
0.797304 0.511499 0.591113
0.925094 0.510516 0.590262
0.171704 0.642073 0.589618
0.222419 0.642073 0.589618
0.314782 0.641855 0.589516
0.427282 0.641585 0.589226
0.548408 0.641254 0.588825
0.673386 0.640664 0.588310
0.800019 0.640033 0.587632
0.926677 0.639444 0.586845
0.192792 0.770286 0.585249
0.238970 0.770286 0.585124
0.326107 0.770042 0.585005
0.435403 0.769846 0.584761
0.554377 0.769554 0.584434
0.677809 0.769310 0.583887
0.802856 0.768821 0.583276
0.928008 0.768577 0.582373
0.213706 0.899319 0.579731
0.255744 0.899319 0.579620
0.338086 0.899313 0.579487
0.443707 0.899295 0.579243
0.560221 0.899051 0.578831
0.681571 0.899000 0.578322
0.804851 0.898807 0.577693
0.928041 0.899051 0.576830
0.175076 0.000677 0.713663
0.224437 0.000677 0.713608
0.315135 0.000000 0.713608
0.426681 0.000000 0.713398
0.547341 0.000000 0.713120
0.672378 0.000000 0.712876
0.799480 0.000000 0.712576
0.927242 0.000000 0.712088
0.175864 0.129245 0.713412
0.225106 0.129023 0.713364
0.315646 0.128737 0.713364
0.427073 0.127719 0.713221
0.547710 0.125793 0.713064
0.672625 0.122830 0.712631
0.799724 0.118765 0.712332
0.927337 0.113913 0.711844
0.178432 0.257757 0.712876
0.227443 0.257576 0.712876
0.317229 0.257332 0.712861
0.428294 0.256825 0.712631
0.548724 0.255848 0.712455
0.673482 0.254424 0.712129
0.800416 0.252356 0.711806
0.927803 0.250156 0.711355
0.183739 0.386120 0.712015
0.231531 0.386010 0.711993
0.320259 0.385773 0.711878
0.430762 0.385387 0.711749
0.550621 0.384738 0.711551
0.675037 0.383698 0.711287
0.801554 0.382323 0.710893
0.928611 0.381015 0.710498
0.192792 0.514049 0.710686
0.238665 0.514049 0.710686
0.325665 0.513826 0.710594
0.434708 0.513515 0.710459
0.553725 0.513012 0.710286
0.677503 0.512264 0.709988
0.803367 0.511300 0.709709
0.929650 0.510512 0.709318
0.206282 0.641987 0.709134
0.249484 0.641987 0.709125
0.333462 0.641807 0.708945
0.440464 0.641498 0.708890
0.558105 0.641097 0.708645
0.680736 0.640528 0.708401
0.805609 0.640006 0.708157
0.930915 0.639324 0.707861
0.222529 0.770097 0.707295
0.262848 0.770042 0.707283
0.343267 0.770042 0.707094
0.447537 0.769798 0.707094
0.563275 0.769554 0.706849
0.684474 0.769085 0.706794
0.807893 0.768821 0.706550
0.931569 0.768616 0.706213
0.238216 0.899319 0.705242
0.275966 0.899319 0.705242
0.352902 0.899295 0.705242
0.454269 0.899105 0.705187
0.567907 0.899051 0.704948
0.687144 0.898908 0.704821
0.808942 0.898845 0.704699
0.930694 0.899250 0.704410
0.193210 0.000000 0.846138
0.238762 0.000000 0.846138
0.325314 0.000000 0.846138
0.433919 0.000000 0.846138
0.552869 0.000000 0.846252
0.676592 0.000000 0.846359
0.802820 0.000000 0.846359
0.929402 0.000000 0.846579
0.193950 0.128567 0.846138
0.239442 0.128509 0.846138
0.325753 0.127785 0.846159
0.434299 0.126756 0.846359
0.553114 0.124802 0.846359
0.676836 0.121701 0.846359
0.802828 0.117518 0.846579
0.929623 0.112943 0.846603
0.195709 0.257349 0.846359
0.240766 0.257324 0.846359
0.326792 0.256965 0.846359
0.435181 0.256296 0.846359
0.553801 0.255258 0.846503
0.677405 0.253819 0.846603
0.803315 0.251837 0.846660
0.929868 0.249674 0.846823
0.199269 0.385781 0.846688
0.243718 0.385633 0.846688
0.329104 0.385391 0.846823
0.437045 0.385049 0.846823
0.555303 0.384292 0.846823
0.678595 0.383276 0.846918
0.804152 0.382024 0.847068
0.930157 0.380766 0.847288
0.205853 0.513805 0.847300
0.249146 0.513698 0.847300
0.333090 0.513561 0.847426
0.440031 0.513206 0.847426
0.557664 0.512657 0.847532
0.680405 0.511904 0.847658
0.805350 0.511030 0.847890
0.930659 0.510268 0.848123
0.215480 0.641751 0.848477
0.257132 0.641724 0.848477
0.338977 0.641565 0.848516
0.444349 0.641259 0.848628
0.560912 0.640852 0.848684
0.682731 0.640308 0.848872
0.806761 0.639789 0.849108
0.931138 0.639300 0.849423
0.227209 0.770042 0.850337
0.266779 0.769871 0.850337
0.346025 0.769798 0.850337
0.449416 0.769557 0.850508
0.564456 0.769310 0.850581
0.684982 0.769065 0.850802
0.807773 0.768778 0.851046
0.930706 0.768764 0.851510
0.236821 0.899295 0.852984
0.274864 0.899295 0.852984
0.351762 0.899096 0.853204
0.453180 0.899052 0.853228
0.566728 0.899051 0.853448
0.685744 0.898807 0.853706
0.807006 0.898982 0.854159
0.928126 0.899295 0.854605
