gsg/01_Basics/GSG_LUT_Basic_CleanCoolLook.cube
# GSG LUTs 1.0
# Copyright (c) 2016-2020 Greyscalegorilla
# See EULA for licensing and distribution information
# Converted by Briz LUT Converter
LUT_3D_SIZE 5
DOMAIN_MIN 0.000000 0.000000 0.000000
DOMAIN_MAX 0.903226 0.903226 0.903226
0.000000 0.000000 0.000000
0.083446 0.018402 0.005128
0.300020 0.000000 0.004553
0.578865 0.000000 0.000000
0.826303 0.000000 0.000000
0.000000 0.174241 0.041309
0.115809 0.180768 0.027497
0.388691 0.162474 0.000000
0.624107 0.141795 0.000000
0.840868 0.185114 0.000000
0.000000 0.517531 0.099744
0.000000 0.524259 0.084270
0.413454 0.519619 0.003472
0.683516 0.489058 0.000000
0.866682 0.488422 0.000000
0.000000 0.753901 0.284336
0.000000 0.754736 0.280397
0.308086 0.751672 0.262626
0.671080 0.746758 0.232746
0.881563 0.737501 0.126223
0.197723 0.916318 0.550262
0.288278 0.916515 0.549519
0.444514 0.915050 0.541387
0.664580 0.913372 0.536705
0.869343 0.911757 0.528769
0.000000 0.006459 0.148151
0.085298 0.018083 0.142394
0.333696 0.000000 0.124838
0.576507 0.000000 0.100922
0.823995 0.000000 0.006665
0.000000 0.167506 0.206685
0.126838 0.179993 0.204023
0.381227 0.163753 0.164842
0.617145 0.137088 0.112977
0.835141 0.163223 0.002084
0.000000 0.511995 0.305299
0.000000 0.520987 0.274188
0.419540 0.514103 0.244247
0.677802 0.483609 0.155797
0.862232 0.479460 0.000002
0.000000 0.753419 0.394138
0.000000 0.755109 0.392704
0.321489 0.751298 0.376497
0.669981 0.745681 0.354569
0.877369 0.736153 0.279369
0.262340 0.915625 0.591495
0.332528 0.916153 0.591290
0.468653 0.915138 0.584615
0.666399 0.912856 0.576949
0.869343 0.912001 0.570646
0.000000 0.007972 0.432195
0.000000 0.003151 0.433620
0.356054 0.000000 0.426431
0.665387 0.000000 0.405739
0.840695 0.000000 0.304126
0.000000 0.143722 0.469707
0.054722 0.161393 0.471843
0.394650 0.168480 0.457331
0.660875 0.147251 0.417707
0.822776 0.083805 0.314972
0.000000 0.481852 0.527147
0.000000 0.493246 0.529514
0.426973 0.505593 0.518893
0.651568 0.476025 0.457977
0.844918 0.452904 0.365837
0.000000 0.746221 0.589051
0.159340 0.748236 0.592644
0.398398 0.746400 0.570464
0.669097 0.743695 0.556977
0.864839 0.727705 0.487747
0.419250 0.909614 0.694251
0.450889 0.911284 0.690485
0.509945 0.913017 0.669167
0.666675 0.911781 0.659937
0.870048 0.911757 0.656035
0.000000 0.000000 0.688960
0.000000 0.000000 0.686707
0.373910 0.000000 0.681330
0.661212 0.000000 0.676646
0.900043 0.000000 0.672008
0.000000 0.128323 0.691016
0.073846 0.129372 0.692536
0.409120 0.133279 0.689960
0.669883 0.153366 0.683580
0.891825 0.200989 0.673270
0.000000 0.377704 0.702828
0.000000 0.393052 0.705431
0.435243 0.459497 0.703830
0.670528 0.499212 0.701048
0.865580 0.496085 0.674284
0.000000 0.716365 0.727094
0.176429 0.720000 0.728450
0.446467 0.725216 0.727400
0.680728 0.741403 0.729699
0.837934 0.698754 0.668447
0.403316 0.909346 0.780330
0.452587 0.910194 0.781202
0.561120 0.909401 0.778826
0.690718 0.910536 0.767766
0.874757 0.910851 0.762267
0.190697 0.000000 0.870787
0.304859 0.000000 0.870054
0.506887 0.000000 0.867770
0.713821 0.000000 0.863326
0.908108 0.000000 0.856694
0.226209 0.061729 0.870540
0.328571 0.052195 0.870546
0.513803 0.030527 0.866366
0.711517 0.102669 0.861261
0.901638 0.188897 0.855725
0.181441 0.381856 0.870613
0.313131 0.395621 0.870954
0.503349 0.410221 0.867461
0.697967 0.447895 0.862169
0.882878 0.494421 0.856742
0.000000 0.653511 0.871771
0.090863 0.652242 0.872255
0.396999 0.643307 0.869397
0.673315 0.693023 0.865324
0.865030 0.725180 0.863679
0.399304 0.890220 0.894498
0.446007 0.891574 0.895159
0.554077 0.893069 0.894695
0.705244 0.896943 0.893739
0.890795 0.912303 0.899705
