gsg/01_Basics/GSG_LUT_Basic_WarmContrasty.cube
# GSG LUTs 1.0
# Copyright (c) 2016-2020 Greyscalegorilla
# See EULA for licensing and distribution information
# Converted by Briz LUT Converter
LUT_3D_SIZE 5
DOMAIN_MIN 0.000000 0.000000 0.000000
DOMAIN_MAX 0.903226 0.903226 0.903226
0.000000 0.000000 0.000000
0.191729 0.000000 0.000000
0.458947 0.000000 0.000000
0.749490 0.000000 0.000000
0.969782 0.000000 0.000000
0.045571 0.184481 0.000000
0.195258 0.183804 0.000000
0.460223 0.180489 0.000000
0.750260 0.172577 0.000000
0.970320 0.162858 0.000000
0.109165 0.441656 0.000000
0.215235 0.441412 0.000000
0.467714 0.440251 0.000000
0.754429 0.437560 0.000000
0.973422 0.434561 0.000000
0.178479 0.721320 0.000000
0.253899 0.721155 0.000000
0.484222 0.720513 0.000000
0.763931 0.719010 0.000000
0.980369 0.717413 0.000000
0.230974 0.933176 0.000000
0.291181 0.933176 0.000000
0.502535 0.932687 0.000000
0.774580 0.931561 0.000000
0.988318 0.930248 0.000000
0.026382 0.017724 0.160109
0.192761 0.000726 0.159077
0.459350 0.000000 0.153075
0.749734 0.000000 0.137971
0.970003 0.000000 0.117802
0.051340 0.184970 0.158930
0.196479 0.184325 0.157901
0.460626 0.180977 0.151835
0.750504 0.173098 0.136695
0.970501 0.163366 0.116092
0.111449 0.441766 0.152373
0.216235 0.441545 0.151268
0.468117 0.440435 0.144796
0.754612 0.437776 0.128612
0.973555 0.434674 0.106167
0.179590 0.721338 0.135828
0.254697 0.721184 0.134579
0.484612 0.720597 0.127131
0.764088 0.719128 0.107647
0.980543 0.717415 0.077553
0.231762 0.933199 0.113156
0.291729 0.933176 0.111599
0.502842 0.932700 0.101917
0.774812 0.931561 0.074063
0.988560 0.930290 0.014249
0.062996 0.042641 0.383300
0.199006 0.039167 0.382922
0.461633 0.000000 0.380858
0.751030 0.000000 0.376108
0.970859 0.000000 0.370578
0.075567 0.187711 0.382922
0.202528 0.187199 0.382580
0.462909 0.183921 0.380466
0.751713 0.176136 0.375694
0.971385 0.166671 0.370099
0.122988 0.442803 0.380614
0.221741 0.442559 0.380292
0.470340 0.441406 0.378172
0.755926 0.438781 0.373422
0.974459 0.435661 0.367792
0.186459 0.721887 0.375485
0.259262 0.721809 0.375101
0.486738 0.721135 0.372933
0.765345 0.719660 0.368128
0.981433 0.717925 0.362409
0.236822 0.933675 0.369380
0.295566 0.933543 0.369063
0.504856 0.933121 0.366815
0.776036 0.932002 0.361897
0.989404 0.930755 0.356048
0.102919 0.069534 0.625972
0.212517 0.067752 0.625856
0.466627 0.055418 0.624672
0.753807 0.000000 0.622065
0.972949 0.000000 0.619000
0.110410 0.193927 0.625728
0.215776 0.193438 0.625640
0.467903 0.190309 0.624428
0.754595 0.182886 0.621820
0.973477 0.173831 0.618756
0.145425 0.444996 0.624562
0.233667 0.444813 0.624318
0.475251 0.443681 0.623157
0.758746 0.441034 0.620564
0.976561 0.438039 0.617528
0.200867 0.723108 0.621742
0.269164 0.723083 0.621558
0.491500 0.722426 0.620320
0.768136 0.720930 0.617669
0.983481 0.719296 0.614684
0.247855 0.934570 0.618347
0.304271 0.934420 0.618218
0.509433 0.934014 0.617040
0.778779 0.932950 0.614437
0.991414 0.931712 0.611345
0.133168 0.090015 0.809996
0.226875 0.088716 0.809776
0.472488 0.080260 0.808933
0.757115 0.055284 0.807074
0.975375 0.000000 0.804871
0.138766 0.200959 0.809776
0.229876 0.200426 0.809532
0.473665 0.197397 0.808788
0.757852 0.190227 0.806897
0.975869 0.181661 0.804643
0.167017 0.447638 0.808799
0.246575 0.447471 0.808686
0.480918 0.446351 0.807884
0.761976 0.443672 0.805937
0.978925 0.440568 0.803683
0.216157 0.724574 0.806829
0.280093 0.724550 0.806669
0.496956 0.723838 0.805782
0.771366 0.722419 0.803821
0.985900 0.720674 0.801566
0.260008 0.935639 0.804382
0.313703 0.935613 0.804181
0.514713 0.935131 0.803417
0.781881 0.933996 0.801466
0.993712 0.932730 0.799254
