gsg/01_Basics/GSG_LUT_Basic_CoolFadedBlacks.cube
# GSG LUTs 1.0
# Copyright (c) 2016-2020 Greyscalegorilla
# See EULA for licensing and distribution information
# Converted by Briz LUT Converter
LUT_3D_SIZE 8
DOMAIN_MIN 0.000000 0.000000 0.000000
DOMAIN_MAX 0.903226 0.903226 0.903226
0.088400 0.100366 0.125031
0.180086 0.101863 0.127291
0.287723 0.105439 0.132609
0.411950 0.111978 0.141715
0.547284 0.121265 0.155099
0.681303 0.132325 0.170893
0.800142 0.143558 0.186616
0.895931 0.153263 0.200102
0.073583 0.195565 0.127780
0.174379 0.196325 0.130041
0.284462 0.198039 0.135114
0.409851 0.201063 0.144106
0.545771 0.205861 0.157099
0.680082 0.211997 0.172720
0.799165 0.218647 0.188192
0.895167 0.224578 0.201599
0.000000 0.309953 0.133585
0.160330 0.310379 0.135602
0.276852 0.311221 0.140612
0.404994 0.313159 0.149160
0.542362 0.315940 0.161755
0.677514 0.319625 0.176785
0.797085 0.323754 0.191974
0.893200 0.327480 0.205112
0.000000 0.442609 0.143669
0.128955 0.442853 0.145666
0.262028 0.443516 0.150207
0.395793 0.444657 0.158061
0.535871 0.446548 0.169853
0.672630 0.449021 0.184204
0.793021 0.451718 0.198621
0.889637 0.454353 0.211225
0.000000 0.587349 0.158155
0.025054 0.587593 0.160014
0.236102 0.588081 0.164046
0.380614 0.588909 0.171273
0.525474 0.590279 0.181984
0.664626 0.592020 0.195266
0.786522 0.594005 0.208820
0.884064 0.595864 0.220769
0.000000 0.731017 0.175289
0.000000 0.731175 0.177029
0.194901 0.731506 0.180565
0.359085 0.732185 0.186986
0.511001 0.733173 0.196762
0.653968 0.734594 0.208886
0.777754 0.736090 0.221529
0.876474 0.737445 0.232573
0.000000 0.858340 0.192233
0.000000 0.858529 0.193730
0.130821 0.858773 0.196999
0.333178 0.859283 0.202867
0.494576 0.860147 0.211722
0.641727 0.861251 0.222837
0.767829 0.862479 0.234546
0.868027 0.863707 0.244972
0.000000 0.961062 0.206916
0.000000 0.961086 0.208193
0.014881 0.961330 0.211194
0.306240 0.961804 0.216589
0.478286 0.962539 0.224782
0.629887 0.963519 0.235244
0.758507 0.964675 0.246243
0.859837 0.965723 0.256174
0.083359 0.098350 0.241364
0.178101 0.099905 0.242373
0.286471 0.103690 0.244878
0.411205 0.110205 0.249399
0.546670 0.119634 0.256395
0.680815 0.131073 0.265386
0.799873 0.142306 0.274993
0.895687 0.152231 0.283658
0.067226 0.194801 0.242613
0.172153 0.195534 0.243618
0.283264 0.197089 0.246122
0.409098 0.200303 0.250620
0.545267 0.205097 0.257616
0.679777 0.211237 0.266470
0.798889 0.217848 0.276001
0.894898 0.223841 0.284667
0.000000 0.309433 0.245366
0.157857 0.309736 0.246373
0.275600 0.310747 0.248816
0.404233 0.312639 0.253157
0.541778 0.315440 0.260148
0.677061 0.319169 0.268914
0.796658 0.323243 0.278458
0.892938 0.326992 0.286951
0.000000 0.442333 0.250345
0.125788 0.442598 0.251353
0.260705 0.443157 0.253803
0.394979 0.444369 0.258135
0.535311 0.446294 0.264886
0.672141 0.448729 0.273509
0.792605 0.451400 0.282788
0.889393 0.453991 0.291207
0.000000 0.587105 0.258198
0.014954 0.587349 0.259176
0.234540 0.587837 0.261446
0.379690 0.588664 0.265629
0.524904 0.590027 0.272149
0.664248 0.591776 0.280523
0.786151 0.593761 0.289554
0.883803 0.595605 0.297743
0.000000 0.730773 0.268061
0.000000 0.731008 0.269065
0.193049 0.731302 0.271267
0.358091 0.731987 0.275269
0.510497 0.733042 0.281516
0.653480 0.734350 0.289535
0.777425 0.735846 0.298214
0.876212 0.737343 0.306144
0.000000 0.858285 0.278625
0.000000 0.858291 0.279624
0.127682 0.858627 0.281661
0.332170 0.859146 0.285461
0.494008 0.860023 0.291504
0.641367 0.861148 0.299184
0.767529 0.862394 0.307526
0.867600 0.863617 0.315189
0.000000 0.960838 0.288246
0.000000 0.961062 0.289031
0.012501 0.961306 0.291065
0.305158 0.961794 0.294773
0.477652 0.962513 0.300546
0.629522 0.963426 0.308063
0.758078 0.964499 0.315971
0.859543 0.965654 0.323431
0.070188 0.093584 0.381653
0.173154 0.095348 0.382173
0.283753 0.099326 0.383670
0.409445 0.106172 0.386395
0.545512 0.115980 0.390571
0.680019 0.127740 0.396060
0.799102 0.139470 0.401993
0.894955 0.149474 0.407584
0.048824 0.192603 0.382386
0.167115 0.193505 0.382926
0.280506 0.195141 0.384371
0.407272 0.198291 0.387036
0.544003 0.203139 0.391200
0.678766 0.209405 0.396621
0.798094 0.216101 0.402671
0.894141 0.222233 0.408314
0.000000 0.308181 0.383914
0.152262 0.308669 0.384592
0.272772 0.309658 0.385927
0.402450 0.311421 0.388627
0.540502 0.314253 0.392801
0.676166 0.318091 0.398298
0.795911 0.322097 0.404191
0.892218 0.325954 0.409782
0.000000 0.441569 0.386908
0.118269 0.441822 0.387524
0.257608 0.442412 0.388900
0.393044 0.443641 0.391564
0.534027 0.445520 0.395694
0.671156 0.448006 0.401095
0.791845 0.450713 0.406984
0.888660 0.453316 0.412525
0.000000 0.586616 0.391641
0.006505 0.586860 0.392185
0.231086 0.587349 0.393627
0.377768 0.588152 0.396183
0.523535 0.589471 0.400212
0.663286 0.591257 0.405600
0.785356 0.593273 0.411375
0.883054 0.595022 0.416784
0.000000 0.730442 0.397683
0.000000 0.730544 0.398259
0.188644 0.730947 0.399677
0.355995 0.731551 0.402159
0.509152 0.732597 0.406177
0.652466 0.733925 0.411462
0.776560 0.735449 0.417124
0.875457 0.736872 0.422520
0.000000 0.857838 0.404372
0.000000 0.858041 0.404885
0.120155 0.858285 0.406285
0.329902 0.858795 0.408774
0.492560 0.859659 0.412692
0.640356 0.860763 0.417842
0.766737 0.861991 0.423490
0.866988 0.863214 0.428674
0.000000 0.960573 0.410508
0.000000 0.960768 0.411186
0.001324 0.961020 0.412462
0.302705 0.961411 0.414901
0.476160 0.962173 0.418696
0.628395 0.963179 0.423761
0.757241 0.964237 0.429383
0.858797 0.965235 0.434543
0.028067 0.084076 0.544732
0.163591 0.086073 0.545220
0.278680 0.090464 0.546016
0.406144 0.098016 0.547815
0.543111 0.108708 0.550624
0.678130 0.121360 0.554232
0.797605 0.133696 0.558258
0.893639 0.144314 0.561984
0.000000 0.188846 0.545220
0.157067 0.189599 0.545524
0.275242 0.191375 0.546519
0.403978 0.194588 0.548265
0.541672 0.199541 0.551010
0.676992 0.205935 0.554658
0.796597 0.212765 0.558758
0.892875 0.219019 0.562475
0.000000 0.306014 0.546260
0.140916 0.306496 0.546633
0.267362 0.307462 0.547538
0.399038 0.309264 0.549313
0.538195 0.312209 0.552088
0.674357 0.315947 0.555666
0.794368 0.320098 0.559747
0.890890 0.323971 0.563512
0.000000 0.440109 0.548187
0.102271 0.440419 0.548639
0.251798 0.441059 0.549548
0.389650 0.442235 0.551248
0.531630 0.444106 0.554018
0.669361 0.446642 0.557651
0.790313 0.449318 0.561621
0.887397 0.451859 0.565406
0.000000 0.585717 0.551239
0.000028 0.585854 0.551727
0.224423 0.586302 0.552634
0.374093 0.587163 0.554366
0.521062 0.588561 0.557048
0.661357 0.590265 0.560644
0.783859 0.592250 0.564615
0.881771 0.594186 0.568376
0.000000 0.729649 0.555359
0.000000 0.729775 0.555801
0.179981 0.730167 0.556643
0.352173 0.730790 0.558384
0.506558 0.731811 0.561105
0.650612 0.733182 0.564649
0.774973 0.734734 0.568587
0.874182 0.736136 0.572366
0.000000 0.857235 0.559817
0.000000 0.857342 0.560221
0.104024 0.857708 0.561163
0.325600 0.858227 0.562864
0.489874 0.859035 0.565532
0.638371 0.860164 0.569095
0.765237 0.861443 0.572897
0.865558 0.862594 0.576595
0.000000 0.960085 0.564087
0.000000 0.960117 0.564445
0.000000 0.960379 0.565371
0.297852 0.960884 0.567112
0.473387 0.961632 0.569667
0.626516 0.962630 0.573102
0.755721 0.963729 0.577069
0.857300 0.964730 0.580700
0.000000 0.065517 0.722825
0.146876 0.068148 0.723069
0.270157 0.073835 0.723802
0.400772 0.083217 0.725068
0.539401 0.095963 0.726976
0.675271 0.110355 0.729607
0.795132 0.123943 0.732503
0.891654 0.135503 0.735248
0.000000 0.182520 0.723084
0.139361 0.183467 0.723372
0.266604 0.185222 0.724081
0.398589 0.188492 0.725361
0.537847 0.193696 0.727301
0.674095 0.200334 0.729938
0.794231 0.207349 0.732872
0.890780 0.213762 0.735520
0.000000 0.302589 0.723865
0.120156 0.303013 0.724120
0.258491 0.303966 0.724840
0.393563 0.305913 0.726088
0.534334 0.308732 0.728016
0.671460 0.312639 0.730690
0.792078 0.316791 0.733563
0.888901 0.320701 0.736281
0.000000 0.437938 0.725313
0.066794 0.438191 0.725606
0.242283 0.438787 0.726245
0.384048 0.440011 0.727528
0.527835 0.441876 0.729513
0.666458 0.444397 0.732063
0.787966 0.447189 0.734976
0.885355 0.449756 0.737716
0.000000 0.584113 0.727465
0.000000 0.584292 0.727782
0.213309 0.584781 0.728458
0.368197 0.585608 0.729711
0.517167 0.586892 0.731681
0.658427 0.588720 0.734270
0.781433 0.590705 0.737099
0.879655 0.592517 0.739824
0.000000 0.728407 0.730427
0.000000 0.728607 0.730681
0.165150 0.728928 0.731359
0.345795 0.729601 0.732601
0.502511 0.730647 0.734536
0.647525 0.731999 0.737153
0.772618 0.733522 0.740028
0.871990 0.735019 0.742747
0.000000 0.856205 0.733696
0.000000 0.856370 0.733944
0.066137 0.856694 0.734605
0.318661 0.857193 0.735789
0.485645 0.858055 0.737743
0.635216 0.859185 0.740339
0.762637 0.860454 0.743240
0.863503 0.861595 0.745891
0.000000 0.959226 0.736713
0.000000 0.959352 0.736957
0.000000 0.959512 0.737672
0.290042 0.960008 0.738868
0.469012 0.960757 0.740847
0.623272 0.961757 0.743334
0.753134 0.962863 0.746259
0.855292 0.963867 0.748879
0.000000 0.008319 0.899350
0.119955 0.023238 0.899594
0.258286 0.038933 0.900083
0.393533 0.056188 0.901060
0.534321 0.074712 0.902651
0.671377 0.093127 0.904636
0.792012 0.109429 0.906865
0.888921 0.122565 0.908937
0.000000 0.173784 0.899594
0.110295 0.174732 0.899839
0.254595 0.176557 0.900332
0.391284 0.180057 0.901312
0.532813 0.185502 0.902895
0.670286 0.192460 0.904880
0.791020 0.199828 0.907109
0.888033 0.206491 0.909181
0.000000 0.297926 0.900146
0.082771 0.298323 0.900386
0.245950 0.299391 0.900892
0.386157 0.301215 0.901887
0.529292 0.304199 0.903383
0.667588 0.308086 0.905417
0.788910 0.312395 0.907670
0.886135 0.316304 0.909733
0.000000 0.434879 0.901251
0.003876 0.435140 0.901502
0.228589 0.435836 0.902013
0.376382 0.437056 0.902958
0.522636 0.438948 0.904455
0.662513 0.441444 0.906493
0.784783 0.444260 0.908748
0.882569 0.446816 0.910837
0.000000 0.581945 0.902895
0.000000 0.582189 0.903139
0.197266 0.582678 0.903691
0.360132 0.583473 0.904699
0.511822 0.584836 0.906196
0.654457 0.586616 0.908181
0.778211 0.588601 0.910477
0.876855 0.590460 0.912482
0.000000 0.726866 0.905180
0.000000 0.726890 0.905428
0.142341 0.727354 0.905947
0.337065 0.727972 0.906907
0.497029 0.728988 0.908452
0.643518 0.730406 0.910486
0.769361 0.731896 0.912726
0.869225 0.733293 0.914767
0.000000 0.854953 0.907684
0.000000 0.854973 0.907929
0.019233 0.855360 0.908449
0.308991 0.855877 0.909429
0.479906 0.856744 0.910966
0.631104 0.857809 0.912970
0.759385 0.859089 0.915191
0.860564 0.860307 0.917252
0.000000 0.957974 0.910150
0.000000 0.958133 0.910395
0.000000 0.958398 0.910884
0.279181 0.958898 0.911718
0.463051 0.959641 0.913214
0.619132 0.960579 0.915250
0.749773 0.961631 0.917514
0.852338 0.962764 0.919501
0.000000 0.000000 1.000000
0.076828 0.000000 1.000000
0.244421 0.000000 1.000000
0.385293 0.000000 1.000000
0.528654 0.034640 1.000000
0.667096 0.067852 1.000000
0.788475 0.089878 1.000000
0.885780 0.105831 1.000000
0.000000 0.163331 1.000000
0.057878 0.164301 1.000000
0.240464 0.166312 1.000000
0.383032 0.170184 1.000000
0.527142 0.175927 1.000000
0.665915 0.183375 1.000000
0.787491 0.191075 1.000000
0.884972 0.198154 1.000000
0.000000 0.292544 1.000000
0.006681 0.293032 1.000000
0.231153 0.294069 1.000000
0.377809 0.295994 1.000000
0.523526 0.299043 1.000000
0.663287 0.302975 1.000000
0.785378 0.307322 1.000000
0.883031 0.311420 1.000000
0.000000 0.431620 1.000000
0.000000 0.431871 1.000000
0.212323 0.432457 1.000000
0.367713 0.433702 1.000000
0.516806 0.435614 1.000000
0.658171 0.438162 1.000000
0.781183 0.440947 1.000000
0.879459 0.443641 1.000000
0.000000 0.579624 1.000000
0.000000 0.579783 1.000000
0.177405 0.580243 1.000000
0.350994 0.581181 1.000000
0.505810 0.582528 1.000000
0.650034 0.584269 1.000000
0.774674 0.586281 1.000000
0.873753 0.588113 1.000000
0.000000 0.725038 1.000000
0.000000 0.725125 1.000000
0.109904 0.725523 1.000000
0.327140 0.726175 1.000000
0.490850 0.727205 1.000000
0.639009 0.728600 1.000000
0.765642 0.730076 1.000000
0.866034 0.731549 1.000000
0.000000 0.853456 1.000000
0.000000 0.853475 1.000000
0.000000 0.853900 1.000000
0.297858 0.854399 1.000000
0.473512 0.855263 1.000000
0.626479 0.856367 1.000000
0.755628 0.857598 1.000000
0.857387 0.858809 1.000000
0.000000 0.956721 1.000000
0.000000 0.956910 1.000000
0.000000 0.957155 1.000000
0.266651 0.957527 1.000000
0.456373 0.958284 1.000000
0.614360 0.959289 1.000000
0.745932 0.960372 1.000000
0.849129 0.961378 1.000000
0.000000 0.000000 1.000000
0.006052 0.000000 1.000000
0.230346 0.000000 1.000000
0.377288 0.000000 1.000000
0.523290 0.000000 1.000000
0.663106 0.014809 1.000000
0.785214 0.064716 1.000000
0.882989 0.086515 1.000000
0.000000 0.152751 1.000000
0.000242 0.153728 1.000000
0.225987 0.155938 1.000000
0.375028 0.160008 1.000000
0.521671 0.166237 1.000000
0.661854 0.174096 1.000000
0.784209 0.182385 1.000000
0.882025 0.189791 1.000000
0.000000 0.287441 1.000000
0.000000 0.287880 1.000000
0.215894 0.288911 1.000000
0.369569 0.290892 1.000000
0.518104 0.293999 1.000000
0.659073 0.298062 1.000000
0.781977 0.302460 1.000000
0.880188 0.306597 1.000000
0.000000 0.428288 1.000000
0.000000 0.428667 1.000000
0.195293 0.429293 1.000000
0.359187 0.430480 1.000000
0.511212 0.432455 1.000000
0.653945 0.435022 1.000000
0.777806 0.437806 1.000000
0.876479 0.440433 1.000000
0.000000 0.577368 1.000000
0.000000 0.577612 1.000000
0.155726 0.578007 1.000000
0.342039 0.578879 1.000000
0.500152 0.580299 1.000000
0.645778 0.582039 1.000000
0.771224 0.584025 1.000000
0.870775 0.585884 1.000000
0.000000 0.723297 1.000000
0.000000 0.723403 1.000000
0.045536 0.723808 1.000000
0.317339 0.724452 1.000000
0.484882 0.725464 1.000000
0.634708 0.726945 1.000000
0.762228 0.728445 1.000000
0.863053 0.729812 1.000000
0.000000 0.851960 1.000000
0.000000 0.852182 1.000000
0.000000 0.852444 1.000000
0.286857 0.852936 1.000000
0.467283 0.853795 1.000000
0.622033 0.855032 1.000000
0.752137 0.856282 1.000000
0.854375 0.857375 1.000000
0.000000 0.955469 1.000000
0.000000 0.955671 1.000000
0.000000 0.955934 1.000000
0.253946 0.956287 1.000000
0.449809 0.957048 1.000000
0.609880 0.958053 1.000000
0.742398 0.959127 1.000000
0.845963 0.960128 1.000000
