gsg/01_Basics/GSG_LUT_Basic_CoolContrasty.cube
# GSG LUTs 1.0
# Copyright (c) 2016-2020 Greyscalegorilla
# See EULA for licensing and distribution information
# Converted by Briz LUT Converter
LUT_3D_SIZE 8
DOMAIN_MIN 0.000000 0.000000 0.000000
DOMAIN_MAX 0.903226 0.903226 0.903226
0.000000 0.000000 0.000000
0.092024 0.012675 0.016921
0.208003 0.028406 0.038119
0.347016 0.047438 0.063594
0.501532 0.068541 0.092000
0.655126 0.089732 0.120154
0.789744 0.107984 0.144937
0.894395 0.122423 0.164134
0.000000 0.098744 0.017685
0.088271 0.099232 0.023853
0.206719 0.101729 0.041348
0.346252 0.107267 0.065386
0.501154 0.116995 0.093143
0.654882 0.129390 0.121005
0.789310 0.141990 0.145457
0.894151 0.152633 0.164675
0.000000 0.222971 0.040135
0.065495 0.223215 0.042798
0.199512 0.224192 0.053802
0.342526 0.226382 0.073307
0.498689 0.230486 0.098506
0.653110 0.236315 0.125070
0.788026 0.242633 0.148740
0.892891 0.248468 0.167458
0.000000 0.372153 0.067013
0.000000 0.372248 0.068541
0.180402 0.372705 0.075222
0.332942 0.373957 0.089616
0.492615 0.376264 0.110568
0.648801 0.379456 0.134326
0.784460 0.383087 0.156420
0.889825 0.386474 0.174154
0.000000 0.537942 0.096884
0.000000 0.537942 0.097680
0.136003 0.538186 0.102352
0.314287 0.539013 0.112679
0.481130 0.540510 0.129387
0.640648 0.542613 0.149718
0.778006 0.544934 0.169499
0.884367 0.547190 0.185797
0.000000 0.702556 0.126504
0.000000 0.702556 0.127161
0.011679 0.702800 0.130559
0.284710 0.703480 0.138540
0.464091 0.704468 0.151948
0.628524 0.705975 0.169050
0.768597 0.707752 0.186514
0.876246 0.709379 0.201095
0.000000 0.846721 0.152452
0.000000 0.846721 0.152972
0.000000 0.846924 0.155612
0.245552 0.847420 0.162186
0.443676 0.848284 0.173469
0.614475 0.849529 0.188310
0.757632 0.850817 0.203800
0.866808 0.852093 0.216999
0.000000 0.959037 0.172681
0.000000 0.959037 0.173169
0.000000 0.959118 0.175493
0.200397 0.959526 0.181141
0.423439 0.960271 0.191043
0.601095 0.961393 0.204499
0.747150 0.962474 0.218520
0.858057 0.963656 0.230751
0.000000 0.000000 0.121588
0.090772 0.000604 0.122135
0.207484 0.025665 0.125803
0.346772 0.046072 0.134164
0.501398 0.067777 0.148072
0.655126 0.088968 0.165631
0.789555 0.107488 0.183363
0.894175 0.121927 0.198409
0.000000 0.098224 0.122352
0.086987 0.098692 0.123085
0.206063 0.101025 0.126598
0.346008 0.106750 0.134814
0.500909 0.116507 0.148592
0.654823 0.128911 0.166268
0.789303 0.141526 0.183877
0.893930 0.152333 0.198705
0.000000 0.222884 0.126165
0.063459 0.222991 0.126921
0.198994 0.223941 0.130373
0.342277 0.226199 0.138342
0.498585 0.230268 0.151813
0.653038 0.236071 0.168955
0.787904 0.242388 0.186388
0.892867 0.248224 0.200987
0.000000 0.372004 0.135467
0.000000 0.372153 0.136118
0.179701 0.372627 0.139166
0.332601 0.373883 0.146658
0.492501 0.376135 0.159324
0.648651 0.379378 0.175578
0.784417 0.383014 0.192225
0.889811 0.386446 0.206349
0.000000 0.537697 0.150836
0.000000 0.537725 0.151356
0.135257 0.538186 0.154106
0.313909 0.538918 0.160684
0.481053 0.540384 0.172129
0.640403 0.542440 0.187142
0.777974 0.544842 0.202689
0.884248 0.547072 0.215944
0.000000 0.702545 0.170025
0.000000 0.702556 0.170406
0.010644 0.702800 0.172910
0.284308 0.703350 0.178718
0.463917 0.704392 0.188857
0.628517 0.705888 0.202371
0.768446 0.707646 0.216672
0.876167 0.709370 0.228928
0.000000 0.846666 0.189137
0.000000 0.846672 0.189625
0.000000 0.846910 0.191674
0.245175 0.847398 0.196802
0.443431 0.848160 0.205923
0.614455 0.849388 0.218190
0.757473 0.850817 0.231331
0.866808 0.852088 0.242751
0.000000 0.958817 0.205215
0.000000 0.959037 0.205658
0.000000 0.959043 0.207509
0.199889 0.959526 0.212155
0.423179 0.960258 0.220525
0.600871 0.961250 0.231911
0.746961 0.962474 0.244217
0.857852 0.963656 0.254921
0.000000 0.000000 0.274284
0.083532 0.000000 0.274710
0.205010 0.000187 0.275994
0.345450 0.038112 0.279301
0.500525 0.063043 0.285399
0.654511 0.085676 0.293923
0.789052 0.104872 0.303185
0.893850 0.119634 0.311535
0.000000 0.095262 0.274710
0.079235 0.095763 0.274958
0.203545 0.098255 0.276261
0.344685 0.104187 0.279665
0.500021 0.114006 0.285737
0.654114 0.126862 0.294170
0.788796 0.139704 0.303434
0.893584 0.150564 0.311812
0.000000 0.221687 0.276238
0.051315 0.221931 0.276482
0.196286 0.222861 0.277778
0.340848 0.225137 0.281102
0.497617 0.229232 0.287141
0.652328 0.235047 0.295551
0.787398 0.241448 0.304790
0.892379 0.247247 0.313238
0.000000 0.371452 0.279925
0.000000 0.371515 0.280183
0.176686 0.372014 0.281523
0.331204 0.373268 0.284761
0.491541 0.375511 0.290716
0.647990 0.378723 0.298978
0.783914 0.382395 0.308151
0.889333 0.385759 0.316378
0.000000 0.537390 0.286683
0.000000 0.537453 0.286927
0.130907 0.537744 0.288211
0.312411 0.538525 0.291449
0.480045 0.540004 0.297129
0.639819 0.542114 0.305237
0.777414 0.544538 0.314140
0.883837 0.546701 0.322230
0.000000 0.702225 0.296057
0.000000 0.702290 0.296304
0.004929 0.702540 0.297586
0.282543 0.703090 0.300579
0.462930 0.704147 0.306171
0.627777 0.705644 0.313969
0.767890 0.707385 0.322574
0.875735 0.709089 0.330418
0.000000 0.846422 0.306345
0.000000 0.846463 0.306565
0.000000 0.846676 0.307810
0.243017 0.847170 0.310804
0.442399 0.848008 0.316058
0.613705 0.849248 0.323647
0.756963 0.850573 0.331977
0.866319 0.851848 0.339458
0.000000 0.958793 0.315617
0.000000 0.958793 0.315882
0.000000 0.958859 0.317065
0.197150 0.959288 0.319894
0.422037 0.960023 0.325086
0.600241 0.961149 0.332320
0.746459 0.962357 0.340415
0.857506 0.963412 0.347765
0.000000 0.000000 0.457710
0.060958 0.000000 0.457954
0.198465 0.000000 0.458687
0.341980 0.000000 0.460433
0.498295 0.048867 0.463878
0.652834 0.076687 0.468644
0.787751 0.097932 0.474016
0.892700 0.113757 0.478924
0.000000 0.087420 0.457954
0.054454 0.087936 0.458013
0.196975 0.090679 0.458764
0.341216 0.097146 0.460645
0.497829 0.107886 0.463983
0.652541 0.121324 0.468792
0.787499 0.134844 0.474197
0.892445 0.146181 0.479168
0.000000 0.218937 0.458750
0.005267 0.219182 0.458936
0.189448 0.220176 0.459628
0.337347 0.222458 0.461436
0.495410 0.226639 0.464801
0.650770 0.232526 0.469558
0.786137 0.239047 0.474948
0.891307 0.244919 0.479929
0.000000 0.369955 0.460793
0.000000 0.369987 0.460929
0.168762 0.370507 0.461657
0.327533 0.371759 0.463479
0.489272 0.374138 0.466801
0.646359 0.377408 0.471528
0.782622 0.381039 0.476884
0.888251 0.384435 0.481845
0.000000 0.536431 0.464538
0.000000 0.536486 0.464675
0.119014 0.536817 0.465388
0.308474 0.537639 0.467177
0.477754 0.539080 0.470511
0.638158 0.541181 0.475178
0.776147 0.543527 0.480488
0.882682 0.545802 0.485380
0.000000 0.701546 0.469865
0.000000 0.701563 0.470109
0.000000 0.701824 0.470661
0.278182 0.702453 0.472551
0.460564 0.703462 0.475789
0.626124 0.705027 0.480366
0.766584 0.706802 0.485690
0.874602 0.708343 0.490483
0.000000 0.845933 0.475875
0.000000 0.845933 0.475985
0.000000 0.846123 0.476741
0.237692 0.846621 0.478412
0.439817 0.847427 0.481650
0.612015 0.848629 0.486205
0.755584 0.850068 0.491371
0.865232 0.851348 0.496207
0.000000 0.958305 0.481492
0.000000 0.958305 0.481514
0.000000 0.958457 0.482253
0.190254 0.958799 0.483976
0.419351 0.959603 0.487046
0.598477 0.960665 0.491645
0.745102 0.961847 0.496745
0.856254 0.962949 0.501359
0.000000 0.000000 0.661586
0.000869 0.000000 0.661704
0.185584 0.000000 0.662105
0.335485 0.000000 0.663264
0.494263 0.000000 0.665493
0.649904 0.055231 0.668531
0.785369 0.083330 0.672115
0.890618 0.101879 0.675348
0.000000 0.070008 0.661704
0.000000 0.070741 0.661734
0.183963 0.074181 0.662225
0.334712 0.082251 0.663468
0.493751 0.095025 0.665562
0.649628 0.110493 0.668731
0.785109 0.125381 0.672216
0.890465 0.137601 0.675568
0.000000 0.213834 0.662225
0.000000 0.214002 0.662267
0.175754 0.215014 0.662745
0.330790 0.217345 0.663996
0.491268 0.221686 0.666090
0.647824 0.227717 0.669230
0.783720 0.234378 0.672751
0.889322 0.240431 0.676063
0.000000 0.367206 0.663508
0.000000 0.367405 0.663591
0.152845 0.367905 0.664059
0.320766 0.369132 0.665312
0.485102 0.371407 0.667415
0.643428 0.374658 0.670534
0.780221 0.378416 0.674043
0.886266 0.381815 0.677328
0.000000 0.534702 0.665920
0.000000 0.534767 0.666042
0.092061 0.535084 0.666531
0.301116 0.535911 0.667677
0.473433 0.537422 0.669831
0.635181 0.539438 0.672905
0.773700 0.541786 0.676439
0.880627 0.544015 0.679674
0.000000 0.700314 0.669463
0.000000 0.700390 0.669463
0.000000 0.700634 0.669952
0.269760 0.701156 0.671139
0.455990 0.702247 0.673313
0.623030 0.703782 0.676332
0.764184 0.705550 0.679846
0.872464 0.707103 0.683095
0.000000 0.844859 0.673307
0.000000 0.844956 0.673449
0.000000 0.845103 0.673952
0.227493 0.845574 0.675111
0.435031 0.846435 0.677157
0.608764 0.847684 0.680258
0.753124 0.849079 0.683718
0.863099 0.850344 0.686930
0.000000 0.957446 0.677033
0.000000 0.957446 0.677060
0.000000 0.957575 0.677564
0.176503 0.957983 0.678719
0.414235 0.958732 0.680834
0.595140 0.959737 0.683865
0.742619 0.960971 0.687328
0.854153 0.962087 0.690540
0.000000 0.000000 0.864280
0.000000 0.000000 0.864280
0.164924 0.000000 0.864651
0.325848 0.000000 0.865534
0.488251 0.000000 0.867092
0.645633 0.000000 0.869377
0.782102 0.053956 0.871882
0.887731 0.081217 0.874355
0.000000 0.015215 0.864280
0.000000 0.016526 0.864366
0.162990 0.034208 0.864768
0.325031 0.051677 0.865542
0.487742 0.071686 0.867179
0.645242 0.091961 0.869408
0.781768 0.109954 0.871949
0.887487 0.124040 0.874434
0.000000 0.206113 0.864651
0.000000 0.206365 0.864768
0.153440 0.207381 0.865062
0.320964 0.209878 0.865926
0.485239 0.214349 0.867464
0.643455 0.220574 0.869832
0.780330 0.227421 0.872387
0.886356 0.233739 0.874727
0.000000 0.363331 0.865648
0.000000 0.363337 0.865682
0.125458 0.363906 0.866052
0.310518 0.365188 0.866920
0.478961 0.367513 0.868494
0.639026 0.370783 0.870724
0.776764 0.374611 0.873276
0.883298 0.378046 0.875754
0.000000 0.532136 0.867423
0.000000 0.532294 0.867423
0.020708 0.532560 0.867847
0.290072 0.533391 0.868675
0.467118 0.534862 0.870235
0.630720 0.536965 0.872493
0.770282 0.539420 0.875025
0.877649 0.541586 0.877498
0.000000 0.698405 0.869896
0.000000 0.698649 0.870054
0.000000 0.698712 0.870343
0.257054 0.699382 0.871190
0.449404 0.700403 0.872765
0.618507 0.701981 0.875014
0.760692 0.703722 0.877541
0.869489 0.705305 0.879966
0.000000 0.843491 0.872823
0.000000 0.843519 0.872925
0.000000 0.843645 0.873206
0.211662 0.844135 0.874083
0.428039 0.845011 0.875635
0.604127 0.846197 0.877888
0.749545 0.847622 0.880424
0.860042 0.848964 0.882774
0.000000 0.956194 0.875418
0.000000 0.956194 0.875641
0.000000 0.956353 0.875907
0.153945 0.956688 0.876734
0.406850 0.957496 0.878231
0.590359 0.958549 0.880511
0.738968 0.959741 0.883020
0.851126 0.960840 0.885494
0.000000 0.000000 1.000000
0.000000 0.000000 1.000000
0.136590 0.000000 1.000000
0.314383 0.000000 1.000000
0.481256 0.000000 1.000000
0.640655 0.000000 1.000000
0.778132 0.000000 1.000000
0.884420 0.043489 1.000000
0.000000 0.000000 1.000000
0.000000 0.000000 1.000000
0.134271 0.000000 1.000000
0.313563 0.003238 1.000000
0.480748 0.010024 1.000000
0.640326 0.062729 1.000000
0.777809 0.088322 1.000000
0.884170 0.105880 1.000000
0.000000 0.196959 1.000000
0.000000 0.197087 1.000000
0.121772 0.198225 1.000000
0.309326 0.200789 1.000000
0.478290 0.205492 1.000000
0.638535 0.212091 1.000000
0.776360 0.219371 1.000000
0.882960 0.225784 1.000000
0.000000 0.358722 1.000000
0.000000 0.358777 1.000000
0.079457 0.359299 1.000000
0.298423 0.360560 1.000000
0.471899 0.362934 1.000000
0.633991 0.366419 1.000000
0.772794 0.370089 1.000000
0.879896 0.373682 1.000000
0.000000 0.529240 1.000000
0.000000 0.529360 1.000000
0.000000 0.529709 1.000000
0.276850 0.530508 1.000000
0.459802 0.531955 1.000000
0.625654 0.534146 1.000000
0.766285 0.536526 1.000000
0.874207 0.538761 1.000000
0.000000 0.696420 1.000000
0.000000 0.696420 1.000000
0.000000 0.696664 1.000000
0.241640 0.697247 1.000000
0.441666 0.698341 1.000000
0.613277 0.699894 1.000000
0.756544 0.701615 1.000000
0.866070 0.703320 1.000000
0.000000 0.841837 1.000000
0.000000 0.841837 1.000000
0.000000 0.842081 1.000000
0.191631 0.842536 1.000000
0.419919 0.843324 1.000000
0.598751 0.844551 1.000000
0.745364 0.845946 1.000000
0.856545 0.847255 1.000000
0.000000 0.954697 1.000000
0.000000 0.954697 1.000000
0.000000 0.954941 1.000000
0.120997 0.955259 1.000000
0.398100 0.956044 1.000000
0.584890 0.957119 1.000000
0.734751 0.958309 1.000000
0.847598 0.959507 1.000000
0.000000 0.000000 1.000000
0.000000 0.000000 1.000000
0.101047 0.000000 1.000000
0.303201 0.000000 1.000000
0.474765 0.000000 1.000000
0.635968 0.000000 1.000000
0.774351 0.000000 1.000000
0.881232 0.000000 1.000000
0.000000 0.000000 1.000000
0.000000 0.000000 1.000000
0.097582 0.000000 1.000000
0.302405 0.000000 1.000000
0.474245 0.000000 1.000000
0.635622 0.006246 1.000000
0.774105 0.059273 1.000000
0.880985 0.084695 1.000000
0.000000 0.187806 1.000000
0.000000 0.187907 1.000000
0.077117 0.189090 1.000000
0.297995 0.191857 1.000000
0.471599 0.196885 1.000000
0.633829 0.203864 1.000000
0.772616 0.211370 1.000000
0.879725 0.218172 1.000000
0.000000 0.354358 1.000000
0.000000 0.354445 1.000000
0.015733 0.354910 1.000000
0.286415 0.356312 1.000000
0.465122 0.358667 1.000000
0.629336 0.362054 1.000000
0.769138 0.365930 1.000000
0.876660 0.369562 1.000000
0.000000 0.526508 1.000000
0.000000 0.526647 1.000000
0.000000 0.526984 1.000000
0.263721 0.527811 1.000000
0.452836 0.529308 1.000000
0.620858 0.531411 1.000000
0.762449 0.533885 1.000000
0.871074 0.536126 1.000000
0.000000 0.694435 1.000000
0.000000 0.694453 1.000000
0.000000 0.694716 1.000000
0.225996 0.695358 1.000000
0.434369 0.696346 1.000000
0.608300 0.698011 1.000000
0.752716 0.699752 1.000000
0.862817 0.701335 1.000000
0.000000 0.840267 1.000000
0.000000 0.840335 1.000000
0.000000 0.840511 1.000000
0.170197 0.840914 1.000000
0.412099 0.841794 1.000000
0.593674 0.843018 1.000000
0.741544 0.844437 1.000000
0.853157 0.845711 1.000000
0.000000 0.953421 1.000000
0.000000 0.953442 1.000000
0.000000 0.953649 1.000000
0.055388 0.953933 1.000000
0.389897 0.954665 1.000000
0.579596 0.955785 1.000000
0.730781 0.957034 1.000000
0.844163 0.958082 1.000000
