gsg/01_Basics/GSG_LUT_Basic_GreenBoost.cube
# GSG LUTs 1.0
# Copyright (c) 2016-2020 Greyscalegorilla
# See EULA for licensing and distribution information
# Converted by Briz LUT Converter
LUT_3D_SIZE 5
DOMAIN_MIN 0.000000 0.000000 0.000000
DOMAIN_MAX 0.903226 0.903226 0.903226
0.000244 0.000000 0.016117
0.000134 0.000000 0.080523
0.000024 0.000000 0.144929
0.000173 0.000087 0.209421
0.000394 0.000197 0.273938
0.000354 0.000000 0.037512
0.000194 0.000050 0.101968
0.000034 0.000100 0.166424
0.000134 0.000119 0.230927
0.000305 0.000129 0.295443
0.000465 0.000000 0.058907
0.000255 0.000100 0.123413
0.000045 0.000199 0.187918
0.000095 0.000151 0.252432
0.000216 0.000062 0.316948
0.000402 0.000000 0.080389
0.000259 0.000071 0.144905
0.000117 0.000142 0.209421
0.000112 0.000132 0.273938
0.000144 0.000100 0.338454
0.000291 0.000000 0.101895
0.000249 0.000021 0.166411
0.000206 0.000043 0.230927
0.000144 0.000100 0.295443
0.000076 0.000168 0.359959
0.000244 0.000110 0.023175
0.000234 0.000060 0.087631
0.000223 0.000011 0.152087
0.000394 0.000126 0.216590
0.000614 0.000286 0.281106
0.000305 0.000110 0.044570
0.000244 0.000110 0.109076
0.000184 0.000110 0.173581
0.000270 0.000140 0.238095
0.000395 0.000178 0.302611
0.000365 0.000110 0.065966
0.000255 0.000160 0.130521
0.000145 0.000210 0.195076
0.000145 0.000154 0.259601
0.000176 0.000070 0.324117
0.000331 0.000071 0.087486
0.000235 0.000128 0.152035
0.000139 0.000185 0.216583
0.000149 0.000144 0.281106
0.000187 0.000076 0.345622
0.000270 0.000021 0.109042
0.000207 0.000073 0.173567
0.000143 0.000125 0.238093
0.000187 0.000126 0.302611
0.000261 0.000113 0.367127
0.000244 0.000221 0.030234
0.000333 0.000121 0.094739
0.000422 0.000021 0.159244
0.000614 0.000165 0.223758
0.000835 0.000375 0.288274
0.000255 0.000221 0.051629
0.000294 0.000171 0.116184
0.000333 0.000121 0.180739
0.000405 0.000162 0.245264
0.000486 0.000227 0.309780
0.000266 0.000221 0.073024
0.000255 0.000221 0.137629
0.000244 0.000221 0.202234
0.000196 0.000158 0.266769
0.000137 0.000079 0.331285
0.000259 0.000142 0.094584
0.000210 0.000185 0.159164
0.000161 0.000227 0.223745
0.000186 0.000155 0.288274
0.000231 0.000052 0.352791
0.000249 0.000043 0.116189
0.000164 0.000125 0.180724
0.000080 0.000207 0.245260
0.000231 0.000152 0.309780
0.000446 0.000059 0.374296
0.000158 0.000244 0.037378
0.000229 0.000134 0.101895
0.000300 0.000024 0.166411
0.000427 0.000173 0.230927
0.000569 0.000394 0.295443
0.000158 0.000244 0.058773
0.000197 0.000184 0.123339
0.000236 0.000123 0.187905
0.000294 0.000166 0.252432
0.000357 0.000237 0.316948
0.000158 0.000244 0.080169
0.000164 0.000234 0.144784
0.000171 0.000223 0.209400
0.000161 0.000159 0.273938
0.000146 0.000081 0.338454
0.000158 0.000188 0.101706
0.000146 0.000200 0.166307
0.000135 0.000211 0.230909
0.000187 0.000138 0.295443
0.000256 0.000041 0.359959
0.000158 0.000117 0.123283
0.000132 0.000143 0.187852
0.000106 0.000169 0.252421
0.000256 0.000112 0.316948
0.000453 0.000034 0.381464
0.000047 0.000244 0.044547
0.000069 0.000134 0.109063
0.000090 0.000024 0.173579
0.000128 0.000173 0.238095
0.000171 0.000394 0.302611
0.000047 0.000244 0.065942
0.000059 0.000184 0.130508
0.000071 0.000123 0.195074
0.000116 0.000166 0.259601
0.000169 0.000237 0.324117
0.000047 0.000244 0.087337
0.000049 0.000234 0.151953
0.000051 0.000223 0.216569
0.000103 0.000159 0.281106
0.000168 0.000081 0.345622
0.000047 0.000227 0.108836
0.000071 0.000203 0.173454
0.000095 0.000179 0.238073
0.000177 0.000112 0.302611
0.000275 0.000034 0.367127
0.000047 0.000206 0.130362
0.000102 0.000152 0.194971
0.000156 0.000097 0.259581
0.000275 0.000055 0.324117
0.000412 0.000017 0.388633
