gsg/01_Basics/GSG_LUT_Basic_WarmlCreamyWhites.cube
# GSG LUTs 1.0
# Copyright (c) 2016-2020 Greyscalegorilla
# See EULA for licensing and distribution information
# Converted by Briz LUT Converter
LUT_3D_SIZE 32
0.023443 0.022466 0.020024
0.054977 0.022214 0.019520
0.087502 0.021458 0.018496
0.120753 0.020442 0.016464
0.154311 0.018677 0.012809
0.188554 0.016330 0.004506
0.222845 0.012375 0.000000
0.257584 0.003403 0.000000
0.292568 0.000000 0.000000
0.327378 0.000000 0.000000
0.362370 0.000000 0.000000
0.397274 0.000000 0.000000
0.432014 0.000000 0.000000
0.466509 0.000000 0.000000
0.500784 0.000000 0.000000
0.534531 0.000000 0.000000
0.567781 0.000000 0.000000
0.600402 0.000000 0.000000
0.632376 0.000000 0.000000
0.663492 0.000000 0.000000
0.693860 0.000000 0.000000
0.723148 0.000000 0.000000
0.751097 0.000000 0.000000
0.777857 0.000000 0.000000
0.803104 0.000000 0.000000
0.826838 0.000000 0.000000
0.848651 0.000000 0.000000
0.868612 0.000000 0.000000
0.886132 0.000000 0.000000
0.901130 0.000000 0.000000
0.913372 0.000000 0.000000
0.922589 0.000000 0.000000
0.025444 0.053488 0.019520
0.055724 0.053251 0.019016
0.087983 0.053007 0.017748
0.121005 0.052739 0.015684
0.154562 0.052244 0.011768
0.188562 0.051517 0.000000
0.223089 0.050732 0.000000
0.257828 0.049510 0.000000
0.292570 0.048220 0.000000
0.327551 0.046747 0.000000
0.362535 0.044875 0.000000
0.397282 0.042662 0.000000
0.432019 0.040118 0.000000
0.466651 0.036841 0.000000
0.500784 0.033198 0.000000
0.534531 0.028334 0.000000
0.567781 0.021881 0.000000
0.600402 0.007392 0.000000
0.632518 0.001410 0.000000
0.663500 0.001285 0.000000
0.693946 0.001139 0.000000
0.723148 0.000960 0.000000
0.751099 0.000724 0.000000
0.777857 0.000267 0.000000
0.803105 0.000000 0.000000
0.826886 0.000000 0.000000
0.848658 0.000000 0.000000
0.868612 0.000000 0.000000
0.886132 0.000000 0.000000
0.901131 0.000000 0.000000
0.913372 0.000000 0.000000
0.922589 0.000000 0.000000
0.028713 0.085029 0.018252
0.057213 0.085013 0.017740
0.088754 0.084785 0.016235
0.121517 0.084541 0.013916
0.155028 0.084296 0.009003
0.189056 0.084013 0.000000
0.223346 0.083532 0.000000
0.257844 0.082984 0.000000
0.292816 0.082248 0.000000
0.327633 0.081338 0.000000
0.362624 0.080523 0.000000
0.397519 0.079318 0.000000
0.432258 0.078237 0.000000
0.466658 0.076773 0.000000
0.500894 0.075300 0.000000
0.534657 0.073717 0.000000
0.567907 0.072000 0.000000
0.600543 0.070055 0.000000
0.632518 0.067953 0.000000
0.663736 0.065755 0.000000
0.693946 0.063321 0.000000
0.723148 0.060733 0.000000
0.751168 0.058047 0.000000
0.777861 0.055146 0.000000
0.803348 0.052059 0.000000
0.826886 0.048910 0.000000
0.848856 0.045760 0.000000
0.868614 0.042382 0.000000
0.886132 0.039020 0.000000
0.901161 0.035673 0.000000
0.913372 0.032571 0.000000
0.922589 0.030171 0.000000
0.033227 0.117287 0.015952
0.059229 0.117280 0.015203
0.090006 0.117066 0.013650
0.122486 0.117043 0.010470
0.155740 0.116791 0.002113
0.189555 0.116539 0.000000
0.223798 0.116287 0.000000
0.258340 0.115814 0.000000
0.293080 0.115318 0.000000
0.327890 0.114821 0.000000
0.362803 0.114254 0.000000
0.397763 0.113522 0.000000
0.432417 0.112782 0.000000
0.466895 0.111814 0.000000
0.501039 0.110835 0.000000
0.534787 0.109854 0.000000
0.568038 0.108874 0.000000
0.600646 0.107661 0.000000
0.632634 0.106448 0.000000
0.663736 0.105076 0.000000
0.693970 0.103855 0.000000
0.723171 0.102391 0.000000
0.751341 0.100933 0.000000
0.778101 0.099468 0.000000
0.803348 0.098021 0.000000
0.827083 0.096777 0.000000
0.848856 0.095317 0.000000
0.868644 0.094064 0.000000
0.886376 0.092851 0.000000
0.901375 0.091662 0.000000
0.913616 0.090692 0.000000
0.922589 0.090189 0.000000
0.038718 0.150065 0.011769
0.062215 0.149852 0.010701
0.091959 0.149852 0.007732
0.123751 0.149800 0.000000
0.156568 0.149608 0.000000
0.190287 0.149364 0.000000
0.224325 0.149120 0.000000
0.258837 0.148875 0.000000
0.293576 0.148568 0.000000
0.328315 0.148104 0.000000
0.363278 0.147607 0.000000
0.398039 0.147111 0.000000
0.432664 0.146615 0.000000
0.467153 0.146029 0.000000
0.501286 0.145299 0.000000
0.535035 0.144566 0.000000
0.568270 0.143819 0.000000
0.600890 0.142975 0.000000
0.632775 0.142111 0.000000
0.663980 0.141151 0.000000
0.694190 0.140308 0.000000
0.723392 0.139412 0.000000
0.751434 0.138430 0.000000
0.778132 0.137469 0.000000
0.803427 0.136428 0.000000
0.827130 0.135515 0.000000
0.848922 0.134549 0.000000
0.868857 0.133589 0.000000
0.886376 0.132842 0.000000
0.901377 0.132126 0.000000
0.913616 0.131616 0.000000
0.922833 0.131120 0.000000
0.044673 0.183103 0.000000
0.065704 0.183103 0.000000
0.094211 0.183103 0.000000
0.125255 0.182894 0.000000
0.157785 0.182859 0.000000
0.191280 0.182648 0.000000
0.225074 0.182575 0.000000
0.259531 0.182324 0.000000
0.294072 0.182073 0.000000
0.328812 0.181666 0.000000
0.363551 0.181354 0.000000
0.398423 0.180872 0.000000
0.433030 0.180480 0.000000
0.467423 0.180024 0.000000
0.501556 0.179408 0.000000
0.535284 0.178912 0.000000
0.568534 0.178310 0.000000
0.601134 0.177693 0.000000
0.633023 0.176974 0.000000
0.664225 0.176328 0.000000
0.694435 0.175605 0.000000
0.723636 0.174858 0.000000
0.751597 0.174123 0.000000
0.778355 0.173404 0.000000
0.803601 0.172656 0.000000
0.827334 0.171917 0.000000
0.849106 0.171202 0.000000
0.868922 0.170638 0.000000
0.886620 0.169932 0.000000
0.901619 0.169436 0.000000
0.913860 0.168979 0.000000
0.922872 0.168727 0.000000
0.050967 0.216645 0.000000
0.069942 0.216598 0.000000
0.096952 0.216401 0.000000
0.127263 0.216401 0.000000
0.159289 0.216401 0.000000
0.192320 0.216157 0.000000
0.226105 0.216109 0.000000
0.260310 0.215912 0.000000
0.294848 0.215668 0.000000
0.329552 0.215424 0.000000
0.364292 0.215116 0.000000
0.398961 0.214849 0.000000
0.433526 0.214400 0.000000
0.467919 0.214101 0.000000
0.501918 0.213652 0.000000
0.535656 0.213155 0.000000
0.568805 0.212659 0.000000
0.601426 0.212163 0.000000
0.633298 0.211666 0.000000
0.664469 0.210973 0.000000
0.694679 0.210477 0.000000
0.723880 0.209981 0.000000
0.751843 0.209287 0.000000
0.778601 0.208744 0.000000
0.803847 0.208051 0.000000
0.827580 0.207554 0.000000
0.849352 0.207058 0.000000
0.869173 0.206562 0.000000
0.886667 0.206066 0.000000
0.901863 0.205617 0.000000
0.913908 0.205357 0.000000
0.923077 0.204916 0.000000
0.057671 0.250392 0.000000
0.074682 0.250203 0.000000
0.100197 0.250199 0.000000
0.129702 0.250148 0.000000
0.161243 0.250148 0.000000
0.193815 0.249950 0.000000
0.227311 0.249904 0.000000
0.261302 0.249702 0.000000
0.295608 0.249470 0.000000
0.330238 0.249360 0.000000
0.364843 0.249110 0.000000
0.399527 0.248860 0.000000
0.434056 0.248472 0.000000
0.468415 0.248147 0.000000
0.502414 0.247895 0.000000
0.536051 0.247398 0.000000
0.569184 0.247055 0.000000
0.601678 0.246650 0.000000
0.633652 0.246154 0.000000
0.664768 0.245691 0.000000
0.694978 0.245216 0.000000
0.724142 0.244720 0.000000
0.752184 0.244224 0.000000
0.778888 0.243728 0.000000
0.804136 0.243231 0.000000
0.827826 0.242780 0.000000
0.849597 0.242294 0.000000
0.869425 0.241798 0.000000
0.886920 0.241522 0.000000
0.901930 0.241101 0.000000
0.914160 0.240797 0.000000
0.923321 0.240600 0.000000
0.064374 0.284139 0.000000
0.079920 0.284139 0.000000
0.103946 0.284139 0.000000
0.132461 0.284139 0.000000
0.163283 0.283958 0.000000
0.195555 0.283947 0.000000
0.228788 0.283860 0.000000
0.262588 0.283699 0.000000
0.296782 0.283469 0.000000
0.331096 0.283354 0.000000
0.365714 0.283146 0.000000
0.400204 0.282894 0.000000
0.434693 0.282642 0.000000
0.468948 0.282390 0.000000
0.503045 0.282004 0.000000
0.536547 0.281672 0.000000
0.569680 0.281390 0.000000
0.602174 0.280956 0.000000
0.634046 0.280641 0.000000
0.665226 0.280208 0.000000
0.695230 0.279829 0.000000
0.724432 0.279439 0.000000
0.752452 0.278963 0.000000
0.779141 0.278467 0.000000
0.804388 0.278174 0.000000
0.828072 0.277719 0.000000
0.849896 0.277285 0.000000
0.869676 0.276970 0.000000
0.887172 0.276701 0.000000
0.902351 0.276285 0.000000
0.914412 0.276033 0.000000
0.923565 0.275962 0.000000
0.071322 0.318130 0.000000
0.085358 0.318130 0.000000
0.107951 0.318130 0.000000
0.135485 0.318113 0.000000
0.165710 0.317957 0.000000
0.197511 0.317945 0.000000
0.230346 0.317852 0.000000
0.263831 0.317712 0.000000
0.297846 0.317597 0.000000
0.332139 0.317448 0.000000
0.366584 0.317224 0.000000
0.401054 0.316980 0.000000
0.435480 0.316842 0.000000
0.469693 0.316592 0.000000
0.503541 0.316247 0.000000
0.537170 0.316003 0.000000
0.570294 0.315669 0.000000
0.602670 0.315381 0.000000
0.634543 0.315056 0.000000
0.665584 0.314676 0.000000
0.695726 0.314380 0.000000
0.724928 0.313955 0.000000
0.752877 0.313632 0.000000
0.779584 0.313207 0.000000
0.804829 0.312938 0.000000
0.828408 0.312458 0.000000
0.850176 0.312206 0.000000
0.869936 0.311922 0.000000
0.887597 0.311678 0.000000
0.902600 0.311434 0.000000
0.914837 0.311190 0.000000
0.923880 0.310946 0.000000
0.078514 0.352121 0.000000
0.091121 0.352121 0.000000
0.112379 0.352121 0.000000
0.138911 0.352105 0.000000
0.168404 0.351956 0.000000
0.199701 0.351943 0.000000
0.232250 0.351877 0.000000
0.265487 0.351711 0.000000
0.299271 0.351633 0.000000
0.333333 0.351467 0.000000
0.367630 0.351335 0.000000
0.401985 0.351195 0.000000
0.436228 0.350948 0.000000
0.470438 0.350702 0.000000
0.504281 0.350490 0.000000
0.537745 0.350246 0.000000
0.570790 0.350002 0.000000
0.603320 0.349624 0.000000
0.635141 0.349372 0.000000
0.666107 0.349120 0.000000
0.696223 0.348781 0.000000
0.725424 0.348425 0.000000
0.753374 0.348119 0.000000
0.779952 0.347824 0.000000
0.805173 0.347432 0.000000
0.828807 0.347182 0.000000
0.850644 0.346840 0.000000
0.870401 0.346593 0.000000
0.887920 0.346347 0.000000
0.902919 0.346174 0.000000
0.915160 0.345929 0.000000
0.924132 0.345685 0.000000
0.085462 0.386112 0.000000
0.097055 0.386112 0.000000
0.117140 0.385955 0.000000
0.142589 0.385946 0.000000
0.171280 0.385868 0.000000
0.202075 0.385868 0.000000
0.234235 0.385837 0.000000
0.267202 0.385624 0.000000
0.300760 0.385624 0.000000
0.334578 0.385441 0.000000
0.368821 0.385329 0.000000
0.402978 0.385135 0.000000
0.437221 0.384944 0.000000
0.471362 0.384825 0.000000
0.505109 0.384576 0.000000
0.538493 0.384326 0.000000
0.571531 0.384077 0.000000
0.603946 0.383828 0.000000
0.635688 0.383579 0.000000
0.666753 0.383329 0.000000
0.696750 0.383024 0.000000
0.725921 0.382780 0.000000
0.753758 0.382362 0.000000
0.780448 0.382110 0.000000
0.805632 0.381858 0.000000
0.829170 0.381606 0.000000
0.851068 0.381329 0.000000
0.870821 0.381082 0.000000
0.888416 0.380835 0.000000
0.903415 0.380679 0.000000
0.915417 0.380582 0.000000
0.924629 0.380338 0.000000
0.092505 0.419859 0.000000
0.103234 0.419856 0.000000
0.122070 0.419764 0.000000
0.146464 0.419750 0.000000
0.174457 0.419615 0.000000
0.204743 0.419615 0.000000
0.236417 0.419615 0.000000
0.269030 0.419486 0.000000
0.302319 0.419371 0.000000
0.336067 0.419300 0.000000
0.370066 0.419126 0.000000
0.404214 0.419040 0.000000
0.438271 0.418882 0.000000
0.472267 0.418638 0.000000
0.505991 0.418394 0.000000
0.539319 0.418276 0.000000
0.572317 0.418024 0.000000
0.604690 0.417771 0.000000
0.636378 0.417574 0.000000
0.667286 0.417325 0.000000
0.697460 0.417076 0.000000
0.726417 0.416827 0.000000
0.754394 0.416578 0.000000
0.780945 0.416329 0.000000
0.806129 0.416080 0.000000
0.829666 0.415802 0.000000
0.851432 0.415558 0.000000
0.871180 0.415333 0.000000
0.888692 0.415084 0.000000
0.903683 0.414981 0.000000
0.915908 0.414825 0.000000
0.925125 0.414581 0.000000
0.099602 0.453259 0.000000
0.109517 0.453259 0.000000
0.127245 0.453259 0.000000
0.150662 0.453259 0.000000
0.177898 0.453259 0.000000
0.207475 0.453236 0.000000
0.238729 0.453098 0.000000
0.271094 0.453015 0.000000
0.304058 0.452978 0.000000
0.337729 0.452844 0.000000
0.371476 0.452725 0.000000
0.405467 0.452593 0.000000
0.439395 0.452472 0.000000
0.473347 0.452282 0.000000
0.506983 0.452094 0.000000
0.540234 0.451896 0.000000
0.573114 0.451721 0.000000
0.605434 0.451472 0.000000
0.637118 0.451266 0.000000
0.668030 0.451101 0.000000
0.697992 0.450854 0.000000
0.727061 0.450606 0.000000
0.754933 0.450359 0.000000
0.781517 0.450187 0.000000
0.806680 0.449943 0.000000
0.830245 0.449699 0.000000
0.851928 0.449454 0.000000
0.871677 0.449210 0.000000
0.889188 0.448990 0.000000
0.904179 0.448966 0.000000
0.916405 0.448722 0.000000
0.925519 0.448722 0.000000
0.106550 0.486510 0.000000
0.115716 0.486510 0.000000
0.132531 0.486510 0.000000
0.155080 0.486510 0.000000
0.181567 0.486400 0.000000
0.210635 0.486400 0.000000
0.241272 0.486374 0.000000
0.273275 0.486266 0.000000
0.306007 0.486155 0.000000
0.339296 0.486117 0.000000
0.372965 0.485986 0.000000
0.406759 0.485864 0.000000
0.440703 0.485735 0.000000
0.474403 0.485533 0.000000
0.507976 0.485362 0.000000
0.541227 0.485236 0.000000
0.573981 0.485045 0.000000
0.606299 0.484861 0.000000
0.637923 0.484659 0.000000
0.668773 0.484407 0.000000
0.698735 0.484312 0.000000
0.727689 0.484068 0.000000
0.755635 0.483824 0.000000
0.782147 0.483580 0.000000
0.807365 0.483360 0.000000
0.830877 0.483138 0.000000
0.852629 0.482979 0.000000
0.872386 0.482847 0.000000
0.889784 0.482603 0.000000
0.904675 0.482477 0.000000
0.916901 0.482359 0.000000
0.926118 0.482225 0.000000
0.113498 0.519398 0.000000
0.122151 0.519394 0.000000
0.137958 0.519280 0.000000
0.159617 0.519280 0.000000
0.185356 0.519280 0.000000
0.213711 0.519154 0.000000
0.243980 0.519154 0.000000
0.275608 0.519127 0.000000
0.308079 0.519003 0.000000
0.341158 0.518910 0.000000
0.374657 0.518872 0.000000
0.408200 0.518666 0.000000
0.441947 0.518620 0.000000
0.475645 0.518421 0.000000
0.509087 0.518311 0.000000
0.542219 0.518177 0.000000
0.574973 0.517933 0.000000
0.607167 0.517799 0.000000
0.638718 0.517689 0.000000
0.669517 0.517445 0.000000
0.699479 0.517200 0.000000
0.728432 0.517035 0.000000
0.756288 0.516783 0.000000
0.782859 0.516712 0.000000
0.807917 0.516468 0.000000
0.831399 0.516224 0.000000
0.853144 0.516019 0.000000
0.872897 0.515870 0.000000
0.890401 0.515735 0.000000
0.905400 0.515617 0.000000
0.917401 0.515491 0.000000
0.926614 0.515365 0.000000
0.120446 0.551656 0.000000
0.128465 0.551656 0.000000
0.143400 0.551656 0.000000
0.164299 0.551645 0.000000
0.189279 0.551538 0.000000
0.217105 0.551538 0.000000
0.246910 0.551538 0.000000
0.278060 0.551412 0.000000
0.310251 0.551382 0.000000
0.342983 0.551294 0.000000
0.376272 0.551168 0.000000
0.409771 0.551050 0.000000
0.443387 0.551001 0.000000
0.476886 0.550805 0.000000
0.510205 0.550749 0.000000
0.543338 0.550561 0.000000
0.575966 0.550374 0.000000
0.608090 0.550248 0.000000
0.639710 0.550073 0.000000
0.670432 0.549874 0.000000
0.700345 0.549671 0.000000
0.729175 0.549584 0.000000
0.757037 0.549340 0.000000
0.783512 0.549096 0.000000
0.808631 0.548907 0.000000
0.832140 0.548852 0.000000
0.853767 0.548608 0.000000
0.873520 0.548395 0.000000
0.890910 0.548363 0.000000
0.905904 0.548119 0.000000
0.918138 0.548119 0.000000
0.927110 0.548001 0.000000
0.127150 0.583418 0.000000
0.134786 0.583418 0.000000
0.149065 0.583418 0.000000
0.168981 0.583284 0.000000
0.193218 0.583284 0.000000
0.220446 0.583284 0.000000
0.249840 0.583284 0.000000
0.280603 0.583174 0.000000
0.312458 0.583139 0.000000
0.345063 0.583040 0.000000
0.378085 0.583004 0.000000
0.411383 0.582882 0.000000
0.444830 0.582753 0.000000
0.478248 0.582629 0.000000
0.511515 0.582502 0.000000
0.544464 0.582376 0.000000
0.577028 0.582250 0.000000
0.609083 0.582063 0.000000
0.640561 0.581875 0.000000
0.671248 0.581751 0.000000
0.701138 0.581575 0.000000
0.730045 0.581374 0.000000
0.757785 0.581220 0.000000
0.784258 0.581004 0.000000
0.809373 0.580872 0.000000
0.832770 0.580732 0.000000
0.854402 0.580505 0.000000
0.874150 0.580371 0.000000
0.891638 0.580243 0.000000
0.906534 0.580118 0.000000
0.918634 0.580003 0.000000
0.927740 0.579999 0.000000
0.133711 0.614408 0.000000
0.140841 0.614408 0.000000
0.154508 0.614408 0.000000
0.173768 0.614408 0.000000
0.197293 0.614408 0.000000
0.223995 0.614408 0.000000
0.252771 0.614408 0.000000
0.283225 0.614243 0.000000
0.314771 0.614164 0.000000
0.347127 0.614164 0.000000
0.379914 0.614085 0.000000
0.413069 0.613919 0.000000
0.446319 0.613919 0.000000
0.479570 0.613675 0.000000
0.512756 0.613675 0.000000
0.545640 0.613431 0.000000
0.578195 0.613431 0.000000
0.610075 0.613187 0.000000
0.641553 0.613045 0.000000
0.672173 0.612943 0.000000
0.702081 0.612698 0.000000
0.730836 0.612533 0.000000
0.758533 0.612454 0.000000
0.785041 0.612247 0.000000
0.810036 0.612131 0.000000
0.833518 0.611966 0.000000
0.855142 0.611744 0.000000
0.874877 0.611722 0.000000
0.892286 0.611491 0.000000
0.907142 0.611477 0.000000
0.919375 0.611238 0.000000
0.928347 0.611233 0.000000
0.140163 0.644783 0.000000
0.147032 0.644783 0.000000
0.159942 0.644774 0.000000
0.178590 0.644634 0.000000
0.201339 0.644634 0.000000
0.227429 0.644634 0.000000
0.255869 0.644634 0.000000
0.285901 0.644612 0.000000
0.317114 0.644539 0.000000
0.349218 0.644389 0.000000
0.381866 0.644389 0.000000
0.414768 0.644295 0.000000
0.447900 0.644145 0.000000
0.481059 0.644105 0.000000
0.514117 0.643983 0.000000
0.546881 0.643855 0.000000
0.579338 0.643729 0.000000
0.611312 0.643605 0.000000
0.642546 0.643413 0.000000
0.673166 0.643318 0.000000
0.702879 0.643107 0.000000
0.731780 0.642972 0.000000
0.759420 0.642857 0.000000
0.785789 0.642680 0.000000
0.810857 0.642469 0.000000
0.834267 0.642359 0.000000
0.855867 0.642216 0.000000
0.875537 0.642097 0.000000
0.892889 0.641962 0.000000
0.907883 0.641859 0.000000
0.920020 0.641853 0.000000
0.928993 0.641703 0.000000
0.146457 0.674095 0.000000
0.152975 0.674095 0.000000
0.165384 0.674095 0.000000
0.183285 0.674095 0.000000
0.205522 0.674095 0.000000
0.231108 0.674095 0.000000
0.258923 0.674008 0.000000
0.288578 0.674008 0.000000
0.319554 0.673851 0.000000
0.351382 0.673851 0.000000
0.383800 0.673764 0.000000
0.416504 0.673708 0.000000
0.449541 0.673607 0.000000
0.482548 0.673520 0.000000
0.515444 0.673362 0.000000
0.548122 0.673276 0.000000
0.580501 0.673195 0.000000
0.612305 0.673032 0.000000
0.643539 0.672874 0.000000
0.674158 0.672787 0.000000
0.703872 0.672574 0.000000
0.732577 0.672437 0.000000
0.760274 0.672324 0.000000
0.786624 0.672182 0.000000
0.811600 0.672055 0.000000
0.835015 0.671897 0.000000
0.856609 0.671811 0.000000
0.876265 0.671578 0.000000
0.893631 0.671566 0.000000
0.908533 0.671409 0.000000
0.920616 0.671322 0.000000
0.929584 0.671322 0.000000
0.152657 0.702548 0.000000
0.158685 0.702548 0.000000
0.170657 0.702548 0.000000
0.187979 0.702548 0.000000
0.209673 0.702548 0.000000
0.234543 0.702470 0.000000
0.262098 0.702470 0.000000
0.291370 0.702304 0.000000
0.322013 0.702304 0.000000
0.353500 0.702304 0.000000
0.385758 0.702225 0.000000
0.418347 0.702060 0.000000
0.451131 0.702060 0.000000
0.483967 0.701981 0.000000
0.516858 0.701816 0.000000
0.549363 0.701737 0.000000
0.581661 0.701572 0.000000
0.613498 0.701493 0.000000
0.644673 0.701327 0.000000
0.675151 0.701249 0.000000
0.704864 0.701083 0.000000
0.733570 0.701004 0.000000
0.761093 0.700783 0.000000
0.787530 0.700637 0.000000
0.812360 0.700534 0.000000
0.835764 0.700383 0.000000
0.857351 0.700284 0.000000
0.877012 0.700128 0.000000
0.894372 0.700035 0.000000
0.909281 0.700028 0.000000
0.921352 0.699862 0.000000
0.930324 0.699783 0.000000
0.158439 0.729749 0.000000
0.164215 0.729749 0.000000
0.175848 0.729749 0.000000
0.192500 0.729749 0.000000
0.213621 0.729749 0.000000
0.238221 0.729749 0.000000
0.265215 0.729749 0.000000
0.294080 0.729749 0.000000
0.324432 0.729505 0.000000
0.355658 0.729505 0.000000
0.387743 0.729505 0.000000
0.420087 0.729418 0.000000
0.452668 0.729261 0.000000
0.485423 0.729261 0.000000
0.518177 0.729150 0.000000
0.550724 0.729017 0.000000
0.582862 0.728890 0.000000
0.614612 0.728772 0.000000
0.645768 0.728731 0.000000
0.676143 0.728528 0.000000
0.705857 0.728371 0.000000
0.734389 0.728284 0.000000
0.762015 0.728111 0.000000
0.788278 0.728040 0.000000
0.813273 0.727835 0.000000
0.836526 0.727796 0.000000
0.858104 0.727579 0.000000
0.877759 0.727551 0.000000
0.895096 0.727331 0.000000
0.909866 0.727307 0.000000
0.922024 0.727307 0.000000
0.931065 0.727236 0.000000
0.163898 0.755760 0.000000
0.169666 0.755760 0.000000
0.180795 0.755760 0.000000
0.196942 0.755760 0.000000
0.217559 0.755760 0.000000
0.241656 0.755760 0.000000
0.268215 0.755748 0.000000
0.296766 0.755697 0.000000
0.326866 0.755651 0.000000
0.357816 0.755516 0.000000
0.389649 0.755516 0.000000
0.421805 0.755453 0.000000
0.454402 0.755272 0.000000
0.486912 0.755272 0.000000
0.519584 0.755209 0.000000
0.552058 0.755028 0.000000
0.584009 0.754965 0.000000
0.615637 0.754784 0.000000
0.646760 0.754747 0.000000
0.677136 0.754610 0.000000
0.706692 0.754499 0.000000
0.735311 0.754295 0.000000
0.762834 0.754250 0.000000
0.789090 0.754051 0.000000
0.814022 0.753988 0.000000
0.837323 0.753807 0.000000
0.858844 0.753744 0.000000
0.878349 0.753586 0.000000
0.895780 0.753506 0.000000
0.910603 0.753500 0.000000
0.922770 0.753318 0.000000
0.931742 0.753318 0.000000
0.169168 0.780448 0.000000
0.174690 0.780448 0.000000
0.185501 0.780448 0.000000
0.201189 0.780448 0.000000
0.221332 0.780259 0.000000
0.244932 0.780259 0.000000
0.271180 0.780259 0.000000
0.299437 0.780259 0.000000
0.329102 0.780204 0.000000
0.360007 0.780204 0.000000
0.391469 0.780015 0.000000
0.423538 0.780015 0.000000
0.455890 0.779960 0.000000
0.488400 0.779881 0.000000
0.520941 0.779771 0.000000
0.553211 0.779716 0.000000
0.585246 0.779527 0.000000
0.616849 0.779471 0.000000
0.647753 0.779362 0.000000
0.678128 0.779249 0.000000
0.707598 0.779105 0.000000
0.736175 0.779001 0.000000
0.763756 0.778849 0.000000
0.790019 0.778753 0.000000
0.814770 0.778592 0.000000
0.838064 0.778505 0.000000
0.859585 0.778336 0.000000
0.879089 0.778258 0.000000
0.896527 0.778250 0.000000
0.911344 0.778061 0.000000
0.923335 0.778008 0.000000
0.932301 0.778006 0.000000
0.174131 0.803442 0.000000
0.179448 0.803442 0.000000
0.189819 0.803442 0.000000
0.205202 0.803442 0.000000
0.225019 0.803246 0.000000
0.248123 0.803246 0.000000
0.274111 0.803246 0.000000
0.301918 0.803246 0.000000
0.331372 0.803246 0.000000
0.361974 0.803232 0.000000
0.393375 0.803001 0.000000
0.425271 0.803001 0.000000
0.457529 0.803001 0.000000
0.489807 0.802871 0.000000
0.522289 0.802757 0.000000
0.554452 0.802734 0.000000
0.586435 0.802513 0.000000
0.617866 0.802513 0.000000
0.648746 0.802351 0.000000
0.679121 0.802269 0.000000
0.708590 0.802094 0.000000
0.737067 0.802024 0.000000
0.764518 0.801991 0.000000
0.790768 0.801780 0.000000
0.815566 0.801744 0.000000
0.838804 0.801536 0.000000
0.860325 0.801496 0.000000
0.879830 0.801317 0.000000
0.897097 0.801292 0.000000
0.912028 0.801245 0.000000
0.924069 0.801048 0.000000
0.933042 0.801048 0.000000
0.178644 0.824719 0.000000
0.183908 0.824719 0.000000
0.194008 0.824719 0.000000
0.209086 0.824700 0.000000
0.228256 0.824515 0.000000
0.251068 0.824515 0.000000
0.276639 0.824515 0.000000
0.304344 0.824506 0.000000
0.333538 0.824475 0.000000
0.363945 0.824475 0.000000
0.395050 0.824270 0.000000
0.426760 0.824270 0.000000
0.459018 0.824231 0.000000
0.491276 0.824145 0.000000
0.523534 0.824026 0.000000
0.555587 0.823987 0.000000
0.587475 0.823881 0.000000
0.618859 0.823760 0.000000
0.649738 0.823624 0.000000
0.679964 0.823514 0.000000
0.709425 0.823498 0.000000
0.737905 0.823294 0.000000
0.765324 0.823254 0.000000
0.791516 0.823049 0.000000
0.816306 0.823010 0.000000
0.839513 0.822845 0.000000
0.861026 0.822766 0.000000
0.880531 0.822766 0.000000
0.897834 0.822525 0.000000
0.912584 0.822522 0.000000
0.924574 0.822522 0.000000
0.933538 0.822317 0.000000
0.182898 0.843980 0.000000
0.187916 0.843980 0.000000
0.197763 0.843980 0.000000
0.212383 0.843980 0.000000
0.231447 0.843952 0.000000
0.254005 0.843767 0.000000
0.279105 0.843767 0.000000
0.306534 0.843767 0.000000
0.335523 0.843735 0.000000
0.365686 0.843735 0.000000
0.396644 0.843667 0.000000
0.428269 0.843523 0.000000
0.460262 0.843511 0.000000
0.492520 0.843491 0.000000
0.524566 0.843279 0.000000
0.556706 0.843263 0.000000
0.588467 0.843247 0.000000
0.619851 0.843034 0.000000
