gsg/01_Basics/GSG_LUT_Basic_WarmlCreamyWhites.cube
# GSG LUTs 1.0
# Copyright (c) 2016-2020 Greyscalegorilla
# See EULA for licensing and distribution information
# Converted by Briz LUT Converter
LUT_3D_SIZE 5
DOMAIN_MIN 0.000000 0.000000 0.000000
DOMAIN_MAX 0.903226 0.903226 0.903226
0.023443 0.022466 0.020024
0.257584 0.003403 0.000000
0.500784 0.000000 0.000000
0.723148 0.000000 0.000000
0.886132 0.000000 0.000000
0.057671 0.250392 0.000000
0.261302 0.249702 0.000000
0.502414 0.247895 0.000000
0.724142 0.244720 0.000000
0.886920 0.241522 0.000000
0.106550 0.486510 0.000000
0.273275 0.486266 0.000000
0.507976 0.485362 0.000000
0.727689 0.484068 0.000000
0.889784 0.482603 0.000000
0.152657 0.702548 0.000000
0.291370 0.702304 0.000000
0.516858 0.701816 0.000000
0.733570 0.701004 0.000000
0.894372 0.700035 0.000000
0.186624 0.861003 0.000000
0.308543 0.860759 0.000000
0.525692 0.860514 0.000000
0.739391 0.859782 0.000000
0.899029 0.859049 0.000000
0.037993 0.029958 0.225885
0.258762 0.021190 0.224896
0.501272 0.000000 0.221679
0.723392 0.000000 0.216178
0.886376 0.000000 0.210330
0.064075 0.250880 0.224853
0.262490 0.250190 0.223834
0.502867 0.248360 0.220462
0.724424 0.245209 0.214990
0.887168 0.242030 0.209280
0.109835 0.486754 0.221190
0.274300 0.486510 0.220218
0.508464 0.485620 0.216840
0.728051 0.484312 0.211171
0.890056 0.482847 0.205298
0.154665 0.702714 0.215219
0.292362 0.702548 0.214200
0.517363 0.701991 0.210683
0.733814 0.701083 0.204852
0.894616 0.700156 0.198735
0.188168 0.861058 0.208920
0.309481 0.861003 0.207888
0.526171 0.860514 0.204220
0.739637 0.859798 0.198241
0.899278 0.859071 0.191766
0.064130 0.045973 0.439096
0.262493 0.041278 0.438607
0.502908 0.015657 0.437203
0.724479 0.000000 0.434854
0.887219 0.000000 0.432379
0.081256 0.252431 0.438607
0.266106 0.251916 0.438119
0.504612 0.249992 0.436700
0.725528 0.246973 0.434339
0.888110 0.243711 0.431888
0.119713 0.487487 0.437032
0.277772 0.487229 0.436582
0.510133 0.486394 0.435105
0.729174 0.485004 0.432672
0.890887 0.483590 0.430243
0.161460 0.703202 0.434401
0.295577 0.703037 0.433912
0.518963 0.702489 0.432488
0.734915 0.701572 0.430070
0.895420 0.700678 0.427602
0.193585 0.861491 0.431759
0.312505 0.861335 0.431271
0.527756 0.861003 0.429760
0.740720 0.860270 0.427358
0.900050 0.859538 0.424811
0.090047 0.062689 0.634078
0.268329 0.059569 0.633834
0.505589 0.047663 0.632857
0.726244 0.002615 0.631338
0.888574 0.000000 0.629698
0.102233 0.255105 0.633834
0.271968 0.254570 0.633519
0.507279 0.252624 0.632588
0.727295 0.249659 0.630982
0.889490 0.246485 0.629438
0.133987 0.488672 0.632746
0.283346 0.488428 0.632472
0.512801 0.487601 0.631465
0.730864 0.486242 0.629970
0.892276 0.484809 0.628429
0.171791 0.703988 0.631094
0.300668 0.703769 0.630738
0.521627 0.703269 0.629822
0.736674 0.702340 0.628315
0.896786 0.701450 0.626709
0.201891 0.862145 0.629367
0.317312 0.861980 0.629089
0.530253 0.861491 0.628185
0.742479 0.860812 0.626574
0.901422 0.860198 0.624980
0.109307 0.075631 0.777069
0.274134 0.073084 0.776825
0.508464 0.064201 0.776092
0.728016 0.045366 0.774879
0.890039 0.000000 0.773652
0.119406 0.257828 0.776825
0.277608 0.257158 0.776580
0.510008 0.255339 0.775848
0.729115 0.252351 0.774688
0.890838 0.249238 0.773424
0.146832 0.489818 0.776092
0.288785 0.489574 0.775848
0.515481 0.488836 0.775115
0.732616 0.487451 0.773894
0.893680 0.486033 0.772673
0.181583 0.704746 0.774706
0.305828 0.704502 0.774474
0.524219 0.704014 0.773738
0.738438 0.703113 0.772561
0.898192 0.702297 0.771303
0.210067 0.862712 0.773406
0.322034 0.862644 0.773162
0.532895 0.862224 0.772429
0.744238 0.861491 0.771216
0.902737 0.860759 0.769989
