gsg/01_Basics/GSG_LUT_Basic_CleanLook.cube
# GSG LUTs 1.0
# Copyright (c) 2016-2020 Greyscalegorilla
# See EULA for licensing and distribution information
# Converted by Briz LUT Converter
LUT_3D_SIZE 32
0.010989 0.009768 0.012210
0.026641 0.009752 0.012950
0.044634 0.009492 0.013447
0.064217 0.009500 0.014408
0.084044 0.009311 0.015203
0.104864 0.009524 0.015708
0.127638 0.009477 0.016653
0.153216 0.007917 0.017204
0.181378 0.004380 0.017827
0.212564 0.000000 0.018071
0.246776 0.000000 0.017827
0.283682 0.000000 0.017653
0.323164 0.000000 0.017149
0.364055 0.000000 0.015771
0.405955 0.000000 0.014101
0.448864 0.000000 0.012108
0.491670 0.000000 0.009138
0.533215 0.000000 0.006034
0.573737 0.000000 0.002529
0.612501 0.000000 0.000000
0.649840 0.000000 0.000000
0.685328 0.000000 0.000000
0.720068 0.000000 0.000000
0.754382 0.000000 0.000000
0.788625 0.000000 0.000000
0.822230 0.000000 0.000000
0.854827 0.000000 0.000000
0.886415 0.000000 0.000000
0.917240 0.000000 0.000000
0.947757 0.000000 0.000000
0.978266 0.000000 0.000000
1.000000 0.000000 0.000000
0.014235 0.027374 0.017921
0.030619 0.025649 0.016677
0.047507 0.025626 0.014912
0.067286 0.025662 0.011887
0.087061 0.025387 0.012477
0.107863 0.024801 0.013226
0.131172 0.023714 0.013979
0.156942 0.021385 0.014713
0.185041 0.018213 0.015156
0.216212 0.012921 0.015334
0.250339 0.004937 0.015495
0.287161 0.000076 0.014920
0.326493 0.000000 0.014075
0.367285 0.000000 0.012965
0.409303 0.000000 0.010852
0.452101 0.000000 0.008508
0.494399 0.000000 0.005889
0.535563 0.000000 0.002529
0.575580 0.000000 0.000000
0.614093 0.000000 0.000000
0.651085 0.000000 0.000000
0.686329 0.000000 0.000000
0.721055 0.000000 0.000000
0.755130 0.000000 0.000000
0.789610 0.000000 0.000000
0.822972 0.000000 0.000000
0.855324 0.000000 0.000000
0.886905 0.000000 0.000000
0.917491 0.000000 0.000000
0.947757 0.000000 0.000000
0.978503 0.000000 0.000000
1.000000 0.000000 0.000000
0.020410 0.045595 0.025145
0.038459 0.044144 0.023222
0.051566 0.042588 0.022212
0.067061 0.041074 0.020558
0.089178 0.040878 0.015643
0.112053 0.040521 0.011397
0.135641 0.039335 0.011262
0.161396 0.037749 0.011776
0.189551 0.034507 0.012127
0.220497 0.029676 0.012226
0.254696 0.022458 0.011908
0.291599 0.012048 0.011579
0.330673 0.000930 0.010646
0.371435 0.000000 0.009080
0.413818 0.000000 0.006978
0.455875 0.000000 0.004600
0.497767 0.000000 0.001805
0.538430 0.000000 0.000000
0.577943 0.000000 0.000000
0.616188 0.000000 0.000000
0.652839 0.000000 0.000000
0.687838 0.000000 0.000000
0.722222 0.000000 0.000000
0.756398 0.000000 0.000000
0.790626 0.000000 0.000000
0.823790 0.000000 0.000000
0.856116 0.000000 0.000000
0.887195 0.000000 0.000000
0.917730 0.000000 0.000000
0.947773 0.000000 0.000000
0.978266 0.000000 0.000000
1.000000 0.000000 0.000000
0.023199 0.067628 0.032274
0.042849 0.066367 0.030839
0.058628 0.064649 0.029772
0.073744 0.062452 0.028521
0.090608 0.059304 0.026403
0.114459 0.059825 0.020958
0.140695 0.060051 0.014628
0.167734 0.059052 0.009555
0.195943 0.057486 0.007651
0.227263 0.054276 0.007123
0.261483 0.048972 0.007027
0.298137 0.039855 0.006240
0.337105 0.027374 0.005002
0.378435 0.010379 0.003315
0.419840 0.000843 0.001466
0.461129 0.000000 0.000000
0.502134 0.000000 0.000000
0.542148 0.000000 0.000000
0.581175 0.000000 0.000000
0.619008 0.000000 0.000000
0.655379 0.000000 0.000000
0.690118 0.000000 0.000000
0.724337 0.000000 0.000000
0.758301 0.000000 0.000000
0.792081 0.000000 0.000000
0.824964 0.000000 0.000000
0.856973 0.000000 0.000000
0.887797 0.000000 0.000000
0.917878 0.000000 0.000000
0.947831 0.000000 0.000000
0.977782 0.000000 0.000000
1.000000 0.000000 0.000000
0.022608 0.095081 0.039174
0.044523 0.093861 0.037498
0.064946 0.091906 0.035570
0.082957 0.089825 0.034544
0.101159 0.086755 0.033116
0.118792 0.082424 0.031729
0.145289 0.082853 0.025932
0.174831 0.083100 0.019041
0.206555 0.082839 0.012533
0.238863 0.081303 0.007137
0.273280 0.078569 0.002012
0.310451 0.074089 0.000000
0.350056 0.066137 0.000000
0.390437 0.054625 0.000000
0.431182 0.036870 0.000000
0.471598 0.014649 0.000000
0.511851 0.002259 0.000000
0.550995 0.000000 0.000000
0.589247 0.000000 0.000000
0.626118 0.000000 0.000000
0.661723 0.000000 0.000000
0.695485 0.000000 0.000000
0.729017 0.000000 0.000000
0.762267 0.000000 0.000000
0.795573 0.000000 0.000000
0.828099 0.000000 0.000000
0.859881 0.000000 0.000000
0.890697 0.000000 0.000000
0.920748 0.000000 0.000000
0.950522 0.000000 0.000000
0.980535 0.000000 0.000000
1.000000 0.000000 0.000000
0.016677 0.124739 0.045445
0.041857 0.123943 0.043948
0.065761 0.122231 0.041987
0.088983 0.119962 0.040262
0.110249 0.117407 0.038993
0.131207 0.113876 0.037790
0.150260 0.108171 0.036657
0.179300 0.108378 0.030033
0.212220 0.109039 0.022519
0.248041 0.108894 0.014624
0.286092 0.107812 0.007007
0.323425 0.104913 0.001204
0.361550 0.100649 0.000000
0.400755 0.095318 0.000000
0.440106 0.087493 0.000000
0.479680 0.075288 0.000000
0.519031 0.058921 0.000000
0.557401 0.036430 0.000000
0.594865 0.011513 0.000000
0.631005 0.003414 0.000000
0.665735 0.000070 0.000000
0.699311 0.000000 0.000000
0.732289 0.000000 0.000000
0.765294 0.000000 0.000000
0.798306 0.000000 0.000000
0.830423 0.000000 0.000000
0.861729 0.000000 0.000000
0.892213 0.000000 0.000000
0.921986 0.000000 0.000000
0.951286 0.000000 0.000000
0.981245 0.000000 0.000000
1.000000 0.000000 0.000000
0.004726 0.159242 0.051991
0.031343 0.158785 0.050989
0.060647 0.157517 0.049229
0.090250 0.155260 0.046778
0.116185 0.152974 0.045437
0.140989 0.149978 0.043924
0.165485 0.146869 0.042466
0.186911 0.139836 0.041922
0.218631 0.139230 0.034613
0.255067 0.139655 0.024716
0.294073 0.139431 0.014756
0.334925 0.138319 0.004118
0.374915 0.135641 0.000000
0.413443 0.131431 0.000000
0.451988 0.126263 0.000000
0.490041 0.120311 0.000000
0.527763 0.113854 0.000000
0.564954 0.105008 0.000000
0.601394 0.092248 0.000000
0.636703 0.075761 0.000000
0.670835 0.055786 0.000000
0.703698 0.030119 0.000000
0.736406 0.010920 0.000000
0.769113 0.005809 0.000000
0.801631 0.000744 0.000000
0.833203 0.000000 0.000000
0.863980 0.000000 0.000000
0.893984 0.000000 0.000000
0.923247 0.000000 0.000000
0.952294 0.000000 0.000000
0.981992 0.000000 0.000000
1.000000 0.000000 0.000000
0.000000 0.199070 0.059569
0.010330 0.199112 0.058137
0.045727 0.198129 0.056619
0.082960 0.195864 0.053945
0.117476 0.192911 0.051402
0.146258 0.190428 0.050031
0.174627 0.187536 0.048186
0.202831 0.184155 0.046583
0.226923 0.175853 0.046577
0.261287 0.174359 0.039261
0.300614 0.174733 0.025763
0.341396 0.174189 0.012896
0.383150 0.172598 0.001622
0.424836 0.170499 0.000000
0.464016 0.166650 0.000000
0.501379 0.161564 0.000000
0.538090 0.156254 0.000000
0.573974 0.150632 0.000000
0.609043 0.145016 0.000000
0.643001 0.139437 0.000000
0.676135 0.130369 0.000000
0.708592 0.119855 0.000000
0.740833 0.107840 0.000000
0.773135 0.094926 0.000000
0.804952 0.080351 0.000000
0.835719 0.062877 0.000000
0.866013 0.041886 0.000000
0.895467 0.020244 0.000000
0.924282 0.013581 0.000000
0.952646 0.009203 0.000000
0.981422 0.004102 0.000000
1.000000 0.000331 0.000000
0.000000 0.249911 0.067612
0.000000 0.249437 0.066186
0.011245 0.248115 0.064426
0.064797 0.245658 0.062161
0.111271 0.242506 0.058396
0.149367 0.239324 0.055573
0.182226 0.236397 0.053826
0.215309 0.233092 0.051922
0.247707 0.229170 0.049336
0.273775 0.219258 0.050117
0.309736 0.216014 0.042586
0.350490 0.215495 0.026033
0.391744 0.214164 0.009757
0.433282 0.212147 0.000037
0.474697 0.209726 0.000000
0.514893 0.206432 0.000000
0.551695 0.201481 0.000000
0.586668 0.196255 0.000000
0.620752 0.191374 0.000000
0.653472 0.186380 0.000000
0.685172 0.181966 0.000000
0.716082 0.178250 0.000000
0.747271 0.173459 0.000000
0.778661 0.166536 0.000000
0.809540 0.158650 0.000000
0.839998 0.150581 0.000000
0.869810 0.142462 0.000000
0.899067 0.134018 0.000000
0.927762 0.125666 0.000000
0.956068 0.117211 0.000000
0.984834 0.110408 0.000000
1.000000 0.106779 0.000000
0.000000 0.293040 0.075371
0.000000 0.295979 0.074276
0.000000 0.295734 0.072915
0.026975 0.293434 0.070165
0.094236 0.289778 0.066470
0.143765 0.285731 0.062195
0.183183 0.282687 0.059213
0.219560 0.279483 0.057079
0.255165 0.276072 0.054704
0.290000 0.272143 0.051545
0.318815 0.262583 0.052117
0.354076 0.256987 0.046178
0.395356 0.255945 0.026595
0.436937 0.254252 0.006744
0.478192 0.251936 0.000000
0.518820 0.249068 0.000000
0.558575 0.246104 0.000000
0.595821 0.242182 0.000000
0.629568 0.237266 0.000000
0.661463 0.232136 0.000000
0.692191 0.227799 0.000000
0.722391 0.224089 0.000000
0.752988 0.221631 0.000000
0.783260 0.220479 0.000000
0.813353 0.217824 0.000000
0.843082 0.212600 0.000000
0.872523 0.207192 0.000000
0.901273 0.201519 0.000000
0.929520 0.196251 0.000000
0.957490 0.191266 0.000000
0.985771 0.187465 0.000000
1.000000 0.185915 0.000000
0.000000 0.338627 0.084359
0.000000 0.342056 0.083606
0.000000 0.342062 0.081844
0.001649 0.339785 0.079145
0.066532 0.336510 0.075295
0.130925 0.332569 0.070713
0.180428 0.328442 0.065707
0.220503 0.325732 0.063281
0.258890 0.323022 0.060596
0.296599 0.319831 0.057332
0.333703 0.316438 0.053517
0.364541 0.307353 0.053863
0.398808 0.299646 0.050592
0.439976 0.298209 0.028178
0.481307 0.296085 0.005321
0.521526 0.293151 0.000000
0.561062 0.290132 0.000000
0.599047 0.286793 0.000000
0.635938 0.283360 0.000000
0.669052 0.278990 0.000000
0.699200 0.274147 0.000000
0.729143 0.270095 0.000000
0.759037 0.267462 0.000000
0.788803 0.265679 0.000000
0.817986 0.264794 0.000000
0.846547 0.265005 0.000000
0.875058 0.262558 0.000000
0.903291 0.258275 0.000000
0.930954 0.253890 0.000000
0.958499 0.250056 0.000000
0.986522 0.247530 0.000000
1.000000 0.246839 0.000000
0.000000 0.384040 0.094718
0.000000 0.387472 0.094372
0.000000 0.387656 0.092930
0.000000 0.385852 0.090213
0.023947 0.382843 0.086365
0.113486 0.379172 0.081281
0.172410 0.374880 0.075568
0.219721 0.371456 0.071003
0.260618 0.369317 0.068133
0.300321 0.366790 0.064891
0.339329 0.364040 0.061219
0.377446 0.360841 0.056859
0.409755 0.352470 0.056439
0.442330 0.342877 0.056016
0.482878 0.340691 0.032007
0.522925 0.337976 0.005432
0.562041 0.334791 0.000000
0.599858 0.331144 0.000000
0.636165 0.327599 0.000000
0.671117 0.324038 0.000000
0.704496 0.320777 0.000000
0.735278 0.316987 0.000000
0.764789 0.313627 0.000000
0.793777 0.311148 0.000000
0.822199 0.309398 0.000000
0.850133 0.308498 0.000000
0.877616 0.308524 0.000000
0.904749 0.308433 0.000000
0.931625 0.305370 0.000000
0.958051 0.301428 0.000000
0.984950 0.298547 0.000000
1.000000 0.297483 0.000000
0.000000 0.434661 0.109528
0.000000 0.435668 0.108459
0.000000 0.435062 0.106871
0.000000 0.433138 0.103878
0.004257 0.430418 0.100303
0.092736 0.426941 0.095348
0.162553 0.422829 0.089138
0.217235 0.418198 0.081970
0.261808 0.415518 0.078255
0.303233 0.413269 0.075253
0.343470 0.410855 0.071761
0.382995 0.408137 0.067559
0.421405 0.405010 0.062596
0.454487 0.397470 0.061611
0.485293 0.386579 0.063304
0.524698 0.383796 0.040216
0.563778 0.380913 0.008813
0.601418 0.377482 0.000000
0.637623 0.373721 0.000000
0.672165 0.369853 0.000000
0.705815 0.366442 0.000000
0.738870 0.363731 0.000000
0.770504 0.361224 0.000000
0.799386 0.358086 0.000000
0.827217 0.355364 0.000000
0.854717 0.353599 0.000000
0.881917 0.352845 0.000000
0.908673 0.352921 0.000000
0.935145 0.353910 0.000000
0.961826 0.352729 0.000000
0.988920 0.350498 0.000000
1.000000 0.349734 0.000000
0.000000 0.474434 0.123526
0.000000 0.478357 0.123861
0.000000 0.478782 0.122728
0.000000 0.476988 0.120034
0.000000 0.474001 0.116142
0.069619 0.470558 0.111206
0.151097 0.466560 0.105160
0.210703 0.461845 0.097940
0.261001 0.457342 0.090827
0.303421 0.455347 0.087972
0.344559 0.453362 0.084701
0.384773 0.451251 0.080854
0.423900 0.448911 0.076569
0.462306 0.446308 0.071487
0.495913 0.439740 0.069858
0.524956 0.428072 0.073981
0.562682 0.424693 0.053865
0.600023 0.421505 0.017203
0.635787 0.417847 0.000344
0.670290 0.413880 0.000000
0.704077 0.410264 0.000000
0.737146 0.407452 0.000000
0.769412 0.405071 0.000000
0.800785 0.402917 0.000000
0.830308 0.400789 0.000000
0.857761 0.398212 0.000000
0.884588 0.396534 0.000000
0.911053 0.395510 0.000000
0.937051 0.395425 0.000000
0.962991 0.396391 0.000000
0.989222 0.396909 0.000000
1.000000 0.396376 0.000000
0.000000 0.514585 0.140588
0.000000 0.518157 0.141211
0.000000 0.518586 0.140037
0.000000 0.516909 0.137737
0.000000 0.514262 0.133839
0.046341 0.511223 0.129162
0.141780 0.507564 0.123460
0.204763 0.503186 0.116594
0.258300 0.498558 0.108247
0.304210 0.495357 0.102880
0.345532 0.493946 0.100260
0.386065 0.492237 0.097270
0.425625 0.490539 0.093611
0.464382 0.488487 0.089490
0.502265 0.486197 0.084651
0.535951 0.480974 0.082035
0.562764 0.468567 0.087916
0.598151 0.464248 0.072456
0.633486 0.460697 0.034615
0.667828 0.457033 0.003799
0.701737 0.453787 0.000000
0.734834 0.450813 0.000000
0.767167 0.448083 0.000000
0.798571 0.445697 0.000000
0.829271 0.443783 0.000000
0.859020 0.442258 0.000000
0.886683 0.440257 0.000000
0.912734 0.438392 0.000000
0.938441 0.437137 0.000000
0.963250 0.435998 0.000000
0.988034 0.436205 0.000000
1.000000 0.439104 0.000000
0.000000 0.552334 0.159305
0.000000 0.555410 0.160152
0.000000 0.555965 0.159361
0.000000 0.554544 0.157060
0.000000 0.552176 0.153397
0.035218 0.549410 0.149016
0.137516 0.546134 0.143708
0.201660 0.542479 0.137368
0.255984 0.538202 0.129826
0.304800 0.533792 0.121479
0.347188 0.531875 0.118058
0.387388 0.530466 0.115412
0.426783 0.528928 0.112584
0.465223 0.527191 0.109183
0.502793 0.525275 0.105354
0.539342 0.523164 0.100778
0.572419 0.518585 0.098214
0.597381 0.506156 0.104056
0.630569 0.501382 0.093570
0.664815 0.498225 0.060319
0.698657 0.495443 0.018212
0.731711 0.492749 0.000000
0.763874 0.490023 0.000000
0.795367 0.487542 0.000000
0.825980 0.485131 0.000000
0.855716 0.483028 0.000000
0.884690 0.481374 0.000000
0.912041 0.479341 0.000000
0.937244 0.476544 0.000000
0.960605 0.473678 0.000000
0.985257 0.472523 0.000000
1.000000 0.474394 0.000000
0.000000 0.588515 0.180243
0.000000 0.589543 0.180023
0.000000 0.589405 0.178999
0.000000 0.588262 0.176860
0.000000 0.586718 0.173728
0.039870 0.584359 0.169889
0.138667 0.581582 0.165206
0.201912 0.578498 0.159263
0.255677 0.574714 0.152325
0.304749 0.570215 0.144141
0.349214 0.566609 0.137121
0.389027 0.565536 0.135098
0.428017 0.564449 0.132949
0.466220 0.563139 0.130353
0.503452 0.561899 0.127648
0.539998 0.560540 0.124441
0.575420 0.559116 0.120731
0.607884 0.555622 0.118438
0.631810 0.543856 0.124064
0.663999 0.539604 0.118605
0.697504 0.537122 0.090555
0.730135 0.534561 0.049168
0.761976 0.531839 0.009290
0.793131 0.529198 0.000000
0.823522 0.526787 0.000000
0.853346 0.524558 0.000000
0.882626 0.522672 0.000000
0.911222 0.521163 0.000000
0.939418 0.520013 0.000000
0.965961 0.518792 0.000000
0.990803 0.517055 0.000000
1.000000 0.518610 0.000000
0.000000 0.620915 0.200764
0.000000 0.623235 0.201851
0.000000 0.623435 0.201434
0.000000 0.622396 0.199146
0.000000 0.620396 0.196148
0.063986 0.618031 0.192262
0.147245 0.615392 0.187680
0.207196 0.612249 0.182085
0.258612 0.608747 0.175807
0.306093 0.604727 0.168143
0.350852 0.600390 0.159601
0.391508 0.598078 0.155083
0.429520 0.597224 0.153677
0.467068 0.596480 0.151823
0.503874 0.595565 0.149797
0.539712 0.594584 0.147461
0.574879 0.593604 0.144744
0.608972 0.592490 0.141534
0.640567 0.589837 0.139467
0.663230 0.578525 0.144673
0.694049 0.574398 0.143316
0.726208 0.572165 0.120258
0.757832 0.569822 0.087529
0.788916 0.567595 0.040350
0.819363 0.565465 0.003719
0.849195 0.563370 0.000000
0.878522 0.561590 0.000000
0.907133 0.560087 0.000000
0.935058 0.558249 0.000000
0.960951 0.555517 0.000000
0.987333 0.553846 0.000000
1.000000 0.554941 0.000000
0.000000 0.652361 0.223270
0.000000 0.654323 0.224346
0.000000 0.654395 0.223798
0.000000 0.653267 0.221663
0.004781 0.651503 0.218756
0.094593 0.649415 0.215259
0.162528 0.647280 0.210839
0.216964 0.644532 0.205853
0.265609 0.641498 0.200089
0.310889 0.638136 0.193267
0.354519 0.634267 0.185419
0.395814 0.630371 0.177279
0.433346 0.629351 0.175241
0.469865 0.628812 0.174100
0.505579 0.628146 0.172570
0.540546 0.627398 0.170974
0.574890 0.626600 0.169081
0.608406 0.625554 0.166804
0.641167 0.624763 0.164173
0.672083 0.622825 0.162271
0.693712 0.612034 0.167350
0.722751 0.607799 0.168463
0.753903 0.605955 0.151338
0.784728 0.604188 0.124324
0.815061 0.602481 0.089631
0.844775 0.600752 0.040323
0.874056 0.599133 0.002607
0.902154 0.597030 0.000000
0.928644 0.593950 0.000000
0.954461 0.590728 0.000000
0.980740 0.588803 0.000000
1.000000 0.589271 0.000000
0.000000 0.682240 0.246894
0.000000 0.683808 0.247871
0.000000 0.683873 0.247335
0.001231 0.682997 0.245570
0.058475 0.681413 0.242916
0.130238 0.679641 0.239592
0.184003 0.677656 0.235779
0.232170 0.675371 0.231163
0.276689 0.672771 0.225736
0.319382 0.669833 0.219544
0.360515 0.666461 0.212194
0.400447 0.662671 0.203945
0.438279 0.659716 0.197718
0.473363 0.659088 0.196872
0.507872 0.658537 0.195944
0.541791 0.657923 0.194859
0.575233 0.657252 0.193452
0.607874 0.656508 0.191984
0.640088 0.655882 0.190271
0.671706 0.655229 0.188473
0.701905 0.653940 0.186939
0.722987 0.644310 0.191537
0.749845 0.639328 0.194842
0.779786 0.637685 0.182365
0.809416 0.636029 0.158311
0.838392 0.633978 0.129680
0.866635 0.631998 0.091646
0.893970 0.629344 0.036065
0.920756 0.626690 0.000695
0.947044 0.624290 0.000000
0.973737 0.622687 0.000000
0.999850 0.622711 0.000000
0.000000 0.711056 0.272331
0.000000 0.711513 0.272380
0.014312 0.711400 0.271682
0.062233 0.710741 0.270244
0.120848 0.709681 0.268143
0.167641 0.708567 0.265328
0.211021 0.707047 0.262028
0.252431 0.705132 0.258005
0.292413 0.703020 0.253149
0.331731 0.700532 0.247548
0.370150 0.697526 0.240990
0.407845 0.694372 0.233479
0.445010 0.690849 0.225193
0.479780 0.689409 0.222123
0.513206 0.689251 0.221883
0.546315 0.689078 0.221721
0.579075 0.688834 0.221264
0.611131 0.688613 0.220796
0.642749 0.688295 0.220032
0.673678 0.687961 0.219111
0.704132 0.687613 0.217976
0.733388 0.686804 0.216994
0.754052 0.678161 0.220968
0.778858 0.672833 0.226577
0.808027 0.671940 0.218885
0.837111 0.670897 0.198745
0.865895 0.670062 0.175548
0.894309 0.669216 0.147787
0.921855 0.667871 0.110825
0.948271 0.665808 0.052456
0.975294 0.665012 0.000864
1.000000 0.666722 0.000000
0.044500 0.738603 0.298799
0.080044 0.739415 0.299526
0.110422 0.739394 0.298996
0.140198 0.738627 0.297310
0.172238 0.737398 0.294978
0.205597 0.736122 0.292213
0.240078 0.734554 0.288944
0.275084 0.732932 0.285165
0.310334 0.730883 0.280487
0.345635 0.728623 0.275293
0.381101 0.726061 0.269132
0.416461 0.723361 0.262401
0.451327 0.720210 0.254590
0.485736 0.717221 0.247396
0.518028 0.716791 0.246607
0.549914 0.716753 0.246776
0.581544 0.716627 0.246942
0.612517 0.716503 0.246820
0.643310 0.716257 0.246738
0.673419 0.716074 0.246477
0.703305 0.715979 0.245981
0.732341 0.715735 0.245352
0.760807 0.715433 0.244682
0.781192 0.707919 0.248659
0.804356 0.702349 0.255250
0.832676 0.702170 0.252459
0.860919 0.701567 0.234919
0.888493 0.700597 0.213872
0.915349 0.699058 0.188607
0.941505 0.697323 0.157192
0.968270 0.696462 0.117865
0.997030 0.698247 0.065020
0.137682 0.763457 0.324558
0.160129 0.765371 0.326746
0.176160 0.765273 0.326141
0.194855 0.764520 0.324629
0.217023 0.763505 0.322368
0.242788 0.762251 0.319836
0.270696 0.760867 0.316612
0.300383 0.759447 0.313151
0.331464 0.757869 0.309066
0.363077 0.756012 0.304368
0.395350 0.753878 0.298830
0.427969 0.751396 0.292667
0.460589 0.748749 0.285490
0.493281 0.745742 0.277555
0.525039 0.743739 0.272543
0.555409 0.743669 0.272950
0.585734 0.743579 0.273465
0.615565 0.743424 0.273851
0.645244 0.743324 0.273900
0.674272 0.742834 0.273827
0.702916 0.742548 0.273654
0.731325 0.742439 0.273433
0.759245 0.742366 0.273289
0.787005 0.742474 0.273081
0.806971 0.735956 0.277025
0.828215 0.730167 0.283867
0.855529 0.730107 0.285310
0.882412 0.729355 0.268860
0.908606 0.727969 0.248599
0.934483 0.726409 0.225051
0.961001 0.726041 0.199787
0.989342 0.727929 0.174832
0.196235 0.786293 0.349529
0.215458 0.789239 0.353208
0.227910 0.789681 0.353378
0.240500 0.788483 0.351341
0.255994 0.786994 0.348363
0.275940 0.785697 0.345425
0.299060 0.784489 0.342652
0.324859 0.783497 0.339675
0.352335 0.782260 0.336327
0.380978 0.780952 0.332286
0.410270 0.779219 0.327476
0.440266 0.777196 0.321872
0.470608 0.774832 0.315239
0.500950 0.772004 0.307677
0.531206 0.768785 0.299170
0.560177 0.767624 0.296773
0.588713 0.767127 0.296806
0.617029 0.766549 0.296905
0.645222 0.766198 0.296987
0.673385 0.765921 0.297318
0.701486 0.765788 0.297710
0.729300 0.765911 0.298370
0.756782 0.766206 0.299035
0.784024 0.766505 0.299602
0.810518 0.766814 0.300098
0.829888 0.760887 0.302838
0.849122 0.754247 0.309284
0.874946 0.754193 0.313557
0.901513 0.754126 0.299732
0.927705 0.754040 0.282387
0.954597 0.754573 0.264625
0.982323 0.756485 0.247359
0.265918 0.815991 0.386459
0.275499 0.816881 0.387479
0.283712 0.816625 0.386911
0.293876 0.816235 0.385745
0.307208 0.815581 0.383977
0.323122 0.814691 0.381789
0.341563 0.813717 0.378996
0.362659 0.812560 0.376171
0.385802 0.811510 0.372872
0.410360 0.810217 0.369176
0.436028 0.808673 0.364487
0.462716 0.807042 0.359301
0.490263 0.805036 0.353447
0.518523 0.802915 0.346930
0.547058 0.800597 0.339461
0.575811 0.798478 0.333224
0.603499 0.798409 0.333877
0.631178 0.798628 0.335335
0.658829 0.798653 0.336578
0.686014 0.798842 0.337873
0.712998 0.798897 0.339198
0.739744 0.799086 0.340386
0.766119 0.799086 0.341400
0.792247 0.799330 0.342525
0.817822 0.799562 0.343460
0.843181 0.799961 0.344574
0.862474 0.795313 0.347383
0.879522 0.788388 0.353959
0.904499 0.788861 0.361120
0.929942 0.789302 0.352557
0.956706 0.790888 0.340765
0.985277 0.794825 0.333499
0.312616 0.838702 0.415227
0.322927 0.840268 0.417486
0.329278 0.840233 0.417368
0.336107 0.839261 0.415180
0.344900 0.837798 0.412234
0.357028 0.836756 0.409469
0.372416 0.835724 0.406735
0.390245 0.834732 0.403952
0.410336 0.833936 0.401079
0.432512 0.832896 0.397970
0.455921 0.831888 0.394368
0.480848 0.830974 0.390302
0.506568 0.829711 0.385802
0.533097 0.828370 0.380539
0.560012 0.826567 0.374198
0.587292 0.824546 0.366987
0.614164 0.823522 0.363700
0.640455 0.823677 0.365439
0.666651 0.823766 0.367017
0.692602 0.823617 0.368309
0.718326 0.823617 0.369671
0.743866 0.823664 0.370956
0.769272 0.823664 0.372348
0.794450 0.824042 0.374119
0.819520 0.824294 0.375764
0.843978 0.824743 0.377212
0.868100 0.825027 0.378400
0.886894 0.821060 0.380268
0.901487 0.813139 0.385798
0.925379 0.813804 0.394520
0.951017 0.815717 0.392466
0.979078 0.820103 0.388546
0.356485 0.860294 0.444074
0.364064 0.861318 0.445785
0.369115 0.861279 0.445258
0.373981 0.860077 0.442810
0.380983 0.858805 0.440044
0.391291 0.858024 0.437600
0.404820 0.857316 0.435543
0.420679 0.856780 0.433714
0.438903 0.856479 0.431596
0.458816 0.855953 0.429249
0.480076 0.855352 0.426463
0.502504 0.854591 0.423114
0.525896 0.853598 0.419166
0.550114 0.852503 0.414227
0.574723 0.850996 0.408600
0.599734 0.849328 0.401919
0.625263 0.847200 0.394679
0.650183 0.846784 0.394376
0.674984 0.846784 0.396109
0.699839 0.846910 0.397802
0.724601 0.846989 0.399653
0.749383 0.847332 0.401804
0.774237 0.847583 0.404111
0.798858 0.848273 0.406927
0.823308 0.848967 0.409666
0.847233 0.849510 0.412076
0.870473 0.849801 0.413856
0.892712 0.849588 0.414219
0.910712 0.845806 0.414290
0.922808 0.836784 0.418269
0.947261 0.839160 0.431626
0.974225 0.844263 0.439939
0.402773 0.882555 0.476246
0.408792 0.883289 0.477467
0.412567 0.883014 0.476884
0.416423 0.882240 0.474662
0.422372 0.881244 0.472212
0.430953 0.880531 0.470235
0.442464 0.880041 0.468528
0.456291 0.879790 0.467013
0.472213 0.879539 0.465461
0.489603 0.879127 0.463254
0.507912 0.878569 0.460633
0.527711 0.877987 0.457537
0.548333 0.876994 0.453642
0.569908 0.875912 0.448971
0.591891 0.874442 0.443485
0.614729 0.872906 0.437284
0.638182 0.871047 0.430185
0.662082 0.869528 0.424781
