gsg/01_Basics/GSG_LUT_Basic_CoolCreamyWhites.cube
# GSG LUTs 1.0
# Copyright (c) 2016-2020 Greyscalegorilla
# See EULA for licensing and distribution information
# Converted by Briz LUT Converter
LUT_3D_SIZE 8
DOMAIN_MIN 0.000000 0.000000 0.000000
DOMAIN_MAX 0.903226 0.903226 0.903226
0.021245 0.022711 0.025885
0.146615 0.026500 0.031415
0.277727 0.035480 0.043909
0.410241 0.046965 0.059364
0.539076 0.059120 0.075489
0.658797 0.070787 0.090724
0.762732 0.081098 0.104187
0.841490 0.089062 0.114435
0.000000 0.152326 0.031935
0.143409 0.152787 0.036453
0.276230 0.154067 0.047445
0.409382 0.156489 0.061889
0.538556 0.159778 0.077262
0.658309 0.163685 0.092253
0.762243 0.167624 0.105471
0.841194 0.171095 0.115688
0.000000 0.288660 0.045437
0.132971 0.288905 0.048462
0.271740 0.289574 0.056859
0.406452 0.290646 0.069084
0.536453 0.292230 0.082941
0.656780 0.294064 0.096797
0.760959 0.296231 0.109504
0.839962 0.297972 0.119201
0.000000 0.426547 0.061806
0.111463 0.426566 0.063937
0.263342 0.427035 0.070267
0.401447 0.427710 0.080069
0.532813 0.428699 0.092071
0.653882 0.429932 0.104567
0.758580 0.431281 0.116098
0.837733 0.432313 0.125314
0.000000 0.560455 0.078664
0.065667 0.560590 0.080405
0.250637 0.560850 0.085233
0.393903 0.561355 0.093174
0.527473 0.562104 0.103462
0.649785 0.562974 0.114441
0.755099 0.563937 0.125015
0.834759 0.564725 0.133392
0.000000 0.684997 0.094789
0.000000 0.684997 0.096149
0.234008 0.685242 0.100171
0.384529 0.685677 0.106818
0.520953 0.686218 0.115617
0.644664 0.686951 0.125385
0.750849 0.687684 0.134877
0.830895 0.688393 0.142675
0.000000 0.792902 0.109016
0.000000 0.792902 0.110079
0.214567 0.793147 0.113552
0.374093 0.793464 0.119367
0.513860 0.793977 0.127157
0.639198 0.794612 0.135886
0.746224 0.795100 0.144614
0.826925 0.795809 0.151790
0.000000 0.874899 0.119808
0.000000 0.874899 0.120816
0.195520 0.875143 0.123841
0.364788 0.875387 0.129127
0.507530 0.875769 0.136185
0.634266 0.876286 0.144385
0.742156 0.876852 0.152578
0.823420 0.877341 0.159321
0.000000 0.017638 0.171870
0.145394 0.022439 0.172575
0.277207 0.032762 0.174587
0.409902 0.045043 0.178069
0.538942 0.057623 0.183063
0.658766 0.069610 0.188727
0.762488 0.080090 0.194832
0.841438 0.088054 0.199803
0.000000 0.151837 0.172630
0.142349 0.152346 0.173153
0.275786 0.153578 0.175162
0.409005 0.156001 0.178812
0.538312 0.159303 0.183599
0.658250 0.163224 0.189470
0.762164 0.167348 0.195359
0.840999 0.170777 0.200508
0.000000 0.288574 0.174832
0.131880 0.288681 0.175403
0.271187 0.289344 0.177403
0.406207 0.290401 0.180850
0.536281 0.292056 0.185703
0.656536 0.293977 0.191445
0.760758 0.295986 0.197332
0.839768 0.297727 0.202326
0.000000 0.426303 0.178802
0.109914 0.426547 0.179319
0.262761 0.426851 0.181275
0.401016 0.427582 0.184627
0.532612 0.428578 0.189340
0.653717 0.429814 0.194938
0.758421 0.431085 0.200819
0.837698 0.432279 0.205738
0.000000 0.560455 0.184056
0.062675 0.560469 0.184775
0.250129 0.560806 0.186584
0.393594 0.561297 0.189792
0.527228 0.561982 0.194431
0.649612 0.562853 0.199942
0.754854 0.563748 0.205504
0.834621 0.564701 0.210295
0.000000 0.684911 0.190574
0.000000 0.684997 0.191156
0.233491 0.685233 0.192879
0.384178 0.685547 0.196136
0.520703 0.686177 0.200441
0.644476 0.686864 0.205692
0.750640 0.687629 0.211071
0.830895 0.688172 0.215717
0.000000 0.792902 0.197030
0.000000 0.792902 0.197689
0.213872 0.793147 0.199437
0.373815 0.793391 0.202479
0.513592 0.793879 0.206680
0.639006 0.794521 0.211733
0.746126 0.795100 0.216962
0.826681 0.795589 0.221373
0.000000 0.874678 0.202670
0.000000 0.874899 0.203188
0.194813 0.874922 0.204884
0.364523 0.875252 0.207712
0.507270 0.875655 0.211863
0.634164 0.876143 0.216779
0.742110 0.876802 0.221902
0.823196 0.877319 0.226334
0.000000 0.000000 0.325613
0.142101 0.000000 0.325881
0.275710 0.021577 0.326834
0.408995 0.038403 0.328575
0.538280 0.052889 0.330986
0.658181 0.065958 0.333820
0.762140 0.077010 0.336973
0.840996 0.085273 0.339501
0.000000 0.150553 0.326039
0.138864 0.150857 0.326284
0.274245 0.152300 0.327225
0.408122 0.154606 0.328843
0.537565 0.158025 0.331242
0.657675 0.161944 0.334149
0.761729 0.166096 0.337236
0.840513 0.169549 0.339919
0.000000 0.287865 0.327016
0.127979 0.288068 0.327323
0.269577 0.288683 0.328218
0.405221 0.289798 0.329895
0.535533 0.291393 0.332262
0.656042 0.293285 0.335163
0.760367 0.295304 0.338257
0.839412 0.297056 0.340907
0.000000 0.425996 0.328820
0.105116 0.426059 0.329148
0.261145 0.426529 0.330041
0.400095 0.427198 0.331781
0.531888 0.428179 0.334138
0.653174 0.429414 0.337027
0.757949 0.430744 0.340039
0.837242 0.431819 0.342707
0.000000 0.560179 0.331474
0.051850 0.560211 0.331816
0.248354 0.560478 0.332697
0.392619 0.560978 0.334382
0.526538 0.561722 0.336699
0.649022 0.562587 0.339614
0.754547 0.563497 0.342561
0.834150 0.564321 0.345150
0.000000 0.684667 0.334775
0.000000 0.684753 0.335019
0.231525 0.684981 0.335949
0.383103 0.685374 0.337515
0.519998 0.685932 0.339858
0.643939 0.686606 0.342677
0.750201 0.687384 0.345714
0.830407 0.687928 0.348197
0.000000 0.792658 0.338194
0.000000 0.792658 0.338438
0.211800 0.792902 0.339264
0.372776 0.793201 0.340926
0.512835 0.793707 0.343162
0.638443 0.794331 0.345973
0.745647 0.794856 0.348918
0.826375 0.795508 0.351449
0.000000 0.874654 0.341130
0.000000 0.874654 0.341377
0.192421 0.874856 0.342188
0.363358 0.875143 0.343848
0.506503 0.875524 0.346095
0.633507 0.876041 0.348790
0.741605 0.876622 0.351710
0.822711 0.877096 0.354342
0.000000 0.000000 0.481027
0.135681 0.000000 0.481141
0.272850 0.000000 0.481784
0.407216 0.019582 0.482831
0.537028 0.042625 0.484328
0.657184 0.058472 0.486218
0.761245 0.070897 0.488204
0.840260 0.079978 0.489944
0.000000 0.147804 0.481141
0.132220 0.148286 0.481368
0.271462 0.149640 0.482028
0.406401 0.152125 0.483075
0.536322 0.155506 0.484572
0.656679 0.159509 0.486332
0.760876 0.163676 0.488347
0.839898 0.167263 0.489997
0.000000 0.286612 0.481893
0.120753 0.286857 0.482042
0.266764 0.287478 0.482654
0.403521 0.288612 0.483670
0.534342 0.290152 0.485177
0.655038 0.292079 0.487084
0.759473 0.294246 0.488999
0.838658 0.295952 0.490683
0.000000 0.425231 0.483075
0.095741 0.425326 0.483269
0.258151 0.425744 0.483823
0.398330 0.426475 0.484879
0.530616 0.427431 0.486376
0.652193 0.428667 0.488209
0.757084 0.429974 0.490157
0.836503 0.431083 0.491851
0.000000 0.559551 0.484816
0.020022 0.559680 0.484841
0.245202 0.559967 0.485513
0.390801 0.560483 0.486584
0.525251 0.561202 0.488022
0.648080 0.562072 0.489763
0.753633 0.562994 0.491748
0.833415 0.563748 0.493496
0.000000 0.684231 0.486801
0.000000 0.684277 0.486951
0.228061 0.684509 0.487534
0.381260 0.684964 0.488569
0.518679 0.685486 0.490007
0.642916 0.686207 0.491898
0.749350 0.686943 0.493883
0.829674 0.687575 0.495404
0.000000 0.792359 0.488936
0.000000 0.792395 0.489180
0.207903 0.792558 0.489669
0.370848 0.792902 0.490740
0.511512 0.793381 0.492237
0.637396 0.793879 0.493978
0.744816 0.794590 0.495868
0.825610 0.795100 0.497609
0.000000 0.874325 0.490836
0.000000 0.874410 0.490954
0.188164 0.874434 0.491591
0.361369 0.874846 0.492584
0.505125 0.875162 0.494127
0.632469 0.875742 0.495868
0.740691 0.876314 0.497787
0.821977 0.876754 0.499501
0.000000 0.000000 0.632037
0.125953 0.000000 0.632282
0.268809 0.000000 0.632677
0.404742 0.000000 0.633425
0.535169 0.015748 0.634540
0.655741 0.045054 0.635858
0.760137 0.060911 0.637257
0.839167 0.071559 0.638493
0.000000 0.144000 0.632282
0.122231 0.144413 0.632341
0.267344 0.145882 0.632774
0.403828 0.148406 0.633555
0.534539 0.151837 0.634663
0.655241 0.155989 0.636021
0.759645 0.160373 0.637473
0.838777 0.164049 0.638725
0.000000 0.284934 0.632770
0.109430 0.285152 0.632833
0.262617 0.285714 0.633266
0.400970 0.286920 0.634049
0.532420 0.288416 0.635109
0.653637 0.290350 0.636476
0.758336 0.292505 0.637893
0.837627 0.294246 0.639214
0.000000 0.424151 0.633548
0.079879 0.424272 0.633747
0.253792 0.424658 0.634104
0.395760 0.425372 0.634938
0.528792 0.426364 0.635993
0.650825 0.427583 0.637319
0.755940 0.428912 0.638715
0.835474 0.430026 0.639956
0.000000 0.558803 0.634785
0.007027 0.558925 0.634907
0.240483 0.559186 0.635353
0.388166 0.559683 0.636116
0.523439 0.560424 0.637168
0.646589 0.561324 0.638544
0.752504 0.562194 0.639943
0.832374 0.563065 0.641125
0.000000 0.683608 0.636265
0.000000 0.683732 0.636398
0.223012 0.683945 0.636785
0.378538 0.684294 0.637563
0.516801 0.684893 0.638662
0.641420 0.685562 0.640041
0.748202 0.686310 0.641363
0.828571 0.686951 0.642600
0.000000 0.791773 0.637870
0.000000 0.791897 0.637961
0.202263 0.792049 0.638450
0.367985 0.792397 0.639182
0.509611 0.792889 0.640235
0.635933 0.793391 0.641547
0.743565 0.794095 0.642959
0.824601 0.794612 0.644173
0.000000 0.873808 0.639214
0.000000 0.873922 0.639266
0.181653 0.874052 0.639726
0.358460 0.874340 0.640536
0.503199 0.874733 0.641607
0.631108 0.875235 0.642921
0.739577 0.875850 0.644322
0.820978 0.876353 0.645561
0.000000 0.000000 0.772461
0.112570 0.000000 0.772472
0.263744 0.000000 0.772949
0.401684 0.000000 0.773471
0.532939 0.000000 0.774338
0.654000 0.011275 0.775447
0.758648 0.045023 0.776576
0.837906 0.059183 0.777573
0.000000 0.139120 0.772567
0.108241 0.139591 0.772705
0.262145 0.141100 0.772977
0.400709 0.143629 0.773682
0.532353 0.147284 0.774469
0.653500 0.151593 0.775552
0.758278 0.155989 0.776679
0.837549 0.159772 0.777667
0.000000 0.282768 0.772949
0.093031 0.282966 0.773020
0.257366 0.283682 0.773437
0.397850 0.284753 0.773975
0.530284 0.286431 0.774846
0.651896 0.288376 0.775894
0.756849 0.290343 0.777065
0.836366 0.292267 0.777956
0.000000 0.422821 0.773585
0.051655 0.422978 0.773715
0.248289 0.423334 0.774034
0.392574 0.424059 0.774671
0.526527 0.425080 0.775483
0.649084 0.426303 0.776599
0.754475 0.427577 0.777711
0.834147 0.428722 0.778647
0.000000 0.557856 0.774582
0.000000 0.558013 0.774703
0.234701 0.558258 0.775039
0.384893 0.558762 0.775606
0.521171 0.559461 0.776476
0.644825 0.560331 0.777498
0.751034 0.561323 0.778625
0.831053 0.562079 0.779618
0.000000 0.682856 0.775691
0.000000 0.682988 0.775823
0.216608 0.683209 0.776179
0.375176 0.683588 0.776781
0.514545 0.684145 0.777618
0.639679 0.684895 0.778687
0.746721 0.685553 0.779774
0.827319 0.686218 0.780758
0.000000 0.791193 0.776923
0.000000 0.791202 0.777073
0.195040 0.791437 0.777412
0.364512 0.791749 0.777993
0.507272 0.792204 0.778860
0.634125 0.792824 0.779932
0.742070 0.793443 0.780996
0.823262 0.793958 0.781998
0.000000 0.873291 0.778062
0.000000 0.873291 0.778155
0.173335 0.873446 0.778445
0.354894 0.873779 0.779123
0.500902 0.874182 0.779947
0.629280 0.874723 0.780992
0.738062 0.875227 0.782066
0.819622 0.875726 0.783045
0.000000 0.000000 0.894159
0.095808 0.000000 0.894348
0.258231 0.000000 0.894592
0.398309 0.000000 0.895102
0.530619 0.000000 0.895842
0.652172 0.000000 0.896723
0.757115 0.003045 0.897578
0.836588 0.041181 0.898481
0.000000 0.133539 0.894348
0.090443 0.134177 0.894403
0.256547 0.135737 0.894647
0.397322 0.138374 0.895136
0.529962 0.142152 0.895868
0.651679 0.146651 0.896767
0.756664 0.151312 0.897730
0.836159 0.155256 0.898550
0.000000 0.280539 0.894606
0.070348 0.280783 0.894654
0.251589 0.281352 0.894976
0.394507 0.282524 0.895483
0.527863 0.284202 0.896210
0.650151 0.286187 0.897075
0.755343 0.288172 0.898022
0.834929 0.290094 0.898799
0.000000 0.421440 0.895136
0.008305 0.421568 0.895224
0.242365 0.421956 0.895574
0.389150 0.422702 0.896079
0.524158 0.423693 0.896745
0.647146 0.424873 0.897625
0.752869 0.426260 0.898547
0.832861 0.427329 0.899372
0.000000 0.556847 0.895966
0.000000 0.556957 0.896086
0.228279 0.557281 0.896337
0.381416 0.557769 0.896829
0.518815 0.558454 0.897565
0.643024 0.559338 0.898392
0.749439 0.560260 0.899385
0.829768 0.561081 0.900228
0.000000 0.682103 0.896967
0.000000 0.682225 0.897011
0.209449 0.682378 0.897319
0.371545 0.682772 0.897810
0.512067 0.683387 0.898513
0.637795 0.684044 0.899389
0.745122 0.684781 0.900386
0.825822 0.685479 0.901154
0.000000 0.790503 0.898011
0.000000 0.790651 0.898055
0.186860 0.790747 0.898310
0.360778 0.791150 0.898855
0.504796 0.791562 0.899525
0.632140 0.792155 0.900489
0.740565 0.792824 0.901387
0.821852 0.793373 0.902212
0.000000 0.872706 0.898799
0.000000 0.872708 0.899022
0.163997 0.872946 0.899283
0.351025 0.873195 0.899761
0.498226 0.873680 0.900497
0.627295 0.874169 0.901383
0.736483 0.874674 0.902256
0.818280 0.875165 0.903154
0.000000 0.000000 0.986648
0.077402 0.000000 0.986648
0.253143 0.000000 0.986892
0.395322 0.000000 0.987380
0.528595 0.000000 0.987995
0.650652 0.000000 0.988767
0.755839 0.000000 0.989578
0.835364 0.000832 0.990311
0.000000 0.128607 0.986648
0.070224 0.129123 0.986653
0.251597 0.130805 0.986900
0.394414 0.133585 0.987390
0.527857 0.137493 0.988113
0.650135 0.142238 0.988846
0.755333 0.146953 0.989618
0.834913 0.151086 0.990332
0.000000 0.278554 0.986892
0.035077 0.278783 0.986973
0.246425 0.279345 0.987217
0.391561 0.280571 0.987659
0.525824 0.282099 0.988357
0.648415 0.284196 0.989105
0.754067 0.286244 0.990013
0.833834 0.288115 0.990630
0.000000 0.420292 0.987390
0.002558 0.420316 0.987489
0.237000 0.420781 0.987734
0.386131 0.421378 0.988161
0.522023 0.422456 0.988850
0.645516 0.423690 0.989584
0.751585 0.425032 0.990502
0.831619 0.426080 0.991144
0.000000 0.555953 0.988113
0.000000 0.556061 0.988239
0.222453 0.556319 0.988486
0.378267 0.556809 0.988902
0.516633 0.557537 0.989533
0.641301 0.558461 0.990319
0.748035 0.559429 0.991153
0.828528 0.560221 0.991901
0.000000 0.681492 0.989011
0.000000 0.681493 0.989090
0.203021 0.681736 0.989338
0.368387 0.682137 0.989774
0.509872 0.682717 0.990404
0.636110 0.683395 0.991156
0.743759 0.684146 0.992014
0.824776 0.684746 0.992759
0.000000 0.789972 0.989841
0.000000 0.789972 0.990017
0.179443 0.790216 0.990261
0.357441 0.790468 0.990746
0.502561 0.790958 0.991297
0.630570 0.791569 0.992152
0.739068 0.792170 0.992986
0.820597 0.792675 0.993680
0.000000 0.872212 0.990778
0.000000 0.872215 0.990802
0.155066 0.872457 0.991049
0.347616 0.872702 0.991519
0.496085 0.873093 0.992146
0.625554 0.873678 0.992919
0.735041 0.874168 0.993741
0.817053 0.874656 0.994479
