gsg/01_Basics/GSG_LUT_Basic_WarmHighlights.cube
# GSG LUTs 1.0
# Copyright (c) 2016-2020 Greyscalegorilla
# See EULA for licensing and distribution information
# Converted by Briz LUT Converter
LUT_3D_SIZE 32
0.000000 0.000000 0.000000
0.032502 0.000000 0.000236
0.064989 0.000000 0.000000
0.096774 0.000000 0.000024
0.129064 0.000213 0.000000
0.161535 0.000000 0.000000
0.193793 0.000197 0.000000
0.226051 0.000189 0.000189
0.258490 0.000000 0.000000
0.290882 0.000000 0.000000
0.323313 0.000000 0.000165
0.355816 0.000000 0.000000
0.388318 0.000000 0.000095
0.420922 0.000000 0.000386
0.453433 0.000000 0.000000
0.486187 0.000000 0.000000
0.518697 0.000000 0.000000
0.551451 0.000000 0.000000
0.584450 0.000000 0.000000
0.617204 0.000000 0.000000
0.649959 0.000000 0.000000
0.682957 0.000000 0.000000
0.715712 0.000000 0.000000
0.748710 0.000000 0.000000
0.781653 0.000000 0.000000
0.814463 0.000000 0.000000
0.847422 0.000000 0.000000
0.880216 0.000000 0.000000
0.912970 0.000000 0.000000
0.945725 0.000000 0.000000
0.978235 0.000000 0.000000
1.000000 0.000000 0.000000
0.000008 0.032494 0.000244
0.032479 0.032502 0.000000
0.064523 0.032464 0.000222
0.096775 0.032487 0.000000
0.129107 0.032221 0.000008
0.161533 0.032022 0.000008
0.193793 0.032253 0.000000
0.226112 0.032616 0.000000
0.258380 0.032248 0.000181
0.290880 0.031940 0.000069
0.323389 0.031930 0.000003
0.355816 0.031442 0.000095
0.388412 0.031198 0.000299
0.420922 0.030644 0.000274
0.453567 0.029740 0.000000
0.486187 0.029340 0.000000
0.518941 0.028465 0.000000
0.551589 0.027469 0.000000
0.584450 0.025831 0.000000
0.617204 0.024499 0.000000
0.649959 0.022687 0.000000
0.682881 0.020694 0.000000
0.715879 0.018539 0.000000
0.748710 0.016342 0.000000
0.781653 0.013915 0.000000
0.814463 0.010198 0.000000
0.847422 0.007564 0.000000
0.880216 0.004382 0.000000
0.912970 0.001174 0.000000
0.945725 0.000437 0.000000
0.978235 0.000348 0.000000
1.000000 0.000268 0.000000
0.000000 0.064745 0.000228
0.031816 0.064737 0.000008
0.064287 0.064715 0.000016
0.096776 0.064708 0.000014
0.129276 0.064516 0.000215
0.161330 0.064708 0.000242
0.193837 0.064516 0.000000
0.226066 0.064516 0.000177
0.258553 0.064335 0.000181
0.290989 0.064338 0.000005
0.323542 0.064188 0.000105
0.355902 0.064170 0.000488
0.388412 0.063543 0.000235
0.420922 0.063357 0.000000
0.453552 0.062728 0.000000
0.486187 0.062334 0.000000
0.518941 0.061601 0.000000
0.551696 0.060749 0.000000
0.584450 0.059884 0.000000
0.617204 0.058511 0.000000
0.650116 0.057274 0.000000
0.682957 0.055476 0.000000
0.715885 0.053939 0.000000
0.748710 0.051837 0.000000
0.781657 0.049101 0.000000
0.814463 0.046696 0.000000
0.847425 0.044626 0.000000
0.880216 0.041343 0.000000
0.912970 0.037957 0.000000
0.945725 0.034525 0.000000
0.978235 0.032020 0.000000
1.000000 0.029532 0.000000
0.000000 0.096774 0.000024
0.032037 0.096774 0.000000
0.064496 0.096774 0.000002
0.096755 0.096774 0.000021
0.129256 0.096795 0.000003
0.161350 0.096774 0.000020
0.193840 0.096751 0.000197
0.226271 0.096572 0.000042
0.258553 0.096554 0.000093
0.290882 0.096547 0.000214
0.323557 0.096530 0.000292
0.355917 0.096358 0.000078
0.388427 0.096186 0.000000
0.421051 0.095811 0.000000
0.453677 0.095346 0.000000
0.486313 0.094982 0.000000
0.518953 0.094592 0.000000
0.551696 0.093902 0.000000
0.584464 0.093353 0.000000
0.617354 0.092380 0.000000
0.650203 0.091417 0.000000
0.682957 0.090331 0.000000
0.715956 0.089139 0.000000
0.748891 0.087575 0.000000
0.781709 0.086142 0.000000
0.814482 0.084561 0.000000
0.847461 0.082894 0.000000
0.880216 0.080947 0.000000
0.912970 0.078989 0.000000
0.945725 0.077095 0.000000
0.978243 0.075363 0.000000
1.000000 0.073638 0.000000
0.000244 0.129032 0.000032
0.032078 0.129032 0.000062
0.064577 0.129032 0.000036
0.096878 0.129029 0.000055
0.129068 0.129005 0.000095
0.161535 0.129032 0.000095
0.193865 0.129032 0.000619
0.226130 0.129025 0.000309
0.258584 0.129001 0.000394
0.291064 0.128961 0.000151
0.323568 0.128788 0.000000
0.356060 0.128640 0.000000
0.388562 0.128512 0.000000
0.421077 0.128197 0.000000
0.453694 0.127945 0.000000
0.486431 0.127567 0.000000
0.519076 0.127300 0.000000
0.551940 0.126814 0.000000
0.584694 0.126236 0.000000
0.617449 0.125507 0.000000
0.650223 0.124841 0.000000
0.683201 0.123902 0.000000
0.715956 0.122981 0.000000
0.748899 0.122140 0.000000
0.781733 0.120818 0.000000
0.814707 0.119745 0.000000
0.847461 0.118348 0.000000
0.880247 0.117260 0.000000
0.913194 0.115809 0.000000
0.945725 0.114359 0.000000
0.978273 0.113121 0.000000
1.000000 0.111702 0.000000
0.000449 0.161290 0.000244
0.032197 0.161290 0.000442
0.065233 0.161290 0.000205
0.097191 0.161290 0.000240
0.129489 0.161112 0.000205
0.161772 0.161290 0.000172
0.194037 0.161078 0.000000
0.226304 0.161235 0.000000
0.258797 0.161046 0.000000
0.291095 0.161046 0.000000
0.323663 0.160829 0.000000
0.356146 0.160802 0.000000
0.388657 0.160643 0.000000
0.421167 0.160439 0.000000
0.453921 0.160203 0.000000
0.486431 0.159991 0.000000
0.519185 0.159719 0.000000
0.551940 0.159337 0.000000
0.584694 0.158951 0.000000
0.617473 0.158329 0.000000
0.650374 0.157753 0.000000
0.683201 0.157118 0.000000
0.716140 0.156312 0.000000
0.748954 0.155472 0.000000
0.781907 0.154596 0.000000
0.814739 0.153846 0.000000
0.847673 0.152696 0.000000
0.880460 0.151703 0.000000
0.913214 0.150502 0.000000
0.945777 0.149516 0.000000
0.978479 0.148316 0.000000
1.000000 0.147363 0.000000
0.001221 0.193304 0.000000
0.032794 0.193547 0.000000
0.065208 0.193320 0.000000
0.097488 0.193304 0.000005
0.129501 0.193345 0.000000
0.161779 0.193469 0.000000
0.194084 0.193304 0.000009
0.226387 0.193349 0.000163
0.258895 0.193304 0.000000
0.291313 0.193247 0.000000
0.323668 0.193257 0.000000
0.356177 0.192990 0.000000
0.388685 0.192816 0.000000
0.421411 0.192816 0.000000
0.453947 0.192572 0.000000
0.486675 0.192358 0.000000
0.519328 0.192083 0.000000
0.551987 0.191839 0.000000
0.584856 0.191370 0.000000
0.617616 0.190957 0.000000
0.650478 0.190508 0.000000
0.683382 0.189831 0.000000
0.716200 0.189271 0.000000
0.749148 0.188593 0.000000
0.781989 0.187882 0.000000
0.814951 0.187135 0.000000
0.847706 0.186144 0.000000
0.880466 0.185232 0.000000
0.913214 0.184458 0.000000
0.945969 0.183697 0.000000
0.978487 0.182711 0.000000
1.000000 0.181969 0.000000
0.000599 0.225751 0.000000
0.033180 0.225562 0.000000
0.065352 0.225739 0.000012
0.097373 0.225733 0.000000
0.129765 0.225562 0.000000
0.162023 0.225562 0.000000
0.194139 0.225562 0.000000
0.226637 0.225562 0.000000
0.259056 0.225422 0.000000
0.291544 0.225491 0.000000
0.323918 0.225318 0.000000
0.356323 0.225318 0.000000
0.388935 0.225190 0.000000
0.421576 0.225074 0.000000
0.454165 0.224933 0.000000
0.486828 0.224683 0.000000
0.519485 0.224368 0.000000
0.552239 0.224207 0.000000
0.584994 0.223853 0.000000
0.617748 0.223459 0.000000
0.650691 0.222982 0.000000
0.683483 0.222522 0.000000
0.716444 0.222025 0.000000
0.749254 0.221488 0.000000
0.782197 0.220789 0.000000
0.814996 0.220095 0.000000
0.847950 0.219393 0.000000
0.880704 0.218647 0.000000
0.913459 0.217905 0.000000
0.945972 0.217385 0.000000
0.978540 0.216409 0.000000
1.000000 0.215905 0.000000
0.001646 0.257820 0.000000
0.033660 0.257820 0.000000
0.065777 0.257820 0.000000
0.097859 0.257820 0.000000
0.130119 0.257820 0.000000
0.162267 0.257820 0.000000
0.194588 0.257820 0.000000
0.226846 0.257757 0.000000
0.259332 0.257576 0.000000
0.291677 0.257576 0.000000
0.324066 0.257556 0.000000
0.356675 0.257513 0.000000
0.389184 0.257332 0.000000
0.421718 0.257193 0.000000
0.454409 0.257088 0.000000
0.486952 0.256844 0.000000
0.519704 0.256687 0.000000
0.552463 0.256465 0.000000
0.585219 0.256137 0.000000
0.618000 0.255756 0.000000
0.650871 0.255465 0.000000
0.683732 0.255011 0.000000
0.716636 0.254535 0.000000
0.749443 0.254039 0.000000
0.782260 0.253543 0.000000
0.815196 0.252850 0.000000
0.848003 0.252306 0.000000
0.880767 0.251621 0.000000
0.913465 0.251069 0.000000
0.946213 0.250345 0.000000
0.978725 0.249896 0.000000
1.000000 0.249399 0.000000
0.003001 0.289834 0.000000
0.035061 0.289834 0.000000
0.066673 0.289845 0.000000
0.098545 0.290007 0.000000
0.130820 0.289857 0.000000
0.162582 0.289980 0.000000
0.194980 0.289834 0.000000
0.227137 0.289834 0.000000
0.259645 0.289834 0.000000
0.291930 0.289834 0.000000
0.324417 0.289590 0.000000
0.356950 0.289590 0.000000
0.389539 0.289563 0.000000
0.422071 0.289446 0.000000
0.454654 0.289235 0.000000
0.487235 0.289067 0.000000
0.519989 0.288941 0.000000
0.552743 0.288645 0.000000
0.585498 0.288399 0.000000
0.618252 0.288081 0.000000
0.651118 0.287769 0.000000
0.683982 0.287415 0.000000
0.716882 0.286924 0.000000
0.749687 0.286531 0.000000
0.782512 0.286053 0.000000
0.815440 0.285557 0.000000
0.848194 0.285060 0.000000
0.880948 0.284533 0.000000
0.913703 0.283824 0.000000
0.946295 0.283327 0.000000
0.978800 0.282831 0.000000
1.000000 0.282335 0.000000
0.004151 0.322092 0.000000
0.036388 0.322092 0.000000
0.067885 0.322092 0.000000
0.099350 0.322092 0.000000
0.131053 0.322092 0.000000
0.163211 0.322092 0.000000
0.195337 0.322013 0.000000
0.227723 0.321976 0.000000
0.260097 0.321848 0.000000
0.292403 0.321848 0.000000
0.324857 0.321848 0.000000
0.357202 0.321797 0.000000
0.389760 0.321604 0.000000
0.422364 0.321604 0.000000
0.454977 0.321450 0.000000
0.487693 0.321241 0.000000
0.520241 0.321075 0.000000
0.552995 0.320871 0.000000
0.585750 0.320627 0.000000
0.618670 0.320383 0.000000
0.651475 0.319981 0.000000
0.684257 0.319676 0.000000
0.717177 0.319350 0.000000
0.749990 0.318938 0.000000
0.782764 0.318484 0.000000
0.815684 0.317988 0.000000
0.848438 0.317571 0.000000
0.881193 0.317074 0.000000
0.913947 0.316578 0.000000
0.946462 0.316082 0.000000
0.978970 0.315585 0.000000
1.000000 0.315089 0.000000
0.005648 0.354264 0.000000
0.038827 0.354264 0.000000
0.069388 0.354106 0.000000
0.100366 0.354248 0.000000
0.132093 0.354126 0.000000
0.163892 0.354106 0.000000
0.195850 0.354106 0.000000
0.228178 0.354106 0.000000
0.260553 0.354084 0.000000
0.292851 0.353974 0.000000
0.325295 0.353969 0.000000
0.357698 0.353862 0.000000
0.390261 0.353809 0.000000
0.422719 0.353709 0.000000
0.455473 0.353579 0.000000
0.487983 0.353455 0.000000
0.520737 0.353206 0.000000
0.553492 0.352995 0.000000
0.586246 0.352743 0.000000
0.619000 0.352588 0.000000
0.651755 0.352239 0.000000
0.684616 0.351987 0.000000
0.717482 0.351603 0.000000
0.750262 0.351239 0.000000
0.783138 0.350864 0.000000
0.815928 0.350460 0.000000
0.848755 0.349994 0.000000
0.881437 0.349573 0.000000
0.914049 0.349088 0.000000
0.946701 0.348592 0.000000
0.979214 0.348253 0.000000
1.000000 0.348001 0.000000
0.008437 0.386364 0.000000
0.040558 0.386364 0.000000
0.070577 0.386364 0.000000
0.101304 0.386270 0.000000
0.133085 0.386282 0.000000
0.164757 0.386270 0.000000
0.196894 0.386270 0.000000
0.228831 0.386236 0.000000
0.261114 0.386120 0.000000
0.293442 0.386093 0.000000
0.325880 0.386089 0.000000
0.358255 0.385972 0.000000
0.390763 0.385876 0.000000
0.423215 0.385781 0.000000
0.455902 0.385589 0.000000
0.488479 0.385537 0.000000
0.521185 0.385339 0.000000
0.553936 0.385211 0.000000
0.586498 0.384899 0.000000
0.619310 0.384713 0.000000
0.652217 0.384411 0.000000
0.685005 0.384166 0.000000
0.717866 0.383855 0.000000
0.750625 0.383497 0.000000
0.783513 0.383107 0.000000
0.816267 0.382748 0.000000
0.849021 0.382331 0.000000
0.881693 0.382000 0.000000
0.914300 0.381589 0.000000
0.946952 0.381242 0.000000
0.979311 0.380755 0.000000
1.000000 0.380503 0.000000
0.011871 0.418378 0.000000
0.043792 0.418378 0.000000
0.073200 0.418378 0.000000
0.103242 0.418368 0.000000
0.134391 0.418378 0.000000
0.165937 0.418276 0.000000
0.197778 0.418161 0.000000
0.229674 0.418244 0.000000
0.261932 0.418134 0.000000
0.294190 0.418134 0.000000
0.326448 0.418101 0.000000
0.358935 0.418031 0.000000
0.391351 0.417890 0.000000
0.423853 0.417847 0.000000
0.456465 0.417645 0.000000
0.488976 0.417527 0.000000
0.521657 0.417401 0.000000
0.554406 0.417221 0.000000
0.587054 0.416972 0.000000
0.619749 0.416850 0.000000
0.652697 0.416603 0.000000
0.685469 0.416259 0.000000
0.718256 0.416007 0.000000
0.751010 0.415642 0.000000
0.783765 0.415368 0.000000
0.816519 0.415006 0.000000
0.849273 0.414715 0.000000
0.882028 0.414258 0.000000
0.914552 0.413982 0.000000
0.947064 0.413606 0.000000
0.979563 0.413258 0.000000
1.000000 0.412864 0.000000
0.015692 0.450392 0.000000
0.047810 0.450392 0.000000
0.075830 0.450392 0.000000
0.105348 0.450392 0.000000
0.136347 0.450392 0.000000
0.167328 0.450282 0.000000
0.198934 0.450392 0.000000
0.230856 0.450282 0.000000
0.262890 0.450282 0.000000
0.294978 0.450243 0.000000
0.327240 0.450148 0.000000
0.359628 0.450037 0.000000
0.392009 0.449986 0.000000
0.424516 0.449857 0.000000
0.457072 0.449733 0.000000
0.489716 0.449659 0.000000
0.522280 0.449480 0.000000
0.554981 0.449305 0.000000
0.587735 0.449171 0.000000
0.620288 0.448927 0.000000
0.653196 0.448683 0.000000
0.685998 0.448481 0.000000
0.718752 0.448116 0.000000
0.751507 0.447868 0.000000
0.784261 0.447517 0.000000
0.817015 0.447265 0.000000
0.849770 0.446973 0.000000
0.882297 0.446516 0.000000
0.914934 0.446264 0.000000
0.947316 0.446003 0.000000
0.979708 0.445623 0.000000
1.000000 0.445374 0.000000
0.021568 0.482406 0.000000
0.052534 0.482406 0.000000
0.078578 0.482406 0.000000
0.107753 0.482406 0.000000
0.138099 0.482406 0.000000
0.169111 0.482307 0.000000
0.200431 0.482288 0.000000
0.231995 0.482288 0.000000
0.264036 0.482255 0.000000
0.295931 0.482288 0.000000
0.328189 0.482123 0.000000
0.360492 0.482043 0.000000
0.392904 0.481995 0.000000
0.425261 0.481917 0.000000
0.457820 0.481799 0.000000
0.490273 0.481673 0.000000
0.522902 0.481490 0.000000
0.555652 0.481364 0.000000
0.588349 0.481116 0.000000
0.620985 0.480989 0.000000
0.653740 0.480741 0.000000
0.686494 0.480493 0.000000
0.719248 0.480245 0.000000
0.752003 0.480027 0.000000
0.784757 0.479748 0.000000
0.817512 0.479475 0.000000
0.850042 0.479132 0.000000
0.882673 0.478774 0.000000
0.915286 0.478522 0.000000
0.947686 0.478254 0.000000
0.979952 0.478010 0.000000
1.000000 0.477766 0.000000
0.027776 0.514420 0.000000
0.057335 0.514420 0.000000
0.082595 0.514420 0.000000
0.110469 0.514420 0.000000
0.140384 0.514294 0.000000
0.170976 0.514399 0.000000
0.201944 0.514294 0.000000
0.233455 0.514294 0.000000
0.265280 0.514263 0.000000
0.297168 0.514175 0.000000
0.329308 0.514135 0.000000
0.361521 0.514049 0.000000
0.393824 0.514004 0.000000
0.426200 0.513878 0.000000
0.458633 0.513752 0.000000
0.491197 0.513687 0.000000
0.523768 0.513500 0.000000
0.556343 0.513317 0.000000
0.588972 0.513199 0.000000
0.621654 0.513000 0.000000
0.654480 0.512797 0.000000
0.687116 0.512625 0.000000
0.719745 0.512377 0.000000
0.752499 0.512128 0.000000
0.785253 0.511789 0.000000
0.818008 0.511536 0.000000
0.850518 0.511264 0.000000
0.883060 0.511016 0.000000
0.915562 0.510768 0.000000
0.947938 0.510512 0.000000
0.980196 0.510268 0.000000
1.000000 0.510024 0.000000
0.035023 0.546433 0.000000
0.063118 0.546433 0.000000
0.087169 0.546300 0.000000
0.114162 0.546300 0.000000
0.143439 0.546300 0.000000
0.173189 0.546300 0.000000
0.203887 0.546300 0.000000
0.235292 0.546300 0.000000
0.266887 0.546271 0.000000
0.298578 0.546189 0.000000
0.330627 0.546146 0.000000
0.362763 0.546055 0.000000
0.394935 0.545945 0.000000
0.427249 0.545811 0.000000
0.459622 0.545811 0.000000
0.492071 0.545701 0.000000
0.524635 0.545510 0.000000
0.557141 0.545383 0.000000
0.589846 0.545259 0.000000
0.622399 0.545011 0.000000
0.655110 0.544882 0.000000
0.687774 0.544633 0.000000
0.720485 0.544385 0.000000
0.753129 0.544136 0.000000
0.785750 0.543991 0.000000
0.818504 0.543747 0.000000
0.851014 0.543503 0.000000
0.883524 0.543259 0.000000
0.915914 0.543015 0.000000
0.948316 0.542770 0.000000
0.980445 0.542530 0.000000
1.000000 0.542282 0.000000
0.043090 0.578447 0.000000
0.069243 0.578306 0.000000
0.092085 0.578306 0.000000
0.118122 0.578306 0.000000
0.146455 0.578306 0.000000
0.175966 0.578306 0.000000
0.206298 0.578306 0.000000
0.237362 0.578306 0.000000
0.268657 0.578203 0.000000
0.300201 0.578203 0.000000
0.331963 0.578061 0.000000
0.364055 0.578061 0.000000
0.396132 0.577959 0.000000
0.428430 0.577899 0.000000
0.460688 0.577817 0.000000
0.493064 0.577646 0.000000
0.525574 0.577520 0.000000
0.558084 0.577393 0.000000
0.590697 0.577226 0.000000
0.623349 0.577085 0.000000
0.655859 0.576891 0.000000
0.688517 0.576738 0.000000
0.721123 0.576494 0.000000
0.753736 0.576276 0.000000
0.786411 0.576028 0.000000
0.819000 0.575808 0.000000
0.851510 0.575556 0.000000
0.884021 0.575393 0.000000
0.916310 0.575052 0.000000
0.948568 0.575029 0.000000
0.980689 0.574784 0.000000
1.000000 0.574540 0.000000
0.051684 0.610312 0.000000
0.075919 0.610312 0.000000
0.097406 0.610312 0.000000
0.122520 0.610312 0.000000
0.149983 0.610312 0.000000
0.179007 0.610296 0.000000
0.208865 0.610217 0.000000
0.239387 0.610217 0.000000
0.270503 0.610067 0.000000
0.301977 0.610067 0.000000
0.333632 0.610067 0.000000
0.365491 0.610034 0.000000
0.397463 0.609915 0.000000
0.429612 0.609823 0.000000
0.461924 0.609729 0.000000
0.494183 0.609579 0.000000
0.526639 0.609579 0.000000
0.559077 0.609335 0.000000
0.591627 0.609280 0.000000
0.624097 0.609091 0.000000
0.656755 0.608899 0.000000
0.689362 0.608752 0.000000
0.721899 0.608535 0.000000
0.754476 0.608397 0.000000
0.787020 0.608148 0.000000
0.819544 0.607899 0.000000
0.852031 0.607775 0.000000
0.884304 0.607531 0.000000
0.916806 0.607296 0.000000
0.948925 0.607147 0.000000
0.980934 0.607042 0.000000
1.000000 0.606798 0.000000
0.061357 0.642318 0.000000
0.082763 0.642318 0.000000
0.103140 0.642318 0.000000
0.126748 0.642318 0.000000
0.153865 0.642306 0.000000
0.182109 0.642304 0.000000
0.211770 0.642231 0.000000
0.241880 0.642231 0.000000
0.272646 0.642190 0.000000
0.304044 0.642073 0.000000
0.335477 0.642073 0.000000
0.367160 0.641987 0.000000
0.399047 0.641926 0.000000
0.431061 0.641829 0.000000
0.463319 0.641742 0.000000
0.495501 0.641666 0.000000
0.527835 0.641540 0.000000
0.560180 0.641412 0.000000
0.592682 0.641290 0.000000
0.625090 0.641097 0.000000
0.657600 0.641010 0.000000
0.690138 0.640794 0.000000
0.722707 0.640654 0.000000
0.755257 0.640405 0.000000
0.787727 0.640297 0.000000
0.820167 0.640050 0.000000
0.852542 0.639901 0.000000
0.884801 0.639789 0.000000
0.917059 0.639545 0.000000
0.949317 0.639316 0.000000
0.981333 0.639300 0.000000
1.000000 0.639056 0.000000
0.070298 0.674324 0.000000
0.090514 0.674324 0.000000
0.109380 0.674324 0.000000
0.132136 0.674316 0.000000
0.158145 0.674245 0.000000
0.185695 0.674245 0.000000
0.214802 0.674245 0.000000
0.244710 0.674207 0.000000
0.275143 0.674079 0.000000
0.306006 0.674079 0.000000
0.337493 0.674054 0.000000
0.368873 0.674001 0.000000
0.400787 0.673937 0.000000
0.432646 0.673835 0.000000
0.464697 0.673756 0.000000
0.496821 0.673591 0.000000
0.529080 0.673550 0.000000
0.561338 0.673421 0.000000
0.593674 0.673301 0.000000
0.626146 0.673167 0.000000
0.658592 0.673024 0.000000
0.690990 0.672858 0.000000
0.723495 0.672662 0.000000
0.755942 0.672556 0.000000
0.788406 0.672309 0.000000
0.820781 0.672291 0.000000
0.853039 0.672047 0.000000
0.885297 0.671813 0.000000
0.917555 0.671803 0.000000
0.949574 0.671564 0.000000
0.981585 0.671559 0.000000
1.000000 0.671559 0.000000
0.079657 0.706259 0.000000
0.097452 0.706259 0.000000
0.115669 0.706259 0.000000
0.137609 0.706259 0.000000
0.162782 0.706259 0.000000
0.189712 0.706259 0.000000
0.218272 0.706259 0.000000
0.247517 0.706259 0.000000
0.277771 0.706085 0.000000
0.308386 0.706085 0.000000
0.339478 0.706014 0.000000
0.370942 0.706014 0.000000
0.402564 0.705947 0.000000
0.434353 0.705841 0.000000
0.466186 0.705770 0.000000
0.498192 0.705686 0.000000
0.530358 0.705560 0.000000
0.562582 0.705526 0.000000
0.594911 0.705312 0.000000
0.627169 0.705282 0.000000
0.659672 0.705063 0.000000
0.691930 0.705038 0.000000
0.724432 0.704793 0.000000
0.756743 0.704665 0.000000
0.789153 0.704549 0.000000
0.821450 0.704319 0.000000
0.853779 0.704305 0.000000
0.885793 0.704061 0.000000
0.917895 0.704061 0.000000
0.949903 0.703817 0.000000
0.981669 0.703817 0.000000
1.000000 0.703817 0.000000
0.088361 0.738335 0.000000
0.105169 0.738335 0.000000
0.122159 0.738331 0.000000
0.143275 0.738279 0.000000
0.167475 0.738272 0.000000
0.193848 0.738272 0.000000
0.221919 0.738272 0.000000
0.250779 0.738272 0.000000
0.280633 0.738091 0.000000
0.310988 0.738091 0.000000
0.341707 0.738091 0.000000
0.372973 0.738028 0.000000
0.404333 0.738028 0.000000
0.436094 0.737847 0.000000
0.467885 0.737819 0.000000
0.499711 0.737784 0.000000
0.531813 0.737603 0.000000
0.563972 0.737540 0.000000
0.596148 0.737435 0.000000
0.628406 0.737320 0.000000
0.660664 0.737179 0.000000
0.692922 0.737072 0.000000
0.725353 0.736923 0.000000
0.757501 0.736824 0.000000
0.789759 0.736667 0.000000
0.822017 0.736563 0.000000
0.854275 0.736563 0.000000
0.886321 0.736319 0.000000
0.918309 0.736319 0.000000
0.950148 0.736090 0.000000
0.981913 0.736075 0.000000
1.000000 0.736075 0.000000
0.097097 0.770341 0.000000
0.112909 0.770341 0.000000
0.129253 0.770341 0.000000
0.149004 0.770341 0.000000
0.172532 0.770286 0.000000
0.198053 0.770286 0.000000
0.225696 0.770286 0.000000
0.254192 0.770286 0.000000
0.283548 0.770286 0.000000
0.313695 0.770286 0.000000
0.344163 0.770225 0.000000
0.375147 0.770078 0.000000
0.406296 0.770042 0.000000
0.437835 0.770042 0.000000
0.469493 0.769957 0.000000
0.501386 0.769826 0.000000
0.533204 0.769798 0.000000
0.565316 0.769798 0.000000
0.597353 0.769577 0.000000
0.629472 0.769554 0.000000
0.661657 0.769377 0.000000
0.693915 0.769310 0.000000
0.726173 0.769136 0.000000
0.758431 0.769065 0.000000
0.790543 0.769023 0.000000
0.822758 0.768821 0.000000
0.854772 0.768821 0.000000
0.886786 0.768601 0.000000
0.918579 0.768577 0.000000
0.950396 0.768577 0.000000
0.981921 0.768577 0.000000
1.000000 0.768577 0.000000
0.105621 0.802544 0.000000
0.120627 0.802544 0.000000
0.135687 0.802544 0.000000
0.154821 0.802544 0.000000
0.177568 0.802544 0.000000
0.202639 0.802544 0.000000
0.229543 0.802544 0.000000
0.257524 0.802544 0.000000
0.286526 0.802494 0.000000
0.316407 0.802300 0.000000
0.346677 0.802300 0.000000
0.377414 0.802300 0.000000
0.408452 0.802300 0.000000
0.439718 0.802218 0.000000
0.471338 0.802056 0.000000
0.502903 0.802056 0.000000
0.534665 0.802056 0.000000
0.566671 0.801833 0.000000
0.598677 0.801812 0.000000
0.630635 0.801812 0.000000
0.662736 0.801568 0.000000
0.694907 0.801568 0.000000
0.727026 0.801534 0.000000
0.759179 0.801323 0.000000
0.791240 0.801323 0.000000
0.823254 0.801276 0.000000
0.855276 0.801079 0.000000
0.887110 0.801079 0.000000
0.918878 0.801037 0.000000
0.950596 0.801032 0.000000
0.982112 0.801032 0.000000
1.000000 0.801079 0.000000
0.114144 0.834802 0.000000
0.128103 0.834802 0.000000
0.142563 0.834802 0.000000
0.160739 0.834802 0.000000
0.182743 0.834802 0.000000
0.207066 0.834802 0.000000
0.233337 0.834802 0.000000
0.260987 0.834794 0.000000
0.289602 0.834558 0.000000
0.319280 0.834558 0.000000
0.349175 0.834558 0.000000
0.379560 0.834558 0.000000
0.410563 0.834558 0.000000
0.441703 0.834542 0.000000
0.472986 0.834314 0.000000
0.504497 0.834314 0.000000
0.536153 0.834314 0.000000
0.567955 0.834292 0.000000
0.599921 0.834070 0.000000
0.631848 0.834070 0.000000
0.663754 0.834044 0.000000
0.695761 0.833892 0.000000
0.727768 0.833826 0.000000
0.759786 0.833786 0.000000
0.791792 0.833628 0.000000
0.823798 0.833581 0.000000
0.855593 0.833581 0.000000
0.887361 0.833542 0.000000
0.919087 0.833542 0.000000
0.950640 0.833542 0.000000
0.981921 0.833542 0.000000
1.000000 0.833786 0.000000
0.122329 0.867061 0.000000
0.135286 0.867061 0.000000
0.149031 0.867061 0.000000
0.166629 0.867061 0.000000
0.187707 0.867061 0.000000
0.211472 0.867061 0.000000
0.237186 0.867061 0.000000
0.264413 0.867061 0.000000
0.292820 0.867052 0.000000
0.321952 0.866967 0.000000
0.351588 0.866816 0.000000
0.381940 0.866816 0.000000
0.412572 0.866816 0.000000
0.443462 0.866816 0.000000
0.474741 0.866802 0.000000
0.506007 0.866682 0.000000
0.537642 0.866572 0.000000
0.569287 0.866572 0.000000
