gsg/01_Basics/GSG_LUT_Basic_WarmContrasty.cube
# GSG LUTs 1.0
# Copyright (c) 2016-2020 Greyscalegorilla
# See EULA for licensing and distribution information
# Converted by Briz LUT Converter
LUT_3D_SIZE 32
0.000000 0.000000 0.000000
0.022600 0.000000 0.000000
0.046942 0.000000 0.000000
0.072583 0.000000 0.000000
0.099965 0.000000 0.000000
0.128859 0.000000 0.000000
0.159313 0.000000 0.000000
0.191729 0.000000 0.000000
0.225657 0.000000 0.000000
0.261097 0.000000 0.000000
0.298050 0.000000 0.000000
0.336516 0.000000 0.000000
0.376399 0.000000 0.000000
0.417291 0.000000 0.000000
0.458947 0.000000 0.000000
0.501249 0.000000 0.000000
0.543928 0.000000 0.000000
0.586474 0.000000 0.000000
0.628658 0.000000 0.000000
0.670054 0.000000 0.000000
0.710528 0.000000 0.000000
0.749490 0.000000 0.000000
0.786939 0.000000 0.000000
0.822632 0.000000 0.000000
0.856190 0.000000 0.000000
0.887912 0.000000 0.000000
0.917374 0.000000 0.000000
0.944606 0.000000 0.000000
0.969782 0.000000 0.000000
0.992698 0.000000 0.000000
1.000000 0.000000 0.000000
1.000000 0.000000 0.000000
0.005459 0.021852 0.000000
0.023104 0.021844 0.000000
0.046965 0.021593 0.000000
0.072590 0.020867 0.000000
0.099966 0.019867 0.000000
0.128898 0.018325 0.000000
0.159512 0.015989 0.000000
0.191729 0.011440 0.000000
0.225657 0.000815 0.000000
0.261097 0.000694 0.000000
0.298129 0.000498 0.000000
0.336516 0.000000 0.000000
0.376399 0.000000 0.000000
0.417291 0.000000 0.000000
0.458947 0.000000 0.000000
0.501249 0.000000 0.000000
0.543928 0.000000 0.000000
0.586474 0.000000 0.000000
0.628658 0.000000 0.000000
0.670057 0.000000 0.000000
0.710528 0.000000 0.000000
0.749490 0.000000 0.000000
0.786939 0.000000 0.000000
0.822632 0.000000 0.000000
0.856190 0.000000 0.000000
0.887912 0.000000 0.000000
0.917374 0.000000 0.000000
0.944606 0.000000 0.000000
0.969782 0.000000 0.000000
0.992926 0.000000 0.000000
1.000000 0.000000 0.000000
1.000000 0.000000 0.000000
0.011178 0.044972 0.000000
0.024845 0.044972 0.000000
0.047720 0.044972 0.000000
0.073101 0.044706 0.000000
0.100225 0.044224 0.000000
0.129119 0.043741 0.000000
0.159573 0.042959 0.000000
0.191744 0.041927 0.000000
0.225661 0.040407 0.000000
0.261179 0.038388 0.000000
0.298140 0.035802 0.000000
0.336760 0.032241 0.000000
0.376405 0.027299 0.000000
0.417291 0.019155 0.000000
0.458947 0.002309 0.000000
0.501257 0.001879 0.000000
0.543928 0.001158 0.000000
0.586483 0.000000 0.000000
0.628665 0.000000 0.000000
0.670148 0.000000 0.000000
0.710528 0.000000 0.000000
0.749501 0.000000 0.000000
0.786939 0.000000 0.000000
0.822695 0.000000 0.000000
0.856379 0.000000 0.000000
0.887912 0.000000 0.000000
0.917374 0.000000 0.000000
0.944606 0.000000 0.000000
0.969782 0.000000 0.000000
0.992926 0.000000 0.000000
1.000000 0.000000 0.000000
1.000000 0.000000 0.000000
0.017378 0.069849 0.000000
0.027617 0.069849 0.000000
0.049217 0.069833 0.000000
0.074071 0.069605 0.000000
0.100744 0.069381 0.000000
0.129615 0.069081 0.000000
0.160022 0.068605 0.000000
0.192167 0.068058 0.000000
0.225925 0.067090 0.000000
0.261365 0.066115 0.000000
0.298318 0.064823 0.000000
0.336784 0.063138 0.000000
0.376508 0.061099 0.000000
0.417407 0.058722 0.000000
0.459091 0.055707 0.000000
0.501493 0.051978 0.000000
0.543952 0.047411 0.000000
0.586608 0.041776 0.000000
0.628760 0.034211 0.000000
0.670298 0.022382 0.000000
0.710543 0.004324 0.000000
0.749655 0.003580 0.000000
0.787119 0.002518 0.000000
0.822695 0.000372 0.000000
0.856384 0.000000 0.000000
0.887912 0.000000 0.000000
0.917374 0.000000 0.000000
0.944627 0.000000 0.000000
0.969782 0.000000 0.000000
0.992942 0.000000 0.000000
1.000000 0.000000 0.000000
1.000000 0.000000 0.000000
0.023853 0.096026 0.000000
0.031854 0.096025 0.000000
0.051461 0.095994 0.000000
0.075345 0.095994 0.000000
0.101737 0.095778 0.000000
0.130143 0.095532 0.000000
0.160524 0.095246 0.000000
0.192517 0.094750 0.000000
0.226232 0.094253 0.000000
0.261617 0.093695 0.000000
0.298570 0.092735 0.000000
0.337036 0.091689 0.000000
0.376757 0.090445 0.000000
0.417548 0.088900 0.000000
0.459208 0.087195 0.000000
0.501509 0.085029 0.000000
0.544173 0.082721 0.000000
0.586719 0.079926 0.000000
0.628902 0.076889 0.000000
0.670298 0.073393 0.000000
0.710697 0.069551 0.000000
0.749734 0.065299 0.000000
0.787183 0.060597 0.000000
0.822718 0.055275 0.000000
0.856434 0.049230 0.000000
0.887937 0.042127 0.000000
0.917405 0.033533 0.000000
0.944819 0.018748 0.000000
0.970003 0.006994 0.000000
0.992942 0.006354 0.000000
1.000000 0.005713 0.000000
1.000000 0.004979 0.000000
0.030627 0.123896 0.000000
0.037100 0.123896 0.000000
0.054483 0.123896 0.000000
0.077345 0.123896 0.000000
0.103229 0.123686 0.000000
0.131340 0.123619 0.000000
0.161298 0.123368 0.000000
0.193218 0.123117 0.000000
0.226917 0.122652 0.000000
0.262114 0.122155 0.000000
0.299067 0.121454 0.000000
0.337288 0.120714 0.000000
0.377006 0.119879 0.000000
0.417819 0.118681 0.000000
0.459475 0.117484 0.000000
0.501757 0.116129 0.000000
0.544417 0.114454 0.000000
0.586870 0.112629 0.000000
0.629028 0.110566 0.000000
0.670417 0.108386 0.000000
0.710798 0.105985 0.000000
0.749912 0.103544 0.000000
0.787223 0.100969 0.000000
0.822939 0.098253 0.000000
0.856464 0.095418 0.000000
0.888156 0.092560 0.000000
0.917618 0.089662 0.000000
0.944824 0.086804 0.000000
0.970026 0.083942 0.000000
0.992979 0.081085 0.000000
1.000000 0.078268 0.000000
1.000000 0.075655 0.000000
0.037875 0.153358 0.000000
0.043071 0.153358 0.000000
0.058500 0.153358 0.000000
0.080069 0.153310 0.000000
0.105187 0.153285 0.000000
0.132829 0.153106 0.000000
0.162535 0.152869 0.000000
0.194210 0.152625 0.000000
0.227642 0.152318 0.000000
0.262797 0.152066 0.000000
0.299563 0.151570 0.000000
0.337784 0.150876 0.000000
0.377423 0.150257 0.000000
0.418153 0.149423 0.000000
0.459835 0.148456 0.000000
0.502028 0.147355 0.000000
0.544661 0.146166 0.000000
0.587118 0.144821 0.000000
0.629276 0.143353 0.000000
0.670666 0.141744 0.000000
0.711017 0.140052 0.000000
0.750010 0.138296 0.000000
0.787428 0.136423 0.000000
0.822986 0.134499 0.000000
0.856678 0.132598 0.000000
0.888204 0.130662 0.000000
0.917665 0.128898 0.000000
0.945063 0.127033 0.000000
0.970069 0.125279 0.000000
0.993186 0.123449 0.000000
1.000000 0.121950 0.000000
1.000000 0.120312 0.000000
0.045571 0.184481 0.000000
0.049845 0.184481 0.000000
0.063469 0.184481 0.000000
0.083592 0.184292 0.000000
0.107732 0.184292 0.000000
0.134664 0.184207 0.000000
0.164024 0.184048 0.000000
0.195258 0.183804 0.000000
0.228634 0.183560 0.000000
0.263650 0.183261 0.000000
0.300341 0.182993 0.000000
0.338457 0.182496 0.000000
0.377975 0.181927 0.000000
0.418622 0.181292 0.000000
0.460223 0.180489 0.000000
0.502407 0.179716 0.000000
0.544960 0.178752 0.000000
0.587481 0.177597 0.000000
0.629548 0.176439 0.000000
0.670915 0.175251 0.000000
0.711296 0.173941 0.000000
0.750260 0.172577 0.000000
0.787672 0.171145 0.000000
0.823238 0.169672 0.000000
0.856922 0.168238 0.000000
0.888456 0.166794 0.000000
0.917871 0.165551 0.000000
0.945142 0.164119 0.000000
0.970320 0.162858 0.000000
0.993418 0.161448 0.000000
1.000000 0.160440 0.000000
1.000000 0.159258 0.000000
0.053756 0.216984 0.000000
0.057267 0.216984 0.000000
0.069176 0.216984 0.000000
0.087640 0.216984 0.000000
0.110796 0.216976 0.000000
0.137075 0.216891 0.000000
0.165871 0.216740 0.000000
0.196936 0.216495 0.000000
0.229934 0.216432 0.000000
0.264687 0.216180 0.000000
0.301272 0.215763 0.000000
0.339241 0.215432 0.000000
0.378723 0.214936 0.000000
0.419308 0.214439 0.000000
0.460853 0.213762 0.000000
0.502933 0.213147 0.000000
0.545457 0.212399 0.000000
0.587892 0.211470 0.000000
0.629942 0.210477 0.000000
0.671338 0.209547 0.000000
0.711568 0.208555 0.000000
0.750530 0.207381 0.000000
0.787979 0.206326 0.000000
0.823490 0.205152 0.000000
0.857166 0.203978 0.000000
0.888708 0.202839 0.000000
0.918169 0.201759 0.000000
0.945393 0.200653 0.000000
0.970572 0.199646 0.000000
0.993493 0.198653 0.000000
1.000000 0.197721 0.000000
1.000000 0.196975 0.000000
0.062082 0.251188 0.000000
0.065246 0.251188 0.000000
0.075713 0.251188 0.000000
0.092608 0.251188 0.000000
0.114537 0.251178 0.000000
0.140136 0.251089 0.000000
0.168270 0.250943 0.000000
0.198794 0.250833 0.000000
0.231476 0.250681 0.000000
0.266123 0.250455 0.000000
0.302336 0.250132 0.000000
0.340234 0.249880 0.000000
0.379621 0.249411 0.000000
0.420119 0.248958 0.000000
0.461499 0.248462 0.000000
0.503643 0.247966 0.000000
0.545987 0.247225 0.000000
0.588421 0.246595 0.000000
0.630468 0.245774 0.000000
0.671685 0.244925 0.000000
0.712064 0.244090 0.000000
0.751026 0.243184 0.000000
0.788281 0.242262 0.000000
0.823968 0.241270 0.000000
0.857482 0.240332 0.000000
0.888960 0.239356 0.000000
0.918421 0.238596 0.000000
0.945654 0.237676 0.000000
0.970830 0.236850 0.000000
0.993745 0.235945 0.000000
1.000000 0.235265 0.000000
1.000000 0.234692 0.000000
0.071015 0.286825 0.000000
0.073573 0.286825 0.000000
0.082782 0.286825 0.000000
0.098413 0.286825 0.000000
0.119018 0.286825 0.000000
0.143648 0.286660 0.000000
0.171090 0.286644 0.000000
0.201219 0.286543 0.000000
0.233474 0.286395 0.000000
0.267668 0.286171 0.000000
0.303824 0.285927 0.000000
0.341549 0.285683 0.000000
0.380692 0.285344 0.000000
0.421042 0.285092 0.000000
0.462413 0.284596 0.000000
0.504384 0.284099 0.000000
0.546732 0.283518 0.000000
0.589038 0.282941 0.000000
0.631037 0.282201 0.000000
0.672331 0.281555 0.000000
0.712561 0.280807 0.000000
0.751522 0.280005 0.000000
0.788727 0.279262 0.000000
0.824239 0.278396 0.000000
0.857978 0.277648 0.000000
0.889456 0.276867 0.000000
0.918918 0.276190 0.000000
0.946118 0.275450 0.000000
0.971231 0.274710 0.000000
0.994237 0.274048 0.000000
1.000000 0.273473 0.000000
1.000000 0.272811 0.000000
0.080035 0.323802 0.000000
0.082337 0.323802 0.000000
0.090516 0.323802 0.000000
0.104879 0.323802 0.000000
0.124247 0.323802 0.000000
0.147869 0.323802 0.000000
0.174602 0.323627 0.000000
0.203994 0.323557 0.000000
0.235891 0.323517 0.000000
0.269666 0.323313 0.000000
0.305565 0.323069 0.000000
0.342982 0.322881 0.000000
0.381937 0.322634 0.000000
0.422246 0.322270 0.000000
0.463405 0.321824 0.000000
0.505256 0.321486 0.000000
0.547597 0.321076 0.000000
0.589822 0.320493 0.000000
0.631778 0.319839 0.000000
0.672974 0.319343 0.000000
0.713143 0.318633 0.000000
0.752019 0.318000 0.000000
0.789356 0.317279 0.000000
0.824799 0.316712 0.000000
0.858474 0.315971 0.000000
0.889952 0.315318 0.000000
0.919209 0.314603 0.000000
0.946615 0.314081 0.000000
0.971578 0.313364 0.000000
0.994494 0.312844 0.000000
1.000000 0.312348 0.000000
1.000000 0.311852 0.000000
0.089558 0.362196 0.000000
0.091509 0.362196 0.000000
0.098911 0.362196 0.000000
0.111858 0.362047 0.000000
0.130063 0.362047 0.000000
0.152609 0.362031 0.000000
0.178495 0.361952 0.000000
0.207307 0.361918 0.000000
0.238646 0.361778 0.000000
0.272102 0.361664 0.000000
0.307615 0.361464 0.000000
0.344779 0.361280 0.000000
0.383484 0.361033 0.000000
0.423577 0.360723 0.000000
0.464694 0.360419 0.000000
0.506448 0.359975 0.000000
0.548631 0.359677 0.000000
0.590815 0.359226 0.000000
0.632613 0.358730 0.000000
0.673756 0.358142 0.000000
0.713892 0.357588 0.000000
0.752759 0.357028 0.000000
0.789992 0.356395 0.000000
0.825476 0.355855 0.000000
0.858970 0.355243 0.000000
0.890449 0.354636 0.000000
0.919910 0.354122 0.000000
0.947111 0.353626 0.000000
0.972075 0.352980 0.000000
0.994990 0.352483 0.000000
1.000000 0.351987 0.000000
1.000000 0.351735 0.000000
0.099240 0.401457 0.000000
0.101033 0.401457 0.000000
0.107662 0.401457 0.000000
0.119601 0.401355 0.000000
0.136534 0.401355 0.000000
0.157949 0.401355 0.000000
0.182989 0.401355 0.000000
0.210997 0.401213 0.000000
0.241724 0.401111 0.000000
0.274859 0.401070 0.000000
0.309919 0.400867 0.000000
0.346830 0.400688 0.000000
0.385411 0.400441 0.000000
0.425251 0.400193 0.000000
0.466115 0.399946 0.000000
0.507737 0.399630 0.000000
0.549726 0.399207 0.000000
0.591854 0.398881 0.000000
0.633605 0.398385 0.000000
0.674749 0.397889 0.000000
0.714727 0.397393 0.000000
0.753602 0.396896 0.000000
0.790734 0.396400 0.000000
0.826216 0.395904 0.000000
0.859711 0.395407 0.000000
0.891189 0.394911 0.000000
0.920423 0.394273 0.000000
0.947639 0.394003 0.000000
0.972801 0.393525 0.000000
0.995730 0.393028 0.000000
1.000000 0.392631 0.000000
1.000000 0.392280 0.000000
0.109165 0.441656 0.000000
0.110835 0.441656 0.000000
0.116689 0.441656 0.000000
0.127604 0.441522 0.000000
0.143528 0.441522 0.000000
0.163841 0.441522 0.000000
0.187979 0.441522 0.000000
0.215235 0.441412 0.000000
0.245424 0.441278 0.000000
0.277915 0.441246 0.000000
0.312604 0.441034 0.000000
0.349222 0.440947 0.000000
0.387464 0.440747 0.000000
0.427051 0.440545 0.000000
0.467714 0.440251 0.000000
0.509158 0.439939 0.000000
0.551089 0.439686 0.000000
0.593094 0.439251 0.000000
0.634764 0.438938 0.000000
0.675741 0.438442 0.000000
0.715719 0.438056 0.000000
0.754429 0.437560 0.000000
0.791626 0.437063 0.000000
0.827067 0.436701 0.000000
0.860476 0.436290 0.000000
0.891930 0.435819 0.000000
0.921165 0.435322 0.000000
0.948362 0.434826 0.000000
0.973422 0.434561 0.000000
0.996337 0.434078 0.000000
1.000000 0.433821 0.000000
1.000000 0.433440 0.000000
0.119335 0.482335 0.000000
0.120741 0.482335 0.000000
0.126086 0.482335 0.000000
0.136099 0.482335 0.000000
0.151011 0.482335 0.000000
0.170302 0.482316 0.000000
0.193454 0.482217 0.000000
0.219982 0.482188 0.000000
0.249360 0.482091 0.000000
0.281434 0.481973 0.000000
0.315618 0.481846 0.000000
0.351819 0.481728 0.000000
0.389698 0.481557 0.000000
0.429105 0.481358 0.000000
0.469589 0.481114 0.000000
0.510891 0.480870 0.000000
0.552578 0.480564 0.000000
0.594509 0.480247 0.000000
0.636055 0.479893 0.000000
0.676901 0.479499 0.000000
0.716911 0.479160 0.000000
0.755502 0.478751 0.000000
0.792619 0.478338 0.000000
0.828059 0.477876 0.000000
0.861310 0.477506 0.000000
0.892788 0.477105 0.000000
0.922026 0.476632 0.000000
0.949223 0.476364 0.000000
0.974170 0.475883 0.000000
0.997085 0.475631 0.000000
1.000000 0.475371 0.000000
1.000000 0.474883 0.000000
0.129505 0.523282 0.000000
0.130785 0.523282 0.000000
0.135617 0.523282 0.000000
0.144972 0.523282 0.000000
0.158871 0.523282 0.000000
0.177064 0.523282 0.000000
0.199338 0.523282 0.000000
0.224959 0.523253 0.000000
0.253731 0.523125 0.000000
0.285087 0.523038 0.000000
0.318973 0.522997 0.000000
0.354707 0.522793 0.000000
0.392329 0.522622 0.000000
0.431339 0.522447 0.000000
0.471700 0.522305 0.000000
0.512750 0.522061 0.000000
0.554311 0.521690 0.000000
0.595998 0.521438 0.000000
0.637544 0.521186 0.000000
0.678264 0.520767 0.000000
0.718075 0.520438 0.000000
0.756620 0.520148 0.000000
0.793701 0.519690 0.000000
0.829052 0.519319 0.000000
0.862331 0.518941 0.000000
0.893781 0.518571 0.000000
0.922998 0.518299 0.000000
0.949986 0.517823 0.000000
0.975036 0.517571 0.000000
0.997841 0.517303 0.000000
1.000000 0.517059 0.000000
1.000000 0.516814 0.000000
0.139675 0.564339 0.000000
0.140707 0.564339 0.000000
0.145275 0.564339 0.000000
0.153880 0.564339 0.000000
0.166896 0.564339 0.000000
0.184176 0.564339 0.000000
0.205475 0.564229 0.000000
0.230361 0.564198 0.000000
0.258384 0.564095 0.000000
0.289196 0.564063 0.000000
0.322537 0.563941 0.000000
0.357974 0.563811 0.000000
0.395140 0.563688 0.000000
0.433912 0.563560 0.000000
0.473877 0.563312 0.000000
0.514804 0.563065 0.000000
0.556178 0.562817 0.000000
0.597671 0.562569 0.000000
0.639033 0.562321 0.000000
0.679680 0.562031 0.000000
0.719516 0.561629 0.000000
0.757986 0.561377 0.000000
0.794943 0.561054 0.000000
0.830108 0.560629 0.000000
0.863454 0.560377 0.000000
0.894773 0.559988 0.000000
0.923991 0.559628 0.000000
0.950979 0.559362 0.000000
0.975911 0.559100 0.000000
0.998826 0.558753 0.000000
1.000000 0.558505 0.000000
1.000000 0.558258 0.000000
0.149600 0.604892 0.000000
0.150731 0.604892 0.000000
0.154807 0.604892 0.000000
0.162789 0.604892 0.000000
0.175042 0.604892 0.000000
0.191453 0.604892 0.000000
0.211966 0.604892 0.000000
0.236094 0.604789 0.000000
0.263387 0.604753 0.000000
0.293511 0.604648 0.000000
0.326228 0.604615 0.000000
0.361256 0.604403 0.000000
0.398204 0.604364 0.000000
0.436578 0.604159 0.000000
0.476309 0.603993 0.000000
0.516919 0.603744 0.000000
0.558163 0.603618 0.000000
0.599528 0.603371 0.000000
0.640706 0.603123 0.000000
0.681311 0.602749 0.000000
0.720859 0.602500 0.000000
0.759274 0.602182 0.000000
0.796227 0.601889 0.000000
0.831318 0.601615 0.000000
0.864674 0.601182 0.000000
0.895813 0.600930 0.000000
0.925023 0.600655 0.000000
0.951971 0.600394 0.000000
0.976903 0.600150 0.000000
0.999325 0.599905 0.000000
1.000000 0.599661 0.000000
1.000000 0.599417 0.000000
0.159526 0.644791 0.000000
0.160550 0.644791 0.000000
0.164455 0.644791 0.000000
0.171918 0.644791 0.000000
0.183414 0.644791 0.000000
0.199038 0.644776 0.000000
0.218601 0.644697 0.000000
0.241971 0.644697 0.000000
0.268511 0.644697 0.000000
0.298121 0.644547 0.000000
0.330364 0.644452 0.000000
0.364796 0.644399 0.000000
0.401336 0.644266 0.000000
0.439411 0.644145 0.000000
0.478872 0.643964 0.000000
0.519351 0.643769 0.000000
0.560266 0.643521 0.000000
0.601457 0.643342 0.000000
0.642507 0.643090 0.000000
0.682902 0.642837 0.000000
0.722541 0.642585 0.000000
0.760763 0.642255 0.000000
0.797609 0.642010 0.000000
0.832731 0.641766 0.000000
0.865940 0.641333 0.000000
0.897032 0.641081 0.000000
0.926244 0.640829 0.000000
0.953208 0.640564 0.000000
0.978140 0.640315 0.000000
0.999399 0.640066 0.000000
1.000000 0.639817 0.000000
1.000000 0.639568 0.000000
0.169050 0.683682 0.000000
0.170074 0.683682 0.000000
0.173640 0.683682 0.000000
0.180676 0.683682 0.000000
0.191574 0.683682 0.000000
0.206442 0.683682 0.000000
0.225326 0.683665 0.000000
0.247871 0.683595 0.000000
0.273882 0.683438 0.000000
0.302761 0.683438 0.000000
0.334499 0.683410 0.000000
0.368427 0.683295 0.000000
0.404530 0.683160 0.000000
0.442388 0.683041 0.000000
0.481563 0.682910 0.000000
0.521714 0.682705 0.000000
0.562451 0.682537 0.000000
0.603514 0.682288 0.000000
0.644334 0.682039 0.000000
0.684696 0.681789 0.000000
0.724086 0.681540 0.000000
0.762251 0.681291 0.000000
0.799031 0.681041 0.000000
0.834040 0.680728 0.000000
0.867218 0.680476 0.000000
0.898287 0.680224 0.000000
0.927410 0.679972 0.000000
0.954358 0.679720 0.000000
0.979148 0.679467 0.000000
0.999469 0.679215 0.000000
1.000000 0.678963 0.000000
1.000000 0.678955 0.000000
0.178479 0.721320 0.000000
0.179330 0.721320 0.000000
0.182643 0.721320 0.000000
0.189326 0.721304 0.000000
0.199569 0.721155 0.000000
0.213845 0.721155 0.000000
0.231974 0.721155 0.000000
0.253899 0.721155 0.000000
0.279113 0.721076 0.000000
0.307518 0.721076 0.000000
0.338635 0.720911 0.000000
0.372252 0.720883 0.000000
0.407909 0.720768 0.000000
0.445462 0.720633 0.000000
0.484222 0.720513 0.000000
0.524196 0.720343 0.000000
0.564764 0.720137 0.000000
0.605538 0.719965 0.000000
0.646233 0.719759 0.000000
0.686432 0.719509 0.000000
0.725822 0.719260 0.000000
0.763931 0.719010 0.000000
0.800520 0.718761 0.000000
0.835464 0.718511 0.000000
0.868524 0.718201 0.000000
0.899657 0.717949 0.000000
0.928654 0.717697 0.000000
0.955603 0.717513 0.000000
0.980369 0.717413 0.000000
0.999544 0.717169 0.000000
1.000000 0.716925 0.000000
1.000000 0.716680 0.000000
0.187317 0.757289 0.000000
0.188257 0.757289 0.000000
0.191398 0.757289 0.000000
0.197582 0.757289 0.000000
0.207477 0.757289 0.000000
0.221064 0.757289 0.000000
0.238576 0.757115 0.000000
0.259861 0.757115 0.000000
0.284430 0.757115 0.000000
0.312264 0.757115 0.000000
0.342888 0.757044 0.000000
0.375996 0.756871 0.000000
0.411316 0.756844 0.000000
0.448486 0.756627 0.000000
0.486990 0.756595 0.000000
0.526677 0.756383 0.000000
0.567036 0.756222 0.000000
0.607767 0.756100 0.000000
0.648290 0.755853 0.000000
0.688369 0.755607 0.000000
0.727512 0.755406 0.000000
0.765529 0.755218 0.000000
0.802009 0.754968 0.000000
0.836953 0.754718 0.000000
0.869952 0.754468 0.000000
0.900933 0.754218 0.000000
0.929899 0.753969 0.000000
0.956847 0.753719 0.000000
0.981542 0.753626 0.000000
0.999613 0.753386 0.000000
1.000000 0.753139 0.000000
1.000000 0.752964 0.000000
0.195817 0.791563 0.000000
0.196587 0.791563 0.000000
0.199638 0.791563 0.000000
0.205561 0.791563 0.000000
0.214959 0.791563 0.000000
0.228188 0.791563 0.000000
0.244992 0.791563 0.000000
0.265580 0.791522 0.000000
0.289645 0.791382 0.000000
0.316925 0.791319 0.000000
0.347108 0.791319 0.000000
0.379769 0.791255 0.000000
0.414692 0.791075 0.000000
0.451492 0.791075 0.000000
0.489815 0.790865 0.000000
0.529252 0.790743 0.000000
0.569389 0.790586 0.000000
0.609834 0.790371 0.000000
0.650305 0.790200 0.000000
0.690110 0.789987 0.000000
0.729253 0.789854 0.000000
0.767041 0.789610 0.000000
0.803498 0.789365 0.000000
0.838442 0.789121 0.000000
0.871259 0.788877 0.000000
0.902241 0.788645 0.000000
0.931154 0.788428 0.000000
0.958092 0.788176 0.000000
0.982786 0.788144 0.000000
0.999693 0.787900 0.000000
1.000000 0.787656 0.000000
1.000000 0.787412 0.000000
0.203813 0.824066 0.000000
0.204583 0.823876 0.000000
0.207566 0.823876 0.000000
0.213226 0.823876 0.000000
0.222175 0.823876 0.000000
0.234851 0.823868 0.000000
0.251195 0.823821 0.000000
0.271228 0.823821 0.000000
0.294740 0.823821 0.000000
0.321510 0.823821 0.000000
0.351249 0.823760 0.000000
0.383493 0.823577 0.000000
0.418069 0.823577 0.000000
0.454480 0.823365 0.000000
0.492520 0.823333 0.000000
0.531766 0.823117 0.000000
0.571622 0.823089 0.000000
0.611848 0.822845 0.000000
0.652181 0.822623 0.000000
0.691979 0.822451 0.000000
0.730872 0.822199 0.000000
0.768756 0.822112 0.000000
0.804986 0.821868 0.000000
0.839749 0.821624 0.000000
0.872685 0.821379 0.000000
0.903667 0.821182 0.000000
0.932443 0.820930 0.000000
0.959172 0.820843 0.000000
0.983859 0.820647 0.000000
0.999772 0.820403 0.000000
1.000000 0.820166 0.000000
1.000000 0.820158 0.000000
0.211304 0.854307 0.000000
0.212022 0.854307 0.000000
0.214865 0.854307 0.000000
0.220407 0.854307 0.000000
0.229097 0.854307 0.000000
0.241317 0.854307 0.000000
0.257103 0.854307 0.000000
0.276632 0.854307 0.000000
0.299638 0.854307 0.000000
0.325903 0.854110 0.000000
0.355177 0.854063 0.000000
0.387129 0.854063 0.000000
0.421295 0.853987 0.000000
0.457458 0.853819 0.000000
0.495165 0.853819 0.000000
0.534129 0.853574 0.000000
0.573854 0.853448 0.000000
0.614056 0.853330 0.000000
0.654051 0.853086 0.000000
0.693715 0.852936 0.000000
0.732608 0.852684 0.000000
0.770263 0.852598 0.000000
0.806475 0.852353 0.000000
0.841238 0.852109 0.000000
0.874021 0.851920 0.000000
0.904912 0.851668 0.000000
0.933680 0.851581 0.000000
0.960410 0.851377 0.000000
0.985091 0.851132 0.000000
0.999849 0.850904 0.000000
1.000000 0.850888 0.000000
1.000000 0.850644 0.000000
0.218496 0.882776 0.000000
0.219017 0.882776 0.000000
0.221813 0.882776 0.000000
0.226949 0.882776 0.000000
0.235380 0.882776 0.000000
0.247279 0.882743 0.000000
0.262735 0.882571 0.000000
0.281831 0.882571 0.000000
0.304331 0.882532 0.000000
0.330151 0.882532 0.000000
0.358930 0.882532 0.000000
0.390547 0.882327 0.000000
0.424302 0.882288 0.000000
0.460333 0.882288 0.000000
0.497672 0.882065 0.000000
0.536406 0.882043 0.000000
0.575982 0.881818 0.000000
0.615950 0.881687 0.000000
0.655897 0.881555 0.000000
0.695451 0.881311 0.000000
0.734113 0.881153 0.000000
0.771752 0.880928 0.000000
0.807964 0.880822 0.000000
0.842512 0.880578 0.000000
0.875260 0.880343 0.000000
0.906164 0.880137 0.000000
0.934917 0.879918 0.000000
0.961621 0.879846 0.000000
0.986273 0.879601 0.000000
0.999916 0.879373 0.000000
1.000000 0.879357 0.000000
1.000000 0.879113 0.000000
0.224987 0.908984 0.000000
0.225507 0.908984 0.000000
0.228089 0.908984 0.000000
0.233188 0.908984 0.000000
0.241313 0.908984 0.000000
0.252776 0.908984 0.000000
0.267980 0.908984 0.000000
0.286526 0.908984 0.000000
0.308787 0.908772 0.000000
0.334059 0.908772 0.000000
0.362582 0.908740 0.000000
0.393777 0.908740 0.000000
0.427429 0.908527 0.000000
0.462977 0.908496 0.000000
0.500154 0.908400 0.000000
0.538745 0.908268 0.000000
0.578070 0.908142 0.000000
0.617913 0.908007 0.000000
