gsg/04_Specialty/GSG_LUT_Specialty_Swampy.cube
# GSG LUTs 1.0
# Copyright (c) 2016-2020 Greyscalegorilla
# See EULA for licensing and distribution information
# Converted by Briz LUT Converter
LUT_3D_SIZE 32
0.050794 0.050794 0.050794
0.067486 0.052062 0.052062
0.086077 0.053574 0.053574
0.107054 0.055063 0.055063
0.124101 0.056387 0.056387
0.143346 0.058072 0.058072
0.158691 0.059333 0.059380
0.173138 0.060648 0.060837
0.189145 0.062161 0.062224
0.206499 0.063744 0.063988
0.226523 0.067399 0.066226
0.250880 0.073307 0.069329
0.276466 0.075954 0.072291
0.302848 0.080050 0.077309
0.327000 0.085234 0.083107
0.352357 0.091693 0.086872
0.377187 0.097239 0.090653
0.402292 0.101603 0.096593
0.430163 0.108992 0.104092
0.461704 0.119761 0.112348
0.496522 0.131388 0.121108
0.532404 0.142069 0.131167
0.564040 0.154658 0.142180
0.589436 0.170806 0.153271
0.612375 0.184734 0.165686
0.633487 0.197196 0.176573
0.653338 0.213234 0.187317
0.669172 0.228209 0.199646
0.684076 0.239742 0.208941
0.698948 0.254488 0.218677
0.711221 0.268904 0.228036
0.723565 0.287179 0.238339
0.057718 0.057584 0.052062
0.081318 0.059230 0.053811
0.099137 0.060483 0.055079
0.116302 0.062224 0.056455
0.135735 0.067994 0.058800
0.151227 0.069344 0.060042
0.164393 0.070440 0.061192
0.181627 0.072998 0.063067
0.197329 0.078097 0.065209
0.215959 0.079781 0.067052
0.237938 0.083491 0.069629
0.264599 0.089223 0.073148
0.292527 0.093975 0.076811
0.320443 0.101679 0.082904
0.345926 0.109233 0.089282
0.370798 0.115765 0.093332
0.396656 0.122323 0.098723
0.424300 0.130445 0.105818
0.455130 0.141628 0.114021
0.488617 0.152604 0.123005
0.523170 0.165886 0.134925
0.556369 0.182168 0.147710
0.584647 0.196393 0.159027
0.608918 0.209911 0.171529
0.631188 0.224617 0.183476
0.650194 0.240120 0.194152
0.667692 0.252954 0.203706
0.682997 0.267407 0.215960
0.697607 0.285140 0.227022
0.710232 0.299973 0.236532
0.722589 0.321187 0.247745
0.737311 0.342960 0.259349
0.068321 0.064422 0.053637
0.087099 0.070030 0.055362
0.104400 0.071072 0.056847
0.121296 0.072606 0.058197
0.140229 0.074645 0.059973
0.155242 0.079642 0.061801
0.167936 0.080794 0.063004
0.185124 0.083290 0.064875
0.201119 0.088153 0.067009
0.219252 0.090801 0.069074
0.241735 0.095770 0.071947
0.268999 0.101004 0.075527
0.297258 0.108397 0.081410
0.323850 0.115831 0.087936
0.349080 0.123125 0.092324
0.374509 0.130655 0.096861
0.401066 0.137409 0.101561
0.429319 0.146771 0.109327
0.460529 0.158710 0.118737
0.494548 0.170094 0.128122
0.528619 0.183982 0.140268
0.561215 0.199925 0.153008
0.589392 0.214649 0.164634
0.612978 0.229557 0.178012
0.634089 0.243145 0.189158
0.653867 0.258181 0.201799
0.670320 0.273189 0.212533
0.686721 0.288226 0.223262
0.700135 0.305799 0.233482
0.714498 0.324105 0.244270
0.726999 0.345072 0.255347
0.739627 0.369648 0.267415
0.079515 0.079294 0.056182
0.097068 0.081169 0.057513
0.113269 0.082432 0.058815
0.129451 0.087212 0.060700
0.144606 0.088966 0.062224
0.157312 0.090713 0.063602
0.172448 0.095499 0.065576
0.189376 0.097914 0.067415
0.205163 0.102022 0.069438
0.223269 0.105706 0.071831
0.245852 0.111732 0.075267
0.273427 0.118071 0.080600
0.301407 0.125180 0.087432
0.327059 0.132308 0.091737
0.352118 0.139462 0.096146
0.377522 0.146756 0.100875
0.405352 0.154668 0.107885
0.434762 0.164909 0.115891
0.465869 0.175477 0.124686
0.500667 0.188230 0.135048
0.533476 0.203827 0.146666
0.565694 0.218490 0.158841
0.593509 0.234198 0.172323
0.617338 0.248614 0.184781
0.638413 0.263773 0.195901
0.656654 0.279018 0.208371
0.673956 0.294196 0.219599
0.689361 0.311670 0.230459
0.703888 0.330223 0.241344
0.717092 0.350895 0.252372
0.729748 0.371578 0.263438
0.742841 0.395533 0.275647
0.094513 0.094702 0.059112
0.110487 0.100042 0.061041
0.122549 0.101004 0.062257
0.135220 0.102165 0.063387
0.149505 0.106782 0.065280
0.162097 0.108724 0.066659
0.177121 0.113035 0.068742
0.193686 0.115830 0.071074
0.209343 0.120052 0.073300
0.227264 0.123645 0.076549
0.250838 0.130196 0.082075
0.278947 0.136780 0.087139
0.305232 0.143027 0.091417
0.330678 0.150729 0.096147
0.355313 0.158751 0.101729
0.380548 0.166166 0.108223
0.408134 0.174859 0.114875
0.438210 0.184293 0.123096
0.470668 0.195625 0.132059
0.505639 0.209266 0.142861
0.538265 0.224823 0.156068
0.570312 0.240603 0.169076
0.597890 0.255887 0.181000
0.621562 0.271559 0.194202
0.642311 0.287621 0.206144
0.660518 0.303245 0.217308
0.676669 0.320895 0.228254
0.693222 0.338804 0.239014
0.706814 0.359003 0.250196
0.721488 0.377258 0.260786
0.734498 0.397702 0.271880
0.747662 0.418094 0.284785
0.111568 0.114924 0.063342
0.120509 0.119122 0.065310
0.131617 0.119919 0.066302
0.142846 0.121622 0.067671
0.155109 0.125723 0.069281
0.166948 0.127219 0.070776
0.181773 0.131598 0.073302
0.197227 0.134441 0.077390
0.213724 0.138460 0.080421
0.232290 0.142426 0.083587
0.256285 0.148904 0.087299
0.283777 0.155809 0.091755
0.310345 0.162906 0.097328
0.334864 0.170181 0.103491
0.359083 0.178047 0.109207
0.384580 0.186242 0.114761
0.412016 0.194179 0.121990
0.442245 0.204634 0.130544
0.475391 0.217705 0.140717
0.509522 0.232011 0.152900
0.542501 0.247481 0.165591
0.574918 0.264282 0.179547
0.601343 0.280582 0.192103
0.623969 0.296241 0.205130
0.644838 0.312543 0.216689
0.663389 0.330079 0.227870
0.680624 0.347737 0.239066
0.695988 0.365379 0.248106
0.711103 0.383138 0.258344
0.724282 0.400265 0.268463
0.737306 0.419627 0.280429
0.751018 0.439773 0.289700
0.126094 0.140935 0.069629
0.133151 0.141397 0.073290
0.140975 0.142262 0.074051
0.149534 0.145995 0.075577
0.160431 0.147516 0.076785
0.172691 0.149505 0.078798
0.188546 0.154465 0.081262
0.202959 0.158379 0.083393
0.218423 0.161475 0.085522
0.237772 0.167025 0.088737
0.262143 0.172697 0.092874
0.289754 0.179752 0.098984
0.315305 0.186711 0.105639
0.340162 0.194336 0.110911
0.364337 0.202430 0.116871
0.389221 0.210622 0.123765
0.416373 0.219681 0.130693
0.445859 0.230344 0.139663
0.478719 0.244887 0.151767
0.513868 0.259801 0.164473
0.547111 0.276365 0.177698
0.579360 0.293670 0.191887
0.605694 0.309660 0.204620
0.628453 0.325058 0.217267
0.649083 0.342698 0.228163
0.667434 0.359970 0.238829
0.684932 0.375154 0.249170
0.699295 0.391651 0.259243
0.714041 0.408624 0.268631
0.727683 0.425250 0.278508
0.740527 0.441457 0.285967
0.754799 0.461877 0.297877
0.142550 0.167537 0.079334
0.146534 0.168086 0.079898
0.151633 0.168994 0.080575
0.158462 0.169831 0.081340
0.167233 0.173586 0.082759
0.179971 0.175795 0.084460
0.193742 0.180500 0.086793
0.207970 0.183916 0.088847
0.223692 0.187970 0.091435
0.243870 0.193430 0.095334
0.268577 0.199213 0.100769
0.296606 0.206669 0.107909
0.321499 0.214277 0.113121
0.345129 0.222160 0.119137
0.368234 0.230492 0.126110
0.393262 0.239623 0.132926
0.420080 0.250743 0.140676
0.450100 0.262767 0.150943
0.483500 0.276427 0.163039
0.518326 0.291670 0.175953
0.551661 0.308503 0.189661
0.583532 0.325547 0.204022
0.609981 0.341126 0.217133
0.632717 0.356021 0.228529
0.652369 0.372135 0.239903
0.671639 0.387392 0.250691
0.687955 0.401905 0.260155
0.703580 0.415432 0.269038
0.717964 0.431289 0.276815
0.731278 0.447813 0.285879
0.744546 0.464582 0.294772
0.758856 0.486652 0.305274
0.156603 0.198417 0.086707
0.160927 0.199645 0.087347
0.166664 0.202061 0.088393
0.172027 0.203321 0.089186
0.179351 0.205254 0.090346
0.188808 0.209131 0.092130
0.200066 0.212404 0.094163
0.213146 0.215690 0.096924
0.229193 0.220898 0.100537
0.249604 0.226562 0.105692
0.274495 0.232836 0.111107
0.302528 0.240449 0.116952
0.326388 0.248147 0.123057
0.349927 0.256703 0.129986
0.373569 0.265177 0.136630
0.398035 0.274829 0.143776
0.424788 0.285591 0.152598
0.455205 0.297692 0.163543
0.488678 0.311320 0.175895
0.522938 0.326418 0.188924
0.556371 0.342088 0.202991
0.588297 0.357908 0.216825
0.614376 0.372308 0.229566
0.636347 0.386182 0.240617
0.656845 0.399435 0.250803
0.675209 0.413211 0.261075
0.691761 0.428136 0.269328
0.707542 0.442268 0.277987
0.722617 0.457800 0.286959
0.736417 0.474694 0.295856
0.749591 0.492894 0.303448
0.765788 0.513750 0.311576
0.172642 0.237922 0.096751
0.176102 0.238208 0.097020
0.179870 0.239628 0.097843
0.186199 0.242023 0.099135
0.193270 0.243959 0.101108
0.200714 0.247520 0.102929
0.209967 0.249685 0.105078
0.221156 0.254275 0.108951
0.236047 0.258894 0.112637
0.256153 0.264614 0.116659
0.280461 0.271119 0.121595
0.307598 0.278527 0.128648
0.331878 0.285948 0.135697
0.354787 0.293537 0.141242
0.377932 0.301637 0.147836
0.403260 0.311073 0.156070
0.430399 0.320818 0.164966
0.460718 0.332675 0.175707
0.494740 0.345628 0.188475
0.529080 0.359836 0.201938
0.561580 0.373948 0.215551
0.593258 0.388090 0.229351
0.619468 0.401989 0.241309
0.641244 0.415607 0.251910
0.661532 0.428010 0.261617
0.680123 0.441842 0.271287
0.696673 0.457157 0.280266
0.712538 0.472895 0.289148
0.726902 0.488919 0.297104
0.741390 0.504309 0.304669
0.758040 0.521656 0.311810
0.777400 0.537398 0.315798
0.180677 0.277640 0.108204
0.184046 0.277987 0.108567
0.187808 0.281114 0.109798
0.192645 0.281703 0.110680
0.199041 0.283378 0.113509
0.206549 0.286715 0.115415
0.214875 0.289127 0.117635
0.226188 0.292818 0.120082
0.241262 0.297542 0.123304
0.262149 0.303058 0.128065
0.287516 0.309522 0.134081
0.314287 0.316625 0.141280
0.337467 0.323115 0.147083
0.359773 0.329908 0.153191
0.383095 0.337595 0.160324
0.408304 0.346489 0.168383
0.436321 0.356625 0.177661
0.467280 0.367765 0.188400
0.501434 0.380553 0.201449
0.535641 0.394358 0.215416
0.567718 0.408083 0.228950
0.598787 0.422455 0.242366
0.624948 0.436562 0.254029
0.646961 0.449554 0.264514
0.666521 0.462872 0.274351
0.684716 0.477737 0.284090
0.701676 0.490973 0.291568
0.718094 0.505758 0.299145
0.734077 0.520055 0.306908
0.750559 0.531317 0.311138
0.768387 0.544946 0.315335
0.786790 0.557612 0.318335
0.179353 0.317011 0.120438
0.182857 0.317316 0.121037
0.185713 0.319170 0.121797
0.190482 0.319845 0.122659
0.195130 0.322176 0.123873
0.203132 0.324583 0.125422
0.212236 0.327281 0.127321
0.225777 0.330919 0.130365
0.245372 0.336017 0.135450
0.268872 0.341455 0.141490
0.294578 0.348296 0.147725
0.320384 0.355453 0.153809
0.342822 0.362276 0.160333
0.365290 0.369519 0.167337
0.388828 0.377218 0.174009
0.414067 0.386128 0.182334
0.442738 0.395939 0.192039
0.474930 0.407082 0.202899
0.509255 0.420430 0.216051
0.542638 0.434171 0.229504
0.574919 0.448180 0.243081
0.605376 0.462765 0.256244
0.631146 0.475894 0.267529
0.653242 0.488670 0.277063
0.672634 0.501314 0.286135
0.690958 0.513380 0.294508
0.708702 0.525494 0.302292
0.726936 0.536793 0.307459
0.745032 0.547293 0.311597
0.762569 0.556036 0.315471
0.779327 0.567244 0.318464
0.796873 0.578605 0.320611
0.171980 0.355579 0.129670
0.175423 0.356434 0.130512
0.176374 0.357818 0.130990
0.180101 0.359133 0.131737
0.185233 0.360835 0.133101
0.193829 0.363300 0.135641
0.206326 0.366618 0.138669
0.226308 0.371089 0.143257
0.249936 0.376781 0.149764
0.275115 0.382733 0.155004
0.300306 0.389432 0.161064
0.325084 0.396424 0.168080
0.347383 0.403832 0.174796
0.369917 0.411391 0.181254
0.393947 0.418736 0.188668
0.420028 0.427458 0.197287
0.449903 0.437773 0.207090
0.482795 0.449525 0.218733
0.517153 0.461337 0.231386
0.550700 0.473214 0.243855
0.582061 0.485691 0.255863
0.611844 0.498713 0.267917
0.637788 0.510681 0.278864
0.659518 0.521957 0.287548
0.679308 0.532423 0.295466
0.698380 0.541486 0.301550
0.718193 0.551152 0.307049
0.737402 0.559406 0.311733
0.755445 0.568881 0.314713
0.773114 0.577469 0.317904
0.789761 0.586994 0.320157
0.807334 0.598488 0.323006
0.142574 0.395746 0.138099
0.147218 0.397773 0.139297
0.150573 0.398221 0.139915
0.157207 0.400575 0.141893
0.169349 0.402409 0.144262
0.185150 0.405109 0.148337
0.205825 0.409744 0.153125
0.229543 0.414167 0.157980
0.255046 0.419773 0.164191
0.279550 0.425366 0.169836
0.304410 0.431557 0.175888
0.328933 0.438276 0.182896
0.351381 0.445349 0.189203
0.374744 0.452310 0.196036
0.399635 0.459231 0.203047
0.427023 0.467351 0.211179
0.458167 0.477117 0.221401
0.491676 0.487791 0.232981
0.525974 0.498320 0.244792
0.558708 0.508780 0.256767
0.589577 0.519733 0.268150
0.618829 0.531159 0.278829
0.644396 0.541226 0.287896
0.666724 0.550400 0.295547
0.688232 0.558972 0.301938
0.709670 0.566832 0.306581
0.730072 0.574422 0.310364
0.749264 0.582300 0.314231
0.767116 0.590585 0.317622
0.784382 0.599480 0.320350
0.801193 0.608112 0.321599
0.818323 0.618614 0.324463
0.130568 0.433904 0.149521
0.138027 0.436480 0.151247
0.146240 0.437303 0.152605
0.157945 0.439101 0.155424
0.175318 0.441089 0.158358
0.194780 0.445247 0.162332
0.215106 0.448622 0.166795
0.237812 0.453007 0.171888
0.261416 0.457606 0.178274
0.285218 0.463364 0.184433
0.309720 0.468817 0.189993
0.333979 0.475128 0.196100
0.356701 0.481240 0.202724
0.380656 0.487886 0.209548
0.406822 0.494839 0.216232
0.435672 0.502667 0.224752
0.467750 0.511823 0.234884
0.501857 0.521283 0.246096
0.535718 0.531489 0.257716
0.567588 0.541680 0.268616
0.597707 0.551444 0.278877
0.626669 0.561114 0.288426
0.652741 0.569656 0.295690
0.677453 0.576986 0.301177
0.700815 0.584181 0.306072
0.722306 0.591585 0.310047
0.742644 0.599033 0.313431
0.761384 0.606152 0.316403
0.779012 0.613232 0.319314
0.795421 0.621670 0.321769
0.812250 0.630645 0.322758
0.829052 0.639679 0.324589
0.152357 0.470503 0.164229
0.159487 0.473685 0.166130
0.167290 0.474466 0.168223
0.178341 0.475616 0.170039
0.191001 0.477219 0.172429
0.206462 0.480995 0.176484
0.224561 0.484160 0.180751
0.246151 0.488532 0.185625
0.269381 0.492988 0.191332
0.292357 0.498066 0.197351
0.316213 0.502982 0.203290
0.340223 0.509060 0.209477
0.363547 0.514750 0.215293
0.388181 0.521509 0.222102
0.415321 0.528678 0.229859
0.445367 0.536636 0.238485
0.478686 0.545585 0.248125
0.513139 0.554785 0.258874
0.546435 0.564289 0.269890
0.577477 0.573774 0.279698
0.608078 0.582343 0.288504
0.638056 0.590029 0.295875
0.665467 0.597318 0.301365
0.691213 0.603689 0.305477
0.714508 0.610298 0.309827
0.735213 0.616448 0.312795
0.754986 0.623407 0.315628
0.773463 0.630486 0.318216
0.790545 0.637323 0.320211
0.807296 0.644247 0.322999
0.823269 0.652525 0.323774
0.839757 0.660719 0.324408
0.164331 0.504912 0.178219
0.168753 0.506862 0.179364
0.174548 0.508529 0.181449
0.182968 0.510151 0.183135
0.195335 0.511559 0.185362
0.211735 0.514343 0.189271
0.233127 0.518955 0.194441
0.255197 0.522595 0.199140
0.278037 0.527669 0.204814
0.299842 0.531864 0.210533
0.322934 0.536854 0.216365
0.347119 0.542558 0.222134
0.371141 0.548509 0.228178
0.397048 0.554877 0.235202
0.425400 0.562054 0.243358
0.456816 0.570349 0.251479
0.491046 0.579103 0.260664
0.525674 0.587990 0.271145
0.558766 0.596485 0.281185
0.590553 0.604434 0.288866
0.622341 0.611246 0.294908
0.652932 0.617834 0.300356
0.680197 0.623847 0.304772
0.705553 0.630246 0.308815
0.727969 0.636335 0.312157
0.748040 0.641066 0.315015
0.767293 0.647627 0.317157
0.785470 0.653917 0.319822
0.802291 0.660071 0.320939
0.819136 0.666816 0.324101
0.833775 0.673500 0.324054
0.850471 0.681768 0.325164
0.150286 0.537264 0.188011
0.159625 0.538106 0.189519
0.169373 0.540075 0.192166
0.183325 0.542152 0.194923
0.200770 0.544954 0.198165
0.220648 0.547523 0.201928
0.242853 0.552077 0.207967
0.265094 0.555840 0.212605
0.286490 0.560392 0.217787
0.308023 0.564467 0.223363
0.331087 0.569569 0.229280
0.356013 0.575138 0.235327
0.380522 0.580907 0.241200
0.407561 0.586888 0.247842
0.437594 0.594504 0.256040
0.470360 0.602947 0.264456
0.504826 0.611310 0.272945
0.540062 0.619154 0.281465
0.574929 0.626291 0.289034
0.607873 0.632402 0.294428
0.639238 0.638331 0.299436
0.669515 0.644199 0.304273
0.695476 0.649257 0.307618
0.719333 0.655074 0.310975
0.741581 0.660534 0.313502
0.761052 0.665128 0.316539
0.779700 0.670345 0.318065
0.797186 0.675888 0.321005
0.813619 0.681195 0.321835
0.829393 0.687105 0.323471
0.843975 0.693623 0.324061
0.859585 0.701083 0.324983
0.174454 0.570586 0.203687
0.184448 0.571557 0.205385
0.193915 0.572692 0.207570
0.206635 0.574879 0.210040
0.221261 0.578143 0.213156
0.237666 0.580218 0.216290
0.255607 0.583232 0.220993
0.276430 0.587677 0.225603
0.296554 0.591151 0.230439
0.317883 0.595380 0.235735
0.341488 0.600512 0.241536
0.367195 0.605972 0.247681
0.392444 0.611310 0.253536
0.420424 0.617968 0.260263
0.451908 0.625684 0.268540
0.486300 0.633517 0.276332
0.522758 0.640685 0.283040
0.559117 0.647007 0.288528
0.593817 0.652800 0.293887
0.626020 0.658159 0.298752
0.656243 0.663531 0.303540
0.685545 0.668589 0.307230
0.710329 0.673306 0.309845
0.732923 0.678188 0.312319
0.754167 0.682929 0.314500
0.773588 0.687380 0.317172
0.791188 0.691362 0.318881
0.808439 0.696861 0.321131
0.824655 0.701485 0.322291
0.839698 0.707230 0.322708
0.853790 0.712233 0.323424
0.868392 0.718839 0.323550
0.203041 0.600930 0.219284
0.208434 0.601599 0.220256
0.215084 0.604294 0.221891
0.224938 0.605987 0.223727
0.237950 0.608062 0.226421
0.252993 0.609957 0.230216
0.269857 0.612441 0.233655
0.289813 0.617357 0.238142
0.309339 0.620228 0.242208
0.330584 0.624499 0.246891
0.354093 0.629564 0.252931
0.380393 0.634895 0.259645
0.407128 0.640317 0.265655
0.436771 0.647352 0.272381
0.470399 0.654236 0.279263
0.507701 0.660686 0.285223
0.545098 0.666574 0.289688
0.580542 0.672083 0.293684
0.613367 0.676985 0.298105
0.643877 0.681540 0.302588
0.673079 0.686311 0.306566
0.700558 0.691033 0.308831
0.725305 0.695668 0.311387
0.746851 0.699677 0.313662
0.766757 0.703643 0.315475
0.786178 0.707753 0.317710
0.803324 0.711725 0.319336
0.819605 0.716189 0.320270
0.835022 0.720018 0.320887
0.850827 0.726358 0.322711
0.863420 0.730171 0.322833
0.877522 0.736035 0.322084
0.221474 0.630139 0.232581
0.227080 0.630845 0.233514
0.233495 0.632784 0.234915
0.243076 0.634967 0.236883
0.256406 0.636645 0.239321
0.270522 0.638500 0.242362
0.288026 0.641356 0.245649
0.306306 0.644832 0.249484
0.325579 0.648702 0.254598
0.346709 0.652708 0.259101
0.370805 0.657588 0.265076
0.398081 0.663237 0.272161
0.426967 0.668761 0.277216
0.460320 0.674324 0.281811
0.496237 0.680200 0.287115
0.533587 0.685383 0.291845
0.568772 0.690278 0.294570
0.602026 0.695537 0.297750
0.633584 0.700214 0.301339
0.662612 0.704173 0.304646
0.689602 0.708285 0.308188
0.715653 0.712528 0.310119
0.739766 0.716740 0.312575
0.760572 0.720631 0.314251
0.780397 0.724597 0.315853
0.798049 0.727360 0.317249
0.814762 0.731088 0.318912
0.830823 0.734772 0.319398
0.846037 0.738454 0.319857
0.860762 0.743200 0.320875
0.872856 0.748031 0.320942
0.886344 0.752294 0.319721
0.249147 0.659230 0.245713
0.253291 0.659656 0.246390
0.259530 0.660559 0.247461
0.268919 0.663547 0.249662
0.281221 0.665280 0.253436
0.293804 0.666988 0.255870
0.309852 0.669645 0.258735
0.327613 0.672364 0.262020
0.346281 0.676668 0.266640
0.367237 0.680406 0.271799
0.392648 0.685055 0.277320
0.423937 0.689836 0.281880
0.456234 0.694806 0.284878
0.490860 0.699635 0.288164
0.526690 0.704562 0.292738
0.561351 0.709004 0.296302
0.594227 0.713797 0.298530
0.625395 0.718428 0.301050
0.654393 0.722611 0.303884
0.681469 0.726276 0.306304
0.707165 0.730377 0.308884
0.732004 0.733801 0.310888
0.753879 0.737109 0.312738
0.773997 0.741121 0.314336
0.793270 0.744044 0.315250
0.810247 0.746839 0.316403
0.826561 0.750378 0.317170
0.842575 0.754077 0.317628
0.857278 0.757400 0.317894
0.870821 0.761133 0.317762
0.883325 0.765287 0.318232
0.895333 0.768837 0.318350
0.276734 0.685289 0.258931
0.281933 0.685903 0.259798
0.288054 0.686750 0.260835
0.295628 0.689013 0.262458
0.307070 0.691708 0.265354
0.319323 0.693445 0.267545
0.334379 0.695482 0.270182
0.352215 0.698286 0.274173
0.371619 0.702419 0.278143
0.395328 0.705026 0.281402
0.423436 0.708640 0.284876
0.456338 0.713162 0.287808
0.489148 0.717365 0.289991
0.522299 0.721640 0.293089
0.555695 0.726462 0.297273
0.588053 0.730771 0.299844
0.618709 0.734703 0.301487
0.647490 0.738857 0.303518
0.674312 0.742612 0.305708
0.699386 0.745906 0.307468
0.723800 0.749904 0.308761
0.747077 0.752917 0.310942
0.767441 0.755879 0.312075
0.786669 0.759495 0.313338
0.805325 0.762023 0.314594
0.822364 0.765105 0.315328
0.838446 0.768455 0.316316
0.852980 0.770962 0.316456
0.866646 0.774059 0.316139
0.880027 0.777299 0.316363
0.892510 0.780811 0.316419
0.903888 0.784340 0.315767
0.307259 0.711332 0.270731
0.313058 0.712082 0.271722
0.317136 0.712691 0.272232
0.325424 0.713931 0.273686
0.335278 0.715476 0.275362
0.348670 0.716679 0.278020
0.365138 0.718328 0.280165
0.384907 0.721680 0.282594
0.405677 0.724140 0.285021
0.431247 0.726801 0.287466
0.459909 0.730463 0.290168
0.492127 0.734162 0.292249
0.523032 0.738350 0.293932
0.553373 0.742047 0.296827
0.583865 0.746234 0.300455
0.613601 0.750379 0.302370
0.641447 0.753721 0.303570
0.667767 0.757698 0.304533
0.693221 0.761280 0.305404
0.717000 0.764378 0.307328
0.739544 0.767350 0.308718
0.761510 0.770289 0.309917
0.781753 0.773613 0.311551
0.799087 0.776049 0.312171
0.817288 0.778960 0.312515
0.833662 0.781490 0.313820
0.848294 0.784288 0.314278
0.862185 0.787335 0.313939
0.876418 0.789605 0.313934
0.888340 0.792209 0.313888
0.900825 0.795859 0.313472
0.912025 0.799393 0.312781
0.345701 0.734208 0.281067
0.349607 0.734578 0.281484
0.355458 0.735089 0.281766
0.363159 0.735726 0.282511
0.375256 0.736563 0.283431
0.388946 0.737876 0.284755
0.405625 0.740672 0.286334
0.423995 0.742684 0.287837
0.446424 0.744818 0.289922
0.470701 0.747971 0.291995
0.498440 0.751211 0.293607
0.529176 0.754889 0.295627
0.557178 0.758509 0.297262
0.584488 0.762036 0.300392
0.612033 0.765426 0.302395
0.639461 0.769324 0.303757
0.664218 0.772405 0.304501
0.688289 0.775626 0.304968
0.711739 0.778683 0.305416
0.734104 0.782182 0.305879
0.755210 0.784683 0.306715
0.776230 0.787668 0.308453
0.794656 0.790167 0.309486
0.811407 0.792789 0.309449
0.827981 0.795131 0.310703
0.843770 0.797942 0.311291
0.858906 0.799963 0.310976
0.872624 0.802893 0.310646
0.885222 0.804487 0.310828
0.896266 0.807254 0.310446
0.908398 0.809152 0.309945
0.918957 0.812628 0.309441
0.390815 0.755099 0.286620
0.396678 0.755549 0.287069
0.401101 0.755863 0.287337
0.410234 0.756391 0.287865
0.420631 0.757153 0.288646
0.434195 0.758384 0.289661
0.450442 0.761573 0.291075
0.468618 0.763255 0.292844
0.490415 0.765308 0.294427
0.512885 0.768496 0.296089
0.537521 0.771238 0.296682
0.564319 0.774673 0.297845
0.589706 0.777777 0.300151
0.615023 0.780897 0.302596
0.639452 0.783961 0.303587
0.663303 0.787145 0.304018
0.685954 0.789966 0.304649
0.708409 0.792906 0.305015
0.730399 0.796341 0.304758
0.750736 0.799126 0.305113
0.769886 0.801025 0.305616
0.789495 0.803696 0.306137
0.807834 0.806006 0.306213
0.824486 0.808609 0.306413
0.838942 0.810498 0.307747
0.854181 0.813400 0.307913
0.867623 0.814747 0.307621
0.880745 0.816411 0.308905
0.893468 0.818807 0.307011
0.905399 0.820676 0.306330
0.915959 0.823114 0.305825
0.926299 0.826610 0.303352
0.441908 0.775564 0.291110
0.447964 0.776265 0.291607
0.452043 0.776546 0.291888
0.461235 0.777246 0.292587
0.470850 0.777817 0.293216
0.481861 0.778676 0.294409
0.497695 0.780514 0.295402
0.514801 0.783663 0.295985
0.534028 0.785046 0.296536
0.553846 0.787328 0.298041
0.575468 0.790691 0.297819
0.598864 0.793003 0.298407
0.620908 0.795896 0.300548
0.643670 0.798835 0.303192
0.665750 0.801648 0.304122
0.686938 0.804462 0.303427
0.707767 0.807235 0.303000
0.728457 0.809470 0.302958
0.748642 0.812264 0.302770
0.767217 0.814762 0.302630
0.785093 0.817452 0.302495
0.803358 0.819442 0.302588
0.819812 0.820955 0.302639
0.835939 0.823700 0.302534
0.849887 0.825316 0.304111
0.864643 0.827124 0.304219
0.878045 0.829489 0.303755
0.890599 0.830612 0.303779
0.901557 0.833703 0.302996
0.913338 0.834818 0.302454
0.923137 0.836085 0.301950
0.930994 0.838930 0.298799
0.494939 0.794281 0.295435
0.499058 0.794603 0.295513
0.504666 0.795065 0.295975
0.511620 0.795626 0.296309
0.521391 0.798275 0.296798
0.531538 0.799105 0.297107
0.544729 0.800323 0.297005
0.558605 0.801857 0.296829
0.575189 0.804379 0.296988
0.592076 0.806127 0.298093
0.611783 0.808376 0.298693
0.633297 0.811200 0.299858
0.652674 0.813299 0.301224
0.672289 0.815797 0.302137
0.691932 0.818583 0.302328
0.711084 0.820670 0.302448
0.728994 0.823113 0.301049
0.746844 0.825011 0.299682
