gsg/04_Specialty/GSG_LUT_Specialty_BrightBrightBlue.cube
# GSG LUTs 1.0
# Copyright (c) 2016-2020 Greyscalegorilla
# See EULA for licensing and distribution information
# Converted by Briz LUT Converter
LUT_3D_SIZE 8
DOMAIN_MIN 0.000000 0.000000 0.000000
DOMAIN_MAX 0.903226 0.903226 0.903226
0.000000 0.000000 0.000000
0.144094 0.022183 0.060798
0.288621 0.045469 0.111072
0.434409 0.070345 0.146142
0.546331 0.090267 0.161188
0.593611 0.098822 0.164244
0.718595 0.121943 0.162779
0.837276 0.143629 0.150049
0.066816 0.139667 0.089692
0.170786 0.145811 0.111567
0.306699 0.157840 0.139902
0.448288 0.174103 0.159619
0.558218 0.188704 0.165204
0.604682 0.195190 0.164629
0.728133 0.213636 0.155601
0.845960 0.231793 0.137267
0.120903 0.285517 0.148300
0.208232 0.290929 0.155704
0.333932 0.301524 0.163518
0.469722 0.315845 0.163894
0.576517 0.328789 0.156777
0.621827 0.334586 0.151654
0.743393 0.350765 0.132180
0.859752 0.366434 0.107046
0.163496 0.495411 0.159463
0.244311 0.500906 0.155437
0.362613 0.511552 0.144864
0.493095 0.525215 0.126840
0.597282 0.537122 0.107787
0.642052 0.542402 0.098602
0.762159 0.556404 0.072089
0.878512 0.568990 0.048979
0.170082 0.634708 0.128694
0.252598 0.640088 0.120706
0.370460 0.650234 0.104342
0.500658 0.663301 0.081454
0.604882 0.674215 0.061003
0.649738 0.678814 0.051970
0.772476 0.689587 0.046711
0.892804 0.696684 0.075026
0.164307 0.745055 0.090614
0.250932 0.750202 0.081606
0.370485 0.759841 0.064445
0.502424 0.771574 0.045195
0.610154 0.779739 0.048128
0.656828 0.782678 0.053688
0.782626 0.789614 0.096135
0.904691 0.794274 0.111795
0.154697 0.824192 0.060451
0.245887 0.829083 0.051928
0.369114 0.837567 0.044299
0.505810 0.846285 0.053719
0.615408 0.852587 0.089256
0.662633 0.854945 0.099426
0.789783 0.860053 0.112725
0.912913 0.863463 0.118629
0.146788 0.908275 0.045744
0.243785 0.911907 0.049461
0.370745 0.918231 0.067128
0.509733 0.924928 0.101943
0.620694 0.929670 0.111891
0.668352 0.931600 0.114805
0.796786 0.935571 0.119222
0.920708 0.938209 0.118797
0.021387 0.010327 0.121817
0.148674 0.026519 0.147776
0.291701 0.048738 0.186017
0.436732 0.073158 0.220236
0.548379 0.092922 0.239119
0.595415 0.101379 0.244528
0.720154 0.124290 0.251181
0.838804 0.145677 0.246983
0.073075 0.141711 0.168513
0.174564 0.147828 0.186521
0.309417 0.159864 0.213592
0.450222 0.176001 0.236846
0.559871 0.190617 0.247835
0.606225 0.197227 0.250200
0.729655 0.215604 0.249483
0.847244 0.233591 0.239488
0.123920 0.287132 0.222718
0.210697 0.292688 0.231556
0.335733 0.303281 0.243466
0.471117 0.317641 0.250573
0.577738 0.330549 0.249943
0.623083 0.336323 0.247654
0.744433 0.352365 0.235986
0.860785 0.367913 0.217628
0.164398 0.497196 0.250449
0.245212 0.502625 0.249184
0.363432 0.513167 0.243918
0.493765 0.526866 0.232255
0.597952 0.538676 0.218172
0.642625 0.543937 0.210847
0.762829 0.557838 0.187855
0.879347 0.570077 0.170660
0.169955 0.636268 0.233615
0.252613 0.641767 0.228022
0.370622 0.651980 0.215568
0.500902 0.664799 0.196501
0.605248 0.675621 0.177765
0.650140 0.680251 0.168823
0.773212 0.690393 0.178178
0.893593 0.697215 0.189035
0.163610 0.746615 0.204324
0.250455 0.751806 0.196608
0.370263 0.761369 0.181036
0.502693 0.772793 0.168729
0.610674 0.780677 0.180053
0.657340 0.783659 0.184081
0.783371 0.790182 0.193076
0.905466 0.794612 0.200209
0.153664 0.825909 0.177356
0.245346 0.830633 0.168893
0.369323 0.838785 0.172948
0.506145 0.847216 0.184044
0.615912 0.853275 0.191211
0.663071 0.855520 0.194043
0.790358 0.860530 0.200756
0.913671 0.863741 0.205253
0.146567 0.909531 0.177394
0.243756 0.912961 0.181404
0.370972 0.919077 0.188078
0.509989 0.925607 0.195078
0.621162 0.930200 0.200256
0.668862 0.932092 0.202206
0.797306 0.935911 0.205798
0.921247 0.938459 0.206347
0.041616 0.020718 0.241577
0.157068 0.034101 0.259742
0.297239 0.054685 0.288912
0.440978 0.078262 0.317483
0.551986 0.097601 0.334909
0.598834 0.106038 0.340455
0.723194 0.128473 0.349310
0.841372 0.149561 0.349547
0.083445 0.145260 0.275221
0.181298 0.151456 0.289416
0.314192 0.163613 0.311793
0.453989 0.179768 0.332608
0.563074 0.194333 0.344099
0.609170 0.200843 0.347331
0.732211 0.219193 0.350341
0.849588 0.236901 0.346090
0.129513 0.290409 0.319744
0.214993 0.295876 0.327738
0.339119 0.306613 0.339358
0.473760 0.320919 0.348052
0.580022 0.333805 0.350341
0.625309 0.339595 0.349834
0.746460 0.355412 0.344189
0.862676 0.370722 0.333407
0.165811 0.500398 0.349870
0.246595 0.505940 0.350048
0.364629 0.516444 0.348206
0.494920 0.529954 0.342010
0.599056 0.541709 0.333686
0.643718 0.546821 0.329139
0.763962 0.560440 0.315078
0.880722 0.571984 0.304028
0.169679 0.639600 0.342819
0.252731 0.644870 0.339589
0.370862 0.654951 0.332083
0.501230 0.667680 0.320348
0.605704 0.678246 0.309018
0.650794 0.682640 0.304844
0.774521 0.692030 0.305488
0.895246 0.698257 0.309816
0.162093 0.749703 0.325095
0.249766 0.754783 0.320401
0.369988 0.764165 0.310918
0.503194 0.774983 0.303899
0.611682 0.782361 0.305971
0.658356 0.785088 0.307417
0.784619 0.791197 0.312231
0.907011 0.795171 0.317515
0.151592 0.828735 0.308727
0.244279 0.833394 0.304250
0.369576 0.840911 0.304409
0.506786 0.848939 0.307347
0.616699 0.854569 0.311067
0.664004 0.856641 0.312916
0.791570 0.861349 0.318062
0.914938 0.864250 0.322251
0.146764 0.911606 0.305227
0.243739 0.914956 0.306412
0.371216 0.920822 0.309257
0.510493 0.926920 0.313618
0.621818 0.931241 0.317534
0.669636 0.932908 0.319221
0.798314 0.936444 0.322823
0.922280 0.938942 0.324360
0.073945 0.038788 0.444500
0.175086 0.049611 0.457575
0.309778 0.068186 0.478884
0.450650 0.090420 0.501026
0.560132 0.108833 0.515294
0.606491 0.116919 0.520172
0.729946 0.138556 0.529006
0.847280 0.158596 0.531608
0.104114 0.154047 0.468777
0.195705 0.160404 0.479375
0.324575 0.172537 0.496464
0.462132 0.188727 0.513409
0.570006 0.203160 0.523565
0.615853 0.209700 0.526681
0.738090 0.227440 0.531394
0.854858 0.244681 0.530757
0.140847 0.298248 0.502783
0.224246 0.303730 0.509320
0.346298 0.314506 0.519212
0.479497 0.328818 0.527684
0.585042 0.341533 0.531219
0.630067 0.347190 0.531664
0.750845 0.362681 0.529841
0.866824 0.377251 0.524394
0.168378 0.508212 0.530109
0.249452 0.513612 0.531121
0.367220 0.523920 0.531308
0.497265 0.537207 0.528835
0.601397 0.548549 0.524507
0.646017 0.553447 0.522092
0.766462 0.566200 0.514713
0.884524 0.575840 0.512698
0.168070 0.647170 0.529280
0.252474 0.652424 0.527669
0.371003 0.662096 0.523659
0.501817 0.674235 0.517265
0.607067 0.684025 0.512083
0.652998 0.687510 0.512051
0.777782 0.695263 0.514976
0.899070 0.700251 0.520226
0.158037 0.756871 0.519959
0.247649 0.761744 0.517350
0.369091 0.770531 0.512545
0.504724 0.779724 0.512816
0.613801 0.785970 0.515629
0.660794 0.788275 0.517293
0.787635 0.793276 0.523002
0.910449 0.796346 0.529226
0.147621 0.835192 0.511949
0.243948 0.839038 0.512032
0.370208 0.845615 0.513589
0.508215 0.852564 0.517305
0.618751 0.857349 0.521614
0.666241 0.859128 0.523774
0.794291 0.862856 0.529729
0.917850 0.865037 0.535192
0.148133 0.916319 0.514630
0.243461 0.919379 0.516132
0.371635 0.924399 0.519499
0.511677 0.929689 0.524562
0.623432 0.933442 0.529228
0.671346 0.934786 0.531237
0.800343 0.937792 0.536165
0.924563 0.939549 0.539399
0.093576 0.051558 0.581772
0.188018 0.061184 0.592769
0.319121 0.078665 0.611162
0.457883 0.099955 0.630390
0.566302 0.117878 0.643123
0.612360 0.125669 0.647522
0.734956 0.146454 0.656116
0.852086 0.165796 0.659727
0.118122 0.161629 0.602441
0.206053 0.167787 0.611463
0.332340 0.179999 0.626393
0.468401 0.196118 0.641469
0.575304 0.210469 0.650744
0.620768 0.216853 0.653830
0.742440 0.234318 0.658921
0.858896 0.250789 0.659742
0.148512 0.304825 0.631927
0.230773 0.310435 0.637784
0.351474 0.321179 0.646767
0.483757 0.335367 0.654786
0.588831 0.347959 0.658642
0.633706 0.353492 0.659464
0.754152 0.368536 0.659319
0.870042 0.382447 0.656324
0.169536 0.514719 0.657467
0.251146 0.520017 0.658688
0.368793 0.530214 0.659638
0.498842 0.543109 0.658817
0.602946 0.554029 0.656442
0.647680 0.558728 0.654986
0.768725 0.570465 0.651615
0.887777 0.578384 0.654274
0.166204 0.653401 0.659033
0.251770 0.658403 0.658192
0.370877 0.667872 0.655971
0.502087 0.679519 0.652099
0.608714 0.687967 0.651790
0.655045 0.690982 0.653075
0.780418 0.697525 0.658152
0.902186 0.701501 0.665178
0.154308 0.762658 0.653671
0.245652 0.767322 0.652123
0.369224 0.775165 0.651506
0.505999 0.783142 0.654687
0.615576 0.788586 0.659125
0.662773 0.790548 0.661464
0.790090 0.794684 0.668686
0.913228 0.796992 0.676103
0.146846 0.839723 0.651915
0.243808 0.843238 0.653026
0.370705 0.849029 0.656089
0.509429 0.855161 0.661478
0.620418 0.859290 0.666950
0.668100 0.860745 0.669607
0.796390 0.863867 0.676884
0.920190 0.865596 0.683298
0.148009 0.919831 0.657777
0.243099 0.922426 0.659829
0.371863 0.927002 0.664291
0.512513 0.931739 0.670614
0.624633 0.934960 0.676204
0.672673 0.936118 0.678618
0.802014 0.938608 0.684698
0.926265 0.939955 0.688946
0.105447 0.059955 0.672134
0.196561 0.069294 0.682217
0.325164 0.086148 0.699082
0.462799 0.106844 0.716980
0.570483 0.124340 0.728864
0.616291 0.131931 0.733137
0.738469 0.152255 0.741605
0.855197 0.170846 0.745606
0.126771 0.166990 0.691122
0.212837 0.173282 0.699354
0.337499 0.185517 0.713241
0.472405 0.201606 0.727287
0.578910 0.215729 0.736166
0.624243 0.221988 0.739190
0.745503 0.239104 0.744558
0.861765 0.255137 0.746268
0.153380 0.309591 0.718413
0.234912 0.315244 0.723841
0.354767 0.325976 0.732363
0.486478 0.340173 0.740186
0.591225 0.352523 0.744288
0.636029 0.358019 0.745309
0.756381 0.372610 0.746102
0.872271 0.386000 0.744592
0.169997 0.519241 0.742967
0.251918 0.524640 0.744364
0.369720 0.534650 0.745831
0.499796 0.547313 0.745908
0.603980 0.557959 0.744646
0.648702 0.562417 0.743737
0.770500 0.573208 0.743424
0.890258 0.579877 0.748526
0.164520 0.657679 0.746016
0.250906 0.662728 0.745661
0.370550 0.671964 0.744305
0.502387 0.683088 0.742531
0.610101 0.690494 0.745002
0.656548 0.693203 0.746814
0.782403 0.698796 0.753604
0.904447 0.702155 0.761787
0.151168 0.766702 0.742998
0.244379 0.771140 0.742456
0.369581 0.778099 0.744386
0.506857 0.785395 0.749152
0.616829 0.790258 0.754743
0.664205 0.792049 0.757474
0.791775 0.795558 0.765799
0.915112 0.797381 0.774206
0.146575 0.842778 0.745102
0.243743 0.846028 0.746851
0.370995 0.851336 0.750976
0.510211 0.856901 0.757464
0.621482 0.860570 0.763836
0.669164 0.861821 0.766856
0.797810 0.864532 0.774906
0.921754 0.865763 0.782221
0.147544 0.922116 0.753027
0.242853 0.924674 0.755579
0.372098 0.928775 0.760744
0.513042 0.933138 0.767979
0.625408 0.935854 0.774213
0.673599 0.937010 0.776840
0.803041 0.939123 0.783560
0.927506 0.940203 0.788664
0.113356 0.066092 0.736319
0.202466 0.075135 0.745631
0.329669 0.091520 0.761635
0.466155 0.111938 0.778723
0.573508 0.129084 0.790169
0.619103 0.136607 0.794242
0.740860 0.156375 0.802710
0.857458 0.174493 0.807006
0.132624 0.171216 0.754012
0.217456 0.177389 0.761900
0.341025 0.189586 0.775020
0.475320 0.205690 0.788627
0.581331 0.219587 0.797231
0.626566 0.225901 0.800263
0.747536 0.242679 0.805870
0.863698 0.258383 0.808139
0.156358 0.313331 0.779958
0.237667 0.318955 0.785225
0.357093 0.329676 0.793499
0.488471 0.343699 0.801274
0.592962 0.355839 0.805505
0.637733 0.361311 0.806657
0.757933 0.375673 0.808183
0.873836 0.388605 0.807583
0.170019 0.522819 0.804136
0.252278 0.528097 0.805609
0.370192 0.537972 0.807453
0.500345 0.550367 0.808166
0.604634 0.560800 0.807620
0.649466 0.565150 0.807218
0.771867 0.574901 0.809241
0.892031 0.580820 0.815641
0.162926 0.661034 0.808224
0.250239 0.665910 0.808176
0.370183 0.674969 0.807487
0.502881 0.685431 0.807544
0.611131 0.692219 0.811448
0.657773 0.694643 0.813787
0.783825 0.699804 0.821563
0.906201 0.702503 0.830642
0.148820 0.769727 0.806822
0.243965 0.773650 0.807460
0.369856 0.780180 0.810620
0.507621 0.786898 0.816513
0.617837 0.791382 0.822867
0.665233 0.792966 0.825943
0.793048 0.796085 0.835035
0.916507 0.797521 0.844003
0.147337 0.844815 0.811525
0.243735 0.847932 0.813786
0.371257 0.852876 0.818655
0.510759 0.857979 0.825972
0.622246 0.861362 0.832901
0.670129 0.862555 0.836071
0.798818 0.864871 0.844876
0.922955 0.865939 0.852598
0.147079 0.923888 0.821041
0.242460 0.926211 0.823853
0.372122 0.930050 0.829522
0.513354 0.933916 0.837326
0.625955 0.936618 0.844024
0.674124 0.937558 0.846894
0.803634 0.939410 0.854069
0.928292 0.940431 0.859504
0.121178 0.072850 0.804600
0.208397 0.081563 0.813581
0.334145 0.097509 0.828668
0.469794 0.117445 0.844903
0.576533 0.134318 0.855969
0.621970 0.141604 0.859987
0.743598 0.160928 0.868266
0.859942 0.178306 0.873197
0.138504 0.175714 0.821497
0.222296 0.182098 0.828911
0.344706 0.194297 0.841443
0.478297 0.210181 0.854424
0.583947 0.224051 0.862964
0.629123 0.230126 0.866008
0.749816 0.246610 0.871727
0.865885 0.261668 0.874720
0.159429 0.317407 0.846170
0.240449 0.323003 0.851314
0.359363 0.333674 0.859207
0.490403 0.347687 0.866989
0.594658 0.359713 0.871354
0.639437 0.364914 0.872806
0.759633 0.378922 0.874948
0.875513 0.391514 0.875437
0.169744 0.526710 0.869975
0.252580 0.531860 0.871675
0.370550 0.541636 0.873802
0.500921 0.553771 0.875118
0.605288 0.563803 0.875433
0.650403 0.567911 0.875881
0.773558 0.576719 0.880151
0.894046 0.581747 0.887905
0.161054 0.664642 0.875103
0.249274 0.669503 0.875349
0.369744 0.678113 0.875430
0.503634 0.687797 0.877759
0.612139 0.693970 0.882959
0.658977 0.696188 0.885761
0.785425 0.700713 0.894674
0.907979 0.702857 0.904666
0.147625 0.772681 0.876176
0.243948 0.776355 0.877790
0.370277 0.782241 0.882001
0.508298 0.788453 0.888863
0.618886 0.792509 0.896050
0.666328 0.793913 0.899473
0.794385 0.796597 0.909309
0.918002 0.797692 0.918934
0.147998 0.847125 0.882965
0.243571 0.849943 0.885704
0.371514 0.854539 0.891311
0.511442 0.859172 0.899465
0.623050 0.862259 0.907041
0.670936 0.863287 0.910530
0.799865 0.865209 0.919817
0.924036 0.865958 0.928100
0.146392 0.925661 0.893842
0.242168 0.927736 0.897129
0.372122 0.931283 0.903478
0.513717 0.934839 0.911795
0.626460 0.937258 0.919038
0.674684 0.938068 0.922069
0.804348 0.939683 0.929748
0.929056 0.940455 0.935730
