gsg/04_Specialty/GSG_LUT_Specialty_MilkedOutGreen.cube
# GSG LUTs 1.0
# Copyright (c) 2016-2020 Greyscalegorilla
# See EULA for licensing and distribution information
# Converted by Briz LUT Converter
LUT_3D_SIZE 32
0.113797 0.148718 0.159219
0.117838 0.148978 0.159219
0.122250 0.149514 0.159266
0.128599 0.150546 0.160046
0.135594 0.151837 0.161086
0.144031 0.153389 0.162385
0.153389 0.155248 0.163945
0.164197 0.157517 0.165765
0.176045 0.159849 0.167907
0.189074 0.162511 0.170428
0.203427 0.165536 0.173028
0.218819 0.168648 0.175887
0.235488 0.171925 0.178912
0.253448 0.175407 0.182142
0.272717 0.179188 0.185671
0.293426 0.183205 0.189318
0.315483 0.187365 0.193099
0.338887 0.191666 0.197148
0.363732 0.196203 0.201434
0.390185 0.200890 0.205719
0.417976 0.205680 0.210319
0.447280 0.210635 0.215109
0.478144 0.215849 0.219898
0.510670 0.221324 0.225050
0.544826 0.226870 0.230155
0.580346 0.232416 0.235590
0.617984 0.238371 0.241136
0.656899 0.244208 0.246894
0.698176 0.250447 0.252692
0.739998 0.256749 0.258718
0.785151 0.263287 0.265005
0.830281 0.269841 0.271306
0.120855 0.162574 0.164512
0.124889 0.162826 0.164497
0.129079 0.163103 0.164314
0.135626 0.163889 0.165055
0.142440 0.164953 0.165836
0.151089 0.166504 0.166921
0.160495 0.168308 0.168427
0.171499 0.170373 0.170048
0.183412 0.172703 0.172059
0.196631 0.175286 0.174215
0.210992 0.178053 0.176728
0.226563 0.180997 0.179330
0.243644 0.184269 0.182194
0.261868 0.187648 0.185313
0.281401 0.191177 0.188586
0.302371 0.194939 0.192095
0.324814 0.198964 0.195746
0.348605 0.203127 0.199539
0.373859 0.207550 0.203564
0.400679 0.212084 0.207744
0.428897 0.216774 0.212176
0.458881 0.221721 0.216708
0.490342 0.226760 0.221413
0.523394 0.231977 0.226376
0.558073 0.237268 0.231415
0.594309 0.242759 0.236647
0.632522 0.248503 0.241933
0.671958 0.254505 0.247438
0.713984 0.260547 0.253197
0.756586 0.266596 0.258987
0.802284 0.273111 0.265020
0.848178 0.279420 0.271306
0.127929 0.176297 0.169837
0.131962 0.176541 0.169577
0.136122 0.176603 0.169577
0.142471 0.177573 0.169852
0.149498 0.178422 0.170405
0.158150 0.179920 0.171450
0.167569 0.181480 0.172741
0.178577 0.183351 0.174292
0.190563 0.185608 0.176108
0.204025 0.187948 0.178191
0.218640 0.190542 0.180448
0.234398 0.193391 0.182885
0.251587 0.196504 0.185641
0.270164 0.199874 0.188500
0.290093 0.203396 0.191619
0.311331 0.207035 0.194998
0.334043 0.210816 0.198519
0.358361 0.214856 0.202173
0.384098 0.219134 0.205947
0.411339 0.223560 0.210018
0.440067 0.228091 0.214140
0.470417 0.232794 0.218493
0.502327 0.237745 0.223015
0.536063 0.242782 0.227717
0.571331 0.248001 0.232679
0.608092 0.253475 0.237704
0.647036 0.259018 0.242743
0.687047 0.264776 0.248196
0.729795 0.270574 0.253740
0.773174 0.276600 0.259271
0.819653 0.282871 0.265273
0.866092 0.289172 0.271306
0.135240 0.191697 0.175611
0.139242 0.191918 0.175114
0.143204 0.191965 0.174869
0.149553 0.192721 0.175099
0.156580 0.193537 0.175443
0.165268 0.194817 0.176427
0.174879 0.196376 0.177463
0.185944 0.198191 0.178778
0.198125 0.200252 0.180405
0.211595 0.202585 0.182386
0.226374 0.205096 0.184474
0.242539 0.207798 0.186805
0.259994 0.210808 0.189310
0.278731 0.214028 0.191934
0.298904 0.217433 0.194806
0.320540 0.220935 0.197925
0.343641 0.224704 0.201303
0.368330 0.228619 0.204821
0.394474 0.232780 0.208478
0.422221 0.237055 0.212385
0.451328 0.241483 0.216393
0.482264 0.246177 0.220568
0.514777 0.250950 0.224845
0.548871 0.255914 0.229294
0.584778 0.260956 0.234015
0.622130 0.266194 0.238785
0.661771 0.271673 0.243775
0.702555 0.277407 0.249009
0.745670 0.283201 0.254477
0.789764 0.289206 0.259812
0.837022 0.295277 0.265557
0.884241 0.301548 0.271330
0.142550 0.207515 0.181189
0.146369 0.207514 0.180652
0.150514 0.207531 0.180149
0.156860 0.208284 0.180173
0.163862 0.209047 0.180484
0.172579 0.210157 0.181207
0.182195 0.211690 0.182032
0.193336 0.213455 0.183333
0.205696 0.215337 0.184797
0.219262 0.217582 0.186442
0.234220 0.219999 0.188436
0.250553 0.222750 0.190528
0.268325 0.225617 0.192859
0.287279 0.228732 0.195449
0.307840 0.231990 0.198204
0.329843 0.235385 0.201080
0.353335 0.239024 0.204198
0.378316 0.242924 0.207577
0.404863 0.246957 0.211073
0.432982 0.251121 0.214739
0.462666 0.255414 0.218500
0.494052 0.260020 0.222435
0.527148 0.264626 0.226619
0.561841 0.269503 0.230895
0.598276 0.274536 0.235510
0.636326 0.279775 0.240088
0.676372 0.285068 0.245009
0.717838 0.290547 0.250018
0.761730 0.296309 0.255055
0.806398 0.302107 0.260524
0.854392 0.308347 0.266037
0.902359 0.314404 0.271582
0.149900 0.224735 0.186986
0.153886 0.224689 0.186191
0.157824 0.224536 0.185479
0.164150 0.225231 0.185462
0.170987 0.225830 0.185710
0.179889 0.227090 0.186215
0.189547 0.228438 0.186845
0.200868 0.230171 0.187987
0.213313 0.231998 0.189111
0.227110 0.234086 0.190665
0.242259 0.236420 0.192483
0.258695 0.239001 0.194446
0.276717 0.241853 0.196542
0.295956 0.244854 0.198889
0.316777 0.247989 0.201485
0.339059 0.251384 0.204233
0.362941 0.254914 0.207132
0.388402 0.258689 0.210251
0.415328 0.262681 0.213510
0.443878 0.266722 0.217038
0.474057 0.271060 0.220631
0.505976 0.275557 0.224464
0.539455 0.280110 0.228457
0.574764 0.284811 0.232631
0.611775 0.289779 0.236906
0.650377 0.294986 0.241356
0.691129 0.300272 0.246058
0.733150 0.305565 0.250841
0.777790 0.311300 0.255815
0.823202 0.317061 0.261045
0.871767 0.323093 0.266336
0.920296 0.329143 0.271834
0.157415 0.242570 0.192784
0.161196 0.242371 0.191782
0.165135 0.242357 0.191009
0.171460 0.242861 0.190732
0.178298 0.243454 0.190746
0.187199 0.244673 0.191209
0.196866 0.245981 0.191751
0.208271 0.247548 0.192524
0.220887 0.249376 0.193583
0.234779 0.251450 0.194937
0.250155 0.253700 0.196589
0.266778 0.256157 0.198258
0.285008 0.258900 0.200226
0.304632 0.261775 0.202399
0.325714 0.264889 0.204782
0.348355 0.268258 0.207359
0.372603 0.271763 0.210209
0.398376 0.275403 0.213090
0.425724 0.279184 0.216208
0.454775 0.283264 0.219465
0.485342 0.287519 0.222869
0.517815 0.291820 0.226547
0.551899 0.296433 0.230295
0.587742 0.301028 0.234243
0.625273 0.305944 0.238392
0.664561 0.310947 0.242656
0.705873 0.316184 0.247107
0.748455 0.321478 0.251808
0.793807 0.327170 0.256591
0.839803 0.332779 0.261565
0.889091 0.338755 0.266794
0.938399 0.344803 0.272086
0.164780 0.261444 0.198582
0.168506 0.261383 0.197517
0.172445 0.261228 0.196487
0.178770 0.261680 0.196006
0.185608 0.262247 0.195810
0.194518 0.263295 0.196045
0.204259 0.264603 0.196502
0.215778 0.266158 0.197104
0.228460 0.267943 0.198056
0.242554 0.269959 0.199149
0.258051 0.272116 0.200605
0.274934 0.274599 0.202166
0.293424 0.277215 0.203909
0.313308 0.280090 0.205845
0.334650 0.283115 0.208089
0.357578 0.286349 0.210419
0.382115 0.289752 0.213009
0.408365 0.293294 0.215755
0.436182 0.297050 0.218637
0.465671 0.301097 0.221755
0.496723 0.305203 0.225011
0.529601 0.309567 0.228544
0.564260 0.314065 0.232116
0.600665 0.318628 0.235967
0.638759 0.323515 0.239797
0.678535 0.328347 0.243927
0.720403 0.333546 0.248156
0.763687 0.338840 0.252597
0.809634 0.344354 0.257298
0.856340 0.350076 0.262082
0.906214 0.355871 0.267054
0.956241 0.361913 0.272283
0.172279 0.281358 0.204317
0.175816 0.281112 0.203056
0.179751 0.281071 0.201839
0.186024 0.281399 0.201294
0.192910 0.281909 0.201008
0.201796 0.282947 0.200982
0.211671 0.284202 0.201229
0.223103 0.285714 0.201774
0.235882 0.287353 0.202481
0.250190 0.289369 0.203361
0.265926 0.291465 0.204556
0.283027 0.293820 0.205925
0.301777 0.296411 0.207554
0.321922 0.299248 0.209321
0.343552 0.302273 0.211407
0.366867 0.305416 0.213541
0.391761 0.308786 0.215904
0.418305 0.312285 0.218493
0.446521 0.315956 0.221201
0.476504 0.319887 0.224058
0.507955 0.323920 0.227176
0.541372 0.328241 0.230431
0.576502 0.332585 0.233836
0.613391 0.337233 0.237481
0.652103 0.341973 0.241246
0.692326 0.346799 0.245173
0.734902 0.351958 0.249195
0.778746 0.357241 0.253386
0.825385 0.362756 0.257826
0.872689 0.368301 0.262527
0.923270 0.374083 0.267313
0.973823 0.380062 0.272283
0.179590 0.302312 0.209933
0.183124 0.302060 0.208600
0.186979 0.301851 0.207302
0.193099 0.302272 0.206556
0.200135 0.302673 0.205955
0.208925 0.303620 0.205743
0.218835 0.304723 0.205810
0.230454 0.306235 0.206200
0.243391 0.307855 0.206748
0.257805 0.309819 0.207502
0.273693 0.311915 0.208460
0.290931 0.314270 0.209617
0.309941 0.316791 0.211056
0.330346 0.319487 0.212628
0.352318 0.322470 0.214438
0.375992 0.325613 0.216495
0.401184 0.328890 0.218727
0.428122 0.332301 0.221057
0.456721 0.335931 0.223546
0.487105 0.339832 0.226173
0.519049 0.343865 0.229030
0.552863 0.348064 0.232147
0.588584 0.352349 0.235401
0.626046 0.356945 0.238807
0.665193 0.361582 0.242452
0.706058 0.366472 0.246160
0.749282 0.371499 0.250072
0.793726 0.376754 0.254094
0.840894 0.382204 0.258348
0.888888 0.387743 0.262796
0.940070 0.393525 0.267496
0.990295 0.399323 0.272212
0.186900 0.324148 0.215652
0.190350 0.323896 0.214061
0.194037 0.323676 0.212586
0.200150 0.323951 0.211666
0.207137 0.324487 0.210813
0.216091 0.325283 0.210507
0.226066 0.326370 0.210375
0.237703 0.327819 0.210467
0.250746 0.329395 0.210890
0.265311 0.331230 0.211407
0.281336 0.333325 0.212216
0.298835 0.335653 0.213230
0.318075 0.338123 0.214439
0.338725 0.340779 0.215871
0.360967 0.343672 0.217480
0.384896 0.346772 0.219271
0.410478 0.350009 0.221291
0.437804 0.353425 0.223404
0.466799 0.356989 0.225769
0.497564 0.360769 0.228256
0.529961 0.364772 0.230884
0.564296 0.368971 0.233741
0.600481 0.373256 0.236858
0.638441 0.377723 0.240053
0.678242 0.382388 0.243438
0.719731 0.387160 0.246949
0.763345 0.392154 0.250683
0.808364 0.397408 0.254609
0.855780 0.402702 0.258923
0.903895 0.408224 0.263290
0.955130 0.414006 0.268045
1.000000 0.419804 0.272748
0.194123 0.346851 0.221112
0.197406 0.346512 0.219349
0.201008 0.346292 0.217690
0.207105 0.346567 0.216542
0.213954 0.347103 0.215649
0.222996 0.347899 0.215070
0.233055 0.348954 0.214643
0.244799 0.350270 0.214609
0.257970 0.351845 0.214794
0.272608 0.353681 0.215163
0.288893 0.355748 0.215829
0.306621 0.357989 0.216613
0.326001 0.360375 0.217649
0.346879 0.363011 0.218906
0.369443 0.365914 0.220379
0.393669 0.368929 0.221920
0.419596 0.372080 0.223640
0.447273 0.375501 0.225625
0.476653 0.379101 0.227804
0.507869 0.382780 0.230133
0.540787 0.386719 0.232565
0.575584 0.390859 0.235220
0.612205 0.395116 0.238105
0.650662 0.399582 0.241104
0.690985 0.404120 0.244251
0.733057 0.408854 0.247636
0.777279 0.413849 0.251280
0.822386 0.419027 0.255123
0.868642 0.424388 0.259968
0.915115 0.429918 0.265034
0.963355 0.435784 0.270985
1.000000 0.441758 0.276836
0.201182 0.370641 0.226405
0.204364 0.370236 0.224538
0.207814 0.369930 0.222578
0.213912 0.370285 0.221449
0.220768 0.370735 0.220166
0.229855 0.371531 0.219434
0.239891 0.372587 0.218880
0.251763 0.373902 0.218606
0.264958 0.375453 0.218645
0.279712 0.377218 0.218871
0.296190 0.379235 0.219277
0.314122 0.381391 0.219857
0.333661 0.383793 0.220710
0.354800 0.386325 0.221694
0.377694 0.389165 0.222986
0.402267 0.392138 0.224319
0.428504 0.395289 0.225860
0.456538 0.398700 0.227661
0.486313 0.402229 0.229635
0.517952 0.405908 0.231743
0.551353 0.409786 0.233975
0.586627 0.413785 0.236447
0.623727 0.417992 0.239159
0.662695 0.422459 0.242043
0.703391 0.426996 0.245116
0.745662 0.431654 0.248360
0.790152 0.436630 0.251921
0.834784 0.441672 0.256137
0.878372 0.447154 0.262093
0.921679 0.452788 0.268598
0.964476 0.458904 0.276500
1.000000 0.465201 0.284493
0.208035 0.395203 0.231596
0.211068 0.394946 0.229474
0.214518 0.394597 0.227399
0.220605 0.394982 0.226019
0.227364 0.395297 0.224588
0.236417 0.396093 0.223726
0.246512 0.397148 0.222931
0.258466 0.398441 0.222491
0.271727 0.399900 0.222333
0.286697 0.401601 0.222374
0.303297 0.403545 0.222553
0.321420 0.405684 0.222906
0.341219 0.408074 0.223530
0.362617 0.410635 0.224346
0.385772 0.413407 0.225358
0.410605 0.416298 0.226563
0.437179 0.419397 0.227896
0.465628 0.422758 0.229437
0.495790 0.426287 0.231238
0.527795 0.429966 0.233148
0.561593 0.433747 0.235217
0.597453 0.437693 0.237449
0.634981 0.441900 0.239919
0.673957 0.446291 0.242861
0.714149 0.450722 0.246487
0.755372 0.455237 0.250375
0.798019 0.460184 0.254954
0.840609 0.465225 0.260359
0.881672 0.470615 0.267375
0.922429 0.476380 0.274965
0.962017 0.482551 0.284049
0.998874 0.488850 0.293229
0.214589 0.420883 0.236528
0.217618 0.420521 0.234259
0.220962 0.420300 0.232030
0.227046 0.420552 0.230404
0.233780 0.420867 0.228841
0.242855 0.421663 0.227736
0.252931 0.422697 0.226780
0.264935 0.423894 0.226098
0.278317 0.425337 0.225663
0.293466 0.427052 0.225499
0.310280 0.428938 0.225542
0.328567 0.431014 0.225720
0.348584 0.433411 0.226076
0.370175 0.435906 0.226697
0.393590 0.438615 0.227513
0.418737 0.441506 0.228526
0.445628 0.444531 0.229672
0.474397 0.447824 0.231013
0.504952 0.451353 0.232604
0.537431 0.454964 0.234322
0.571586 0.458703 0.236173
0.607802 0.462649 0.238316
0.645838 0.466856 0.240585
0.684303 0.471059 0.243923
0.723007 0.475316 0.248607
0.761716 0.479709 0.254063
0.800558 0.484543 0.260766
0.839415 0.489566 0.267960
0.878324 0.494828 0.276101
0.917116 0.500579 0.284496
0.955850 0.506613 0.293765
0.994336 0.512907 0.303202
0.221025 0.447556 0.241199
0.223932 0.447060 0.238808
0.227146 0.446839 0.236449
0.233231 0.447091 0.234574
0.239962 0.447406 0.232857
0.248942 0.448183 0.231514
0.259127 0.449115 0.230407
0.271149 0.450302 0.229482
0.284666 0.451754 0.228856
0.299941 0.453461 0.228372
0.316893 0.455353 0.228250
0.335360 0.457329 0.228214
0.355631 0.459616 0.228390
0.377473 0.462137 0.228798
0.401148 0.464768 0.229432
0.426563 0.467659 0.230184
0.453783 0.470684 0.231071
0.482943 0.473912 0.232225
0.513887 0.477388 0.233615
0.546468 0.480845 0.235518
0.580448 0.484409 0.237846
0.616036 0.488154 0.240712
0.653067 0.492116 0.244002
0.690315 0.496064 0.248374
0.727336 0.500165 0.254090
0.764186 0.504423 0.260816
0.800794 0.509118 0.268668
0.837464 0.514017 0.276837
0.874815 0.519371 0.285687
0.912371 0.525022 0.294632
0.950297 0.531049 0.304049
0.988121 0.537343 0.313742
0.227201 0.475032 0.245736
0.229981 0.474536 0.243085
0.233187 0.474316 0.240474
0.239143 0.474568 0.238457
0.245776 0.474883 0.236496
0.254866 0.475639 0.235003
0.265075 0.476465 0.233659
0.277199 0.477653 0.232576
0.290748 0.479104 0.231722
0.306153 0.480775 0.231071
0.323236 0.482618 0.230689
0.341833 0.484635 0.230438
0.362332 0.486841 0.230435
0.384511 0.489362 0.230582
0.408446 0.491936 0.231013
0.434121 0.494758 0.231575
0.461667 0.497783 0.232266
0.491148 0.500941 0.233221
0.522425 0.504360 0.234351
0.554779 0.507662 0.236688
0.588108 0.510885 0.240091
0.622106 0.514240 0.244639
0.656697 0.517633 0.250060
0.691812 0.521305 0.256269
0.727076 0.525177 0.263189
0.762641 0.529379 0.270651
0.798501 0.534074 0.278730
0.834630 0.538863 0.287249
0.871233 0.544201 0.296262
0.908126 0.549734 0.305455
0.945280 0.555752 0.315132
0.982449 0.562047 0.324960
0.232983 0.503446 0.249872
0.235759 0.502950 0.247095
0.238828 0.502730 0.244231
0.244673 0.502982 0.242065
0.251304 0.503279 0.239857
0.260380 0.503941 0.238111
0.270616 0.504856 0.236620
0.282877 0.505945 0.235276
0.296530 0.507354 0.234193
0.311970 0.508937 0.233369
0.329217 0.510780 0.232770
0.348033 0.512797 0.232344
0.368664 0.514951 0.232077
0.391021 0.517446 0.231973
0.415217 0.520044 0.232198
0.441144 0.522672 0.232952
0.468872 0.525420 0.234135
0.498255 0.528229 0.235807
0.529162 0.531233 0.237999
0.560867 0.534130 0.241420
0.593313 0.536965 0.245956
0.626169 0.540017 0.251731
0.659245 0.543173 0.258404
0.692900 0.546681 0.265679
0.727060 0.550531 0.273316
0.761712 0.554628 0.281214
0.796884 0.559297 0.289576
0.832460 0.564087 0.298342
0.868433 0.569317 0.307506
0.904559 0.574839 0.316948
0.941062 0.580858 0.326885
0.977455 0.587018 0.336988
0.238528 0.532687 0.253795
0.241297 0.532328 0.250731
0.244121 0.531971 0.247744
0.249967 0.532223 0.245329
0.256584 0.532524 0.242963
0.265564 0.533208 0.240980
0.275820 0.534097 0.239230
0.288196 0.535161 0.237740
0.301971 0.536484 0.236397
0.317515 0.538068 0.235313
0.334844 0.539865 0.234489
0.353920 0.541836 0.233889
0.374768 0.544039 0.233424
0.397318 0.546453 0.233128
0.421774 0.549033 0.233092
0.447771 0.551417 0.234250
0.475426 0.553645 0.236547
0.504239 0.555795 0.239906
0.534091 0.557936 0.244390
0.564755 0.560321 0.249535
0.596089 0.562817 0.255371
0.628110 0.565654 0.261839
0.660642 0.568853 0.268886
0.693704 0.572311 0.276453
0.727316 0.576108 0.284351
0.761448 0.580224 0.292509
0.796099 0.584780 0.301131
0.830934 0.589547 0.310061
0.866355 0.594777 0.319471
0.901725 0.600299 0.329173
0.937554 0.606318 0.339371
0.973311 0.612368 0.349703
0.243775 0.562826 0.257230
0.246390 0.562566 0.253956
0.249106 0.562110 0.250808
0.254811 0.562362 0.248147
0.261428 0.562657 0.245670
0.270433 0.563283 0.243499
0.280786 0.564116 0.241422
0.293074 0.565300 0.239755
0.306991 0.566585 0.238190
0.322656 0.568057 0.236957
0.340124 0.569822 0.235921
0.359411 0.571600 0.235411
0.380616 0.573463 0.235428
0.403426 0.575463 0.235895
0.428075 0.577452 0.236990
0.454006 0.579264 0.239236
0.481377 0.580971 0.242704
0.509600 0.582709 0.247424
0.538674 0.584474 0.253236
0.568606 0.586595 0.259390
0.599208 0.588901 0.265968
0.630668 0.591666 0.272943
0.662768 0.594758 0.280298
0.695339 0.598172 0.288126
0.728430 0.602006 0.296284
0.761921 0.606095 0.304701
0.796023 0.610556 0.313584
0.830249 0.615306 0.322774
0.865001 0.620536 0.332444
0.899740 0.626059 0.342266
0.934797 0.632077 0.352715
0.969877 0.638127 0.363354
0.248659 0.593737 0.260412
0.251175 0.593477 0.256972
0.253732 0.593021 0.253564
0.259349 0.593273 0.250652
0.265966 0.593556 0.248000
0.274960 0.594100 0.245595
0.285272 0.594920 0.243390
0.297633 0.596053 0.241463
0.311664 0.597354 0.239662
0.327473 0.598874 0.238239
0.345059 0.600587 0.237075
0.364632 0.601991 0.236995
0.386260 0.603110 0.238115
0.409264 0.604320 0.240305
0.433967 0.605324 0.243643
0.459776 0.606339 0.247646
0.486757 0.607607 0.252366
0.514546 0.609091 0.257938
0.543262 0.610784 0.264151
0.572740 0.612848 0.270663
0.602923 0.615117 0.277537
0.633876 0.617882 0.284836
0.665435 0.620907 0.292483
0.697603 0.624294 0.300453
0.730214 0.628079 0.308830
0.763108 0.632204 0.317636
0.796539 0.636677 0.326809
0.830219 0.641427 0.336259
0.864365 0.646658 0.346190
0.898427 0.652180 0.356183
0.932863 0.658046 0.366886
0.967167 0.664091 0.377723
0.253117 0.625570 0.263193
0.255465 0.625310 0.259498
0.257938 0.624853 0.255990
0.263539 0.625105 0.252818
0.270028 0.625389 0.249906
0.279152 0.625932 0.247254
0.289441 0.626704 0.244925
0.302080 0.627559 0.243154
0.316474 0.628498 0.241819
0.332737 0.629522 0.241133
0.350863 0.630578 0.241078
0.370893 0.631377 0.242146
0.392794 0.631886 0.244544
0.415985 0.632450 0.248164
0.440592 0.632829 0.252916
0.466199 0.633399 0.258068
0.492789 0.634363 0.263663
0.520276 0.635677 0.269652
0.548636 0.637331 0.276050
0.577732 0.639395 0.282924
0.607514 0.641664 0.290122
0.637918 0.644429 0.297682
0.669046 0.647454 0.305588
0.700683 0.650841 0.313755
0.732754 0.654687 0.322370
0.765128 0.658766 0.331372
0.797966 0.663224 0.340790
0.831111 0.667974 0.350501
0.864588 0.673205 0.360691
0.898032 0.678572 0.371100
0.931782 0.684504 0.382074
0.965473 0.690551 0.393084
0.257230 0.658356 0.265540
0.259493 0.657923 0.261756
0.261798 0.657466 0.257907
0.267391 0.657718 0.254637
0.273797 0.658001 0.251465
0.282839 0.658545 0.248552
0.293210 0.659234 0.246095
0.306345 0.659593 0.244916
0.321483 0.659768 0.244828
0.338647 0.659759 0.245940
0.357677 0.659620 0.248106
0.378280 0.659555 0.250942
0.400354 0.659588 0.254686
0.423536 0.659672 0.259177
0.447919 0.659924 0.264397
0.473271 0.660496 0.269972
0.499560 0.661378 0.275949
0.526692 0.662665 0.282289
0.554667 0.664297 0.288889
0.583363 0.666289 0.295998
0.612768 0.668669 0.303487
0.642830 0.671378 0.311307
0.673427 0.674347 0.319474
0.704586 0.677734 0.327900
0.736161 0.681642 0.336776
0.768014 0.685675 0.345975
0.800332 0.690118 0.355638
0.832806 0.694868 0.365608
0.865668 0.700098 0.376059
0.898423 0.705392 0.386802
0.931564 0.711395 0.398041
0.964559 0.717445 0.409311
0.260900 0.691741 0.267628
0.262980 0.691242 0.263476
0.265229 0.690937 0.259502
0.271026 0.690815 0.256430
0.277844 0.690725 0.253628
0.287572 0.690836 0.251578
0.298683 0.690785 0.250059
0.312541 0.690461 0.250114
0.328433 0.689977 0.251224
0.346316 0.689093 0.253898
0.366001 0.688087 0.257813
0.386774 0.687382 0.261991
0.408894 0.687053 0.266610
0.431969 0.687006 0.271603
0.456092 0.687258 0.277084
0.481184 0.687777 0.282919
0.507213 0.688659 0.289156
0.534045 0.689940 0.295794
0.561623 0.691586 0.302646
0.589940 0.693623 0.309985
0.618940 0.695933 0.317735
0.648555 0.698677 0.325815
0.678732 0.701682 0.334242
0.709456 0.705069 0.342929
0.740528 0.708836 0.352064
0.771861 0.712975 0.361669
0.803506 0.717452 0.371628
0.835369 0.722203 0.381859
0.867702 0.727433 0.392570
0.899870 0.732727 0.403403
0.932311 0.738554 0.414890
0.964528 0.744598 0.426421
0.264051 0.725834 0.269077
0.266062 0.725338 0.264794
0.268181 0.725049 0.260677
0.274812 0.724230 0.258298
0.282458 0.723521 0.256724
0.293813 0.722342 0.256817
0.306465 0.721066 0.257672
0.321409 0.719672 0.259608
0.337967 0.718505 0.262165
0.356084 0.717145 0.265603
0.375769 0.715964 0.269950
0.396475 0.715129 0.274603
0.418399 0.714719 0.279661
0.441254 0.714672 0.284990
0.465116 0.714924 0.290706
0.489948 0.715412 0.296814
0.515716 0.716294 0.303213
0.542185 0.717571 0.310112
0.569381 0.719225 0.317333
0.597411 0.721289 0.324897
0.625988 0.723557 0.332833
0.655211 0.726322 0.341173
0.684973 0.729347 0.349995
0.715195 0.732735 0.358996
0.745747 0.736453 0.368392
0.776559 0.740628 0.378308
0.807631 0.745118 0.388539
0.838963 0.749868 0.399030
0.870605 0.754928 0.410002
0.902234 0.760380 0.421036
0.933911 0.766159 0.432780
0.965347 0.772201 0.444570
0.267667 0.760117 0.271125
0.270292 0.759201 0.267653
0.273185 0.758114 0.264332
0.280870 0.756685 0.263335
0.289707 0.755046 0.263117
0.302305 0.752892 0.264991
0.316275 0.750595 0.267787
0.331999 0.748490 0.271138
0.348852 0.746709 0.274799
0.366936 0.745268 0.278855
0.386443 0.744086 0.283422
0.407059 0.743251 0.288336
0.428724 0.742765 0.293600
0.451400 0.742597 0.299161
0.475117 0.742849 0.305156
0.499593 0.743338 0.311514
0.525000 0.744220 0.318247
0.551178 0.745604 0.325406
0.578089 0.747233 0.332920
0.605738 0.749214 0.340733
0.633943 0.751610 0.348908
0.662753 0.754311 0.357509
0.692012 0.757273 0.366629
0.721713 0.760660 0.375907
0.751745 0.764531 0.385716
0.782037 0.768591 0.395778
0.812589 0.773043 0.406231
0.843400 0.777794 0.416982
0.874294 0.782981 0.428214
0.905378 0.788315 0.439693
0.936291 0.794084 0.451709
0.967143 0.800126 0.463760
0.272063 0.794399 0.274008
0.277161 0.791916 0.273473
0.282509 0.789583 0.272838
0.291643 0.787029 0.273801
0.301642 0.784594 0.275206
0.314410 0.781929 0.277949
0.328394 0.779456 0.281240
0.344078 0.777242 0.284870
0.360967 0.775299 0.288926
0.379038 0.773705 0.293312
0.398379 0.772524 0.298140
0.418701 0.771689 0.303314
0.440237 0.771184 0.308819
0.462674 0.770987 0.314632
0.486157 0.771240 0.320893
0.510350 0.771827 0.327509
0.535473 0.772709 0.334526
0.561391 0.774020 0.341945
0.588041 0.775762 0.349719
0.615275 0.777809 0.357792
0.643123 0.780103 0.366228
0.671502 0.782856 0.375227
0.700241 0.785868 0.384529
0.729422 0.789255 0.394160
0.758933 0.793004 0.404159
0.788704 0.797156 0.414408
0.818907 0.801639 0.425283
0.849053 0.806210 0.436328
0.879357 0.811414 0.447820
0.909533 0.816708 0.459412
0.939853 0.822673 0.471678
0.970184 0.828516 0.483989
0.278940 0.827618 0.280011
0.286029 0.823756 0.281773
0.293526 0.820162 0.283756
0.303978 0.816933 0.286337
0.314924 0.813612 0.289023
0.327685 0.810844 0.292245
0.341628 0.808193 0.295651
0.357185 0.805979 0.299634
0.373745 0.804025 0.303785
0.391754 0.802403 0.308432
0.410918 0.801221 0.313519
0.431111 0.800386 0.318878
0.452413 0.799882 0.324589
0.474589 0.799685 0.330791
0.497812 0.799937 0.337313
0.521848 0.800544 0.344189
0.546710 0.801426 0.351467
0.572265 0.802718 0.359146
