gsg/04_Specialty/GSG_LUT_Specialty_PulpSubtle.cube
# GSG LUTs 1.0
# Copyright (c) 2016-2020 Greyscalegorilla
# See EULA for licensing and distribution information
# Converted by Briz LUT Converter
LUT_3D_SIZE 5
DOMAIN_MIN 0.000000 0.000000 0.000000
DOMAIN_MAX 0.903226 0.903226 0.903226
0.000000 0.000000 0.000000
0.136618 0.000000 0.000819
0.301910 0.000000 0.007413
0.488211 0.000000 0.015172
0.677522 0.000000 0.020269
0.020276 0.114435 0.011391
0.139161 0.097651 0.009547
0.303130 0.102572 0.011305
0.492678 0.069650 0.018308
0.679374 0.010366 0.023484
0.039970 0.260609 0.040947
0.145638 0.239900 0.031468
0.309822 0.219303 0.024490
0.498212 0.219693 0.025874
0.682576 0.216816 0.020929
0.000000 0.425728 0.059687
0.144320 0.398370 0.064386
0.319725 0.381374 0.031972
0.501504 0.359619 0.026745
0.686407 0.362362 0.019150
0.000630 0.590531 0.078057
0.163772 0.559698 0.079665
0.333135 0.539222 0.039271
0.513105 0.519751 0.009936
0.692338 0.497006 0.006285
0.000000 0.000000 0.133837
0.077943 0.001886 0.070516
0.233587 0.003496 0.057562
0.410837 0.000000 0.045913
0.599344 0.000000 0.042749
0.015934 0.079831 0.097681
0.176973 0.173918 0.164128
0.344441 0.177365 0.149904
0.528388 0.168114 0.140780
0.713366 0.150745 0.124054
0.034691 0.218704 0.107768
0.191061 0.321450 0.177727
0.354942 0.308251 0.146022
0.537573 0.313376 0.130421
0.721326 0.315668 0.110412
0.012000 0.375415 0.124049
0.201127 0.483606 0.189235
0.365477 0.470166 0.148692
0.542790 0.448382 0.115102
0.725146 0.454966 0.085999
0.003598 0.538041 0.136004
0.223826 0.644601 0.198114
0.379493 0.628121 0.153236
0.554360 0.608182 0.091682
0.732150 0.586318 0.053305
0.000000 0.000000 0.277459
0.040330 0.000000 0.215092
0.178117 0.005461 0.154002
0.340132 0.000614 0.136980
0.523969 0.000000 0.128594
0.009304 0.080500 0.239580
0.145240 0.176120 0.308371
0.291661 0.183835 0.250149
0.465654 0.183009 0.234045
0.647433 0.167584 0.221806
0.040345 0.182274 0.203840
0.211457 0.289344 0.275643
0.411241 0.399325 0.348884
0.588454 0.406781 0.333199
0.768700 0.409650 0.317372
0.023283 0.332128 0.206062
0.230301 0.444995 0.282921
0.427837 0.556742 0.364874
0.597419 0.545233 0.330533
0.777856 0.550712 0.309856
0.027909 0.491647 0.217802
0.246709 0.604007 0.295433
0.446244 0.715739 0.380758
0.607615 0.705000 0.337554
0.784158 0.682732 0.298044
0.000000 0.000000 0.437946
0.003444 0.000000 0.367445
0.144035 0.002934 0.294829
0.280921 0.000946 0.231937
0.456464 0.000000 0.218354
0.000000 0.078374 0.395870
0.086504 0.174347 0.473315
0.258860 0.181799 0.405642
0.407432 0.187799 0.336431
0.581730 0.180806 0.317556
0.018580 0.182626 0.350199
0.176961 0.291538 0.433774
0.381838 0.403329 0.518211
0.535447 0.416988 0.451054
0.708759 0.420504 0.431334
0.051229 0.290834 0.313652
0.239825 0.407624 0.393308
0.452821 0.525140 0.484909
0.652643 0.637247 0.572333
0.835102 0.644873 0.553251
0.027717 0.449880 0.314515
0.264051 0.563192 0.398723
0.475304 0.677862 0.499611
0.668005 0.799602 0.592063
0.845959 0.786870 0.553553
0.000000 0.000000 0.618646
0.000000 0.000000 0.538231
0.070970 0.000000 0.458346
0.250275 0.000283 0.382127
0.394515 0.000000 0.313056
0.000000 0.066421 0.571945
0.000851 0.172259 0.658645
0.206202 0.176639 0.584146
0.375913 0.182708 0.499378
0.522820 0.184240 0.426158
0.000000 0.184962 0.521287
0.102087 0.294526 0.614827
0.328607 0.404186 0.713263
0.503029 0.414971 0.632862
0.649176 0.424149 0.550025
0.012862 0.294633 0.473096
0.203622 0.411082 0.564541
0.410336 0.529869 0.668433
0.613903 0.642410 0.775184
0.777645 0.656526 0.692291
0.078284 0.405273 0.430523
0.274897 0.523577 0.521160
0.480057 0.643682 0.622367
0.688440 0.768271 0.735757
0.896667 0.886486 0.847477
