gsg/04_Specialty/GSG_LUT_Specialty_Milky_Spring.cube
# GSG LUTs 1.0
# Copyright (c) 2016-2020 Greyscalegorilla
# See EULA for licensing and distribution information
# Converted by Briz LUT Converter
LUT_3D_SIZE 8
DOMAIN_MIN 0.000000 0.000000 0.000000
DOMAIN_MAX 0.903226 0.903226 0.903226
0.086691 0.111355 0.079609
0.114790 0.114506 0.083493
0.175005 0.123589 0.092820
0.269810 0.136610 0.106668
0.398858 0.150230 0.122037
0.579810 0.158139 0.133373
0.775675 0.183095 0.158242
0.936721 0.220497 0.196298
0.124274 0.182473 0.106345
0.150049 0.182197 0.107109
0.207893 0.188215 0.113656
0.291976 0.199961 0.124696
0.410381 0.212698 0.135357
0.577184 0.220796 0.142167
0.761453 0.242853 0.166190
0.919995 0.276154 0.203789
0.162157 0.283020 0.133507
0.185600 0.277781 0.131640
0.239749 0.278458 0.135452
0.318169 0.286564 0.145984
0.426118 0.299145 0.154642
0.576858 0.308323 0.157556
0.748313 0.328558 0.181661
0.903183 0.357893 0.219213
0.193084 0.421734 0.157296
0.214943 0.409925 0.153657
0.264469 0.402551 0.155508
0.340667 0.402487 0.163932
0.443387 0.409748 0.176743
0.577638 0.418764 0.179359
0.735731 0.434509 0.203944
0.887822 0.459733 0.238320
0.215605 0.590665 0.176021
0.236873 0.571373 0.171807
0.280395 0.554994 0.171679
0.354445 0.544729 0.177360
0.455101 0.541008 0.189113
0.580826 0.545966 0.205146
0.737144 0.565894 0.225002
0.892592 0.594699 0.248049
0.269629 0.750128 0.219599
0.285173 0.726953 0.213743
0.316913 0.704988 0.210444
0.380580 0.690639 0.212697
0.476125 0.691761 0.217270
0.601978 0.703416 0.225626
0.756005 0.720804 0.238584
0.901941 0.742533 0.255614
0.329237 0.871874 0.271369
0.341184 0.854925 0.263126
0.360689 0.843794 0.250617
0.416869 0.840388 0.242032
0.506649 0.841689 0.239434
0.626689 0.847068 0.242310
0.775886 0.855605 0.249789
0.911555 0.866724 0.261250
0.384552 0.967899 0.315286
0.393260 0.959064 0.296848
0.404613 0.950546 0.277778
0.453081 0.946142 0.264905
0.536205 0.945283 0.257612
0.650643 0.947622 0.255418
0.794155 0.952712 0.257752
0.920562 0.960203 0.263566
0.091181 0.116641 0.122155
0.119835 0.118780 0.126106
0.181669 0.127102 0.135980
0.275296 0.140073 0.152417
0.403041 0.152184 0.173612
0.581420 0.159211 0.193113
0.773807 0.184655 0.221560
0.934242 0.221868 0.257921
0.131490 0.187239 0.149541
0.156430 0.186167 0.149816
0.211275 0.190617 0.156071
0.295399 0.199991 0.167835
0.415165 0.210072 0.181878
0.577730 0.218519 0.195306
0.757502 0.241757 0.221613
0.915758 0.274342 0.255409
0.168199 0.285793 0.182111
0.190448 0.279687 0.178341
0.239598 0.279708 0.179218
0.317547 0.285799 0.186860
0.426748 0.295284 0.195990
0.574321 0.304033 0.203708
0.741993 0.324106 0.227569
0.897148 0.352520 0.258911
0.197562 0.421651 0.212115
0.218140 0.408672 0.204498
0.261369 0.401373 0.199747
0.336270 0.399742 0.202969
0.439736 0.404307 0.212745
0.572198 0.411655 0.217278
0.727381 0.426745 0.238798
0.883481 0.453775 0.267677
0.218685 0.586695 0.232471
0.238605 0.566353 0.222851
0.278550 0.549064 0.215968
0.350344 0.537520 0.215848
0.449537 0.532171 0.222585
0.576004 0.539730 0.235750
0.733223 0.561237 0.256370
0.889970 0.589965 0.281718
0.271306 0.743913 0.265893
0.285885 0.719726 0.254969
0.314786 0.696143 0.246033
0.377281 0.684418 0.243819
0.472759 0.687385 0.248990
0.598406 0.699201 0.260490
0.752191 0.716539 0.277006
0.899319 0.738193 0.297798
0.329851 0.866368 0.304579
0.340340 0.851007 0.292408
0.358237 0.840933 0.280762
0.413812 0.837598 0.276109
0.503200 0.838954 0.277843
0.623041 0.844370 0.285221
0.772080 0.852927 0.297392
0.908860 0.863979 0.313259
0.380881 0.965205 0.342049
0.391302 0.956639 0.328137
0.401895 0.948269 0.313947
0.450087 0.943807 0.306378
0.532926 0.943023 0.304514
0.646988 0.945362 0.307873
0.790561 0.950423 0.315561
0.918028 0.957895 0.326900
0.093655 0.122171 0.192926
0.124203 0.123211 0.198283
0.189390 0.129804 0.210280
0.283438 0.143763 0.227421
0.408656 0.156887 0.255426
0.583425 0.162850 0.283937
0.773760 0.188524 0.309637
0.932827 0.225720 0.340059
0.132301 0.193627 0.222545
0.158108 0.191429 0.222785
0.214596 0.193933 0.230979
0.300480 0.202317 0.244080
0.418983 0.211972 0.262948
0.578235 0.219836 0.282224
0.755399 0.243035 0.304491
0.912927 0.275351 0.332129
0.175518 0.291268 0.257182
0.196984 0.284343 0.252716
0.244235 0.282925 0.254148
0.319178 0.286800 0.261514
0.429688 0.292677 0.271551
0.573716 0.302413 0.284079
0.738137 0.322850 0.303685
0.892853 0.350601 0.328729
0.204119 0.424380 0.290819
0.223913 0.410394 0.282203
0.264594 0.401814 0.277056
0.334066 0.399466 0.276015
0.438101 0.401195 0.280836
0.569408 0.407989 0.289874
0.722448 0.423271 0.306769
0.881944 0.452306 0.330361
0.224585 0.585630 0.313649
0.243263 0.564183 0.302221
0.280673 0.545830 0.293009
0.349522 0.533410 0.288915
0.447103 0.527376 0.291148
0.574899 0.538202 0.301306
0.732242 0.560058 0.317778
0.888761 0.587971 0.338837
0.276041 0.740518 0.339453
0.289807 0.715213 0.326147
0.316285 0.690981 0.314116
0.377480 0.682517 0.309060
0.472570 0.686605 0.311262
0.597354 0.697728 0.319498
0.750242 0.714433 0.332813
0.897467 0.735396 0.350361
0.333521 0.862509 0.368731
0.342635 0.849182 0.354061
0.358996 0.840304 0.340637
0.413349 0.836629 0.334056
0.501914 0.837588 0.333736
0.620927 0.842554 0.338878
0.769154 0.850792 0.348895
0.906600 0.861674 0.363021
0.380210 0.964284 0.397706
0.391863 0.955693 0.382721
0.401450 0.947070 0.367533
0.448548 0.942345 0.358727
0.530596 0.941295 0.355683
0.643975 0.943357 0.357999
0.787023 0.948196 0.364871
0.915251 0.955233 0.375624
0.094505 0.127118 0.303123
0.127178 0.126842 0.308386
0.196432 0.131553 0.319019
0.294482 0.143411 0.331721
0.417776 0.160387 0.351510
0.587052 0.168083 0.383690
0.775111 0.193919 0.407418
0.932199 0.231574 0.433984
0.128366 0.200146 0.326062
0.156340 0.196377 0.325830
0.216286 0.196551 0.334012
0.306282 0.202401 0.344892
0.424837 0.214294 0.358151
0.580037 0.223038 0.379614
0.755005 0.246152 0.398559
0.910991 0.278245 0.422148
0.169411 0.299666 0.352450
0.192389 0.291096 0.347433
0.242034 0.287258 0.349112
0.320004 0.287619 0.357223
0.432593 0.293182 0.365936
0.573806 0.303773 0.377880
0.735958 0.323659 0.393267
0.889766 0.351065 0.413920
0.210134 0.429585 0.380485
0.229247 0.414693 0.371289
0.268267 0.404630 0.366577
0.335887 0.400320 0.367253
0.438570 0.400156 0.370755
0.568225 0.406974 0.378203
0.721691 0.423697 0.391634
0.882262 0.453831 0.412067
0.232479 0.586363 0.406475
0.250084 0.564321 0.393896
0.285017 0.544790 0.383302
0.351592 0.531288 0.377496
0.448802 0.527664 0.377652
0.576713 0.540044 0.385451
0.733392 0.561514 0.398991
0.888909 0.588530 0.416826
0.282951 0.738865 0.427370
0.296025 0.712891 0.412449
0.320387 0.690880 0.398971
0.380476 0.684226 0.392775
0.474476 0.688162 0.393091
0.598323 0.698635 0.398987
0.750297 0.714516 0.409441
0.896902 0.734774 0.423861
0.338102 0.862126 0.450429
0.347168 0.850249 0.434726
0.362122 0.841292 0.420611
0.415126 0.837221 0.412631
0.502600 0.837755 0.410405
0.620737 0.842284 0.413350
0.768053 0.850135 0.420710
0.905432 0.860488 0.431869
0.381756 0.964622 0.474867
0.394654 0.956052 0.458936
0.403267 0.947093 0.442500
0.449074 0.942164 0.432182
0.530132 0.940785 0.427244
0.642571 0.942427 0.427281
0.784943 0.946793 0.431602
0.913311 0.953563 0.439427
0.092292 0.130167 0.434858
0.127465 0.128591 0.440002
0.201577 0.131418 0.449707
0.304915 0.140508 0.458939
0.434249 0.154427 0.474652
0.593890 0.172397 0.495719
0.777590 0.201016 0.516578
0.932593 0.239088 0.542408
0.120768 0.205278 0.452432
0.151294 0.199918 0.451796
0.215601 0.197576 0.460161
0.311309 0.200766 0.467783
0.434842 0.210827 0.475214
0.583658 0.227033 0.487521
0.755750 0.250910 0.504193
0.909949 0.283065 0.526027
0.155750 0.307496 0.472936
0.181589 0.297152 0.466925
0.235772 0.290455 0.468143
0.321654 0.289072 0.470206
0.436707 0.294591 0.473665
0.575368 0.306973 0.481731
0.735226 0.326507 0.494894
0.887787 0.353641 0.513279
0.194053 0.439302 0.494622
0.215736 0.422616 0.483749
0.260779 0.409664 0.476418
0.336507 0.402442 0.472864
0.441070 0.401635 0.472855
0.568642 0.408058 0.477849
0.723924 0.427435 0.490387
0.884152 0.457822 0.509639
0.239575 0.589381 0.512726
0.256246 0.566616 0.498161
0.289935 0.545863 0.485425
0.355541 0.531276 0.477408
0.452627 0.531010 0.476801
0.580280 0.544213 0.483587
0.736148 0.564992 0.495784
0.890119 0.591162 0.512141
0.291662 0.738900 0.530009
0.304236 0.712371 0.512577
0.326358 0.693432 0.497841
0.385288 0.688144 0.490900
0.478141 0.691628 0.490241
0.600967 0.701334 0.494674
0.752035 0.716442 0.503895
0.897522 0.735913 0.517032
0.344253 0.863062 0.550073
0.353428 0.852642 0.533144
0.366967 0.843466 0.517483
0.418698 0.839051 0.508443
0.505148 0.839108 0.505061
0.622258 0.843194 0.506685
0.768730 0.850603 0.512807
0.905248 0.860414 0.522798
0.385187 0.966025 0.573264
0.399306 0.957317 0.555781
0.406841 0.948205 0.537577
0.451454 0.942937 0.525768
0.531333 0.941120 0.519641
0.642963 0.942470 0.518358
0.784413 0.946465 0.521339
0.912437 0.952726 0.527935
0.088802 0.131852 0.598354
0.128541 0.130392 0.598087
0.207782 0.133262 0.600079
0.313721 0.142288 0.604364
0.444339 0.157451 0.613969
0.600064 0.179716 0.629170
0.781252 0.209610 0.651002
0.933640 0.248187 0.679444
0.115938 0.209237 0.608051
0.150351 0.203519 0.602476
0.221551 0.202008 0.598594
0.318594 0.206081 0.599096
0.441209 0.216290 0.604621
0.588000 0.233136 0.615606
0.757862 0.257446 0.632547
0.909727 0.289693 0.655771
0.152860 0.314095 0.618575
0.181931 0.302811 0.607419
0.241779 0.295670 0.599524
0.328353 0.294473 0.596122
0.441762 0.299673 0.597791
0.578193 0.311785 0.604834
0.735970 0.331125 0.617501
0.887900 0.358705 0.636942
0.199267 0.445925 0.629666
0.221643 0.428473 0.614789
0.267262 0.414272 0.602449
0.342600 0.406247 0.595186
0.445284 0.405046 0.593027
0.571727 0.412183 0.596888
0.728235 0.433363 0.610499
0.887000 0.463438 0.631341
0.250195 0.593357 0.643208
0.265904 0.570039 0.624477
0.297636 0.548346 0.607446
0.361656 0.534375 0.596581
0.458371 0.536842 0.595538
0.585445 0.550265 0.602295
0.740289 0.570047 0.614589
0.892229 0.595188 0.631961
0.302147 0.740377 0.658877
0.313981 0.714493 0.636861
0.334099 0.698334 0.619254
0.391686 0.693773 0.610591
0.483230 0.696512 0.608610
0.604869 0.705491 0.612420
0.755055 0.719670 0.621494
0.898876 0.738300 0.635242
0.351503 0.865347 0.678660
0.360991 0.855971 0.658662
0.373406 0.846636 0.639659
0.423756 0.841837 0.628028
0.508995 0.841495 0.622996
0.625031 0.845036 0.623716
0.770530 0.851907 0.629351
0.905820 0.861133 0.639421
0.389916 0.968277 0.702737
0.405204 0.959453 0.682066
0.411851 0.949892 0.660266
0.455066 0.944371 0.645417
0.533886 0.942276 0.637136
0.644499 0.943283 0.634566
0.785112 0.946890 0.636719
0.912331 0.952750 0.643018
0.100815 0.139675 0.770869
0.141447 0.138754 0.766655
0.219936 0.142210 0.766063
0.323195 0.151288 0.769782
0.452327 0.166797 0.778770
0.606578 0.189381 0.793395
0.785884 0.219753 0.813852
0.935358 0.259110 0.840009
0.129622 0.217141 0.776321
0.164062 0.211454 0.767644
0.233078 0.209842 0.762167
0.327389 0.213887 0.761300
0.448299 0.224074 0.765709
0.593224 0.241059 0.775780
0.760946 0.265410 0.791337
0.910155 0.297889 0.812605
0.167835 0.322125 0.783519
0.195773 0.310473 0.770432
0.252627 0.302981 0.760230
0.336739 0.301498 0.754930
0.448041 0.306401 0.754825
0.582407 0.318190 0.760345
0.737978 0.337373 0.771599
0.890188 0.366068 0.790736
0.213722 0.452918 0.792341
0.234842 0.435009 0.775140
0.277226 0.420261 0.760081
0.350499 0.411780 0.750024
0.450751 0.410082 0.745391
0.577416 0.419278 0.749273
0.734213 0.441266 0.763134
0.890437 0.470485 0.783360
0.262964 0.598563 0.802683
0.277733 0.574733 0.781670
0.307209 0.552443 0.761442
0.370013 0.541155 0.749168
0.465757 0.544795 0.747458
0.591629 0.557614 0.753411
0.745443 0.576515 0.765080
0.894866 0.600674 0.781492
0.314124 0.743255 0.814404
0.324910 0.720359 0.791528
0.343176 0.705516 0.772676
0.399256 0.700605 0.762397
0.489412 0.702659 0.758900
0.609817 0.710718 0.761528
0.759089 0.724105 0.769727
0.900906 0.741746 0.782382
0.359368 0.869270 0.831418
0.369803 0.859946 0.811134
0.380886 0.850383 0.790916
0.429899 0.845388 0.777913
0.513765 0.844547 0.771353
0.628713 0.847611 0.770762
0.773308 0.853827 0.775325
0.907077 0.862624 0.784143
0.395686 0.971174 0.851403
0.412243 0.962136 0.831080
0.417915 0.952297 0.808819
0.459717 0.946402 0.792975
0.537447 0.944015 0.783347
0.647059 0.944557 0.779304
0.786633 0.947732 0.780335
0.912794 0.953229 0.785372
0.116594 0.149458 0.941053
0.156921 0.148737 0.937028
0.233249 0.152335 0.935663
0.334028 0.161582 0.937936
0.461480 0.177458 0.944366
0.614045 0.200418 0.955051
0.791361 0.231536 0.969884
0.937642 0.271425 0.987923
0.146000 0.226626 0.944128
0.179546 0.220749 0.935997
0.245789 0.219066 0.930411
0.337656 0.223097 0.928588
0.456525 0.233228 0.930966
0.599531 0.250427 0.937937
0.765251 0.274884 0.949065
0.911380 0.307607 0.964326
0.184237 0.331561 0.948047
0.211030 0.319655 0.936227
0.264439 0.311736 0.926448
0.346342 0.309944 0.920453
0.455497 0.314591 0.918738
0.587770 0.326276 0.921679
0.741293 0.345386 0.929506
0.894170 0.375609 0.945304
0.229367 0.461343 0.952990
0.249034 0.443114 0.937723
0.288600 0.427741 0.923363
0.359543 0.418734 0.913037
0.457662 0.416699 0.907223
0.584852 0.428557 0.910806
0.741471 0.450512 0.921866
0.894625 0.478799 0.937245
0.276876 0.605274 0.958538
0.291172 0.581146 0.940071
0.318351 0.558126 0.921230
0.379644 0.549992 0.910819
0.474337 0.554285 0.908676
0.598852 0.566059 0.912397
0.751614 0.583966 0.920917
0.898228 0.606972 0.933359
0.327520 0.747402 0.964709
0.336947 0.727815 0.946355
0.353327 0.713929 0.930134
0.407777 0.708527 0.920179
0.496555 0.709730 0.915880
0.615745 0.717060 0.916901
0.763862 0.729421 0.922345
0.903274 0.746142 0.931756
0.368060 0.873940 0.976152
0.379628 0.864589 0.959827
0.389407 0.854822 0.942722
0.436932 0.849446 0.930618
0.519471 0.848212 0.923969
0.633338 0.850625 0.922280
0.776899 0.856245 0.924740
0.908680 0.864521 0.930902
0.402474 0.974514 0.988550
0.420106 0.965424 0.972912
0.424826 0.955310 0.954653
0.465321 0.948920 0.940650
0.541635 0.946055 0.931535
0.650188 0.946378 0.927005
0.788780 0.949206 0.926548
0.913600 0.954238 0.929555
