gsg/04_Specialty/GSG_LUT_Specialty_YourMajesty.cube
# GSG LUTs 1.0
# Copyright (c) 2016-2020 Greyscalegorilla
# See EULA for licensing and distribution information
# Converted by Briz LUT Converter
LUT_3D_SIZE 8
DOMAIN_MIN 0.000000 0.000000 0.000000
DOMAIN_MAX 0.903226 0.903226 0.903226
0.109158 0.096459 0.112088
0.157068 0.103273 0.118138
0.205530 0.110331 0.124188
0.256103 0.117972 0.130820
0.309985 0.126409 0.138619
0.368026 0.136374 0.147694
0.431770 0.148056 0.158557
0.502060 0.161794 0.171586
0.118201 0.143086 0.120643
0.161771 0.147300 0.124672
0.207995 0.152066 0.129655
0.257517 0.157903 0.135523
0.311285 0.164921 0.142802
0.370653 0.173852 0.151779
0.436481 0.184749 0.162897
0.509848 0.198188 0.176443
0.126575 0.190327 0.128709
0.166804 0.192249 0.131513
0.211163 0.195518 0.135555
0.259994 0.200141 0.141116
0.314302 0.206523 0.148301
0.375361 0.214873 0.157613
0.443769 0.225736 0.169506
0.520772 0.239293 0.184072
0.135649 0.239647 0.137697
0.172882 0.240104 0.139651
0.215896 0.242333 0.143157
0.264671 0.246280 0.148613
0.320060 0.252306 0.156194
0.383036 0.260900 0.166101
0.454587 0.272175 0.178812
0.537149 0.287224 0.194628
0.146323 0.293009 0.148765
0.181362 0.292552 0.150064
0.223413 0.294175 0.153564
0.272472 0.298121 0.159195
0.329397 0.304457 0.167364
0.396633 0.315016 0.178660
0.479789 0.333001 0.192915
0.573225 0.353646 0.208016
0.160117 0.352625 0.163205
0.193391 0.351680 0.164276
0.234984 0.353547 0.167915
0.286667 0.359724 0.174593
0.353688 0.374876 0.184996
0.433110 0.394737 0.197283
0.520824 0.415916 0.210056
0.615858 0.437757 0.222592
0.178140 0.420694 0.182236
0.211109 0.421887 0.183521
0.259405 0.433287 0.188910
0.321549 0.451361 0.197140
0.394103 0.471853 0.206787
0.475576 0.493836 0.217011
0.564906 0.516830 0.227314
0.661063 0.540570 0.237276
0.203663 0.509953 0.206712
0.242984 0.524607 0.208815
0.296674 0.543276 0.213730
0.361707 0.564535 0.220396
0.436528 0.587872 0.228107
0.519942 0.612644 0.236000
0.610879 0.638676 0.243919
0.708126 0.665038 0.251296
0.111418 0.098751 0.153523
0.158537 0.105317 0.158746
0.206562 0.112190 0.164095
0.256981 0.119745 0.170125
0.310780 0.128213 0.177266
0.369223 0.138304 0.185860
0.433322 0.150025 0.196290
0.504329 0.163843 0.209020
0.119729 0.144610 0.160270
0.162747 0.148521 0.163721
0.208653 0.153102 0.167810
0.257907 0.158880 0.173165
0.311915 0.165928 0.179927
0.371559 0.174979 0.188631
0.437954 0.185974 0.199504
0.512063 0.199493 0.212785
0.127764 0.191272 0.167057
0.167258 0.192925 0.169041
0.211399 0.195975 0.172524
0.260207 0.200528 0.177478
0.314672 0.206979 0.184283
0.376060 0.215408 0.193202
0.445010 0.226487 0.204823
0.522787 0.240238 0.219184
0.136413 0.239923 0.174761
0.173155 0.240247 0.175950
0.215913 0.242333 0.178956
0.264678 0.246299 0.183906
0.320320 0.252338 0.191028
0.383694 0.261089 0.200725
0.455920 0.272643 0.213267
0.541544 0.289152 0.229070
0.146843 0.293025 0.184804
0.181394 0.292335 0.185369
0.223308 0.293946 0.188334
0.272489 0.297886 0.193639
0.329615 0.304350 0.201434
0.400203 0.317188 0.213131
0.485206 0.336185 0.227729
0.579289 0.356802 0.242845
0.160636 0.352625 0.198220
0.193432 0.351467 0.198753
0.235048 0.353357 0.201923
0.289290 0.362139 0.209062
0.358381 0.378896 0.219969
0.438528 0.398959 0.232500
0.526760 0.420139 0.245395
0.621939 0.441817 0.258206
0.178660 0.420726 0.216432
0.212917 0.424745 0.217953
0.262832 0.438218 0.223829
0.325937 0.456623 0.232504
0.398960 0.477144 0.242323
0.481051 0.499287 0.252799
0.570736 0.522281 0.263551
0.667204 0.546021 0.274027
0.205488 0.515522 0.241372
0.245821 0.530662 0.243808
0.300227 0.549576 0.249242
0.366016 0.571077 0.256352
0.441454 0.594639 0.264463
0.525417 0.619673 0.273097
0.616706 0.645646 0.281603
0.714404 0.672101 0.289731
0.113986 0.101532 0.198259
0.160337 0.107858 0.202812
0.208098 0.114672 0.207901
0.258427 0.122069 0.213722
0.312308 0.130750 0.220631
0.371153 0.140714 0.229225
0.435811 0.152641 0.239655
0.507574 0.166868 0.252385
0.121801 0.146599 0.204057
0.164272 0.150293 0.207002
0.209742 0.154847 0.210880
0.259067 0.160440 0.215990
0.313198 0.167687 0.222649
0.373170 0.176772 0.231269
0.440186 0.188026 0.242168
0.515102 0.201946 0.255693
0.129505 0.192571 0.210052
0.168484 0.194177 0.211775
0.212261 0.197180 0.214880
0.261105 0.201798 0.219759
0.315947 0.208183 0.226508
0.377631 0.216873 0.235559
0.447311 0.228049 0.247098
0.525861 0.242141 0.261633
0.137799 0.240970 0.217267
0.174185 0.241132 0.218213
0.216726 0.243139 0.220920
0.265549 0.247182 0.225799
0.321407 0.253397 0.232928
0.385347 0.262270 0.242796
0.458948 0.274422 0.255648
0.547823 0.292317 0.271788
0.148277 0.293930 0.226933
0.182434 0.293103 0.227343
0.224232 0.294726 0.230115
0.273525 0.298716 0.235327
0.331322 0.305647 0.243399
0.405583 0.321064 0.256095
0.492073 0.340525 0.270977
0.586347 0.361011 0.286297
0.161952 0.353421 0.240183
0.194558 0.352396 0.240432
0.236475 0.354624 0.243707
0.293529 0.366341 0.252006
0.364366 0.384391 0.263426
0.444886 0.404319 0.276269
0.533420 0.425279 0.289414
0.629018 0.446938 0.302649
0.180269 0.422035 0.258395
0.215913 0.428988 0.260562
0.267664 0.444344 0.267248
0.331185 0.462925 0.276146
0.404878 0.483611 0.286439
0.487408 0.505694 0.297467
0.577502 0.528739 0.308886
0.674216 0.552323 0.319978
0.208334 0.522370 0.284369
0.249625 0.537759 0.287300
0.304806 0.556973 0.293269
0.371129 0.578735 0.300975
0.447181 0.602455 0.309954
0.531599 0.627473 0.319294
0.623273 0.653517 0.328802
0.721322 0.679902 0.337988
0.116767 0.104652 0.246390
0.162579 0.110863 0.250781
0.210115 0.117477 0.255765
0.260443 0.125094 0.261704
0.314569 0.133774 0.268811
0.373752 0.143931 0.277642
0.439046 0.156099 0.288442
0.511512 0.170475 0.301667
0.124333 0.148954 0.251920
0.166244 0.152565 0.254711
0.211517 0.157088 0.258741
0.260833 0.162833 0.263996
0.315247 0.170255 0.270911
0.375705 0.179422 0.279829
0.443324 0.191015 0.291067
0.519052 0.205127 0.305085
0.131679 0.194541 0.257782
0.170318 0.196030 0.259508
0.214022 0.199046 0.262873
0.262840 0.203738 0.267880
0.318004 0.210360 0.274939
0.380238 0.219236 0.284377
0.450614 0.230785 0.296454
0.530146 0.245172 0.311420
0.140084 0.242767 0.265254
0.175982 0.242853 0.266115
0.218445 0.244879 0.269169
0.267454 0.249004 0.274276
0.323614 0.255427 0.281774
0.388219 0.264577 0.292054
0.464435 0.278077 0.305744
0.555501 0.296758 0.322510
0.150514 0.295640 0.275222
0.184393 0.294777 0.275633
0.226150 0.296484 0.278755
0.275566 0.300633 0.284301
0.336208 0.309730 0.293501
0.412744 0.326340 0.307156
0.499854 0.345892 0.322381
0.594230 0.366075 0.338029
0.164465 0.355317 0.289052
0.196754 0.354258 0.289497
0.240546 0.358841 0.293836
0.299653 0.372469 0.303093
0.371342 0.390730 0.315156
0.452261 0.410611 0.328365
0.541061 0.431486 0.342219
0.636874 0.452818 0.356180
0.183725 0.426711 0.308504
0.220809 0.435829 0.311607
0.273354 0.451661 0.318857
0.337495 0.470222 0.328384
0.411660 0.490836 0.339434
0.494535 0.512905 0.351310
0.584933 0.535904 0.363632
0.682083 0.559333 0.375937
0.212147 0.530174 0.335429
0.254288 0.546029 0.339281
0.310080 0.565317 0.346063
0.377077 0.587116 0.354816
0.453652 0.610960 0.364724
0.538594 0.636084 0.375333
0.630608 0.662130 0.386164
0.728906 0.688518 0.396765
0.120036 0.108196 0.297767
0.165316 0.114262 0.302438
0.212683 0.120966 0.307882
0.262997 0.128489 0.314183
0.317326 0.137414 0.321856
0.377103 0.147781 0.331340
0.443097 0.160324 0.342849
0.516408 0.175099 0.356769
0.127339 0.151948 0.303817
0.168675 0.155430 0.306968
0.213904 0.159951 0.311293
0.263356 0.165877 0.317122
0.318107 0.173406 0.324623
0.379048 0.182987 0.334289
0.447437 0.194848 0.346320
0.524082 0.209367 0.361212
0.134674 0.197172 0.310363
0.172925 0.198632 0.312457
0.216409 0.201677 0.316287
0.265486 0.206561 0.321895
0.320960 0.213374 0.329649
0.383813 0.222553 0.339782
0.454885 0.234424 0.352691
0.535569 0.249326 0.368704
0.143037 0.245303 0.318650
0.178613 0.245311 0.320079
0.221119 0.247501 0.323654
0.270302 0.251758 0.329332
0.326866 0.258441 0.337595
0.392176 0.268039 0.348688
0.472058 0.283297 0.363925
0.564418 0.302194 0.381379
0.153665 0.298153 0.329759
0.187239 0.297435 0.330704
0.229045 0.299193 0.334413
0.278785 0.303653 0.340699
0.342779 0.315273 0.351710
0.421011 0.332861 0.366382
0.508470 0.352174 0.382286
0.603151 0.371951 0.398773
0.167860 0.358289 0.344787
0.200023 0.357356 0.345819
0.246110 0.364769 0.351866
0.306966 0.379800 0.362435
0.379167 0.398025 0.375200
0.460446 0.417706 0.389373
0.549479 0.438327 0.404161
0.645398 0.459538 0.419408
0.188423 0.433008 0.366296
0.226768 0.443823 0.370724
0.279887 0.459817 0.378913
0.344619 0.478466 0.389492
0.419150 0.499014 0.401565
0.502351 0.520942 0.414746
0.593189 0.543881 0.428543
0.690302 0.567162 0.442369
0.217015 0.539076 0.395033
0.259824 0.555046 0.400019
0.316283 0.574518 0.408095
0.383803 0.596528 0.418269
0.460833 0.620310 0.429678
0.546181 0.645452 0.442045
0.638471 0.671414 0.454756
0.736762 0.697901 0.469552
0.123794 0.112143 0.352814
0.168467 0.118280 0.358131
0.215748 0.124922 0.364222
0.266194 0.132713 0.371407
0.320997 0.141773 0.379986
0.381094 0.152460 0.390342
0.447899 0.165339 0.403068
0.522187 0.180528 0.418237
0.131009 0.155461 0.360030
0.171916 0.158932 0.363835
0.216979 0.163622 0.369070
0.266693 0.169703 0.375674
0.321675 0.177510 0.384220
0.383395 0.187336 0.394938
0.452456 0.199543 0.408066
0.530135 0.214536 0.424153
0.138195 0.200441 0.368082
0.176116 0.202012 0.370823
0.219671 0.205185 0.375523
0.268996 0.210207 0.382096
0.324877 0.217269 0.390828
0.388406 0.226826 0.402134
0.460344 0.239152 0.416266
0.542963 0.254718 0.433553
0.146780 0.248580 0.377927
0.182252 0.248715 0.380123
0.224609 0.251022 0.384584
0.274037 0.255539 0.391333
0.331238 0.262586 0.400668
0.398360 0.273169 0.413380
0.481064 0.289778 0.430151
0.574138 0.308501 0.448642
0.157698 0.301666 0.390689
0.191142 0.300996 0.392671
0.232929 0.303020 0.397243
0.284119 0.308581 0.405011
0.351054 0.322442 0.418039
0.430362 0.340219 0.434067
0.517920 0.359203 0.451188
0.612632 0.378707 0.468993
0.172295 0.362173 0.407806
0.204996 0.362218 0.410137
0.253137 0.372289 0.418174
0.315308 0.388052 0.430117
0.387827 0.406140 0.444249
0.469306 0.425566 0.459754
0.558682 0.445969 0.476249
0.654711 0.466861 0.493181
0.194064 0.440533 0.432191
0.233603 0.452780 0.438213
0.287315 0.468825 0.447867
0.352452 0.487424 0.459835
0.427435 0.507916 0.473772
0.510998 0.529821 0.488798
0.601922 0.552515 0.504592
0.698720 0.576121 0.521598
0.222482 0.548773 0.463563
0.266060 0.564900 0.470267
0.323146 0.584578 0.480142
0.391266 0.606576 0.492302
0.468722 0.630381 0.505853
0.554416 0.655514 0.520646
0.647372 0.681352 0.537202
0.744385 0.708969 0.559083
0.127985 0.116507 0.411588
0.172382 0.122746 0.417858
0.219410 0.129592 0.425154
0.270141 0.137477 0.433463
0.325220 0.146772 0.443342
0.386030 0.157867 0.455130
0.453642 0.171058 0.469172
0.528888 0.186813 0.485830
0.135043 0.159645 0.420821
0.175859 0.163127 0.425706
0.220875 0.167942 0.432023
0.270689 0.174264 0.439929
0.326283 0.182367 0.449683
0.388563 0.192610 0.461785
0.458563 0.205271 0.476572
0.537200 0.220742 0.494253
0.142597 0.204577 0.430850
0.180202 0.206103 0.434804
0.223736 0.209524 0.440633
0.273314 0.214723 0.448525
0.329792 0.222208 0.458767
0.393871 0.232146 0.471519
0.466930 0.244960 0.487211
0.552238 0.261246 0.506257
0.151341 0.252729 0.443029
0.186588 0.253006 0.446451
0.229170 0.255552 0.452245
0.278887 0.260262 0.460309
0.336675 0.267873 0.471167
0.406950 0.279962 0.485998
0.491310 0.297129 0.504680
0.584669 0.315546 0.524840
0.162751 0.306172 0.458383
0.195987 0.305617 0.461601
0.238049 0.307972 0.467498
0.291858 0.315806 0.477704
0.360676 0.330715 0.492818
0.440402 0.348327 0.510505
0.528136 0.366938 0.529434
0.622926 0.386004 0.549091
0.177927 0.367072 0.478160
0.212016 0.369849 0.482738
0.261617 0.381244 0.492934
0.324409 0.397115 0.506664
0.397230 0.415038 0.522702
0.479002 0.434200 0.540306
0.568533 0.454386 0.559010
0.664698 0.474943 0.578440
0.200854 0.450211 0.506523
0.241152 0.462721 0.514499
0.295427 0.478595 0.526234
0.361023 0.497159 0.540390
0.436342 0.517613 0.556549
0.520181 0.539269 0.574222
0.611410 0.561769 0.592798
0.706441 0.587277 0.612554
0.228745 0.559266 0.541397
0.273052 0.575637 0.550423
0.330715 0.595296 0.562939
0.399308 0.617313 0.577608
0.477137 0.641150 0.594121
0.564539 0.666037 0.612306
0.658377 0.692709 0.633022
0.753269 0.722126 0.657369
0.132727 0.121494 0.474654
0.176667 0.127767 0.482209
0.223744 0.134860 0.490797
0.274639 0.142992 0.500658
0.330257 0.152637 0.512167
0.391855 0.164142 0.525755
0.460144 0.177988 0.541618
0.536626 0.194060 0.560124
0.139816 0.164394 0.486247
0.180362 0.167903 0.492536
0.225460 0.172970 0.500349
0.275666 0.179625 0.509948
0.331583 0.188125 0.521475
0.394740 0.198848 0.535329
0.465577 0.211972 0.551953
0.545401 0.228151 0.571454
0.147621 0.209374 0.499326
0.185127 0.211050 0.504588
0.228775 0.214666 0.512023
0.278676 0.220299 0.521620
0.335631 0.228119 0.533528
0.400558 0.238589 0.548119
0.474840 0.251985 0.565899
0.563226 0.268963 0.587266
0.156847 0.257820 0.514393
0.191883 0.258266 0.519334
0.234676 0.260958 0.526684
0.284740 0.266154 0.536555
0.343447 0.274173 0.549337
0.417020 0.288261 0.567186
0.502595 0.305353 0.588196
0.595994 0.323345 0.610403
0.168750 0.311678 0.532939
0.201972 0.311354 0.537635
0.244357 0.314027 0.545353
0.301079 0.324408 0.558764
0.371175 0.339874 0.576461
0.451096 0.357173 0.596431
0.538977 0.375407 0.617954
0.633865 0.394045 0.640295
0.184442 0.373225 0.556123
0.219978 0.378677 0.563511
0.271040 0.391190 0.576323
0.334103 0.406899 0.592697
0.407346 0.424563 0.611319
0.489314 0.443557 0.631720
0.578906 0.463447 0.653465
0.675256 0.483562 0.676020
0.208628 0.460759 0.589804
0.249475 0.473214 0.600291
0.304117 0.489105 0.614662
0.370207 0.507649 0.631845
0.445881 0.527867 0.651099
0.530302 0.549625 0.671412
0.621506 0.573137 0.691901
0.716163 0.599096 0.712912
0.235580 0.570554 0.629338
0.280627 0.586949 0.641605
0.338808 0.606826 0.657252
0.407979 0.628838 0.675438
0.486820 0.652555 0.695067
0.576925 0.677949 0.713778
0.671122 0.706120 0.734342
0.764698 0.737079 0.759251
