gsg/04_Specialty/GSG_LUT_Specialty_BattleWarmth.cube
# GSG LUTs 1.0
# Copyright (c) 2016-2020 Greyscalegorilla
# See EULA for licensing and distribution information
# Converted by Briz LUT Converter
LUT_3D_SIZE 8
DOMAIN_MIN 0.000000 0.000000 0.000000
DOMAIN_MAX 0.903226 0.903226 0.903226
0.055189 0.061783 0.068376
0.110954 0.056993 0.059506
0.168183 0.060507 0.074765
0.225413 0.064603 0.096869
0.283012 0.069250 0.124660
0.340762 0.074450 0.157407
0.398755 0.080255 0.194431
0.457237 0.086770 0.235858
0.090197 0.147316 0.292780
0.129017 0.149151 0.077364
0.185269 0.153523 0.092150
0.242936 0.158108 0.113730
0.301871 0.162693 0.140738
0.362240 0.167277 0.172700
0.421805 0.172926 0.210027
0.481324 0.179416 0.251534
0.119666 0.243720 0.308275
0.159313 0.243625 0.106377
0.212918 0.249171 0.122479
0.268430 0.255213 0.141840
0.326110 0.261082 0.166842
0.385332 0.266833 0.196793
0.446675 0.272638 0.231407
0.510442 0.277854 0.270391
0.160904 0.339738 0.324385
0.200697 0.336264 0.144125
0.252195 0.342471 0.160653
0.304520 0.349868 0.181642
0.359414 0.357802 0.203409
0.416875 0.365306 0.230269
0.476456 0.372565 0.262090
0.538532 0.379580 0.298801
0.218063 0.429651 0.349821
0.250943 0.427422 0.189137
0.300114 0.434654 0.204553
0.350191 0.442727 0.225107
0.401729 0.451989 0.248872
0.456164 0.461699 0.272328
0.513319 0.471070 0.300650
0.572720 0.480046 0.334574
0.280744 0.517248 0.387325
0.306243 0.518756 0.237890
0.352884 0.526819 0.251595
0.400798 0.536146 0.270560
0.449995 0.546310 0.293600
0.500722 0.557329 0.319372
0.552630 0.569550 0.346539
0.604246 0.582607 0.381984
0.340045 0.607948 0.432195
0.362156 0.612865 0.287234
0.405976 0.622143 0.298098
0.449448 0.633151 0.316505
0.493077 0.645574 0.340465
0.537426 0.659309 0.368581
0.582355 0.674292 0.400840
0.628579 0.689711 0.437253
0.372130 0.712734 0.473780
0.403852 0.714858 0.334486
0.441764 0.726048 0.343738
0.481067 0.738980 0.359661
0.521572 0.752952 0.380965
0.563362 0.767821 0.406821
0.606431 0.783190 0.437686
0.650967 0.799222 0.473163
0.255953 0.443964 0.447335
0.145480 0.063102 0.118232
0.202001 0.066895 0.133247
0.258880 0.071023 0.155107
0.315948 0.075852 0.182639
0.373198 0.081275 0.215125
0.430895 0.087338 0.251904
0.488834 0.093860 0.292864
0.120781 0.153362 0.350435
0.161337 0.155749 0.132250
0.218295 0.159301 0.146913
0.276473 0.163331 0.168360
0.334502 0.167730 0.195915
0.392650 0.173006 0.228504
0.451163 0.178952 0.265501
0.510156 0.185466 0.306684
0.147253 0.248486 0.363811
0.187970 0.250172 0.159320
0.241295 0.255632 0.172562
0.297288 0.260946 0.191534
0.355401 0.266034 0.216593
0.415596 0.270905 0.246570
0.477820 0.275419 0.281599
0.538512 0.281594 0.322614
0.180223 0.345346 0.378538
0.226364 0.342120 0.194468
0.276387 0.348511 0.209225
0.328456 0.355899 0.227191
0.383745 0.362952 0.248431
0.441520 0.369714 0.275372
0.501925 0.375955 0.307555
0.564675 0.381937 0.344877
0.229894 0.437016 0.395177
0.273118 0.432555 0.236406
0.320670 0.439804 0.250293
0.369670 0.447976 0.269452
0.420928 0.457159 0.290427
0.475447 0.466152 0.313463
0.532849 0.474689 0.342558
0.592889 0.482762 0.376868
0.287797 0.525548 0.425077
0.324447 0.523234 0.282471
0.369556 0.531286 0.294770
0.416293 0.540514 0.312569
0.464596 0.550508 0.334633
0.514743 0.561737 0.358631
0.564806 0.574306 0.387770
0.615894 0.587396 0.423703
0.343305 0.620135 0.465524
0.375655 0.617378 0.328941
0.417448 0.627002 0.339241
0.459326 0.639043 0.357236
0.502131 0.652436 0.380638
0.545771 0.666706 0.408893
0.590679 0.681765 0.441719
0.636964 0.697322 0.478892
0.371093 0.726697 0.508196
0.412385 0.720792 0.372703
0.450078 0.732641 0.382237
0.489133 0.745802 0.398480
0.529637 0.759904 0.420248
0.571395 0.774976 0.446894
0.614467 0.790538 0.478619
0.659226 0.806420 0.515706
0.270078 0.449462 0.500106
0.181630 0.070196 0.176769
0.237914 0.074016 0.191666
0.294718 0.078451 0.213344
0.351703 0.083586 0.240585
0.408933 0.089180 0.272726
0.466610 0.095474 0.309378
0.524652 0.102296 0.350073
0.157399 0.160999 0.408177
0.198894 0.162598 0.188905
0.255632 0.166143 0.203875
0.312821 0.170271 0.225502
0.370350 0.175068 0.252747
0.428288 0.180516 0.284947
0.486757 0.186500 0.321722
0.545551 0.193107 0.362661
0.183182 0.255087 0.419977
0.222550 0.258671 0.211884
0.277395 0.263426 0.223738
0.334900 0.267557 0.243098
0.394343 0.271606 0.268424
0.454304 0.276222 0.299573
0.513431 0.281988 0.336209
0.572974 0.288520 0.377513
0.214833 0.351215 0.433361
0.259415 0.350757 0.245789
0.308935 0.357339 0.258650
0.362222 0.364077 0.273892
0.418685 0.370175 0.295708
0.477768 0.375832 0.323290
0.539345 0.381063 0.356403
0.603177 0.386018 0.394937
0.253601 0.446921 0.447903
0.304320 0.441195 0.285987
0.350860 0.448587 0.298332
0.399500 0.456821 0.315765
0.451547 0.465456 0.333809
0.507065 0.473512 0.357568
0.565521 0.480951 0.387406
0.626098 0.488218 0.423389
0.308567 0.539232 0.470550
0.353161 0.531992 0.330394
0.397038 0.540161 0.341107
0.442941 0.549728 0.357539
0.490772 0.560210 0.378380
0.539194 0.572768 0.402613
0.588305 0.586329 0.433759
0.639354 0.599761 0.471097
0.357306 0.637270 0.507899
0.399624 0.628677 0.373229
0.439313 0.639553 0.383866
0.480311 0.651936 0.401922
0.522436 0.665366 0.425283
0.565858 0.679624 0.453668
0.610554 0.694616 0.487009
0.656864 0.709954 0.524839
0.380383 0.744513 0.550938
0.431385 0.732669 0.414855
0.468592 0.744645 0.424625
0.507455 0.758034 0.441126
0.547718 0.772308 0.463106
0.589405 0.787174 0.490350
0.632586 0.802663 0.523075
0.677459 0.818087 0.561485
0.301611 0.457017 0.554988
0.221214 0.078613 0.235748
0.277718 0.082690 0.250281
0.334670 0.087376 0.271826
0.391957 0.092788 0.298759
0.449525 0.098838 0.330655
0.507454 0.105416 0.367001
0.565850 0.112559 0.407656
0.201142 0.170483 0.466359
0.240731 0.171115 0.247698
0.297354 0.174804 0.262194
0.354583 0.179015 0.283477
0.412254 0.184047 0.310293
0.470452 0.189716 0.342124
0.529044 0.196036 0.378638
0.588251 0.202860 0.419473
0.227887 0.264145 0.477057
0.266323 0.268162 0.264628
0.323376 0.271398 0.277748
0.381280 0.275103 0.298131
0.439341 0.279664 0.324630
0.497799 0.285083 0.356351
0.556871 0.291203 0.392864
0.616383 0.297948 0.433952
0.260181 0.359901 0.489740
0.300110 0.362503 0.298059
0.351319 0.368582 0.307107
0.406905 0.373899 0.323184
0.465316 0.378714 0.346035
0.526216 0.383198 0.374737
0.587917 0.388122 0.409684
0.647716 0.394668 0.450986
0.295481 0.457335 0.504645
0.344476 0.453655 0.337517
0.390664 0.461011 0.348261
0.440605 0.469170 0.361559
0.494707 0.476605 0.379980
0.551850 0.483636 0.405198
0.611245 0.490671 0.436747
0.669267 0.498993 0.477238
0.341847 0.557186 0.522821
0.391672 0.545990 0.380366
0.434866 0.554791 0.389415
0.480193 0.565477 0.404782
0.526152 0.577623 0.426035
0.573430 0.590670 0.451747
0.622866 0.603487 0.484104
0.674503 0.616016 0.523041
0.380267 0.658432 0.558927
0.431654 0.645882 0.421529
0.470375 0.657074 0.432262
0.510752 0.669524 0.450016
0.552622 0.683070 0.473446
0.595827 0.697181 0.502099
0.640656 0.711795 0.535935
0.687553 0.726640 0.574116
0.399558 0.765616 0.601440
0.459060 0.749432 0.460198
0.495999 0.761666 0.469997
0.534692 0.775003 0.486661
0.575021 0.789227 0.509017
0.616848 0.803852 0.536941
0.660365 0.818871 0.570683
0.705791 0.833686 0.610659
0.344141 0.466462 0.611706
0.266304 0.088818 0.295238
0.323291 0.093158 0.309614
0.380677 0.098249 0.330756
0.438402 0.103982 0.357493
0.496396 0.110276 0.389106
0.555102 0.117345 0.425457
0.614088 0.124897 0.465891
0.253094 0.182315 0.525180
0.289426 0.181464 0.307554
0.346426 0.185466 0.321533
0.404026 0.189964 0.342341
0.462011 0.195182 0.368907
0.520647 0.201150 0.400504
0.579795 0.207759 0.436751
0.639314 0.215023 0.477550
0.282627 0.275727 0.535358
0.319486 0.278538 0.323679
0.376321 0.281862 0.336809
0.433795 0.286043 0.357178
0.491883 0.290936 0.383365
0.550670 0.296546 0.414778
0.609895 0.302937 0.451227
0.669832 0.309927 0.492439
0.316915 0.371397 0.547859
0.351576 0.376926 0.349363
0.406915 0.380796 0.359103
0.465007 0.384572 0.376725
0.524818 0.388540 0.401089
0.584044 0.393636 0.431906
0.643023 0.399970 0.468502
0.702482 0.407044 0.510043
0.350599 0.472031 0.563055
0.393955 0.470198 0.390814
0.441876 0.477396 0.397361
0.494829 0.484288 0.410099
0.550774 0.490713 0.430373
0.607899 0.498009 0.457679
0.663653 0.506755 0.493976
0.718624 0.516291 0.538682
0.383505 0.577339 0.581428
0.437756 0.565993 0.430583
0.479760 0.575655 0.439399
0.522945 0.586858 0.456197
0.568226 0.599034 0.476971
0.616152 0.611183 0.503934
0.666428 0.622899 0.538034
0.719230 0.634088 0.579608
0.410182 0.682217 0.616960
0.469971 0.666785 0.472133
0.508150 0.678148 0.482866
0.548202 0.690658 0.500581
0.589943 0.703850 0.524090
0.633437 0.717681 0.553189
0.678970 0.731671 0.587377
0.727285 0.745538 0.626024
0.426704 0.788684 0.658006
0.493249 0.769948 0.507398
0.530130 0.782107 0.517409
0.568918 0.795289 0.534261
0.609568 0.809149 0.557094
0.651973 0.823258 0.585916
0.696273 0.837493 0.621021
0.742663 0.851621 0.662699
0.395392 0.477191 0.669857
0.318713 0.101264 0.355776
0.376344 0.106062 0.369846
0.434401 0.111442 0.390720
0.492877 0.117649 0.417141
0.551837 0.124345 0.448596
0.611241 0.131750 0.484733
0.671275 0.139816 0.525188
0.315083 0.197085 0.584659
0.346892 0.194385 0.368623
0.404345 0.198578 0.382158
0.462479 0.203395 0.402552
0.521106 0.209032 0.428847
0.580272 0.215292 0.460184
0.640126 0.222191 0.496457
0.700521 0.229853 0.537361
0.348451 0.290292 0.594825
0.381604 0.291884 0.385553
0.438593 0.295419 0.398195
0.496522 0.299783 0.418119
0.555108 0.305084 0.444043
0.614267 0.310990 0.475371
0.674142 0.317586 0.511869
0.734413 0.325023 0.553226
0.384919 0.386701 0.607942
0.419960 0.390699 0.406587
0.476595 0.393741 0.417775
0.533975 0.397816 0.437006
0.591875 0.402819 0.462442
0.650205 0.408856 0.493602
0.708454 0.415834 0.530245
0.763435 0.425095 0.574560
0.412987 0.489895 0.623357
0.454941 0.490856 0.442653
0.506207 0.496328 0.448305
0.559816 0.502403 0.462786
0.613613 0.509411 0.486046
0.666915 0.517571 0.518155
0.719336 0.526813 0.558445
0.770056 0.537595 0.606177
0.432377 0.598243 0.647918
0.487382 0.589912 0.483657
0.527865 0.599972 0.493779
0.571328 0.610989 0.509352
0.617797 0.622040 0.530653
0.666959 0.632786 0.559578
0.718581 0.643089 0.596271
0.772958 0.652645 0.640688
0.446560 0.707239 0.682024
0.513352 0.690590 0.524329
0.551376 0.701934 0.535143
0.591686 0.714126 0.552909
0.633945 0.726846 0.576746
0.678199 0.739919 0.606153
0.725227 0.753031 0.640308
0.775563 0.765189 0.681566
0.460986 0.812801 0.720273
0.532663 0.792956 0.555852
0.569987 0.805060 0.566296
0.609388 0.817795 0.583626
0.650796 0.830994 0.607042
0.694190 0.844400 0.637027
0.739836 0.857623 0.673662
0.787695 0.870582 0.717439
0.454212 0.488960 0.729103
0.380306 0.116656 0.417441
0.438733 0.121681 0.431185
0.497533 0.127536 0.451725
0.556989 0.134108 0.477947
0.617035 0.141258 0.509386
0.677501 0.149183 0.545457
0.738611 0.157664 0.586285
0.388413 0.214951 0.645296
0.414614 0.210224 0.431342
0.472675 0.214557 0.444318
0.531557 0.219824 0.464473
0.591005 0.225821 0.490544
0.651086 0.232565 0.521849
0.711729 0.239818 0.558298
0.772974 0.247824 0.599647
0.426649 0.308181 0.656442
0.454992 0.308173 0.449608
0.512495 0.312096 0.461762
0.570893 0.316807 0.481372
0.630141 0.322354 0.507135
0.689887 0.328701 0.538551
0.750254 0.335714 0.575427
0.810850 0.343557 0.617370
0.458527 0.406192 0.669455
0.498389 0.407990 0.472191
0.554524 0.411316 0.482849
0.611330 0.415912 0.501476
0.667742 0.421545 0.526277
0.722119 0.428886 0.557775
0.772752 0.438655 0.597954
0.823214 0.449224 0.644765
0.481106 0.509294 0.685931
0.526679 0.512234 0.495505
0.576823 0.517098 0.503980
0.627053 0.523554 0.522946
0.677647 0.531090 0.550249
0.727233 0.540050 0.585482
0.777074 0.549873 0.627454
0.827577 0.560206 0.675974
0.488030 0.619938 0.717716
0.539993 0.616531 0.539954
0.581402 0.626066 0.548809
0.626742 0.635877 0.564036
0.674983 0.645413 0.587704
0.725685 0.654467 0.619277
0.779208 0.662992 0.658778
0.832170 0.672246 0.707732
0.490873 0.731830 0.753331
0.561598 0.716470 0.577702
0.600103 0.727372 0.588789
0.641136 0.739023 0.606751
0.684317 0.751042 0.631028
0.730473 0.762972 0.660352
0.780170 0.774287 0.696127
0.833033 0.784276 0.741320
0.502509 0.837268 0.787309
0.577455 0.817822 0.605592
0.615639 0.829446 0.616471
0.656110 0.841466 0.634395
0.698878 0.853802 0.658747
0.743932 0.866155 0.689943
0.791303 0.878123 0.728351
0.841227 0.889566 0.774666
0.527796 0.501186 0.794612
0.452490 0.134972 0.480641
0.511747 0.140378 0.493907
0.571791 0.146700 0.514333
0.632392 0.153744 0.540497
0.693616 0.161424 0.571878
0.755353 0.169730 0.608308
0.817771 0.178510 0.649462
0.474360 0.236268 0.707771
0.494027 0.229137 0.495834
0.552810 0.233889 0.508580
0.612582 0.239510 0.528527
0.673041 0.245888 0.554562
0.734134 0.253059 0.586194
0.795883 0.260839 0.622986
0.858295 0.269145 0.664907
0.515929 0.329741 0.720230
0.540865 0.328168 0.516415
0.598919 0.332284 0.528084
0.658056 0.337387 0.547587
0.717705 0.343306 0.573465
0.777677 0.350081 0.605120
0.835187 0.357970 0.643064
0.887361 0.368083 0.689372
0.535934 0.427492 0.732506
0.586002 0.429005 0.539876
0.638980 0.432835 0.548760
0.690714 0.438136 0.566324
0.739828 0.445756 0.593660
0.788729 0.454486 0.628317
0.838337 0.463997 0.669562
0.888496 0.474095 0.717137
0.546930 0.532585 0.755945
0.599301 0.534823 0.558341
0.646045 0.540476 0.569953
0.693649 0.547559 0.591138
0.741971 0.555497 0.619879
0.791016 0.564234 0.655703
0.840741 0.573586 0.698342
0.891387 0.583399 0.747730
0.549230 0.642774 0.789727
0.598273 0.644178 0.596298
0.642500 0.652065 0.604607
0.690188 0.660078 0.622704
0.740329 0.667753 0.648974
0.792723 0.675277 0.683445
0.843907 0.683822 0.726954
0.895430 0.693213 0.778150
0.549597 0.753712 0.825202
0.614816 0.743475 0.632312
0.654567 0.753833 0.643665
0.697015 0.764410 0.661988
0.742597 0.775200 0.685958
0.791856 0.785290 0.716477
0.844386 0.794181 0.756345
0.899684 0.801842 0.805931
0.551890 0.863765 0.860162
0.627820 0.843562 0.656310
0.667485 0.854394 0.667751
0.709906 0.865509 0.686232
0.754559 0.876635 0.711854
0.801693 0.887518 0.744715
0.851563 0.897751 0.785126
0.904596 0.907377 0.833772
