gsg/04_Specialty/GSG_LUT_Specialty_Painterly.cube
# GSG LUTs 1.0
# Copyright (c) 2016-2020 Greyscalegorilla
# See EULA for licensing and distribution information
# Converted by Briz LUT Converter
LUT_3D_SIZE 5
DOMAIN_MIN 0.000000 0.000000 0.000000
DOMAIN_MAX 0.903226 0.903226 0.903226
0.103297 0.107204 0.148474
0.187821 0.109512 0.149695
0.362180 0.108165 0.149829
0.673362 0.080759 0.133932
0.969341 0.165930 0.056292
0.101249 0.187727 0.172075
0.200165 0.191026 0.170529
0.418136 0.217890 0.160314
0.725279 0.255575 0.124308
0.985175 0.305626 0.050794
0.050794 0.451794 0.193194
0.197647 0.462791 0.183658
0.484252 0.481650 0.163811
0.795156 0.531451 0.056646
0.999457 0.535464 0.050794
0.050794 0.787688 0.210721
0.076709 0.789602 0.202515
0.551838 0.794939 0.182405
0.810261 0.794138 0.158809
0.998933 0.759589 0.191460
0.241467 0.972098 0.491355
0.383198 0.971652 0.492384
0.599738 0.969454 0.490702
0.807186 0.965394 0.495119
0.997409 0.958247 0.505763
0.088597 0.112064 0.238544
0.178500 0.111112 0.247569
0.361962 0.076948 0.243441
0.653403 0.050794 0.232662
0.958932 0.050794 0.206123
0.067520 0.187477 0.264141
0.181723 0.196276 0.269238
0.399423 0.196802 0.259861
0.706000 0.199556 0.240823
0.976112 0.245877 0.207065
0.050794 0.454597 0.295629
0.081279 0.465954 0.297995
0.479710 0.484142 0.287822
0.796856 0.522181 0.258936
0.998859 0.517725 0.228244
0.050794 0.788078 0.352159
0.050996 0.789791 0.348557
0.536592 0.795867 0.342749
0.805683 0.794652 0.336431
0.998703 0.761616 0.350591
0.296359 0.970223 0.570122
0.410019 0.969782 0.570749
0.609320 0.968548 0.572461
0.810526 0.964955 0.575250
0.993911 0.958590 0.583004
0.050794 0.119658 0.438143
0.180080 0.114164 0.453866
0.414968 0.052906 0.475357
0.724427 0.050794 0.479195
0.960487 0.050794 0.411537
0.050794 0.193860 0.455108
0.169153 0.207086 0.471779
0.440234 0.189626 0.497857
0.731314 0.057331 0.471721
0.960306 0.052913 0.408466
0.050794 0.443847 0.516573
0.050794 0.458283 0.523814
0.463161 0.500288 0.543279
0.762372 0.485385 0.508373
0.988027 0.475671 0.469256
0.050794 0.785541 0.576829
0.050794 0.788639 0.575236
0.493593 0.796361 0.600169
0.789331 0.798013 0.599012
0.993948 0.778253 0.600672
0.116999 0.969624 0.667310
0.411902 0.966814 0.698084
0.627752 0.964957 0.717131
0.816659 0.963327 0.718536
0.982850 0.958603 0.720545
0.057080 0.101871 0.723242
0.255058 0.074491 0.732587
0.507926 0.050794 0.759648
0.782187 0.050794 0.767996
0.998567 0.050794 0.722012
0.050794 0.221355 0.730980
0.231766 0.219512 0.739762
0.505934 0.212361 0.765027
0.787323 0.146342 0.775053
0.998549 0.054281 0.721359
0.050794 0.422376 0.737773
0.053081 0.429990 0.743248
0.495723 0.510019 0.771039
0.780273 0.541340 0.789970
0.985365 0.487001 0.728111
0.050794 0.751155 0.785469
0.050794 0.756053 0.787399
0.478658 0.774979 0.796873
0.769525 0.805944 0.813879
0.956313 0.777626 0.779493
0.079421 0.965615 0.816157
0.315929 0.965150 0.819147
0.567770 0.964097 0.826521
0.811467 0.961614 0.853715
0.968206 0.959915 0.854854
0.328717 0.206491 0.947016
0.407789 0.208405 0.948663
0.574788 0.221549 0.953565
0.781978 0.282209 0.961850
0.998192 0.283432 0.958680
0.333748 0.327704 0.946226
0.412180 0.333512 0.947702
0.577764 0.357035 0.952338
0.782054 0.420366 0.959857
0.997143 0.430763 0.957647
0.275206 0.514606 0.942153
0.420403 0.553374 0.942280
0.594805 0.591849 0.946213
0.785360 0.641870 0.953736
0.982689 0.650502 0.954697
0.224239 0.725930 0.943338
0.357941 0.731344 0.942632
0.559168 0.747363 0.940680
0.789089 0.810267 0.946847
0.962037 0.830889 0.954419
0.407427 0.938290 0.955773
0.477807 0.939669 0.955797
0.627183 0.943615 0.955887
0.801481 0.950720 0.957373
0.956962 0.964583 0.965400
