gsg/04_Specialty/GSG_LUT_Specialty_Saturated_Summer.cube
# GSG LUTs 1.0
# Copyright (c) 2016-2020 Greyscalegorilla
# See EULA for licensing and distribution information
# Converted by Briz LUT Converter
LUT_3D_SIZE 5
DOMAIN_MIN 0.000000 0.000000 0.000000
DOMAIN_MAX 0.903226 0.903226 0.903226
0.016850 0.019048 0.012943
0.235708 0.006270 0.004742
0.538485 0.000000 0.000000
0.813912 0.000000 0.000000
0.992729 0.000000 0.000000
0.000000 0.208665 0.009161
0.181345 0.242083 0.000000
0.520912 0.244257 0.000000
0.788912 0.241490 0.000000
0.981091 0.256636 0.000000
0.000000 0.386033 0.007491
0.000194 0.447169 0.015577
0.429088 0.503652 0.000000
0.758383 0.532597 0.000000
0.945459 0.505569 0.000000
0.000000 0.579873 0.076986
0.000000 0.628087 0.091711
0.284461 0.639017 0.067157
0.642738 0.685439 0.000480
0.933624 0.730150 0.000000
0.000000 0.873685 0.263169
0.000000 0.894776 0.272619
0.298261 0.879408 0.272842
0.608366 0.896634 0.248367
0.873107 0.921420 0.157331
0.041672 0.043129 0.198054
0.226159 0.039905 0.185759
0.442223 0.000000 0.155168
0.670213 0.000000 0.172953
0.876968 0.046265 0.170633
0.000000 0.234153 0.192070
0.220342 0.239112 0.203618
0.509526 0.234751 0.195983
0.769417 0.240964 0.186393
0.962566 0.266099 0.163441
0.000000 0.426707 0.193658
0.113733 0.474587 0.217481
0.458725 0.511025 0.203155
0.751832 0.519924 0.115483
0.948252 0.504658 0.057475
0.000000 0.598618 0.213244
0.003424 0.642623 0.232978
0.316804 0.638615 0.226509
0.652495 0.688291 0.216316
0.932809 0.726768 0.085954
0.000000 0.876787 0.343275
0.063659 0.897968 0.353947
0.331768 0.881440 0.348952
0.611956 0.894782 0.339807
0.875337 0.920979 0.302050
0.053448 0.079901 0.436851
0.234298 0.076159 0.399236
0.388247 0.050064 0.332863
0.614269 0.005948 0.341668
0.853797 0.129377 0.394549
0.012566 0.229154 0.409779
0.233789 0.234214 0.416045
0.449883 0.229435 0.395671
0.727935 0.252909 0.427625
0.941566 0.313629 0.463535
0.004447 0.472028 0.426172
0.240160 0.526954 0.481792
0.511335 0.520974 0.489049
0.751462 0.521953 0.486220
0.948728 0.525576 0.483848
0.231293 0.645327 0.445895
0.334451 0.681226 0.480151
0.429819 0.657716 0.454390
0.678691 0.697151 0.478061
0.924090 0.710237 0.438155
0.241047 0.888420 0.519101
0.301144 0.905896 0.525966
0.424379 0.891773 0.512806
0.619773 0.889904 0.507916
0.885463 0.921939 0.517684
0.160377 0.115239 0.563409
0.255388 0.108785 0.533700
0.388523 0.095132 0.477226
0.557442 0.091985 0.488175
0.786032 0.147348 0.544060
0.151935 0.231315 0.563761
0.289101 0.251674 0.609123
0.478735 0.245605 0.592545
0.663025 0.245429 0.588695
0.882030 0.296910 0.619226
0.062640 0.466107 0.617452
0.267690 0.505787 0.674792
0.493375 0.481992 0.654348
0.683603 0.469291 0.631401
0.908619 0.514862 0.661081
0.225984 0.678159 0.650680
0.341457 0.711617 0.685676
0.523647 0.710141 0.692380
0.722340 0.710526 0.705520
0.924972 0.712750 0.707365
0.418923 0.917163 0.719392
0.474236 0.928704 0.732983
0.584389 0.917363 0.734865
0.672681 0.892252 0.701861
0.911363 0.926649 0.730232
0.298562 0.193147 0.664682
0.356538 0.196802 0.671869
0.491707 0.208205 0.692709
0.646594 0.220961 0.702406
0.804245 0.224345 0.722072
0.336839 0.311382 0.772367
0.428511 0.333383 0.823035
0.570070 0.330070 0.815420
0.727819 0.326118 0.799349
0.885710 0.322036 0.800309
0.287251 0.490022 0.810452
0.382369 0.511897 0.851609
0.546769 0.501691 0.843541
0.721377 0.482655 0.823674
0.891074 0.471324 0.818292
0.279564 0.692552 0.842814
0.361055 0.712450 0.869759
0.510578 0.700758 0.867836
0.690734 0.665403 0.847424
0.877600 0.642877 0.827624
0.377451 0.945135 0.921264
0.439827 0.951788 0.929373
0.575500 0.946056 0.928107
0.753418 0.938246 0.928383
0.941636 0.920508 0.922849
