gsg/04_Specialty/GSG_LUT_Specialty_MilkedOutGreen.cube
# GSG LUTs 1.0
# Copyright (c) 2016-2020 Greyscalegorilla
# See EULA for licensing and distribution information
# Converted by Briz LUT Converter
LUT_3D_SIZE 5
DOMAIN_MIN 0.000000 0.000000 0.000000
DOMAIN_MAX 0.903226 0.903226 0.903226
0.113797 0.148718 0.159219
0.164197 0.157517 0.165765
0.272717 0.179188 0.185671
0.447280 0.210635 0.215109
0.698176 0.250447 0.252692
0.164780 0.261444 0.198582
0.215778 0.266158 0.197104
0.334650 0.283115 0.208089
0.529601 0.309567 0.228544
0.809634 0.344354 0.257298
0.214589 0.420883 0.236528
0.264935 0.423894 0.226098
0.393590 0.438615 0.227513
0.607802 0.462649 0.238316
0.878324 0.494828 0.276101
0.253117 0.625570 0.263193
0.302080 0.627559 0.243154
0.440592 0.632829 0.252916
0.637918 0.644429 0.297682
0.864588 0.673205 0.360691
0.292426 0.857552 0.293623
0.371633 0.835157 0.315709
0.511090 0.829115 0.355135
0.691646 0.840829 0.413439
0.892075 0.869513 0.489852
0.127181 0.160636 0.238820
0.177105 0.167127 0.242026
0.287109 0.186710 0.258104
0.464989 0.215818 0.283713
0.720855 0.253272 0.317712
0.172747 0.269424 0.269928
0.223101 0.271863 0.265022
0.343551 0.286502 0.272290
0.541813 0.310646 0.288983
0.826837 0.343241 0.314105
0.216786 0.425742 0.299270
0.266473 0.426559 0.285475
0.396598 0.439058 0.283133
0.611807 0.460544 0.291798
0.865452 0.491734 0.333869
0.248866 0.627731 0.317051
0.298826 0.626327 0.295604
0.439503 0.625431 0.311104
0.632192 0.637749 0.350577
0.852779 0.667364 0.408038
0.299492 0.848021 0.354679
0.376786 0.825851 0.370594
0.512663 0.820201 0.404019
0.688628 0.832717 0.456534
0.883121 0.862230 0.527326
0.144314 0.176194 0.345008
0.193438 0.180456 0.347133
0.304675 0.197456 0.362204
0.485738 0.223951 0.386801
0.746552 0.258773 0.419725
0.183969 0.280555 0.372996
0.233545 0.280608 0.367182
0.355147 0.292772 0.373367
0.556425 0.314235 0.388985
0.846217 0.344249 0.412924
0.221474 0.433398 0.399029
0.270509 0.431817 0.384175
0.401750 0.441593 0.380832
0.611770 0.460136 0.392244
0.854947 0.491829 0.428304
0.246835 0.631998 0.412817
0.300606 0.625118 0.394321
0.441720 0.621272 0.405994
0.629637 0.634220 0.435868
0.844066 0.664717 0.483684
0.310074 0.841627 0.452207
0.385235 0.819567 0.457818
0.517608 0.814326 0.481138
0.688756 0.827519 0.523840
0.877052 0.857924 0.584705
0.164378 0.194738 0.476569
0.212415 0.196313 0.479568
0.324605 0.210351 0.495285
0.508464 0.234164 0.520493
0.773698 0.266273 0.553980
0.197487 0.294127 0.504839
0.245946 0.291391 0.499899
0.368513 0.300735 0.506813
0.572600 0.319381 0.523049
0.863667 0.347171 0.547523
0.228158 0.442837 0.530879
0.276171 0.438519 0.516845
0.408266 0.445524 0.514220
0.611804 0.462133 0.523264
0.847564 0.495194 0.549047
0.246969 0.637197 0.544253
0.308694 0.623632 0.526453
0.447126 0.620176 0.527398
0.630638 0.634251 0.546143
0.838989 0.665994 0.582838
0.323794 0.838387 0.575911
0.397449 0.816704 0.570055
0.526518 0.812158 0.582037
0.693127 0.826444 0.613351
0.875515 0.857976 0.662803
0.186506 0.215345 0.632676
0.233266 0.213904 0.637898
0.346121 0.225100 0.655762
0.532616 0.245634 0.682910
0.802032 0.274891 0.717972
0.212586 0.309281 0.664122
0.259751 0.303638 0.661324
0.382930 0.309848 0.670231
0.589613 0.325417 0.688141
0.875487 0.352561 0.711442
0.236016 0.453435 0.692478
0.282519 0.446056 0.680761
0.415016 0.449943 0.677708
0.613218 0.466974 0.675928
0.843171 0.501679 0.689252
0.250234 0.642215 0.707023
0.320003 0.624661 0.680078
0.455637 0.622206 0.668501
0.634997 0.637678 0.674775
0.837542 0.670915 0.698907
0.340772 0.838040 0.718682
0.413056 0.817136 0.700307
0.539124 0.813683 0.699724
0.701384 0.829099 0.718648
0.877783 0.862113 0.755255
