gsg/04_Specialty/GSG_LUT_Specialty_PhotoAlbum.cube
# GSG LUTs 1.0
# Copyright (c) 2016-2020 Greyscalegorilla
# See EULA for licensing and distribution information
# Converted by Briz LUT Converter
LUT_3D_SIZE 8
DOMAIN_MIN 0.000000 0.000000 0.000000
DOMAIN_MAX 0.903226 0.903226 0.903226
0.043712 0.043712 0.043712
0.158762 0.034298 0.033715
0.337248 0.020056 0.015834
0.523502 0.005514 0.000000
0.683926 0.000000 0.000000
0.807617 0.000000 0.000000
0.923085 0.000000 0.000000
1.000000 0.000000 0.000000
0.064099 0.123093 0.061468
0.143033 0.138806 0.022150
0.319429 0.128229 0.000000
0.505277 0.115566 0.000000
0.664468 0.105061 0.000000
0.786481 0.097744 0.000000
0.899601 0.091686 0.000000
0.999119 0.086636 0.000000
0.095671 0.248801 0.081657
0.155885 0.274380 0.045658
0.306226 0.287348 0.000000
0.486138 0.280154 0.000000
0.639559 0.273742 0.000000
0.755214 0.269945 0.000000
0.860533 0.267754 0.000000
0.967774 0.267275 0.000000
0.128449 0.382213 0.098310
0.185730 0.410032 0.065096
0.310263 0.436459 0.005172
0.474369 0.444567 0.000000
0.617917 0.442997 0.000000
0.724462 0.442930 0.000000
0.819451 0.444358 0.000000
0.912799 0.447823 0.000000
0.156627 0.498925 0.116066
0.213217 0.526945 0.087408
0.325966 0.557807 0.039505
0.468887 0.576891 0.000154
0.599118 0.583249 0.000000
0.693949 0.585915 0.006030
0.779161 0.589597 0.028688
0.864851 0.595423 0.060688
0.178243 0.589216 0.136311
0.234243 0.616960 0.113767
0.340183 0.649566 0.080199
0.466899 0.671375 0.063974
0.584581 0.684018 0.059134
0.675497 0.689621 0.078106
0.756907 0.694734 0.109287
0.835197 0.704581 0.141422
0.198165 0.673756 0.164481
0.253559 0.700900 0.150169
0.355868 0.730475 0.146263
0.473890 0.753600 0.148490
0.582290 0.769097 0.156966
0.668321 0.778924 0.168746
0.745207 0.787806 0.193128
0.817816 0.802972 0.213670
0.222734 0.759211 0.214825
0.280783 0.782315 0.217059
0.380714 0.811422 0.225526
0.494248 0.834667 0.242135
0.596420 0.851589 0.261895
0.675066 0.864000 0.280439
0.740862 0.883012 0.283501
0.818585 0.898767 0.288803
0.046831 0.046800 0.132357
0.154964 0.031621 0.152328
0.335019 0.016480 0.135428
0.521875 0.001868 0.114424
0.682949 0.000000 0.095577
0.806759 0.000000 0.080980
0.922415 0.000000 0.067817
1.000000 0.000000 0.054953
0.058146 0.141537 0.140681
0.142785 0.136399 0.130613
0.322266 0.123494 0.109054
0.509123 0.110455 0.086458
0.668104 0.100335 0.068046
0.789243 0.093632 0.055215
0.901296 0.088145 0.044730
0.999179 0.083705 0.036234
0.098216 0.266241 0.150245
0.171041 0.266338 0.145633
0.306064 0.285580 0.083962
0.486689 0.277993 0.057704
0.640429 0.271575 0.042022
0.755635 0.268031 0.033505
0.860213 0.266382 0.028825
0.966361 0.266619 0.027954
0.136290 0.392227 0.171001
0.203756 0.401179 0.162760
0.313979 0.433803 0.106641
0.473907 0.443898 0.052921
0.616675 0.442844 0.044917
0.722381 0.443197 0.046575
0.816052 0.445256 0.055988
0.907994 0.449285 0.077242
0.165497 0.502446 0.190995
0.231124 0.518591 0.184040
0.332358 0.554595 0.141323
0.469209 0.576598 0.093602
0.596753 0.583777 0.088649
0.691321 0.586934 0.109033
0.776231 0.591111 0.133391
0.861431 0.597584 0.163905
0.187952 0.590185 0.213451
0.251561 0.609446 0.209355
0.347623 0.646301 0.180803
0.468583 0.670369 0.168508
0.583985 0.684464 0.163417
0.674316 0.690867 0.179999
0.755304 0.696491 0.209489
0.836097 0.704564 0.243969
0.208453 0.674417 0.243114
0.270890 0.693317 0.247422
0.365804 0.726341 0.245843
0.478749 0.752229 0.248035
0.584583 0.769172 0.255906
0.669416 0.779988 0.266213
0.748045 0.788006 0.290209
0.819614 0.803584 0.312628
0.238171 0.757221 0.298496
0.300143 0.774553 0.311087
0.393875 0.806633 0.320456
0.502472 0.832968 0.334802
0.602333 0.851257 0.353456
0.681470 0.863787 0.371222
0.747707 0.881610 0.378882
0.822639 0.899503 0.381201
0.052881 0.052637 0.261475
0.141470 0.045099 0.284486
0.329625 0.012487 0.315876
0.518350 0.000000 0.296562
0.679034 0.000000 0.277082
0.802197 0.000000 0.262247
0.916860 0.000000 0.248895
1.000000 0.000000 0.236189
0.053557 0.151467 0.314701
0.143992 0.140298 0.264340
0.319235 0.119004 0.288415
0.507732 0.105263 0.266177
0.666784 0.095735 0.246453
0.787379 0.089532 0.232715
0.898573 0.084935 0.221563
0.998811 0.081541 0.212307
0.095639 0.293579 0.283789
0.164164 0.284125 0.273640
0.306716 0.282518 0.248529
0.489772 0.273481 0.225497
0.643506 0.267298 0.210192
0.757822 0.264461 0.201472
0.860922 0.263663 0.196330
0.965007 0.265384 0.194893
0.136231 0.416810 0.281772
0.208110 0.410058 0.280577
0.324798 0.428257 0.260782
0.473108 0.443194 0.214236
0.615139 0.442729 0.206582
0.719523 0.443767 0.209071
0.810715 0.446545 0.221565
0.901629 0.451723 0.241360
0.170562 0.515301 0.296606
0.241068 0.518387 0.304181
0.346640 0.548515 0.291285
0.469209 0.576562 0.251780
0.592910 0.585349 0.249906
0.687100 0.589243 0.267865
0.771719 0.594139 0.289590
0.856643 0.601442 0.316693
0.198757 0.596370 0.320452
0.263465 0.606626 0.330779
0.364067 0.639096 0.332574
0.473363 0.668657 0.324140
0.583979 0.685577 0.317509
0.673475 0.693244 0.330914
0.754151 0.699783 0.356903
0.834887 0.708642 0.388626
0.225247 0.676766 0.355809
0.287977 0.687733 0.373378
0.386846 0.718259 0.391485
0.489310 0.749487 0.395109
0.589702 0.769693 0.401089
0.672389 0.782164 0.408710
0.750478 0.791442 0.428750
0.825700 0.803648 0.458234
0.257168 0.760599 0.407846
0.323772 0.767638 0.433980
0.419251 0.798265 0.457192
0.518879 0.829626 0.471028
0.613630 0.851228 0.486555
0.690278 0.865426 0.501666
0.761810 0.879076 0.517022
0.830686 0.900641 0.516737
0.058009 0.057426 0.373926
0.142636 0.052334 0.410234
0.307065 0.029984 0.457626
0.513144 0.000000 0.481229
0.675168 0.000000 0.463145
0.797741 0.000000 0.447603
0.911361 0.000000 0.433603
1.000000 0.000000 0.420009
0.060861 0.147483 0.420471
0.148090 0.143949 0.383894
0.304123 0.128585 0.440180
0.503350 0.101850 0.449757
0.663041 0.092206 0.430125
0.782699 0.086893 0.415429
0.892432 0.083409 0.403352
0.998018 0.081539 0.393155
0.082109 0.314207 0.445604
0.156499 0.292383 0.429630
0.300583 0.283670 0.408999
0.489351 0.269626 0.404376
0.643043 0.263830 0.388030
0.756578 0.261847 0.377813
0.858525 0.262288 0.371250
0.960752 0.265366 0.368282
0.133209 0.440289 0.421352
0.198167 0.434271 0.414946
0.303134 0.437074 0.416099
0.472089 0.442834 0.379588
0.614922 0.442169 0.372300
0.717307 0.443852 0.377197
0.806993 0.447519 0.390054
0.896859 0.453878 0.407224
0.165328 0.535533 0.419208
0.231801 0.535124 0.418754
0.339107 0.548796 0.429044
0.470800 0.575970 0.412755
0.589620 0.587479 0.411739
0.683595 0.592093 0.427219
0.767950 0.597886 0.445896
0.852310 0.606295 0.469211
0.193397 0.615855 0.431979
0.259745 0.617145 0.440673
0.366397 0.634983 0.466129
0.482128 0.666385 0.476813
0.584436 0.687714 0.471057
0.672902 0.696758 0.480074
0.753680 0.704132 0.501826
0.834573 0.713845 0.528814
0.222711 0.696115 0.462219
0.289364 0.696443 0.479368
0.399200 0.712422 0.516506
0.506283 0.745331 0.536930
0.597909 0.770294 0.542476
0.677314 0.785033 0.547850
0.754605 0.795591 0.563059
0.832326 0.806791 0.592015
0.258969 0.780552 0.508718
0.325395 0.779845 0.529807
0.437727 0.793356 0.573297
0.541935 0.824901 0.600876
0.629001 0.850882 0.614583
0.702049 0.867678 0.626935
0.773429 0.881650 0.640755
0.842850 0.901187 0.648843
0.061184 0.060081 0.456599
0.144472 0.056126 0.503670
0.302121 0.038922 0.568440
0.493311 0.006754 0.610366
0.670481 0.000000 0.619990
0.793814 0.000000 0.605365
0.906574 0.000000 0.590547
0.999726 0.000000 0.576187
0.066084 0.145393 0.497516
0.150038 0.145357 0.471187
0.297894 0.134436 0.547674
0.491399 0.107061 0.588772
0.658832 0.090242 0.585346
0.778543 0.085152 0.570494
0.887077 0.082631 0.557436
0.996619 0.081953 0.546066
0.081410 0.307481 0.546653
0.161704 0.285303 0.514848
0.298517 0.285942 0.504377
0.486482 0.265542 0.556601
0.638838 0.262832 0.540515
0.751448 0.261766 0.529499
0.851889 0.263376 0.521550
0.951836 0.267843 0.517951
0.114505 0.460933 0.547563
0.183228 0.450772 0.544270
0.283289 0.440423 0.537784
0.466205 0.438725 0.539374
0.614593 0.441091 0.517220
0.714949 0.443807 0.523697
0.803661 0.448508 0.534383
0.892158 0.456201 0.548513
0.156787 0.551729 0.531224
0.221879 0.552428 0.532509
0.306552 0.558596 0.540345
0.440008 0.579872 0.564560
0.586550 0.589799 0.548102
0.682254 0.594372 0.560654
0.766481 0.600767 0.576513
0.850466 0.610256 0.596075
0.185135 0.633980 0.539761
0.249006 0.635426 0.544911
0.340041 0.643302 0.561502
0.474040 0.666185 0.594564
0.586247 0.689878 0.596677
0.672833 0.700641 0.603179
0.753615 0.708671 0.621214
0.834427 0.719414 0.643747
0.217155 0.715848 0.566211
0.281348 0.715243 0.575329
0.377385 0.723130 0.598908
0.510641 0.743993 0.640693
0.608134 0.770698 0.656420
0.682678 0.788297 0.660108
0.759363 0.800115 0.670934
0.837303 0.812104 0.695321
0.259001 0.801555 0.606358
0.322289 0.799148 0.618151
0.421594 0.806230 0.646862
0.553355 0.824976 0.691925
0.647036 0.849970 0.715547
0.714973 0.869678 0.726154
0.783811 0.885605 0.737277
0.858291 0.901181 0.752931
0.064122 0.062744 0.538178
0.145531 0.058636 0.584566
0.300356 0.043952 0.654538
0.482995 0.016483 0.703102
0.658190 0.000000 0.727419
0.789772 0.000000 0.725066
0.902773 0.000000 0.710780
0.999301 0.000000 0.695498
0.070944 0.145385 0.577346
0.151457 0.146420 0.550810
0.294412 0.137179 0.631016
0.479173 0.113883 0.683798
0.651676 0.091213 0.698252
0.774597 0.084669 0.688254
0.882924 0.082501 0.674945
0.992712 0.082741 0.662574
0.086816 0.299420 0.640653
0.166870 0.281883 0.593502
0.297354 0.285954 0.583377
0.471388 0.270081 0.654831
0.636557 0.258407 0.658731
0.747022 0.262342 0.644565
0.846512 0.264702 0.635837
0.944454 0.270410 0.632329
0.107188 0.464719 0.667897
0.182957 0.447288 0.647862
0.290416 0.436117 0.620686
0.454595 0.442929 0.633243
0.614354 0.435139 0.640846
0.709716 0.445415 0.637464
0.797642 0.451097 0.645743
0.885291 0.459868 0.656804
0.135545 0.569391 0.646152
0.202672 0.568605 0.647946
0.275691 0.567291 0.650240
0.420168 0.580247 0.667855
0.582105 0.587292 0.674595
0.682481 0.595486 0.663253
0.766274 0.602944 0.676300
0.849413 0.613415 0.692492
0.173771 0.648605 0.633310
0.238179 0.649894 0.638209
0.310013 0.653621 0.646563
0.437081 0.672510 0.675240
0.564843 0.694923 0.704489
0.672470 0.704121 0.695922
0.754894 0.712150 0.710451
0.835739 0.723616 0.729389
0.209280 0.732435 0.652472
0.272952 0.732534 0.659155
0.348234 0.735958 0.670521
0.480428 0.754417 0.703313
0.605478 0.774669 0.735778
0.687180 0.791390 0.742587
0.762412 0.804585 0.750443
0.840825 0.817251 0.770582
0.254992 0.821025 0.686919
0.318436 0.818935 0.694743
0.397460 0.820712 0.709498
0.532393 0.837324 0.745533
0.653629 0.854528 0.780333
0.727977 0.870975 0.796481
0.793261 0.888934 0.806105
0.867027 0.905331 0.819577
0.067911 0.066013 0.630604
0.147111 0.061989 0.671141
0.298577 0.048769 0.742613
0.475686 0.024452 0.793621
0.641069 0.000457 0.819821
0.778491 0.000000 0.827823
0.898264 0.000000 0.821905
0.998869 0.000000 0.806706
0.076286 0.146898 0.667005
0.153785 0.148235 0.639671
0.291820 0.140366 0.717138
0.469386 0.119992 0.774280
0.637286 0.096846 0.797982
0.766857 0.085885 0.794236
0.878254 0.082941 0.783716
0.987248 0.083981 0.770668
0.093426 0.294402 0.736661
0.172001 0.281298 0.680609
0.296961 0.286478 0.668796
0.460309 0.274761 0.743276
0.628468 0.255821 0.770787
0.743363 0.259313 0.753459
0.840872 0.266524 0.741852
0.936774 0.273040 0.739875
0.111298 0.461299 0.783054
0.189204 0.442632 0.748581
0.297241 0.435683 0.706656
0.449197 0.446725 0.716761
0.605863 0.432932 0.760859
0.708269 0.441158 0.748917
0.792099 0.453992 0.748034
0.879119 0.463675 0.756008
0.123574 0.580796 0.783528
0.196215 0.575850 0.777260
0.275938 0.569345 0.762948
0.428956 0.581419 0.757032
0.571170 0.594036 0.768533
0.683638 0.592501 0.772856
0.763368 0.606300 0.769797
0.846023 0.617911 0.781993
0.154536 0.667950 0.756816
0.219808 0.668092 0.760132
0.285813 0.667986 0.763868
0.393433 0.677438 0.779406
0.549788 0.698129 0.802295
0.670444 0.704739 0.802853
0.756870 0.715165 0.793755
0.837199 0.727767 0.808519
0.201361 0.748252 0.747913
0.265215 0.748088 0.751317
0.330209 0.748997 0.755786
0.441330 0.762351 0.776248
0.577120 0.784497 0.805733
0.678878 0.800079 0.824783
0.765332 0.809242 0.822978
0.845083 0.822060 0.838723
0.251574 0.837591 0.769165
0.314433 0.836534 0.773866
0.380118 0.836346 0.780114
0.498722 0.849050 0.803508
0.634464 0.868079 0.833006
0.732016 0.880155 0.853077
0.803457 0.892518 0.865923
0.875844 0.910131 0.876669
0.072189 0.069747 0.727646
0.149714 0.066299 0.765737
0.297058 0.054408 0.839524
0.468195 0.033371 0.891581
0.624973 0.009637 0.917808
0.759515 0.000000 0.929802
0.886134 0.000000 0.930733
0.998125 0.000000 0.923336
0.081366 0.149028 0.759500
0.156911 0.150733 0.735759
0.290612 0.144239 0.812899
0.460895 0.127160 0.872238
0.619087 0.107282 0.897334
0.753038 0.090616 0.904475
0.869430 0.085418 0.894574
0.981056 0.085878 0.883889
0.099821 0.291345 0.829660
0.177041 0.281932 0.771349
0.297680 0.287825 0.763484
0.452845 0.279557 0.838991
0.607615 0.265148 0.870947
0.739028 0.254106 0.876399
0.835257 0.265702 0.854959
0.928496 0.276559 0.852124
0.118130 0.456844 0.886553
0.195866 0.439943 0.843567
0.302682 0.437212 0.796402
0.447010 0.450672 0.809411
0.583948 0.445066 0.858405
0.699713 0.440266 0.869205
0.789726 0.452207 0.859519
0.872800 0.468268 0.858567
0.123976 0.584741 0.910510
0.201043 0.577234 0.892036
0.284158 0.570233 0.864894
0.437157 0.584990 0.846988
0.568915 0.601190 0.854766
0.670151 0.600888 0.874983
0.764774 0.605774 0.875039
0.842894 0.623099 0.873619
0.140949 0.682856 0.898296
0.210316 0.679878 0.898076
0.281843 0.676007 0.894199
0.394586 0.680695 0.892250
0.561043 0.702134 0.892514
0.667210 0.713887 0.884324
0.759647 0.716529 0.892490
0.837430 0.733259 0.890162
0.186979 0.771093 0.876198
0.250985 0.770063 0.878328
0.315090 0.769298 0.880872
0.396275 0.772732 0.888321
0.541189 0.792155 0.911796
0.673625 0.807647 0.922731
0.766436 0.814206 0.910168
0.849780 0.827443 0.909370
0.249850 0.855392 0.870308
0.313095 0.854137 0.871411
0.375634 0.853140 0.872765
0.466799 0.859474 0.882339
0.606337 0.879224 0.905038
0.721555 0.895905 0.921261
0.801703 0.905399 0.928902
0.884034 0.916440 0.933622
