gsg/04_Specialty/GSG_LUT_Specialty_PhotoAlbum.cube
# GSG LUTs 1.0
# Copyright (c) 2016-2020 Greyscalegorilla
# See EULA for licensing and distribution information
# Converted by Briz LUT Converter
LUT_3D_SIZE 5
DOMAIN_MIN 0.000000 0.000000 0.000000
DOMAIN_MAX 0.903226 0.903226 0.903226
0.043712 0.043712 0.043712
0.289354 0.023837 0.020875
0.609563 0.000134 0.000000
0.836441 0.000000 0.000000
1.000000 0.000000 0.000000
0.087290 0.214959 0.076994
0.261848 0.247400 0.000000
0.573915 0.232480 0.000000
0.790220 0.223520 0.000000
0.980614 0.219549 0.000000
0.143503 0.444649 0.106991
0.283360 0.495548 0.036058
0.545263 0.518555 0.000000
0.731482 0.521048 0.000000
0.885775 0.528024 0.014981
0.183284 0.610312 0.142353
0.313713 0.663187 0.099343
0.528540 0.700142 0.082721
0.693196 0.714049 0.105430
0.829272 0.729812 0.159581
0.222734 0.759211 0.214825
0.353213 0.804130 0.223370
0.548532 0.844150 0.251702
0.690851 0.868919 0.282029
0.818585 0.898767 0.288803
0.051369 0.051125 0.229525
0.282566 0.017620 0.272490
0.605466 0.000000 0.237771
0.832221 0.000000 0.210658
1.000000 0.000000 0.188123
0.085381 0.254450 0.247341
0.262443 0.242855 0.217684
0.578641 0.225555 0.178581
0.793416 0.217895 0.158545
0.979967 0.216693 0.149210
0.155666 0.463907 0.258515
0.304433 0.485368 0.247810
0.542678 0.518988 0.176588
0.724011 0.523424 0.197861
0.876849 0.532552 0.237259
0.205577 0.612064 0.302304
0.338387 0.652359 0.308761
0.531378 0.699827 0.299307
0.692205 0.717311 0.314838
0.831996 0.731324 0.369423
0.256182 0.756456 0.383122
0.387333 0.792010 0.418414
0.564857 0.842181 0.443523
0.706067 0.868025 0.472189
0.828168 0.900256 0.481223
0.059672 0.058829 0.417015
0.258117 0.042172 0.505791
0.597719 0.000000 0.556065
0.823947 0.000000 0.528662
0.999968 0.000000 0.503969
0.073998 0.267724 0.494169
0.257735 0.246820 0.452661
0.575059 0.219792 0.488494
0.787763 0.214523 0.465045
0.969392 0.217260 0.451149
0.146753 0.500199 0.479623
0.276002 0.500717 0.479957
0.537447 0.521035 0.458975
0.718020 0.526547 0.479565
0.869012 0.538709 0.510077
0.196593 0.645610 0.494127
0.332717 0.652525 0.518170
0.541671 0.699489 0.557118
0.693252 0.723969 0.563979
0.833093 0.740719 0.604615
0.259193 0.790993 0.559011
0.399018 0.795173 0.600033
0.598290 0.838045 0.663544
0.725853 0.872641 0.684089
0.850607 0.901227 0.706261
0.064965 0.063500 0.560101
0.256625 0.050250 0.658809
0.572417 0.003270 0.741549
0.817119 0.000000 0.749444
0.999187 0.000000 0.723313
0.083542 0.254884 0.650441
0.256905 0.246893 0.593868
0.564867 0.215987 0.699483
0.779756 0.215015 0.678234
0.957315 0.220925 0.661216
0.117303 0.525408 0.693296
0.250951 0.509194 0.672248
0.522031 0.519185 0.681843
0.713937 0.529061 0.677233
0.862420 0.544594 0.698151
0.179171 0.672833 0.660870
0.292790 0.675291 0.670251
0.505020 0.706245 0.716817
0.694210 0.730617 0.729092
0.835747 0.748910 0.758259
0.253779 0.825546 0.706708
0.368336 0.823169 0.720991
0.591613 0.849603 0.776680
0.746920 0.876181 0.814452
0.869185 0.906425 0.834192
0.072189 0.069747 0.727646
0.255617 0.058616 0.821580
0.551541 0.020915 0.908593
0.792674 0.000000 0.932018
0.998125 0.000000 0.923336
0.094350 0.250421 0.812039
0.258237 0.248646 0.754295
0.537368 0.228591 0.867570
0.773044 0.208552 0.880234
0.944810 0.225840 0.852768
0.122276 0.527388 0.903774
0.263853 0.507475 0.842989
0.511259 0.530235 0.834020
0.707523 0.526576 0.872481
0.854010 0.552778 0.865578
0.149751 0.705643 0.892536
0.269077 0.701306 0.893735
0.470754 0.713782 0.901418
0.691087 0.739319 0.890679
0.838845 0.757695 0.894669
0.249850 0.855392 0.870308
0.359983 0.853381 0.872416
0.536579 0.868887 0.893721
0.742988 0.898527 0.923506
0.884034 0.916440 0.933622
