gsg/04_Specialty/GSG_LUT_Specialty_MilySkies.cube
# GSG LUTs 1.0
# Copyright (c) 2016-2020 Greyscalegorilla
# See EULA for licensing and distribution information
# Converted by Briz LUT Converter
LUT_3D_SIZE 8
DOMAIN_MIN 0.000000 0.000000 0.000000
DOMAIN_MAX 0.903226 0.903226 0.903226
0.050794 0.061538 0.077167
0.076017 0.070007 0.079704
0.128599 0.083296 0.085612
0.230454 0.092347 0.095301
0.381354 0.087495 0.104793
0.548356 0.070007 0.108425
0.705880 0.075702 0.103360
0.839631 0.131206 0.089511
0.050794 0.108913 0.132049
0.054011 0.115831 0.127421
0.128492 0.124125 0.122636
0.245489 0.134618 0.125644
0.397983 0.141504 0.128401
0.561042 0.143974 0.127287
0.712835 0.158337 0.121375
0.841901 0.192500 0.109900
0.050794 0.196022 0.201308
0.050794 0.197179 0.205192
0.099125 0.219479 0.190806
0.268704 0.235338 0.178920
0.439152 0.250861 0.175304
0.597433 0.260985 0.169025
0.736987 0.275822 0.161764
0.854010 0.296147 0.155051
0.050794 0.337658 0.279357
0.050794 0.338233 0.281964
0.062277 0.343654 0.284996
0.283402 0.382957 0.257695
0.465893 0.398302 0.234625
0.627538 0.407913 0.231124
0.761320 0.417800 0.227961
0.864424 0.421786 0.226467
0.050794 0.494947 0.360763
0.050794 0.495435 0.363331
0.070594 0.494638 0.368395
0.299365 0.507826 0.364180
0.475911 0.540723 0.329566
0.627005 0.546531 0.301158
0.757545 0.547338 0.306276
0.863166 0.546860 0.320453
0.050794 0.625444 0.450935
0.055281 0.625606 0.453239
0.213108 0.624915 0.458237
0.373914 0.623676 0.466471
0.496216 0.638492 0.453293
0.631698 0.659050 0.422795
0.751425 0.658707 0.398199
0.849918 0.649682 0.418230
0.310505 0.718862 0.560369
0.340995 0.718532 0.562141
0.401726 0.717265 0.565757
0.481551 0.715389 0.572324
0.565868 0.714275 0.579108
0.647873 0.724267 0.564015
0.747281 0.732919 0.540756
0.837373 0.728885 0.525311
0.552672 0.773193 0.684958
0.562692 0.772702 0.686022
0.586635 0.771885 0.689204
0.624895 0.770538 0.694956
0.670313 0.768068 0.700921
0.719661 0.768364 0.705409
0.769461 0.772434 0.696803
0.831294 0.775884 0.682787
0.050794 0.068234 0.161322
0.051698 0.074316 0.165465
0.113478 0.086005 0.169499
0.232704 0.096034 0.178928
0.388106 0.090001 0.184420
0.553121 0.068072 0.183197
0.705234 0.070599 0.178629
0.836334 0.123462 0.169590
0.050794 0.115350 0.194644
0.050794 0.121943 0.200486
0.109713 0.131033 0.200705
0.247259 0.140659 0.200919
0.404443 0.144793 0.199597
0.566158 0.144779 0.196355
0.712681 0.156780 0.190395
0.839467 0.188729 0.181523
0.050794 0.207129 0.244460
0.050794 0.211437 0.253866
0.083961 0.226293 0.248191
0.273863 0.241904 0.239782
0.443216 0.254059 0.235894
0.597315 0.261604 0.228882
0.733373 0.274719 0.221129
0.849976 0.294413 0.213693
0.050794 0.349071 0.310189
0.050794 0.350641 0.319323
0.062742 0.352938 0.324306
0.284152 0.386362 0.302347
0.467231 0.399536 0.283165
0.626299 0.408386 0.280784
0.756355 0.416560 0.276288
0.859731 0.421057 0.271796
0.050794 0.503754 0.390284
0.050794 0.503382 0.392510
0.073454 0.502151 0.396838
0.305418 0.510721 0.396219
0.476946 0.542201 0.365567
0.627286 0.547618 0.340285
0.756428 0.548654 0.345580
0.860932 0.548692 0.357309
0.050794 0.628958 0.473025
0.063379 0.628451 0.474676
0.223585 0.627714 0.479244
0.379331 0.626277 0.487024
0.499196 0.639006 0.477475
0.631739 0.659565 0.449770
0.750480 0.659090 0.426937
0.848094 0.650737 0.445366
0.320210 0.719428 0.574207
0.348282 0.718911 0.575529
0.406919 0.717708 0.578799
0.485252 0.715940 0.585155
0.569025 0.714550 0.592783
0.649447 0.724188 0.579784
0.746896 0.732795 0.557607
0.835766 0.728631 0.542606
0.555106 0.772955 0.690974
0.565249 0.772485 0.692230
0.588694 0.771671 0.695154
0.626531 0.770332 0.700641
0.673808 0.768514 0.708323
0.722218 0.768318 0.712953
0.770293 0.772173 0.704212
0.831063 0.775650 0.690748
0.050794 0.078286 0.259742
0.050794 0.082460 0.265706
0.064949 0.092276 0.276029
0.232135 0.095174 0.287548
0.400838 0.057671 0.279400
0.563762 0.050975 0.279050
0.712008 0.056077 0.281339
0.838771 0.111318 0.274125
0.050794 0.124328 0.289826
0.050794 0.130532 0.295104
0.066037 0.138564 0.302108
0.248159 0.143784 0.305093
0.415622 0.134156 0.297386
0.576303 0.138198 0.297062
0.719057 0.155130 0.293066
0.841765 0.186031 0.283977
0.050794 0.219869 0.333808
0.050794 0.227116 0.338197
0.063601 0.242717 0.347485
0.279928 0.251974 0.343286
0.451412 0.259073 0.336728
0.603855 0.266310 0.329219
0.736418 0.279150 0.320617
0.849876 0.297510 0.311147
0.050794 0.366891 0.381774
0.050794 0.373006 0.385621
0.063870 0.382973 0.400939
0.296457 0.402530 0.394440
0.484842 0.414001 0.382641
0.634888 0.419771 0.378972
0.755958 0.423073 0.369701
0.857437 0.427521 0.361059
0.050794 0.519397 0.437163
0.050794 0.522837 0.442623
0.089702 0.525602 0.462409
0.330623 0.527018 0.468383
0.490715 0.554385 0.445966
0.636625 0.557812 0.426981
0.759857 0.558156 0.431073
0.858605 0.557272 0.436743
0.050794 0.639883 0.507042
0.073843 0.640435 0.519156
0.261811 0.640358 0.531790
0.401025 0.638390 0.538164
0.514345 0.645351 0.535511
0.637954 0.664769 0.512954
0.752534 0.663262 0.493975
0.845890 0.655822 0.508283
0.335904 0.723904 0.605281
0.375313 0.723390 0.611162
0.430095 0.722097 0.614723
0.501862 0.720240 0.619881
0.581167 0.717860 0.627078
0.656842 0.725546 0.618366
0.749058 0.734128 0.599518
0.834135 0.730220 0.585953
0.566537 0.773491 0.708474
0.575890 0.773050 0.709438
0.598293 0.772231 0.712006
0.634345 0.770895 0.716699
0.679620 0.769040 0.723393
0.727492 0.768112 0.729435
0.773292 0.772104 0.722045
0.831708 0.775876 0.710138
0.050794 0.089535 0.382441
0.050794 0.093036 0.388140
0.050987 0.097230 0.399945
0.229858 0.097107 0.410371
0.418049 0.080884 0.421902
0.581969 0.051062 0.410701
0.719542 0.050794 0.390891
0.836178 0.097130 0.387738
0.050794 0.139198 0.408748
0.050794 0.141954 0.412278
0.053086 0.146566 0.420849
0.249993 0.152629 0.428976
0.432903 0.156070 0.435224
0.591409 0.129744 0.420532
0.723815 0.129463 0.403583
0.838795 0.190140 0.399487
0.050794 0.231972 0.442974
0.050794 0.239635 0.448291
0.058358 0.253939 0.457978
0.283184 0.266604 0.466511
0.462181 0.275947 0.464156
0.609303 0.274093 0.447734
0.735250 0.291000 0.438028
0.845022 0.308580 0.425836
0.050794 0.383402 0.490910
0.050794 0.389527 0.494104
0.054895 0.404786 0.502543
0.317834 0.428294 0.516714
0.496231 0.432929 0.508728
0.632419 0.434079 0.496538
0.749814 0.436156 0.482599
0.849824 0.438640 0.467693
0.050794 0.536502 0.527864
0.050794 0.540085 0.530820
0.066360 0.548286 0.539102
0.359108 0.558530 0.560364
0.511105 0.572163 0.554956
0.648054 0.575399 0.543953
0.760334 0.574244 0.541430
0.850369 0.567673 0.531490
0.050794 0.649577 0.570458
0.052718 0.651143 0.574149
0.234079 0.655153 0.585280
0.431887 0.657169 0.609838
0.540322 0.656428 0.614389
0.648292 0.672821 0.598420
0.754744 0.670496 0.584388
0.841632 0.664941 0.592874
0.281425 0.728888 0.628624
0.327638 0.729079 0.633480
0.426498 0.728924 0.650580
0.527369 0.726948 0.669168
0.599784 0.724228 0.674682
0.669585 0.727821 0.672357
0.752663 0.736263 0.657161
0.831615 0.732258 0.645072
0.532524 0.776746 0.712091
0.554274 0.775930 0.718082
0.602687 0.773792 0.732378
0.644764 0.772014 0.739993
0.687382 0.770180 0.745186
0.734098 0.768233 0.751512
0.777263 0.771825 0.746921
0.832741 0.776326 0.736957
0.050794 0.102982 0.514160
0.050794 0.104643 0.518263
0.050794 0.105375 0.526921
0.240455 0.094846 0.540177
0.433303 0.079933 0.547268
0.603642 0.099785 0.552906
0.735241 0.130776 0.542364
0.842137 0.162781 0.522171
0.050794 0.153712 0.532151
0.050794 0.155651 0.535175
0.050794 0.158589 0.541863
0.259819 0.158392 0.553148
0.448854 0.163471 0.559676
0.610830 0.190289 0.562358
0.737889 0.210261 0.549892
0.841799 0.228949 0.528797
0.050794 0.254110 0.561512
0.050794 0.260021 0.564483
0.061541 0.266918 0.570040
0.295155 0.276335 0.580241
0.477338 0.292511 0.586377
0.623496 0.319815 0.584130
0.742094 0.328178 0.567973
0.839648 0.336298 0.545926
0.050794 0.389065 0.591932
0.050794 0.395165 0.594936
0.092135 0.411743 0.603159
0.342182 0.436185 0.616329
0.507452 0.453252 0.624068
0.636045 0.464473 0.616256
0.743301 0.459021 0.595637
0.836457 0.458462 0.575703
0.050794 0.544133 0.629471
0.050794 0.548252 0.631921
0.128318 0.558209 0.638198
0.377614 0.575408 0.649672
0.537574 0.594944 0.663617
0.652506 0.593045 0.653734
0.750768 0.584401 0.637043
0.838289 0.574763 0.618266
0.050794 0.659913 0.653567
0.061227 0.661437 0.655462
0.251866 0.665329 0.660945
0.422388 0.671197 0.671058
0.566663 0.675959 0.690605
0.663719 0.683300 0.687446
0.758392 0.681532 0.679259
0.835790 0.676679 0.677766
0.282886 0.733299 0.681314
0.323248 0.733602 0.683375
0.401854 0.733827 0.688873
0.506930 0.734443 0.702235
0.619564 0.733135 0.725250
0.687192 0.731497 0.728580
0.758859 0.739282 0.718245
0.829335 0.735512 0.709932
0.490044 0.779747 0.725799
0.509481 0.779215 0.728699
0.554728 0.777841 0.736666
0.626086 0.775369 0.753660
0.695597 0.771961 0.770826
0.740470 0.769739 0.775894
0.782465 0.771559 0.775457
0.834435 0.776719 0.767448
0.050794 0.119634 0.640451
0.050794 0.120292 0.643085
0.051647 0.119934 0.648429
0.270409 0.113326 0.657627
0.456775 0.094758 0.668896
0.620261 0.122389 0.672228
0.748620 0.210040 0.667932
0.844766 0.296912 0.659044
0.050794 0.172476 0.650567
0.050794 0.173549 0.652458
0.059199 0.175655 0.657031
0.288060 0.177311 0.665253
0.467185 0.178259 0.675686
0.626273 0.205774 0.678693
0.749221 0.271196 0.673192
0.842401 0.337286 0.663145
0.050794 0.276999 0.670276
0.050794 0.279142 0.671778
0.106056 0.284446 0.675611
0.324137 0.293364 0.682460
0.489560 0.305892 0.691573
0.638273 0.334272 0.694067
0.749655 0.382120 0.686758
0.838021 0.418621 0.674677
0.050794 0.406421 0.690748
0.051207 0.413528 0.692966
0.215683 0.430330 0.698228
0.375392 0.444213 0.704713
0.517071 0.459475 0.712952
0.649478 0.481686 0.715795
0.748041 0.509094 0.707983
0.831080 0.514059 0.691567
0.052501 0.542490 0.710954
0.095893 0.546756 0.712685
0.280944 0.557421 0.717120
0.426716 0.575323 0.724579
0.550298 0.595041 0.733934
0.660899 0.608078 0.739137
0.747584 0.612269 0.730072
0.823765 0.599570 0.709437
0.166437 0.659570 0.734540
0.241275 0.661810 0.736173
0.348344 0.666483 0.739588
0.465110 0.674442 0.745436
0.581600 0.685395 0.754016
0.687668 0.698022 0.765536
0.759832 0.692610 0.756468
0.825572 0.681686 0.740998
0.336343 0.737902 0.749573
0.366603 0.738177 0.750311
0.429582 0.738689 0.752407
0.516140 0.739692 0.756734
0.612674 0.740808 0.764712
0.708617 0.741564 0.779977
0.770116 0.744361 0.778118
0.828596 0.741493 0.773267
0.497805 0.781275 0.766754
0.512702 0.780934 0.767626
0.547910 0.779994 0.770078
0.601729 0.778456 0.774862
0.672314 0.776032 0.785323
0.748831 0.772870 0.803136
0.790807 0.771816 0.806206
0.837997 0.777908 0.800559
0.050794 0.152475 0.754681
0.050794 0.153618 0.755965
0.132891 0.155535 0.758517
0.332418 0.158080 0.763098
0.486541 0.162979 0.768881
0.631510 0.186644 0.774115
0.763256 0.249606 0.773665
0.847353 0.346044 0.756164
0.050794 0.204150 0.757901
0.050816 0.205640 0.758996
0.169173 0.208997 0.761365
0.344749 0.214641 0.765302
0.492735 0.224678 0.770674
0.633567 0.248264 0.775651
0.762083 0.300734 0.775003
0.843867 0.381849 0.757741
0.051379 0.306189 0.766389
0.072263 0.308243 0.767181
0.234594 0.313514 0.768990
0.375329 0.323016 0.772296
0.509335 0.337438 0.776905
0.640342 0.361090 0.781571
0.761748 0.402604 0.780772
0.838534 0.461636 0.764964
0.155370 0.440388 0.775586
0.218931 0.443652 0.776182
0.312129 0.449453 0.777917
0.419930 0.459593 0.780925
0.533181 0.473975 0.784735
0.649087 0.493474 0.789522
0.759350 0.520905 0.788791
0.829740 0.556276 0.775874
0.266421 0.554700 0.782747
0.305211 0.558524 0.783545
0.379526 0.567791 0.785444
0.474008 0.583263 0.788691
0.565307 0.594738 0.792240
0.661769 0.607327 0.796932
0.757544 0.622459 0.797694
0.821992 0.639688 0.789503
0.353414 0.654709 0.793155
0.380520 0.656650 0.793730
0.438082 0.661098 0.794961
0.518069 0.669048 0.797351
0.607040 0.680918 0.801273
0.691868 0.694110 0.807602
0.766866 0.701876 0.811208
0.820220 0.702562 0.804112
0.445188 0.731692 0.806063
0.463767 0.732267 0.806577
0.505607 0.733811 0.807656
0.568058 0.736567 0.809901
0.642435 0.740448 0.813578
0.720013 0.745802 0.819176
0.788027 0.752577 0.827274
0.828555 0.747164 0.819896
0.540415 0.781042 0.815721
0.551835 0.780807 0.815951
0.579534 0.780295 0.816566
0.622794 0.779424 0.817702
0.677614 0.778309 0.819830
0.739186 0.777173 0.824622
0.799685 0.777392 0.834029
0.846490 0.781388 0.833008
0.156446 0.231053 0.837126
0.212709 0.233865 0.837665
0.304654 0.239649 0.838267
0.412061 0.250737 0.839434
0.524972 0.268673 0.840991
0.638485 0.296625 0.842766
0.751165 0.342823 0.843011
0.856001 0.405742 0.840266
0.195076 0.275180 0.837515
0.241007 0.277555 0.837814
0.321769 0.283179 0.838379
0.422081 0.293882 0.839497
0.530030 0.311114 0.840930
0.640182 0.337045 0.842532
0.750369 0.378419 0.842754
0.853131 0.434233 0.840012
0.262798 0.364700 0.838458
0.294435 0.367033 0.838687
0.358712 0.372507 0.839072
0.446126 0.383233 0.840104
0.543544 0.399066 0.841166
0.645645 0.421304 0.842459
0.749588 0.453745 0.842908
0.847098 0.496524 0.840215
0.340194 0.479328 0.838603
0.362090 0.481345 0.838838
0.410352 0.486017 0.839260
0.480945 0.495071 0.840121
0.564632 0.507970 0.841179
0.655323 0.524638 0.842422
0.749726 0.546326 0.843230
0.838837 0.574536 0.840948
0.420266 0.586436 0.838820
0.438040 0.589234 0.839053
0.476463 0.594566 0.839110
0.526568 0.598390 0.839818
0.593940 0.606385 0.840768
0.670861 0.617057 0.842170
0.753153 0.630414 0.843828
0.831075 0.647079 0.842472
0.486802 0.665397 0.840458
0.500030 0.666692 0.840482
0.530729 0.669892 0.840430
0.578145 0.675865 0.840845
0.637848 0.684708 0.841860
0.699405 0.691670 0.843561
0.765817 0.700062 0.846140
0.828710 0.708857 0.846470
0.552015 0.728578 0.845699
0.562229 0.729103 0.845702
0.586775 0.730486 0.845733
0.626751 0.732980 0.846187
0.678183 0.736766 0.846810
0.735077 0.742381 0.848509
0.788386 0.748646 0.852523
0.838365 0.751994 0.855855
0.620928 0.775567 0.854522
0.628126 0.775609 0.854743
0.646218 0.775890 0.855044
0.675896 0.776417 0.855814
0.714381 0.777426 0.857203
0.757420 0.779117 0.859656
0.801496 0.782669 0.864790
0.870794 0.791154 0.876909
