gsg/04_Specialty/GSG_LUT_Specialty_SummerAfternoon.cube
# GSG LUTs 1.0
# Copyright (c) 2016-2020 Greyscalegorilla
# See EULA for licensing and distribution information
# Converted by Briz LUT Converter
LUT_3D_SIZE 8
DOMAIN_MIN 0.000000 0.000000 0.000000
DOMAIN_MAX 0.903226 0.903226 0.903226
0.000000 0.000000 0.000000
0.009414 0.000000 0.000000
0.060499 0.000000 0.000000
0.131033 0.000000 0.000000
0.220032 0.000000 0.000000
0.326803 0.012257 0.000000
0.449785 0.035984 0.004726
0.588759 0.063075 0.035630
0.001276 0.012675 0.000000
0.030746 0.014967 0.000000
0.085171 0.024199 0.000000
0.160652 0.039395 0.000000
0.255016 0.058420 0.000000
0.366639 0.080252 0.005987
0.494900 0.105345 0.034818
0.638833 0.133527 0.067447
0.031447 0.093158 0.000000
0.057529 0.091693 0.000000
0.112466 0.098050 0.000000
0.189870 0.109733 0.000000
0.287078 0.126425 0.008460
0.402555 0.147095 0.034276
0.535265 0.171429 0.064129
0.683685 0.198881 0.097367
0.065635 0.190988 0.000284
0.089425 0.187313 0.001125
0.145197 0.192036 0.007499
0.225003 0.202526 0.024286
0.325475 0.217905 0.045996
0.444787 0.237475 0.072321
0.581356 0.260688 0.102511
0.729474 0.287911 0.136453
0.097554 0.297373 0.035078
0.122147 0.292883 0.037623
0.178353 0.296341 0.048085
0.260555 0.305944 0.065255
0.364445 0.320627 0.087565
0.485898 0.340229 0.114832
0.613304 0.366516 0.147960
0.742755 0.398318 0.185722
0.125708 0.408854 0.075899
0.154024 0.404585 0.079609
0.209752 0.406813 0.090283
0.294582 0.416399 0.108429
0.399320 0.433440 0.134678
0.513987 0.456687 0.166835
0.634818 0.484737 0.203501
0.760195 0.517248 0.244413
0.148781 0.523573 0.116720
0.185414 0.520494 0.122954
0.246384 0.523850 0.138203
0.334875 0.535949 0.162480
0.437076 0.554145 0.192611
0.548308 0.577541 0.227717
0.665830 0.606081 0.267360
0.787588 0.639332 0.311542
0.181386 0.642073 0.163464
0.240296 0.642974 0.180425
0.299193 0.645752 0.198552
0.384254 0.657205 0.225222
0.483351 0.675166 0.257868
0.591555 0.698705 0.295797
0.705702 0.727572 0.338632
0.823837 0.761172 0.386012
0.000000 0.000000 0.022317
0.021450 0.000000 0.016054
0.071834 0.000000 0.015991
0.142030 0.000000 0.020922
0.230526 0.000760 0.029863
0.337182 0.018945 0.046720
0.460585 0.042145 0.069068
0.599638 0.068880 0.096339
0.012246 0.022876 0.023837
0.040427 0.024156 0.018409
0.094045 0.032439 0.019477
0.169420 0.046814 0.029330
0.263599 0.064711 0.045365
0.375454 0.085940 0.066580
0.503986 0.110437 0.092256
0.648588 0.138531 0.121858
0.039293 0.099571 0.034109
0.063988 0.097354 0.029621
0.118642 0.103061 0.034801
0.196164 0.114424 0.047253
0.293670 0.130735 0.065368
0.409844 0.151198 0.088348
0.542942 0.175261 0.115671
0.692068 0.202481 0.146719
0.070507 0.194864 0.058504
0.093789 0.190892 0.056618
0.149399 0.195127 0.063716
0.229467 0.205396 0.077465
0.330455 0.220505 0.096839
0.450353 0.239934 0.121016
0.587460 0.263071 0.149471
0.730572 0.291796 0.183010
0.099948 0.299153 0.090367
0.124985 0.294726 0.090171
0.180834 0.297723 0.098167
0.263413 0.307308 0.113216
0.367862 0.321909 0.133679
0.487654 0.342839 0.160850
0.612903 0.370318 0.194304
0.741247 0.402816 0.232372
0.125861 0.409165 0.125127
0.155246 0.404971 0.126937
0.210635 0.407112 0.135614
0.296733 0.417702 0.154046
0.401218 0.435811 0.180947
0.515093 0.459786 0.213237
0.635382 0.488495 0.250050
0.759955 0.521746 0.291105
0.147119 0.522564 0.160935
0.188694 0.520488 0.168284
0.250498 0.524855 0.184262
0.338469 0.537656 0.208845
0.440030 0.556368 0.238827
0.550751 0.580644 0.273914
0.667590 0.609789 0.313574
0.788557 0.643828 0.357578
0.186148 0.641553 0.209560
0.246800 0.643682 0.227044
0.304561 0.646592 0.244903
0.388919 0.658696 0.271330
0.487477 0.677297 0.303844
0.595055 0.701692 0.341557
0.708511 0.731099 0.383959
0.826067 0.765426 0.430871
0.002946 0.000000 0.107779
0.030887 0.000000 0.099799
0.081516 0.000000 0.098239
0.152224 0.000000 0.102170
0.241483 0.007435 0.110859
0.348570 0.026525 0.124005
0.472108 0.049297 0.141063
0.611430 0.075198 0.162043
0.021466 0.031509 0.106455
0.049320 0.032633 0.099704
0.103431 0.041167 0.100380
0.178979 0.054932 0.106691
0.273005 0.071771 0.117388
0.384927 0.092210 0.132329
0.513510 0.116018 0.151259
0.658171 0.143545 0.174237
0.047383 0.106652 0.114111
0.071320 0.103870 0.106173
0.125850 0.109086 0.106352
0.203253 0.119888 0.112644
0.300760 0.135450 0.124067
0.416810 0.155177 0.140419
0.550153 0.178643 0.161432
0.699398 0.205004 0.186321
0.076159 0.199629 0.129362
0.098863 0.195123 0.121424
0.153989 0.198660 0.121895
0.233893 0.208219 0.129125
0.334805 0.222706 0.142087
0.454928 0.241567 0.160214
0.591245 0.264465 0.183758
0.728852 0.294680 0.216450
0.102667 0.301509 0.147898
0.127630 0.296517 0.141204
0.182857 0.298946 0.142855
0.265300 0.307902 0.151764
0.369712 0.322140 0.167058
0.487663 0.344461 0.193887
0.611176 0.372946 0.228028
0.738665 0.406193 0.266579
0.125653 0.409137 0.168929
0.155516 0.404414 0.164870
0.210544 0.406177 0.168391
0.297977 0.417991 0.186606
0.402014 0.437174 0.214290
0.515279 0.461743 0.247284
0.634826 0.491206 0.284756
0.758718 0.525232 0.326435
0.144388 0.520257 0.192372
0.191105 0.519635 0.200613
0.253644 0.524853 0.217527
0.340956 0.538216 0.242572
0.442033 0.557659 0.273244
0.552060 0.582613 0.309070
0.668387 0.612550 0.349743
0.788686 0.647343 0.394798
0.189673 0.640074 0.242751
0.252262 0.643051 0.261113
0.308778 0.646554 0.279220
0.392630 0.659244 0.306336
0.490573 0.678527 0.339689
0.597654 0.703637 0.378514
0.710714 0.733992 0.421817
0.827561 0.769128 0.469428
0.010674 0.000000 0.179905
0.038371 0.000000 0.170637
0.089243 0.000000 0.167725
0.160361 0.000183 0.170137
0.250219 0.013406 0.177099
0.357814 0.032256 0.188373
0.482083 0.054827 0.203535
0.622159 0.080421 0.222113
0.029131 0.038387 0.176171
0.056255 0.039313 0.167831
0.110726 0.047948 0.166997
0.186278 0.060905 0.171156
0.280732 0.077317 0.179568
0.393143 0.097399 0.192238
0.522429 0.121186 0.208735
0.667816 0.148691 0.228895
0.053212 0.111544 0.179842
0.076697 0.108565 0.169816
0.131301 0.113616 0.167932
0.209024 0.124227 0.172059
0.306965 0.139486 0.181064
0.423679 0.159069 0.194541
0.557471 0.182071 0.211902
0.706768 0.208093 0.232950
0.079909 0.202915 0.190314
0.102725 0.198207 0.180119
0.157856 0.201500 0.178123
0.237978 0.210869 0.182480
0.339361 0.225124 0.192045
0.459758 0.243688 0.206316
0.593441 0.267440 0.227491
0.727296 0.298963 0.259491
0.104508 0.303305 0.203252
0.130102 0.298233 0.193984
0.184955 0.300220 0.192062
0.267580 0.308904 0.197108
0.371583 0.324055 0.210640
0.488146 0.347465 0.236688
0.610356 0.376713 0.269545
0.737078 0.410530 0.306947
0.125434 0.409130 0.217277
0.156286 0.404524 0.209663
0.212575 0.406974 0.211627
0.300397 0.419670 0.229315
0.403784 0.439474 0.255783
0.516254 0.464642 0.287376
0.635023 0.494638 0.323559
0.758044 0.529321 0.364255
0.145794 0.519639 0.235445
0.196318 0.520417 0.243570
0.257920 0.525884 0.259071
0.344307 0.539701 0.282616
0.444638 0.559599 0.311993
0.553953 0.585135 0.346638
0.669456 0.615638 0.385949
0.788974 0.650951 0.429842
0.194289 0.639434 0.284099
0.258474 0.643612 0.301419
0.313868 0.647157 0.318034
0.396873 0.660241 0.343810
0.494037 0.680012 0.375820
0.600345 0.705673 0.413317
0.712609 0.736555 0.455718
0.828664 0.772468 0.502743
0.017606 0.000000 0.246406
0.044972 0.000000 0.236339
0.096120 0.000000 0.232542
0.167663 0.003813 0.233911
0.258224 0.018646 0.239893
0.366547 0.037481 0.250035
0.491444 0.059868 0.263752
0.632219 0.085462 0.280991
0.035913 0.044420 0.241270
0.062507 0.045445 0.231816
0.117137 0.053892 0.229866
0.192925 0.066133 0.232645
0.287850 0.082266 0.239724
0.400966 0.102267 0.250843
0.530938 0.125952 0.265776
0.677192 0.153788 0.284275
0.058339 0.115869 0.241947
0.081420 0.112655 0.230642
0.136163 0.117554 0.227499
0.214400 0.128173 0.230188
0.312994 0.143408 0.237598
0.430251 0.162758 0.249249
0.564703 0.185521 0.264696
0.714070 0.211367 0.283713
0.083160 0.205601 0.249092
0.106286 0.200932 0.237518
0.161364 0.204131 0.233907
0.241939 0.213437 0.236485
0.343800 0.227565 0.244074
0.464784 0.246008 0.256471
0.594668 0.271723 0.278848
0.725745 0.304428 0.310365
0.106012 0.304675 0.258189
0.132301 0.299633 0.247231
0.187047 0.301618 0.243425
0.269937 0.310152 0.246435
0.374024 0.327073 0.261549
0.489243 0.351583 0.287500
0.610720 0.381417 0.319165
0.736517 0.415800 0.355116
0.125099 0.409217 0.267675
0.157167 0.404708 0.258300
0.215861 0.408660 0.262021
0.303976 0.422547 0.279932
0.406588 0.442911 0.305122
0.518356 0.468607 0.335423
0.636300 0.499158 0.370358
0.758458 0.534336 0.409746
0.148289 0.519827 0.285180
0.202854 0.522288 0.294604
0.263128 0.528100 0.308539
0.348797 0.542279 0.330599
0.448367 0.562696 0.358594
0.556977 0.588775 0.391925
0.671678 0.619886 0.430161
0.790351 0.655819 0.472861
0.199909 0.640049 0.333369
0.265532 0.645043 0.349656
0.319961 0.648864 0.364695
0.402089 0.662498 0.389005
0.498655 0.682772 0.419796
0.604348 0.708949 0.456107
0.715789 0.740439 0.497368
0.831049 0.776883 0.543361
0.023900 0.000000 0.309646
0.051003 0.000000 0.299200
0.102533 0.000041 0.295018
0.174721 0.008793 0.295853
0.265832 0.023561 0.301335
0.374934 0.042278 0.310820
0.500611 0.064685 0.323943
0.642136 0.090260 0.340265
0.042262 0.050255 0.303958
0.068488 0.051244 0.294118
0.123040 0.059222 0.291354
0.199196 0.071071 0.293340
0.294755 0.087032 0.299629
0.408590 0.106921 0.309898
0.539428 0.130894 0.324003
0.686570 0.158914 0.341571
0.062886 0.119776 0.302682
0.085887 0.116569 0.290731
0.140792 0.121396 0.286817
0.219545 0.131908 0.288660
0.318722 0.147140 0.295150
0.436756 0.166455 0.305879
0.571752 0.189146 0.320140
0.719157 0.215745 0.338934
0.086069 0.208226 0.307576
0.109644 0.203606 0.295232
0.164693 0.206760 0.290742
0.245761 0.215984 0.292284
0.348241 0.230144 0.298860
0.468814 0.249283 0.311198
0.595806 0.276878 0.334819
0.724935 0.310545 0.365481
0.107196 0.306001 0.314223
0.134488 0.301207 0.302445
0.189120 0.303079 0.297376
0.272694 0.312287 0.300338
0.376873 0.330937 0.317165
0.491116 0.356451 0.342437
0.611700 0.386882 0.372650
0.736625 0.421777 0.407256
0.124763 0.409405 0.320620
0.159484 0.405815 0.311539
0.220135 0.411171 0.317276
0.308198 0.426137 0.334812
0.410143 0.447026 0.358460
0.521088 0.473205 0.387219
0.638320 0.504352 0.420868
0.759683 0.540163 0.458880
0.152054 0.520946 0.339753
0.210220 0.524951 0.349858
0.268947 0.530827 0.361971
0.353942 0.545518 0.382341
0.452839 0.566442 0.408901
0.560700 0.593064 0.440880
0.674697 0.624787 0.477798
0.792483 0.661314 0.519154
0.205963 0.641301 0.386569
0.272992 0.647107 0.401794
0.326730 0.651362 0.415186
0.408147 0.665455 0.437853
0.504004 0.686211 0.467292
0.608892 0.713028 0.502305
0.719792 0.745083 0.542364
0.834296 0.782087 0.587081
0.029950 0.000000 0.371050
0.056709 0.000000 0.360361
0.108645 0.003214 0.356280
0.181386 0.013578 0.357149
0.273260 0.028359 0.362500
0.383001 0.047111 0.371771
0.509643 0.069476 0.384631
0.652099 0.095057 0.400630
0.048281 0.055897 0.365489
0.074031 0.056943 0.355499
0.128673 0.064049 0.352348
0.205294 0.075722 0.354032
0.301457 0.091650 0.360060
0.416078 0.111791 0.370034
0.547917 0.136045 0.383805
0.695834 0.164144 0.400874
0.067100 0.123502 0.362888
0.090175 0.120302 0.350876
0.145297 0.125207 0.346659
0.224617 0.135757 0.348181
0.324474 0.151033 0.354316
0.443281 0.170219 0.364436
0.578712 0.192858 0.378253
0.721965 0.221301 0.398171
0.088755 0.210656 0.366450
0.112848 0.206262 0.354007
0.168047 0.209407 0.348995
0.249622 0.218633 0.350133
0.352765 0.232975 0.356252
0.471887 0.253749 0.370068
0.596705 0.282812 0.393753
0.724515 0.317256 0.423258
0.108414 0.307388 0.371547
0.136788 0.302922 0.359570
0.191277 0.304683 0.353899
0.276173 0.315577 0.358945
0.380037 0.335616 0.376093
0.493490 0.361842 0.399938
0.613223 0.392800 0.428493
0.737360 0.428239 0.461542
0.124550 0.409823 0.376053
0.164215 0.408210 0.370187
0.225441 0.414727 0.376176
0.313001 0.430171 0.392241
0.414157 0.451581 0.414175
0.524393 0.478348 0.441415
0.640781 0.510091 0.473390
0.761384 0.546454 0.509966
0.158029 0.523145 0.398778
0.218002 0.528055 0.407770
0.275554 0.534176 0.417679
0.359609 0.549254 0.436426
0.457699 0.570817 0.461425
0.564949 0.597976 0.491804
0.678168 0.630262 0.527145
0.795226 0.667344 0.567160
0.212675 0.643011 0.442218
0.280843 0.649809 0.456169
0.334073 0.654510 0.467717
0.414609 0.668812 0.488743
0.509855 0.690229 0.516613
0.614176 0.717549 0.550048
0.724290 0.750260 0.588612
0.837998 0.787877 0.632184
0.035756 0.003813 0.431305
0.062074 0.002470 0.420859
0.114287 0.007736 0.417078
0.187820 0.018219 0.418378
0.280444 0.033049 0.423861
0.391138 0.051873 0.433479
0.518655 0.074266 0.446359
0.661932 0.099857 0.462358
0.054055 0.061423 0.426697
0.079334 0.061995 0.416722
0.133948 0.068794 0.413454
0.211097 0.080365 0.415259
0.308007 0.096336 0.421414
0.423593 0.116568 0.431520
0.556407 0.141379 0.445468
0.705269 0.169391 0.462295
0.071194 0.127008 0.423536
0.094372 0.124019 0.411626
0.149592 0.128889 0.407474
0.229464 0.139534 0.409099
0.330215 0.154786 0.415179
0.449827 0.174024 0.425216
0.585568 0.196939 0.438962
0.722964 0.227789 0.460523
0.091211 0.213086 0.426469
0.116247 0.208935 0.414302
0.171315 0.212080 0.409119
0.253548 0.221445 0.410185
0.357344 0.235846 0.416324
0.474852 0.259073 0.431930
0.597768 0.289350 0.454751
0.724621 0.324277 0.482457
0.109567 0.308894 0.430612
0.139128 0.304793 0.418938
0.193677 0.306669 0.413071
0.280303 0.319710 0.420392
0.383544 0.340939 0.436901
0.496220 0.367592 0.458969
0.615156 0.399091 0.485774
0.738476 0.435157 0.517226
0.124163 0.410351 0.434243
0.169800 0.411298 0.431347
0.231399 0.418860 0.437012
0.318132 0.434713 0.451354
0.418650 0.456587 0.471430
0.528127 0.483920 0.496930
0.643732 0.516208 0.527155
0.763559 0.553193 0.562157
0.164544 0.525724 0.459627
0.226231 0.531789 0.467277
0.282351 0.537960 0.475039
0.365727 0.553539 0.491900
0.463089 0.575588 0.515044
0.569640 0.603255 0.543769
0.682132 0.636098 0.577501
0.798414 0.673837 0.615980
0.219709 0.645272 0.499466
0.289151 0.652889 0.511875
0.341871 0.657899 0.521563
0.421561 0.672811 0.540767
0.516114 0.694647 0.566847
0.619701 0.722477 0.598684
0.729132 0.755823 0.635612
0.842212 0.794145 0.677677
