gsg/04_Specialty/GSG_LUT_Specialty_AfterSchoolSpecial.cube
# GSG LUTs 1.0
# Copyright (c) 2016-2020 Greyscalegorilla
# See EULA for licensing and distribution information
# Converted by Briz LUT Converter
LUT_3D_SIZE 8
DOMAIN_MIN 0.000000 0.000000 0.000000
DOMAIN_MAX 0.903226 0.903226 0.903226
0.074237 0.100122 0.107937
0.092977 0.105045 0.111852
0.128536 0.116452 0.122431
0.180669 0.133420 0.138548
0.250360 0.155406 0.159675
0.339667 0.182189 0.185608
0.449659 0.213565 0.216062
0.582457 0.249651 0.251384
0.109591 0.157879 0.138249
0.127571 0.161026 0.139868
0.163717 0.170846 0.148174
0.217961 0.186336 0.162039
0.291552 0.206680 0.180920
0.385857 0.232061 0.204769
0.502739 0.262153 0.233329
0.643619 0.297200 0.266651
0.148490 0.229336 0.172169
0.165552 0.231668 0.171586
0.202308 0.240529 0.177549
0.258852 0.254992 0.189074
0.336138 0.274561 0.205710
0.435836 0.299177 0.227475
0.559419 0.328676 0.254041
0.708547 0.363031 0.285462
0.188979 0.314585 0.207704
0.205120 0.316389 0.204635
0.242522 0.324502 0.208231
0.301183 0.338375 0.217362
0.382065 0.357336 0.231825
0.486815 0.381401 0.251243
0.617015 0.410666 0.275826
0.767958 0.444421 0.307398
0.229462 0.413226 0.243239
0.244547 0.414495 0.237701
0.282303 0.422096 0.238677
0.342920 0.435442 0.245279
0.427219 0.454079 0.257109
0.534744 0.477028 0.276127
0.653985 0.502750 0.308174
0.779905 0.533152 0.348742
0.268100 0.524589 0.276836
0.282043 0.525322 0.268668
0.319997 0.532632 0.266854
0.382573 0.544305 0.273043
0.467034 0.557323 0.293276
0.565734 0.574879 0.323597
0.675399 0.598464 0.360396
0.793398 0.628178 0.403112
0.303431 0.647509 0.307125
0.317740 0.646505 0.298630
0.362623 0.646869 0.306722
0.428942 0.650854 0.326207
0.510486 0.661239 0.352723
0.604691 0.678380 0.385702
0.708720 0.701635 0.425094
0.819735 0.730907 0.470303
0.349309 0.772839 0.350262
0.377628 0.763126 0.359145
0.424615 0.759431 0.374296
0.489048 0.763014 0.396736
0.567679 0.773500 0.426086
0.657914 0.790728 0.462145
0.756740 0.814361 0.504455
0.861292 0.843609 0.552714
0.082611 0.107976 0.142377
0.101075 0.112135 0.145252
0.136398 0.122982 0.154547
0.188779 0.139245 0.169530
0.259104 0.160597 0.189358
0.349099 0.186742 0.213990
0.460184 0.217441 0.243483
0.594317 0.252955 0.277572
0.116346 0.164173 0.169873
0.133861 0.166769 0.170420
0.169842 0.175820 0.177389
0.224364 0.190536 0.190026
0.298443 0.210326 0.207755
0.393550 0.235064 0.230297
0.511479 0.264490 0.257723
0.653641 0.298751 0.289806
0.153255 0.234346 0.200914
0.169999 0.235992 0.199130
0.206759 0.244216 0.203773
0.263485 0.257891 0.214100
0.341117 0.276799 0.229582
0.441579 0.300724 0.250060
0.566319 0.329694 0.275495
0.716754 0.363488 0.305882
0.192079 0.318461 0.233581
0.207794 0.319564 0.229339
0.245095 0.327000 0.231666
0.303856 0.340040 0.239559
0.385176 0.358409 0.252724
0.490762 0.381913 0.270968
0.621661 0.410380 0.294659
0.766472 0.443338 0.327349
0.230612 0.416015 0.266029
0.245216 0.416524 0.259332
0.283005 0.423451 0.259131
0.343631 0.436063 0.264455
0.428392 0.453984 0.275087
0.533773 0.475364 0.295943
0.649974 0.500421 0.328480
0.773789 0.531023 0.368479
0.267297 0.526204 0.296675
0.280731 0.526313 0.287233
0.318670 0.532687 0.284281
0.381967 0.542161 0.292486
0.465708 0.554250 0.313813
0.563079 0.571728 0.343384
0.671350 0.595470 0.379377
0.787653 0.625256 0.421298
0.300547 0.648036 0.323714
0.317799 0.644526 0.318186
0.363567 0.643160 0.327623
0.429123 0.646981 0.346520
0.509804 0.657701 0.372011
0.602734 0.674851 0.404233
0.705256 0.698341 0.442692
0.814504 0.727662 0.487074
0.352339 0.768837 0.372204
0.380598 0.759120 0.380287
0.426626 0.755383 0.394388
0.490064 0.758990 0.415926
0.567798 0.769711 0.444435
0.656725 0.786939 0.479585
0.754046 0.810595 0.520942
0.857005 0.840065 0.568349
0.093001 0.117602 0.184277
0.110946 0.121029 0.186207
0.146126 0.131057 0.194919
0.198551 0.146772 0.208995
0.269377 0.167317 0.228098
0.360030 0.192729 0.252187
0.472291 0.222804 0.280846
0.607688 0.257805 0.314152
0.124715 0.172208 0.209760
0.141718 0.174074 0.209512
0.177653 0.182403 0.215787
0.232316 0.196455 0.227587
0.306771 0.215472 0.244552
0.402735 0.239470 0.266465
0.521692 0.268330 0.293067
0.665179 0.302023 0.324710
0.159824 0.240947 0.238953
0.176153 0.241955 0.236335
0.212737 0.249396 0.240254
0.269550 0.262388 0.249822
0.347719 0.280633 0.264562
0.448857 0.303861 0.284264
0.574520 0.332010 0.308987
0.726306 0.365248 0.338671
0.196636 0.323959 0.269470
0.211934 0.324205 0.264496
0.249043 0.330962 0.266057
0.308027 0.343319 0.273254
0.389762 0.360953 0.285617
0.496141 0.383734 0.303227
0.626732 0.411507 0.326515
0.764275 0.443716 0.360144
0.233298 0.420245 0.299979
0.247484 0.420064 0.292453
0.284988 0.426241 0.291408
0.345854 0.438166 0.296018
0.430887 0.455178 0.306292
0.533698 0.474885 0.328495
0.646944 0.499594 0.359807
0.768750 0.529970 0.397532
0.267840 0.529166 0.328441
0.280763 0.528583 0.318251
0.318825 0.534143 0.314929
0.383220 0.541271 0.324888
0.465742 0.552400 0.345362
0.561757 0.569861 0.372640
0.668320 0.593572 0.406331
0.782653 0.623175 0.445955
0.299060 0.649853 0.353444
0.319720 0.643614 0.350533
0.366257 0.640785 0.359823
0.430723 0.644547 0.376257
0.510028 0.654970 0.399551
0.601477 0.671997 0.429404
0.702355 0.695350 0.465592
0.809756 0.724708 0.507649
0.356664 0.766143 0.405284
0.384614 0.756378 0.411150
0.429558 0.752228 0.422686
0.492015 0.755693 0.441715
0.568378 0.766253 0.467866
0.655889 0.783403 0.500746
0.751491 0.806932 0.539871
0.852375 0.836362 0.585007
0.104675 0.128757 0.233148
0.122195 0.131419 0.234653
0.157265 0.140714 0.242877
0.209794 0.155571 0.256544
0.281051 0.175415 0.275307
0.372382 0.200126 0.298775
0.485661 0.229477 0.327126
0.622355 0.263697 0.360187
0.134554 0.181641 0.257348
0.151082 0.182689 0.256643
0.186779 0.190375 0.262411
0.241582 0.203583 0.273830
0.316492 0.221848 0.290361
0.413085 0.245122 0.311804
0.533046 0.273340 0.338074
0.677984 0.306372 0.369289
0.167734 0.249020 0.285092
0.183481 0.249172 0.282066
0.219901 0.255890 0.285573
0.276865 0.268100 0.294659
0.355478 0.285585 0.309041
0.457308 0.308118 0.328345
0.583996 0.335604 0.352751
0.736617 0.368114 0.382134
0.202468 0.330497 0.314333
0.217357 0.330091 0.308909
0.254287 0.336042 0.310058
0.313301 0.347732 0.316775
0.395512 0.364635 0.328714
0.502367 0.386621 0.345987
0.629896 0.413552 0.369850
0.762223 0.445373 0.402683
0.237142 0.425576 0.343385
0.250814 0.424651 0.335506
0.288195 0.430128 0.334008
0.349181 0.441260 0.338150
0.433442 0.456767 0.349468
0.534122 0.475671 0.371117
0.645402 0.500108 0.400202
0.765341 0.530550 0.435479
0.269542 0.533320 0.370349
0.282012 0.532002 0.359805
0.321401 0.535395 0.357951
0.385854 0.541223 0.367677
0.467381 0.552128 0.386030
0.561937 0.569469 0.410925
0.666783 0.593115 0.442055
0.779281 0.622661 0.479171
0.302080 0.651018 0.396735
0.324381 0.643246 0.394118
0.370261 0.639884 0.401082
0.433750 0.643460 0.414965
0.511898 0.653835 0.435708
0.601977 0.670859 0.463106
0.701126 0.694201 0.496792
0.806666 0.723424 0.536413
0.362612 0.764962 0.447519
0.390097 0.755061 0.450654
0.434131 0.750803 0.459682
0.495477 0.754100 0.476122
0.570818 0.764459 0.499782
0.656882 0.781780 0.530138
0.750882 0.805256 0.566866
0.849841 0.834514 0.609362
0.117760 0.141195 0.288629
0.134665 0.143093 0.290039
0.169609 0.151530 0.297987
0.222206 0.165582 0.311505
0.293765 0.184615 0.330096
0.385815 0.208568 0.353492
0.499988 0.237205 0.381843
0.637835 0.270743 0.414660
0.145433 0.192288 0.312033
0.161656 0.192530 0.311115
0.197101 0.199433 0.316845
0.251870 0.211780 0.328035
0.327134 0.229327 0.344409
0.424429 0.251818 0.365723
0.545378 0.279247 0.391890
0.691413 0.311528 0.422986
0.176690 0.258150 0.338981
0.192008 0.257471 0.335817
0.228099 0.263413 0.339154
0.285198 0.274812 0.348127
0.364097 0.291522 0.362165
0.466621 0.313243 0.381401
0.594299 0.340034 0.405733
0.747517 0.371871 0.435023
0.209451 0.338271 0.367458
0.223788 0.336973 0.361859
0.260476 0.342218 0.362772
0.319578 0.353027 0.369338
0.402121 0.369118 0.381140
0.509510 0.390419 0.398273
0.632113 0.416552 0.422237
0.760352 0.448400 0.453191
0.241843 0.431972 0.395565
0.255065 0.430224 0.387498
0.292253 0.434850 0.385791
0.353218 0.445205 0.389821
0.436844 0.459098 0.401713
0.535489 0.477559 0.421708
0.645122 0.502036 0.448224
0.763284 0.532473 0.480742
0.272147 0.538351 0.421576
0.284180 0.536180 0.410858
0.325500 0.537417 0.410082
0.389809 0.542319 0.418531
0.470240 0.553176 0.434264
0.563447 0.570534 0.456518
0.666802 0.594168 0.485025
0.777493 0.623829 0.519569
0.306504 0.652796 0.449027
0.330600 0.643909 0.445721
0.375681 0.640301 0.449838
0.438140 0.643855 0.461071
0.515147 0.654176 0.479113
0.603951 0.671310 0.503853
0.701594 0.694621 0.534912
0.805287 0.723867 0.571900
0.369782 0.765071 0.497192
0.397117 0.755197 0.497710
0.440110 0.750760 0.503806
0.500523 0.753978 0.517622
0.574696 0.764446 0.538601
0.659489 0.781686 0.566307
0.751943 0.805254 0.600341
0.849200 0.834610 0.640296
0.132034 0.154831 0.350900
0.148387 0.155808 0.352310
0.183001 0.163449 0.360384
0.235620 0.176594 0.373902
0.307401 0.194817 0.392493
0.400205 0.217968 0.416133
0.515184 0.245918 0.444397
0.654331 0.278577 0.477459
0.157596 0.203974 0.373997
0.173110 0.203411 0.373069
0.208302 0.209448 0.378806
0.263156 0.220992 0.389986
0.338694 0.237673 0.406441
0.436658 0.259463 0.427905
0.558517 0.285962 0.454235
0.705814 0.317544 0.485389
0.186616 0.268257 0.400551
0.201377 0.266726 0.397306
0.237284 0.271785 0.400724
0.294308 0.282343 0.409722
0.373532 0.298297 0.423903
0.476727 0.319233 0.443207
0.605207 0.345192 0.467565
0.755792 0.376656 0.496792
0.217230 0.346843 0.428542
0.231047 0.344795 0.422998
0.267486 0.349106 0.423987
0.326625 0.359111 0.430539
0.409433 0.374393 0.442411
0.515938 0.394838 0.459555
0.634468 0.420730 0.482207
0.759490 0.452620 0.510627
0.247461 0.439169 0.456221
0.260102 0.436546 0.448191
0.296950 0.440359 0.446513
0.358094 0.449586 0.450700
0.441014 0.462314 0.461569
0.538078 0.480639 0.479025
0.646171 0.505219 0.502788
0.762588 0.535831 0.532513
0.275489 0.544125 0.481594
0.288001 0.540717 0.471291
0.331024 0.540088 0.470080
0.394995 0.544498 0.476204
0.474390 0.555464 0.489029
0.566376 0.572925 0.508473
0.668191 0.596732 0.534118
0.777142 0.626334 0.565823
0.312667 0.655520 0.509284
0.338130 0.645618 0.504214
0.382284 0.641964 0.505239
0.443944 0.645543 0.513512
0.519893 0.656013 0.528758
0.607350 0.673159 0.550672
0.703528 0.696628 0.578862
0.805441 0.725911 0.612974
0.378235 0.766608 0.553491
0.405415 0.756619 0.551241
0.447527 0.752037 0.554252
0.507031 0.755318 0.565111
0.580232 0.765804 0.583124
0.663684 0.783184 0.608006
0.754664 0.806830 0.639250
0.850035 0.836301 0.676387
0.147158 0.169380 0.419528
0.162937 0.169562 0.421182
0.197306 0.176226 0.429501
0.249906 0.188546 0.443263
0.321979 0.205913 0.462169
0.415329 0.228138 0.486049
0.531175 0.255279 0.514656
0.671440 0.287101 0.548012
0.170554 0.216684 0.442570
0.185544 0.215114 0.442054
0.220498 0.220245 0.448044
0.275268 0.230941 0.459478
0.351144 0.246831 0.476086
0.449537 0.267639 0.497782
0.572320 0.293487 0.524431
0.720834 0.324219 0.555953
0.197495 0.279222 0.469142
0.211556 0.276840 0.466295
0.247154 0.280962 0.469943
0.304218 0.290668 0.479135
0.383783 0.305636 0.493631
0.487519 0.325739 0.513229
0.616480 0.351065 0.537838
0.761533 0.382603 0.565843
0.225838 0.356257 0.497144
0.238909 0.353321 0.491909
0.275077 0.356695 0.493206
0.334200 0.365828 0.499943
0.417277 0.380199 0.512045
0.521588 0.400008 0.528185
0.636955 0.425913 0.548256
0.759910 0.457995 0.573625
0.253811 0.446942 0.524763
0.265827 0.443593 0.517019
0.302317 0.446498 0.515624
0.363952 0.454181 0.519209
0.446042 0.466407 0.527700
0.541782 0.484945 0.542191
0.648435 0.509588 0.562901
0.763142 0.540305 0.589570
0.279487 0.550573 0.550116
0.294380 0.545077 0.540004
0.338112 0.543596 0.536458
0.401404 0.547956 0.539694
0.479749 0.558922 0.549441
0.570539 0.576513 0.565839
0.670944 0.600473 0.588546
0.778055 0.630243 0.617174
0.321482 0.658458 0.576458
0.346835 0.648599 0.568310
0.390212 0.644904 0.566225
0.450972 0.648512 0.571480
0.525924 0.659041 0.583642
0.612206 0.676372 0.602571
0.706909 0.699870 0.627680
0.807040 0.729363 0.658853
0.387955 0.769076 0.615427
0.414895 0.759478 0.610104
0.456188 0.754673 0.609850
0.514892 0.758124 0.617592
0.587012 0.768718 0.632704
0.669374 0.786124 0.654645
0.758855 0.809854 0.682802
0.852522 0.839529 0.716877
0.163236 0.184726 0.494639
0.178495 0.184114 0.496758
0.212350 0.189759 0.505378
0.264988 0.201175 0.519642
0.337308 0.217614 0.538997
0.431076 0.239017 0.563284
0.547962 0.265369 0.592298
0.689267 0.296420 0.626295
0.184308 0.229977 0.518114
0.198774 0.227610 0.517912
0.233291 0.231864 0.524234
0.288014 0.241585 0.536149
0.364079 0.256490 0.553190
0.463179 0.276586 0.575459
0.586711 0.301453 0.602513
0.736282 0.331269 0.634503
0.209112 0.290937 0.544970
0.222435 0.287573 0.542626
0.257715 0.290811 0.546542
0.314671 0.299498 0.556186
0.394446 0.313650 0.571124
0.498707 0.332864 0.591105
0.627784 0.357382 0.615922
0.765336 0.389735 0.640805
0.234968 0.366380 0.573280
0.247474 0.362404 0.568547
0.283329 0.364936 0.570074
0.342449 0.373074 0.577310
0.425660 0.386569 0.589769
0.527468 0.406051 0.602986
0.640273 0.432321 0.619726
0.761419 0.464636 0.641839
0.260617 0.455477 0.601268
0.271972 0.451078 0.593824
0.308258 0.452967 0.592804
0.370857 0.459501 0.593987
0.452056 0.471691 0.599178
0.546656 0.490367 0.610438
0.651978 0.515279 0.627920
0.764905 0.546036 0.651526
0.283792 0.557438 0.626799
0.302196 0.550134 0.614988
0.346363 0.548042 0.608384
0.408990 0.552507 0.608259
0.486318 0.563696 0.614907
0.575916 0.581492 0.628113
0.674901 0.605513 0.647531
0.780432 0.635552 0.673061
0.331480 0.662468 0.649121
0.356713 0.652760 0.637793
0.399318 0.648967 0.632153
0.459138 0.652739 0.634123
0.533244 0.663484 0.643157
0.618358 0.680870 0.658825
0.711654 0.704651 0.680910
0.810220 0.734331 0.708822
0.398947 0.773036 0.682403
0.425657 0.763483 0.673886
0.466181 0.758649 0.670297
0.524046 0.762198 0.674697
0.595274 0.772941 0.686573
0.676444 0.790571 0.705311
0.764457 0.814484 0.730325
0.856500 0.844269 0.761261
