gsg/04_Specialty/GSG_LUT_Specialty_RoseGlasses.cube
# GSG LUTs 1.0
# Copyright (c) 2016-2020 Greyscalegorilla
# See EULA for licensing and distribution information
# Converted by Briz LUT Converter
LUT_3D_SIZE 32
0.000000 0.000000 0.000000
0.038387 0.001000 0.005010
0.071094 0.001757 0.009059
0.102903 0.002513 0.013321
0.135200 0.003269 0.017385
0.167797 0.004025 0.021671
0.201008 0.004782 0.025956
0.235149 0.005593 0.030297
0.269810 0.006538 0.034834
0.305061 0.007365 0.039371
0.341014 0.008295 0.043988
0.377400 0.009051 0.048690
0.413951 0.009902 0.053322
0.450605 0.010808 0.058112
0.487298 0.011674 0.062901
0.523731 0.012564 0.067573
0.559904 0.013447 0.072236
0.595415 0.014321 0.076892
0.630029 0.015077 0.081287
0.663862 0.015983 0.085572
0.696443 0.016834 0.089858
0.727796 0.017590 0.093978
0.757761 0.018347 0.097838
0.786348 0.018922 0.101438
0.813447 0.019615 0.104967
0.838788 0.020174 0.108102
0.862515 0.020678 0.111127
0.884682 0.021182 0.114152
0.905069 0.021687 0.116736
0.923636 0.022191 0.119028
0.940856 0.022695 0.121297
0.956288 0.022955 0.123321
0.017811 0.030352 0.016810
0.044725 0.036057 0.013946
0.076157 0.036623 0.016856
0.107683 0.037134 0.020385
0.139744 0.037638 0.024150
0.172365 0.038104 0.027918
0.205727 0.038410 0.031790
0.239722 0.038914 0.036008
0.274562 0.039478 0.040165
0.309748 0.040151 0.044694
0.345451 0.040732 0.049224
0.381680 0.041396 0.053753
0.418239 0.041992 0.058377
0.454898 0.042641 0.063059
0.491591 0.043251 0.067703
0.528020 0.044003 0.072370
0.564063 0.044755 0.076907
0.599456 0.045378 0.081445
0.634070 0.046023 0.085840
0.667754 0.046626 0.090126
0.700393 0.047288 0.094406
0.731669 0.047879 0.098358
0.761726 0.048551 0.102139
0.790200 0.049124 0.105914
0.817236 0.049628 0.109321
0.842577 0.050132 0.112594
0.866304 0.050636 0.115664
0.888259 0.051133 0.118477
0.908614 0.051423 0.121029
0.927410 0.051897 0.123328
0.944409 0.052164 0.125590
0.960069 0.052416 0.127614
0.032920 0.056048 0.031147
0.053668 0.063962 0.027500
0.082473 0.066528 0.025781
0.113005 0.067306 0.028449
0.144531 0.067827 0.031683
0.176670 0.068345 0.035034
0.209804 0.068849 0.038785
0.243677 0.069353 0.042609
0.278195 0.069798 0.046697
0.313545 0.070133 0.050955
0.349319 0.070637 0.055229
0.385776 0.071141 0.059514
0.422563 0.071645 0.063888
0.459363 0.072149 0.068415
0.496065 0.072654 0.072946
0.532388 0.073261 0.077467
0.568325 0.073875 0.081988
0.603735 0.074504 0.086509
0.638355 0.075111 0.090898
0.672049 0.075615 0.095173
0.704541 0.076267 0.099295
0.735893 0.076852 0.103173
0.765859 0.077356 0.106949
0.794265 0.077860 0.110544
0.821288 0.078365 0.114073
0.846626 0.078869 0.117208
0.870353 0.079360 0.120233
0.892308 0.079662 0.123045
0.912663 0.080123 0.125598
0.931459 0.080397 0.128104
0.948458 0.080664 0.130166
0.963882 0.080917 0.132167
0.047816 0.081484 0.045035
0.065743 0.089728 0.042470
0.090197 0.094675 0.037342
0.119578 0.096298 0.037271
0.150335 0.097100 0.039835
0.181953 0.097841 0.043046
0.214611 0.098365 0.046351
0.248210 0.098870 0.049979
0.282480 0.099380 0.053913
0.317626 0.099902 0.057758
0.353319 0.100406 0.061846
0.389515 0.100910 0.066115
0.426051 0.101405 0.070391
0.462787 0.101895 0.074755
0.499605 0.102399 0.079168
0.536051 0.102796 0.083453
0.572212 0.103186 0.087739
0.607846 0.103691 0.092024
0.642570 0.104195 0.096296
0.676403 0.104684 0.100421
0.708984 0.105179 0.104439
0.740336 0.105684 0.108448
0.770319 0.106171 0.112127
0.798749 0.106668 0.115656
0.825638 0.107154 0.119149
0.850935 0.107634 0.122292
0.874662 0.107948 0.125302
0.896637 0.108396 0.128111
0.916974 0.108677 0.130663
0.935767 0.108951 0.132955
0.952767 0.109418 0.135201
0.968191 0.109677 0.137004
0.062941 0.106755 0.059183
0.079065 0.115257 0.057093
0.100332 0.121458 0.052631
0.127169 0.124970 0.047522
0.156946 0.126374 0.048911
0.188016 0.127375 0.051445
0.220160 0.128117 0.054500
0.253363 0.128653 0.057971
0.287463 0.129237 0.061530
0.322239 0.129899 0.065288
0.357816 0.130413 0.069138
0.393785 0.130939 0.073225
0.430166 0.131360 0.077396
0.466698 0.131734 0.081531
0.503331 0.132238 0.085802
0.539864 0.132743 0.090071
0.575911 0.133230 0.094340
0.611421 0.133719 0.098610
0.646130 0.134223 0.102753
0.679944 0.134597 0.106767
0.712513 0.135019 0.110651
0.743887 0.135502 0.114422
0.774014 0.135845 0.118020
0.802663 0.136264 0.121525
0.829926 0.136571 0.124693
0.855315 0.136848 0.127896
0.879042 0.137285 0.130757
0.901209 0.137571 0.133530
0.921432 0.137823 0.136054
0.940181 0.138275 0.138343
0.957209 0.138540 0.140376
0.972634 0.138792 0.142392
0.078105 0.132546 0.073552
0.093025 0.141062 0.071576
0.112215 0.147804 0.068205
0.136009 0.152770 0.062918
0.164528 0.155623 0.059270
0.194859 0.156981 0.060770
0.226516 0.157950 0.063311
0.259348 0.158747 0.066351
0.293022 0.159471 0.069650
0.327477 0.159986 0.073209
0.362711 0.160597 0.076950
0.398639 0.161267 0.080791
0.434898 0.161771 0.084809
0.471275 0.162275 0.088904
0.507716 0.162779 0.093056
0.543996 0.163283 0.097188
0.580003 0.163682 0.101327
0.615355 0.164087 0.105495
0.649951 0.164591 0.109615
0.683635 0.165095 0.113482
0.716147 0.165574 0.117396
0.747625 0.165925 0.121111
0.777672 0.166335 0.124624
0.806241 0.166676 0.127961
0.833299 0.166938 0.131238
0.858663 0.167387 0.134318
0.882398 0.167687 0.137138
0.904565 0.167939 0.139877
0.925137 0.168191 0.142203
0.943724 0.168443 0.144472
0.960982 0.168695 0.146504
0.976376 0.168947 0.148521
0.093529 0.158903 0.088014
0.107899 0.167381 0.086456
0.125576 0.174412 0.083392
0.147078 0.180194 0.078863
0.173056 0.184613 0.073347
0.202474 0.186954 0.070939
0.233541 0.188091 0.072722
0.265771 0.189137 0.075463
0.299149 0.190044 0.078502
0.333343 0.190689 0.081788
0.368302 0.191430 0.085250
0.403938 0.192084 0.088935
0.439954 0.192637 0.092843
0.476167 0.193170 0.096707
0.512553 0.193674 0.100692
0.548711 0.194179 0.104699
0.584481 0.194683 0.108732
0.619623 0.195187 0.112847
0.654098 0.195691 0.116834
0.687762 0.196195 0.120635
0.720376 0.196542 0.124416
0.751633 0.196959 0.128165
0.781693 0.197290 0.131585
0.810170 0.197723 0.134862
0.837016 0.198075 0.138139
0.862500 0.198497 0.141181
0.886274 0.198787 0.143991
0.908399 0.199039 0.146552
0.928737 0.199291 0.148895
0.947344 0.199543 0.151124
0.964758 0.199795 0.153153
0.979999 0.200047 0.155122
0.109268 0.185931 0.102942
0.123101 0.194218 0.101394
0.139700 0.201472 0.098672
0.159491 0.207794 0.094886
0.183228 0.213026 0.089745
0.210891 0.216747 0.083867
0.241254 0.218751 0.082818
0.273078 0.220001 0.085083
0.305986 0.221023 0.087819
0.339879 0.222002 0.090803
0.374514 0.222697 0.093968
0.409756 0.223325 0.097527
0.445589 0.224081 0.101251
0.481602 0.224735 0.104998
0.517710 0.225264 0.108779
0.553712 0.225799 0.112652
0.589353 0.226303 0.116628
0.624467 0.226807 0.120501
0.658829 0.227311 0.124392
0.692376 0.227815 0.128252
0.724841 0.228197 0.131998
0.756028 0.228634 0.135594
0.786010 0.228965 0.138989
0.814496 0.229399 0.142241
0.841356 0.229860 0.145461
0.866796 0.230155 0.148376
0.890513 0.230453 0.151114
0.912506 0.230714 0.153665
0.932698 0.230966 0.156186
0.951423 0.231218 0.158250
0.968602 0.231470 0.160266
0.984032 0.231722 0.162039
0.125464 0.213281 0.118193
0.138763 0.221570 0.116657
0.154381 0.228910 0.114329
0.173058 0.235634 0.111005
0.194925 0.241436 0.106433
0.220529 0.246169 0.100531
0.249765 0.249551 0.094919
0.280953 0.251287 0.095255
0.313308 0.252456 0.097569
0.346783 0.253593 0.100301
0.381134 0.254414 0.103339
0.416136 0.255213 0.106638
0.451667 0.255969 0.110102
0.487500 0.256649 0.113668
0.523400 0.257300 0.117385
0.559164 0.257938 0.121131
0.594675 0.258475 0.124912
0.629663 0.259010 0.128694
0.663960 0.259514 0.132475
0.697365 0.260018 0.136179
0.729716 0.260522 0.139794
0.760881 0.260984 0.143303
0.790594 0.261339 0.146767
0.819064 0.261791 0.149962
0.845957 0.262106 0.152954
0.871243 0.262358 0.155965
0.894765 0.262815 0.158633
0.916838 0.263106 0.161164
0.937274 0.263358 0.163571
0.955788 0.263610 0.165682
0.972768 0.263862 0.167703
0.988192 0.264114 0.169412
0.141920 0.241152 0.133822
0.154695 0.249444 0.132219
0.169658 0.256895 0.130045
0.187354 0.263727 0.127013
0.208027 0.269995 0.123077
0.231784 0.275350 0.118074
0.258939 0.279633 0.111931
0.289401 0.282619 0.107261
0.321252 0.284307 0.108115
0.354361 0.285569 0.110432
0.388359 0.286628 0.113160
0.423111 0.287575 0.116198
0.458266 0.288377 0.119430
0.493838 0.289133 0.122779
0.529560 0.289889 0.126267
0.565163 0.290562 0.129880
0.600507 0.291228 0.133588
0.635362 0.291851 0.137296
0.669471 0.292355 0.141004
0.702757 0.292859 0.144543
0.734964 0.293363 0.148099
0.766016 0.293750 0.151547
0.795707 0.294198 0.154847
0.824042 0.294650 0.158018
0.850833 0.295002 0.160936
0.876104 0.295270 0.163864
0.899685 0.295667 0.166611
0.921550 0.296009 0.169160
0.942053 0.296270 0.171304
0.960474 0.296522 0.173555
0.977447 0.296774 0.175519
0.992871 0.297026 0.177116
0.158636 0.269542 0.149529
0.170898 0.277753 0.147765
0.185569 0.285123 0.145942
0.202451 0.292142 0.143203
0.221943 0.298714 0.139829
0.244192 0.304701 0.135057
0.269624 0.309731 0.129284
0.298416 0.313713 0.123009
0.329792 0.316348 0.119728
0.362489 0.317964 0.120974
0.396089 0.319171 0.123319
0.430410 0.320261 0.126098
0.465305 0.321226 0.129136
0.500617 0.322015 0.132364
0.536114 0.322817 0.135716
0.571501 0.323573 0.139164
0.606584 0.324329 0.142652
0.641274 0.324952 0.146181
0.675348 0.325502 0.149665
0.708527 0.326039 0.153262
0.740616 0.326543 0.156698
0.771523 0.327047 0.160087
0.801158 0.327551 0.163361
0.829435 0.327933 0.166370
0.856072 0.328333 0.169312
0.881239 0.328686 0.172122
0.904885 0.328953 0.174690
0.926682 0.329350 0.177211
0.946945 0.329694 0.179511
0.965578 0.329880 0.181632
0.982567 0.330127 0.183494
0.997519 0.330379 0.185261
0.175525 0.298279 0.165410
0.187443 0.306330 0.163816
0.201664 0.313866 0.161926
0.217919 0.320982 0.159448
0.236510 0.327736 0.156366
0.257609 0.334009 0.152141
0.281659 0.339536 0.146978
0.308757 0.344373 0.140423
0.338851 0.348089 0.134326
0.371087 0.350446 0.132098
0.404194 0.351857 0.133999
0.438143 0.353177 0.136486
0.472744 0.354281 0.139241
0.507743 0.355193 0.142296
0.543054 0.356130 0.145472
0.578272 0.356934 0.148749
0.613140 0.357690 0.152063
0.647611 0.358360 0.155508
0.681520 0.358995 0.158896
0.714611 0.359618 0.162269
0.746560 0.360156 0.165607
0.777408 0.360660 0.168884
0.806981 0.361164 0.171988
0.835110 0.361668 0.175065
0.861704 0.361984 0.177987
0.886738 0.362433 0.180709
0.910213 0.362732 0.183260
0.931977 0.363059 0.185781
0.952168 0.363465 0.188003
0.970867 0.363585 0.189888
0.987777 0.363827 0.191894
1.000000 0.364512 0.193147
0.192509 0.327205 0.181386
0.204222 0.335158 0.180013
0.217958 0.342619 0.178164
0.233721 0.349980 0.175839
0.251474 0.356840 0.172879
0.271726 0.363306 0.169175
0.294524 0.369233 0.164502
0.320137 0.374677 0.158340
0.348768 0.379207 0.151690
0.380070 0.382657 0.145744
0.412842 0.384709 0.145103
0.446433 0.386199 0.147274
0.480688 0.387401 0.149692
0.515388 0.388467 0.152499
0.550397 0.389476 0.155450
0.585348 0.390412 0.158629
0.620086 0.391217 0.161731
0.654373 0.391973 0.164972
0.688023 0.392642 0.168317
0.720911 0.393336 0.171536
0.752798 0.393934 0.174776
0.783518 0.394503 0.178053
0.812919 0.395037 0.181157
0.841002 0.395471 0.184001
0.867596 0.395835 0.186816
0.892554 0.396305 0.189481
0.916011 0.396605 0.192020
0.937336 0.397234 0.194294
0.956664 0.398140 0.195825
0.974335 0.399075 0.197167
0.990204 0.399919 0.198501
1.000000 0.401410 0.198787
0.209650 0.356343 0.197519
0.220955 0.364145 0.196003
0.234464 0.371557 0.194364
0.249748 0.378891 0.192312
0.266855 0.386005 0.189255
0.286303 0.392714 0.185860
0.308117 0.399027 0.181555
0.332477 0.404788 0.176020
0.359588 0.409889 0.170035
0.389479 0.414196 0.163227
0.421718 0.417250 0.158169
0.454964 0.419155 0.158313
0.488881 0.420521 0.160479
0.523349 0.421785 0.162996
0.558030 0.422852 0.165774
0.592711 0.423861 0.168693
0.627266 0.424796 0.171665
0.661349 0.425602 0.174824
0.694844 0.426358 0.178041
0.727607 0.427114 0.181126
0.759323 0.427713 0.184242
0.789837 0.428382 0.187413
0.819174 0.428965 0.190411
0.847181 0.429364 0.193225
0.873669 0.429832 0.195888
0.897575 0.430997 0.197886
0.919668 0.432142 0.199589
0.939893 0.433610 0.200804
0.957511 0.435659 0.201386
0.973752 0.437590 0.201662
0.988231 0.439364 0.202013
1.000000 0.440986 0.202166
0.226681 0.385332 0.213541
0.237832 0.393028 0.212131
0.250945 0.400559 0.210382
0.265960 0.407652 0.208739
0.282401 0.415030 0.205782
0.301164 0.422027 0.202405
0.322170 0.428601 0.198339
0.345546 0.434654 0.193534
0.371404 0.440153 0.188074
0.399816 0.444990 0.181513
0.430840 0.449006 0.174625
0.463736 0.451762 0.170653
0.497409 0.453488 0.171540
0.531484 0.454944 0.173776
0.565891 0.456208 0.176307
0.600372 0.457277 0.178959
0.634667 0.458285 0.181801
0.668568 0.459220 0.184846
0.701949 0.460026 0.187932
0.734510 0.460782 0.190889
0.766017 0.461452 0.193871
0.796416 0.462086 0.196896
0.825415 0.462868 0.199513
0.852043 0.464287 0.201372
0.876791 0.465844 0.203092
0.898970 0.468148 0.203868
0.919193 0.470556 0.204372
0.938257 0.472747 0.204567
0.955718 0.475001 0.205026
0.971853 0.476813 0.205302
0.986432 0.478577 0.205683
0.999449 0.480342 0.205916
0.243570 0.414203 0.229540
0.254713 0.421762 0.228154
0.267542 0.429193 0.226618
0.281960 0.436497 0.224790
0.298201 0.443798 0.222198
0.316403 0.450920 0.219048
0.336606 0.457654 0.215195
0.359049 0.463994 0.210866
0.383832 0.469910 0.205631
0.411025 0.475272 0.199310
0.440742 0.479944 0.192310
0.472711 0.483655 0.185563
0.506134 0.486067 0.182997
0.539942 0.487652 0.184703
0.574087 0.489108 0.186961
0.608317 0.490315 0.189417
0.642351 0.491384 0.192067
0.676057 0.492449 0.194909
0.709162 0.493316 0.197881
0.741486 0.494072 0.200756
0.772418 0.495210 0.203229
0.801227 0.496891 0.205202
0.828219 0.498921 0.206566
0.852889 0.501602 0.207074
0.875794 0.504407 0.207515
0.897372 0.506983 0.207924
0.917646 0.509504 0.208306
0.936626 0.511702 0.208572
0.954193 0.513848 0.208830
0.970215 0.515649 0.209193
0.984915 0.517413 0.209453
0.998070 0.519178 0.209713
0.260333 0.442688 0.245421
0.271464 0.450120 0.244035
0.283902 0.457568 0.242491
0.297955 0.465083 0.240593
0.314001 0.472189 0.238457
0.331572 0.479531 0.235388
0.351206 0.486338 0.231934
0.372840 0.493040 0.227560
0.396712 0.499249 0.222683
0.422922 0.504964 0.216939
0.451386 0.510019 0.210289
0.482103 0.514470 0.202684
0.514908 0.517792 0.196687
0.548533 0.519918 0.195762
0.582361 0.521431 0.197743
0.616261 0.522829 0.200008
0.650100 0.524028 0.202464
0.683676 0.525163 0.205106
0.715993 0.526525 0.207452
0.746475 0.528371 0.209185
0.775276 0.530810 0.210275
0.802089 0.533877 0.210902
0.827398 0.536981 0.211233
0.851629 0.539824 0.211485
0.874533 0.542597 0.211829
0.896112 0.545173 0.212006
0.916386 0.547694 0.212339
0.935255 0.550002 0.212715
0.952692 0.552050 0.212989
0.968821 0.553956 0.213235
0.983406 0.555729 0.213486
0.996684 0.557367 0.213620
0.276836 0.470653 0.260916
0.287700 0.478096 0.259523
0.300152 0.485399 0.258260
0.313905 0.492940 0.256219
0.329450 0.500269 0.254093
0.346629 0.507523 0.251339
0.365729 0.514601 0.248149
0.386785 0.521524 0.243750
0.409842 0.527901 0.239156
0.435103 0.533915 0.233809
0.462543 0.539320 0.227771
0.492141 0.544158 0.220836
0.523925 0.548322 0.213295
0.557123 0.551353 0.208352
0.590699 0.553177 0.208534
0.624339 0.554689 0.210530
0.657427 0.556364 0.212510
0.689106 0.558630 0.213899
0.719170 0.561451 0.214735
0.747576 0.564681 0.215090
0.774903 0.568010 0.215204
0.801253 0.571196 0.215392
0.826523 0.574352 0.215732
0.850655 0.577234 0.216023
0.873537 0.580007 0.216171
0.895106 0.582583 0.216304
0.915278 0.585104 0.216627
0.934129 0.587412 0.216897
0.951459 0.589460 0.217249
0.967562 0.591477 0.217408
0.982032 0.593257 0.217653
0.995423 0.594777 0.217905
0.292938 0.498098 0.276151
0.303721 0.505502 0.274799
0.316098 0.512592 0.273821
0.329582 0.520168 0.271671
0.344543 0.527796 0.269311
0.361623 0.534893 0.267125
0.380110 0.542183 0.263681
0.400621 0.549246 0.259688
0.423016 0.555773 0.255407
0.447478 0.562080 0.250189
0.473991 0.567833 0.244540
0.502583 0.573031 0.238062
0.533256 0.577738 0.230572
0.565717 0.581568 0.223272
0.598694 0.584362 0.219781
0.630588 0.587027 0.219811
0.661203 0.590141 0.220279
0.690678 0.593674 0.220324
0.719237 0.597396 0.220191
0.747213 0.600898 0.220174
0.774469 0.604306 0.220083
0.800684 0.607564 0.220128
0.825909 0.610707 0.220319
0.849959 0.613686 0.220560
0.872788 0.616386 0.220733
0.894261 0.619044 0.220847
0.914412 0.621473 0.221072
0.933262 0.623758 0.221324
0.950593 0.625935 0.221448
0.966459 0.627832 0.221819
0.981050 0.629603 0.221943
0.994305 0.631266 0.222191
0.308669 0.524723 0.290976
0.319108 0.532171 0.289579
0.331548 0.539125 0.288643
0.344597 0.546837 0.286468
0.359377 0.554441 0.284273
0.376139 0.561668 0.282021
0.394260 0.568950 0.278753
0.414338 0.576041 0.275146
0.436096 0.582866 0.270934
0.459935 0.589433 0.266111
0.485562 0.595479 0.260493
0.513268 0.601006 0.254327
0.542706 0.606129 0.247357
0.572812 0.611097 0.239679
0.602998 0.615931 0.232582
0.632882 0.620476 0.227808
0.662046 0.624615 0.226194
0.690874 0.628551 0.225787
0.719327 0.632313 0.225555
0.747169 0.635824 0.225423
0.774270 0.639316 0.225208
0.800362 0.642680 0.225185
0.825554 0.645784 0.225109
0.849493 0.648809 0.225247
0.872204 0.651571 0.225499
0.893655 0.654323 0.225554
0.913805 0.656686 0.225634
0.932526 0.658955 0.225862
0.949837 0.661223 0.225893
0.965747 0.663035 0.226210
0.980296 0.664800 0.226377
0.993446 0.666564 0.226476
0.323825 0.550467 0.305282
0.334277 0.557863 0.304088
0.346139 0.565169 0.302647
0.359226 0.572650 0.300712
0.374007 0.580059 0.298786
0.390177 0.587506 0.296313
0.408109 0.594800 0.293475
0.427666 0.601985 0.289957
0.449033 0.609021 0.285956
0.472208 0.615802 0.281174
0.497013 0.622099 0.275773
0.522891 0.628435 0.269634
0.549398 0.634745 0.262860
0.576710 0.640925 0.255648
0.604662 0.647139 0.247415
0.633437 0.652824 0.239349
0.662552 0.657760 0.233620
0.691355 0.662011 0.231439
0.719645 0.665781 0.230944
0.747363 0.669473 0.230596
0.774367 0.673063 0.230344
0.800319 0.676427 0.230257
0.825348 0.679642 0.230084
0.849288 0.682596 0.230077
0.871893 0.685513 0.230167
0.893308 0.688195 0.230186
0.913326 0.690660 0.230186
0.931939 0.692954 0.230262
0.949238 0.695080 0.230415
0.965237 0.697024 0.230512
0.979700 0.698799 0.230753
0.992847 0.700563 0.230761
0.338367 0.575430 0.318902
0.348818 0.582578 0.317721
0.360410 0.589975 0.316426
0.373335 0.597456 0.314490
0.387953 0.604926 0.312524
0.403961 0.612305 0.310265
0.421427 0.619615 0.307513
0.440699 0.626907 0.304309
0.461530 0.634136 0.300209
0.483271 0.641393 0.295300
0.505843 0.648745 0.289905
0.529522 0.656091 0.283850
0.554015 0.663259 0.277076
0.579808 0.670186 0.269758
0.606755 0.676726 0.262093
0.634616 0.682834 0.254013
0.663134 0.688554 0.245938
0.691914 0.693620 0.239222
0.720265 0.697871 0.236356
0.747845 0.701721 0.235867
0.774678 0.705345 0.235444
0.800512 0.708708 0.235299
0.825452 0.711986 0.235125
0.849308 0.715023 0.234809
0.871826 0.717899 0.234852
0.893088 0.720627 0.234756
0.913002 0.723179 0.234724
0.931600 0.725487 0.234868
0.948899 0.727685 0.234811
0.964743 0.729563 0.234802
0.979196 0.731332 0.235199
0.992343 0.733097 0.235047
0.352389 0.599094 0.332089
0.362428 0.606322 0.330668
0.374400 0.613324 0.329765
0.386861 0.621032 0.327782
0.401531 0.628406 0.326078
0.417239 0.635772 0.323888
0.434227 0.643407 0.320824
0.452474 0.651052 0.317619
0.471293 0.659168 0.312949
0.491416 0.667056 0.308175
0.512527 0.674993 0.302645
0.535085 0.682757 0.297026
0.558828 0.690358 0.290453
0.583759 0.697642 0.283312
0.609802 0.704485 0.275813
0.636749 0.710943 0.268255
0.664445 0.717135 0.260204
0.692566 0.722889 0.251874
0.720775 0.727922 0.244887
0.748379 0.732203 0.241526
0.775131 0.736005 0.240687
0.800937 0.739430 0.240279
0.825754 0.742707 0.239994
0.849373 0.745803 0.239560
0.871826 0.748773 0.239489
0.893025 0.751585 0.239448
0.912923 0.754153 0.239434
0.931522 0.756461 0.239496
0.948664 0.758730 0.239285
0.964418 0.760542 0.239261
0.978865 0.762474 0.239398
0.992012 0.764071 0.239332
0.365710 0.621742 0.344653
0.375950 0.628691 0.343509
0.387372 0.636063 0.342160
0.400012 0.643491 0.340360
0.414306 0.650848 0.338761
0.428986 0.658641 0.336302
0.444281 0.666934 0.332629
0.461206 0.675009 0.329336
0.479059 0.683500 0.324858
0.498326 0.691806 0.319960
0.518714 0.700110 0.314212
0.540704 0.708047 0.308807
0.563899 0.715837 0.302596
0.588161 0.723381 0.295778
0.613472 0.730516 0.288996
0.639612 0.737361 0.281495
0.666433 0.743850 0.273461
0.693735 0.749849 0.265922
0.721296 0.755404 0.258115
0.748702 0.760443 0.250996
0.775571 0.764833 0.246699
0.801442 0.768534 0.245172
0.826080 0.771870 0.244783
0.849573 0.774966 0.244350
0.872008 0.777990 0.244224
0.893206 0.780818 0.244078
0.913104 0.783387 0.243891
0.931545 0.785852 0.243704
0.948600 0.787981 0.243787
0.964347 0.789945 0.243629
0.978794 0.791782 0.243617
0.991760 0.793485 0.243798
0.378250 0.643042 0.356438
0.388426 0.650049 0.355426
0.399698 0.657278 0.354203
0.410919 0.665333 0.351541
0.423920 0.673096 0.349495
0.437496 0.681328 0.346414
0.452364 0.689682 0.343131
0.468689 0.698054 0.339482
0.486022 0.706708 0.335134
0.505085 0.715097 0.330812
0.525042 0.723571 0.325535
0.546512 0.731746 0.320087
0.569187 0.739683 0.314072
0.592822 0.747451 0.307669
0.617381 0.754956 0.301061
0.642836 0.762091 0.293808
0.668942 0.768840 0.286132
0.695566 0.775069 0.278853
0.722432 0.781030 0.270977
0.749290 0.786551 0.262915
0.775931 0.791559 0.255585
0.801885 0.795805 0.250836
0.826539 0.799283 0.249438
0.850014 0.802519 0.248950
0.872449 0.805593 0.248532
0.893494 0.808421 0.248249
0.913198 0.810989 0.248156
0.931553 0.813345 0.248099
0.948600 0.815571 0.247971
0.964347 0.817606 0.247729
0.978794 0.819569 0.247714
0.991886 0.821151 0.247769
0.389224 0.663374 0.367049
0.398514 0.670648 0.365615
0.408489 0.678331 0.363578
0.419430 0.686253 0.361366
0.431945 0.694283 0.359115
0.445429 0.702462 0.356500
0.460053 0.710984 0.353051
0.475865 0.719527 0.349434
0.493018 0.728224 0.345289
0.511481 0.736994 0.340652
0.531237 0.745410 0.335963
0.552116 0.753915 0.330230
0.574220 0.762141 0.324624
0.597515 0.769955 0.318760
0.621611 0.777727 0.311899
0.646515 0.785040 0.305104
0.671970 0.791948 0.297948
0.697953 0.798533 0.290561
0.724152 0.804671 0.283218
0.750383 0.810514 0.275518
0.776539 0.815929 0.267438
0.802238 0.820646 0.260315
0.827126 0.824845 0.255135
0.850569 0.828205 0.253488
0.872800 0.831242 0.252984
0.893757 0.834229 0.252676
0.913403 0.836835 0.252464
0.931750 0.839314 0.252261
0.948797 0.841609 0.252193
0.964544 0.843649 0.251775
0.978800 0.845475 0.251747
0.991941 0.847194 0.251747
0.397558 0.682926 0.375950
0.406437 0.690258 0.374414
0.415923 0.698258 0.372188
0.427268 0.705904 0.370531
0.439455 0.714050 0.368130
0.452292 0.722697 0.364871
0.466982 0.731136 0.361857
0.482478 0.739918 0.358227
0.499460 0.748667 0.354184
0.517724 0.757285 0.349915
0.537237 0.765828 0.345370
0.557791 0.774398 0.340193
0.579494 0.782765 0.334467
0.602232 0.790876 0.328583
0.625808 0.798836 0.322037
0.650205 0.806363 0.315287
0.675116 0.813612 0.308123
0.700541 0.820381 0.301107
0.726219 0.826753 0.293788
0.751996 0.832613 0.286720
0.777500 0.838281 0.278987
0.802637 0.843362 0.271496
0.827300 0.847938 0.265186
0.850979 0.851984 0.259195
0.873268 0.855379 0.257316
0.894214 0.858285 0.257009
0.913860 0.860861 0.256585
0.932207 0.863382 0.256122
0.949069 0.865682 0.255879
0.964796 0.867722 0.255977
0.979007 0.869701 0.255588
0.991941 0.871472 0.255575
0.404947 0.701060 0.384308
0.413799 0.708592 0.382580
0.423609 0.716243 0.380921
0.434186 0.724292 0.378521
0.446016 0.732782 0.375985
0.459209 0.741156 0.373130
0.473526 0.749610 0.370174
0.488858 0.758556 0.366555
0.505865 0.767206 0.363126
0.523678 0.775996 0.358793
0.542781 0.784786 0.354187
0.562998 0.793577 0.348910
0.584289 0.802178 0.343007
0.606709 0.810388 0.337456
0.629884 0.818348 0.331474
0.653968 0.826027 0.325230
0.678578 0.833337 0.318595
0.703481 0.840361 0.311538
