gsg/04_Specialty/GSG_LUT_Specialty_HazyHeat.cube
# GSG LUTs 1.0
# Copyright (c) 2016-2020 Greyscalegorilla
# See EULA for licensing and distribution information
# Converted by Briz LUT Converter
LUT_3D_SIZE 5
DOMAIN_MIN 0.000000 0.000000 0.000000
DOMAIN_MAX 0.903226 0.903226 0.903226
0.000000 0.000000 0.000000
0.207224 0.000000 0.000000
0.422711 0.000000 0.000000
0.658710 0.000000 0.000000
0.859979 0.000000 0.000000
0.053385 0.168372 0.008508
0.196128 0.147848 0.001458
0.405879 0.140910 0.000000
0.639729 0.086450 0.000000
0.841878 0.052416 0.000000
0.095884 0.355004 0.006751
0.214720 0.328953 0.000000
0.396401 0.303772 0.000000
0.620391 0.306620 0.000000
0.818966 0.321498 0.000000
0.102714 0.563575 0.000000
0.227933 0.536351 0.000000
0.410528 0.516105 0.000000
0.603127 0.491892 0.000000
0.793942 0.504661 0.000000
0.268809 0.734216 0.000000
0.314813 0.712164 0.000000
0.448514 0.694071 0.000000
0.614378 0.675802 0.000000
0.773866 0.656176 0.000000
0.025972 0.000000 0.162748
0.133676 0.000000 0.080048
0.330493 0.000000 0.060437
0.558230 0.000000 0.044282
0.777696 0.000000 0.022437
0.056167 0.136494 0.109948
0.260987 0.221897 0.180275
0.467278 0.219864 0.164318
0.690132 0.207014 0.144807
0.877587 0.220579 0.115650
0.121391 0.310264 0.116906
0.276718 0.418027 0.183853
0.459545 0.400834 0.144581
0.672530 0.408269 0.114457
0.856762 0.425627 0.063618
0.112591 0.519859 0.092416
0.309931 0.616916 0.177615
0.475792 0.602277 0.107668
0.653472 0.580985 0.039756
0.831517 0.590563 0.007030
0.239896 0.699492 0.081049
0.396895 0.778610 0.202817
0.520292 0.763632 0.118579
0.668393 0.745381 0.028151
0.814786 0.727649 0.000000
0.040789 0.000000 0.347985
0.113958 0.000000 0.254805
0.260603 0.000000 0.171731
0.465241 0.000000 0.150723
0.689022 0.000000 0.135481
0.071993 0.137708 0.289582
0.228337 0.218777 0.388617
0.398687 0.228544 0.289352
0.610413 0.221721 0.267134
0.809450 0.222830 0.246102
0.136823 0.279636 0.228321
0.309251 0.385829 0.330626
0.529738 0.496619 0.436309
0.726267 0.506504 0.413069
0.896157 0.521531 0.389432
0.126576 0.483374 0.225696
0.334976 0.584806 0.344682
0.549800 0.679743 0.461162
0.710912 0.667029 0.412501
0.873496 0.675123 0.387144
0.221778 0.668279 0.241734
0.407006 0.749061 0.374416
0.588761 0.826390 0.494829
0.720776 0.816165 0.441094
0.857975 0.798027 0.387348
0.000000 0.000000 0.602513
0.002412 0.000000 0.491747
0.226684 0.000000 0.366947
0.389978 0.000000 0.267681
0.606419 0.000000 0.243145
0.000000 0.108478 0.534706
0.019322 0.200092 0.647404
0.349365 0.208313 0.537316
0.537921 0.216393 0.416445
0.738523 0.217436 0.385910
0.036460 0.286491 0.455981
0.213814 0.395631 0.577661
0.473216 0.499323 0.680723
0.660369 0.513780 0.582861
0.830623 0.528935 0.556150
0.106062 0.451534 0.386236
0.317514 0.562956 0.507394
0.560495 0.661374 0.624973
0.749039 0.743838 0.716589
0.906444 0.750452 0.699088
0.149020 0.648816 0.387650
0.389607 0.730536 0.519786
0.597663 0.807576 0.641692
0.767280 0.877436 0.736345
0.893161 0.868562 0.701403
0.000000 0.000000 0.826334
0.000000 0.000000 0.736660
0.020496 0.000000 0.629558
0.339758 0.000000 0.498578
0.526796 0.000000 0.386313
0.000000 0.043058 0.771812
0.000000 0.172011 0.858184
0.221137 0.172473 0.778396
0.485333 0.188339 0.661591
0.666730 0.189201 0.551894
0.000000 0.275176 0.700156
0.020351 0.391738 0.801005
0.397626 0.497509 0.883239
0.609791 0.502292 0.800284
0.770239 0.517805 0.701773
0.000000 0.460458 0.625114
0.219597 0.570745 0.728550
0.493426 0.667887 0.822263
0.696123 0.746839 0.901478
0.851108 0.753150 0.826998
0.000000 0.616248 0.564375
0.346926 0.709342 0.672600
0.577606 0.791207 0.768524
0.764081 0.866966 0.855994
0.923549 0.927322 0.923845
