gsg/04_Specialty/GSG_LUT_Specialty_InstantPhoto.cube
# GSG LUTs 1.0
# Copyright (c) 2016-2020 Greyscalegorilla
# See EULA for licensing and distribution information
# Converted by Briz LUT Converter
LUT_3D_SIZE 5
DOMAIN_MIN 0.000000 0.000000 0.000000
DOMAIN_MAX 0.903226 0.903226 0.903226
0.000000 0.033211 0.048352
0.056127 0.039805 0.052692
0.180692 0.046327 0.056851
0.325314 0.059120 0.065706
0.468077 0.076175 0.077711
0.004364 0.155619 0.069770
0.098797 0.152668 0.069195
0.201660 0.147875 0.067297
0.328278 0.148021 0.070521
0.463886 0.151929 0.077404
0.055189 0.297436 0.090346
0.145400 0.287029 0.086242
0.223299 0.272312 0.079843
0.331321 0.263390 0.079326
0.458577 0.267270 0.093880
0.113726 0.485864 0.112450
0.196122 0.470030 0.106499
0.262153 0.451345 0.109142
0.362736 0.445695 0.128558
0.470527 0.448454 0.152853
0.192146 0.705589 0.153374
0.295380 0.687534 0.177008
0.355288 0.666094 0.197224
0.430195 0.649431 0.221167
0.513367 0.641939 0.250342
0.000000 0.041546 0.147119
0.068124 0.047064 0.149451
0.189184 0.052542 0.150599
0.329649 0.064248 0.156328
0.470897 0.080271 0.165176
0.013486 0.159581 0.164441
0.107198 0.155445 0.159847
0.205136 0.148825 0.152923
0.328110 0.147347 0.150645
0.462055 0.149647 0.151771
0.062436 0.298632 0.180133
0.150228 0.286379 0.169072
0.222484 0.269388 0.154630
0.327804 0.259193 0.147440
0.454647 0.268801 0.166917
0.117340 0.484105 0.195337
0.198873 0.466216 0.180841
0.271343 0.450955 0.188638
0.367774 0.446924 0.211897
0.471984 0.451613 0.242138
0.206058 0.701115 0.246871
0.308601 0.685928 0.271274
0.368687 0.667024 0.290521
0.440685 0.652178 0.311652
0.520696 0.646548 0.338059
0.000000 0.050368 0.279822
0.081752 0.055441 0.283241
0.199496 0.059905 0.284793
0.335527 0.071027 0.290941
0.475513 0.086064 0.299584
0.024617 0.164819 0.299011
0.118163 0.159512 0.294120
0.211433 0.151562 0.285951
0.330385 0.148811 0.282267
0.462795 0.149992 0.281693
0.072370 0.301721 0.313340
0.158318 0.287919 0.301613
0.225257 0.269080 0.284944
0.331287 0.262508 0.280658
0.455299 0.275308 0.297121
0.124605 0.485234 0.324274
0.211289 0.468071 0.314317
0.285744 0.456245 0.320150
0.376941 0.453061 0.332486
0.476915 0.458817 0.350929
0.225633 0.701327 0.368811
0.325628 0.688689 0.383221
0.385379 0.671709 0.394268
0.453780 0.657994 0.407174
0.529987 0.653588 0.426173
0.000000 0.059924 0.403513
0.096729 0.064429 0.409443
0.211249 0.068423 0.413163
0.342686 0.078962 0.420552
0.481224 0.093166 0.429690
0.037396 0.170919 0.424585
0.130991 0.164744 0.422711
0.219572 0.155665 0.417531
0.334338 0.151885 0.415905
0.465087 0.152863 0.416846
0.084344 0.306393 0.440797
0.168865 0.291148 0.432306
0.230849 0.270763 0.419331
0.339046 0.270491 0.416201
0.458697 0.284761 0.421479
0.135369 0.488497 0.453237
0.232551 0.475271 0.447125
0.302304 0.464890 0.443744
0.388558 0.462013 0.445556
0.483754 0.468368 0.453683
0.247974 0.704888 0.488787
0.344691 0.694135 0.494752
0.403843 0.678679 0.497322
0.468468 0.665729 0.501680
0.540421 0.662032 0.512838
0.010532 0.070188 0.524771
0.113270 0.074284 0.535605
0.224003 0.077966 0.544060
0.350687 0.087975 0.556178
0.487831 0.101280 0.570113
0.051965 0.177886 0.555495
0.145505 0.170924 0.557767
0.229442 0.160964 0.556176
0.339625 0.156274 0.558002
0.468784 0.159556 0.560406
0.098271 0.312185 0.581359
0.181449 0.295820 0.575847
0.242758 0.277057 0.563819
0.349683 0.281780 0.551465
0.463987 0.296623 0.544861
0.150419 0.493773 0.602670
0.255859 0.485279 0.587622
0.320595 0.475781 0.571507
0.401788 0.473062 0.561181
0.491929 0.479758 0.558192
0.271228 0.710229 0.625040
0.365044 0.701294 0.619733
0.423344 0.687369 0.610477
0.484055 0.674598 0.603031
0.551520 0.671346 0.603661
