gsg/04_Specialty/GSG_LUT_Specialty_OldPoster.cube
# GSG LUTs 1.0
# Copyright (c) 2016-2020 Greyscalegorilla
# See EULA for licensing and distribution information
# Converted by Briz LUT Converter
LUT_3D_SIZE 5
DOMAIN_MIN 0.000000 0.000000 0.000000
DOMAIN_MAX 0.903226 0.903226 0.903226
0.083028 0.079121 0.061294
0.221836 0.112395 0.076655
0.334507 0.126764 0.097428
0.445248 0.138903 0.119776
0.548080 0.126787 0.144094
0.167616 0.245114 0.125031
0.203391 0.205305 0.107420
0.307711 0.193455 0.113693
0.418055 0.181966 0.126971
0.522948 0.163582 0.145966
0.235181 0.403616 0.219473
0.221232 0.355658 0.190659
0.299056 0.322492 0.177576
0.396152 0.311923 0.183903
0.496699 0.299622 0.193655
0.293284 0.572185 0.325015
0.283294 0.521222 0.294558
0.290441 0.475596 0.266942
0.383838 0.447442 0.254704
0.476631 0.437968 0.263351
0.303060 0.761865 0.402308
0.310942 0.703307 0.388032
0.312550 0.643767 0.362921
0.362283 0.602489 0.338170
0.467144 0.574861 0.330355
0.134287 0.101572 0.175281
0.210105 0.114813 0.171159
0.322688 0.131197 0.159572
0.432166 0.137616 0.148969
0.536411 0.129873 0.151122
0.158930 0.204015 0.155040
0.264383 0.261996 0.258767
0.368258 0.248008 0.246102
0.471351 0.231177 0.232447
0.571993 0.212709 0.223892
0.217735 0.354308 0.191334
0.258547 0.404767 0.263485
0.354787 0.385024 0.285069
0.451436 0.372057 0.272782
0.548817 0.358827 0.265398
0.283038 0.521222 0.295071
0.295352 0.568417 0.325751
0.332366 0.532660 0.316384
0.437564 0.507411 0.325492
0.531084 0.497737 0.320812
0.308722 0.703819 0.388032
0.305567 0.756157 0.402224
0.324816 0.705811 0.390554
0.403614 0.665520 0.373859
0.526619 0.636621 0.373109
0.163228 0.128906 0.284895
0.168475 0.125729 0.272873
0.309532 0.146111 0.276287
0.419166 0.150874 0.266679
0.523863 0.151463 0.254665
0.161128 0.186893 0.248201
0.220721 0.240326 0.345839
0.357606 0.263410 0.360860
0.463129 0.248352 0.348129
0.562883 0.230096 0.335590
0.214494 0.314712 0.247593
0.298928 0.380621 0.355127
0.412867 0.449183 0.458179
0.509470 0.438292 0.451725
0.607383 0.424159 0.440343
0.264934 0.471842 0.281414
0.306483 0.527765 0.366306
0.388469 0.593589 0.461494
0.498498 0.578813 0.487503
0.600494 0.566328 0.476009
0.308602 0.643258 0.362509
0.309683 0.704199 0.407139
0.363902 0.765778 0.462278
0.478016 0.732602 0.480603
0.622831 0.703525 0.494639
0.194281 0.151609 0.383134
0.190921 0.146396 0.372766
0.251661 0.154280 0.369901
0.408290 0.169807 0.377198
0.511616 0.178392 0.368773
0.185096 0.177632 0.346542
0.215532 0.226960 0.429687
0.301063 0.244536 0.437372
0.451295 0.265267 0.450846
0.552851 0.251890 0.440810
0.207748 0.296679 0.329040
0.263210 0.357145 0.427445
0.366778 0.424338 0.522849
0.504601 0.452235 0.545194
0.605098 0.440917 0.539045
0.261254 0.433245 0.341312
0.339357 0.499577 0.444335
0.442538 0.573750 0.546464
0.591613 0.638931 0.624809
0.715456 0.623131 0.614321
0.304793 0.590649 0.375312
0.338573 0.655238 0.456227
0.434865 0.728422 0.536907
0.579146 0.802069 0.605747
0.748138 0.779841 0.624629
0.230431 0.173682 0.470936
0.226134 0.173652 0.460296
0.232720 0.170458 0.452064
0.349687 0.179054 0.457033
0.500511 0.199950 0.467593
0.211969 0.176910 0.435189
0.250729 0.219003 0.508781
0.274795 0.229860 0.507309
0.396607 0.246610 0.515112
0.543719 0.271238 0.530515
0.217124 0.280614 0.414689
0.260560 0.338451 0.499200
0.333949 0.399930 0.585639
0.451022 0.427732 0.604028
0.600102 0.453325 0.622497
0.253455 0.413439 0.411485
0.309217 0.477041 0.505097
0.404470 0.546313 0.599867
0.529332 0.614905 0.702517
0.726418 0.635341 0.714149
0.307567 0.551696 0.433915
0.378266 0.620679 0.528274
0.503179 0.693548 0.610082
0.671931 0.774884 0.696941
0.875331 0.855512 0.815032
