gsg/04_Specialty/GSG_LUT_Specialty_MilySkies.cube
# GSG LUTs 1.0
# Copyright (c) 2016-2020 Greyscalegorilla
# See EULA for licensing and distribution information
# Converted by Briz LUT Converter
LUT_3D_SIZE 5
DOMAIN_MIN 0.000000 0.000000 0.000000
DOMAIN_MAX 0.903226 0.903226 0.903226
0.050794 0.061538 0.077167
0.111899 0.080082 0.083658
0.301390 0.092000 0.100382
0.588696 0.066966 0.108094
0.839631 0.131206 0.089511
0.050794 0.168671 0.182591
0.073620 0.187235 0.174262
0.347459 0.213192 0.163630
0.625720 0.230984 0.155140
0.852083 0.268371 0.141899
0.050794 0.418890 0.319934
0.050794 0.418211 0.325856
0.383449 0.466406 0.291956
0.662909 0.479531 0.264138
0.866559 0.486938 0.272544
0.063697 0.653110 0.476545
0.223139 0.652418 0.482083
0.456557 0.651890 0.493354
0.664191 0.681567 0.450437
0.846682 0.671921 0.443144
0.552672 0.773193 0.684958
0.579236 0.772138 0.688133
0.645851 0.769210 0.697108
0.731138 0.769396 0.703658
0.831294 0.775884 0.682787
0.050794 0.075765 0.232707
0.055637 0.087971 0.245689
0.314292 0.076980 0.251816
0.600215 0.052105 0.256138
0.838242 0.113682 0.245949
0.050794 0.187241 0.296580
0.052120 0.204822 0.307742
0.355636 0.220476 0.300824
0.629585 0.233100 0.289921
0.847777 0.266354 0.275503
0.050794 0.441023 0.387487
0.050794 0.448240 0.408459
0.395174 0.478777 0.393082
0.668947 0.488983 0.375603
0.860771 0.492377 0.373050
0.077710 0.662703 0.525557
0.265542 0.662279 0.536561
0.474619 0.659242 0.547772
0.668049 0.684895 0.516401
0.843673 0.675730 0.509921
0.564654 0.773466 0.703977
0.589377 0.772433 0.706760
0.654717 0.770042 0.715649
0.736991 0.769239 0.723528
0.832072 0.776054 0.705242
0.050794 0.096183 0.449076
0.050794 0.100901 0.461019
0.331934 0.089188 0.480222
0.629076 0.066076 0.482078
0.838912 0.085984 0.447911
0.050794 0.215205 0.495536
0.050794 0.225507 0.503381
0.375310 0.243311 0.518431
0.645382 0.260981 0.506421
0.839696 0.288271 0.477596
0.050794 0.468636 0.564586
0.050794 0.482306 0.572145
0.438927 0.519408 0.595550
0.670656 0.518088 0.575762
0.844884 0.509907 0.546111
0.051615 0.676864 0.619301
0.240898 0.680021 0.627749
0.518745 0.684631 0.661818
0.682994 0.695696 0.653496
0.836301 0.688225 0.646435
0.510467 0.778235 0.716492
0.561395 0.776575 0.727524
0.669323 0.771870 0.754878
0.747943 0.768578 0.763997
0.833300 0.776336 0.751339
0.050794 0.125172 0.670802
0.050794 0.125850 0.676216
0.376073 0.114623 0.690914
0.660587 0.148642 0.700464
0.844595 0.319387 0.686902
0.050794 0.252192 0.691827
0.062904 0.257102 0.695427
0.408174 0.271346 0.706886
0.671192 0.314995 0.714819
0.838884 0.416572 0.698680
0.054156 0.478531 0.720777
0.232183 0.493397 0.725595
0.473513 0.524489 0.736390
0.681148 0.552848 0.744172
0.825627 0.572081 0.724707
0.269588 0.681514 0.755771
0.368568 0.685590 0.758592
0.543263 0.697268 0.767601
0.717714 0.715431 0.784475
0.824485 0.701940 0.764985
0.502338 0.781701 0.778488
0.541169 0.780692 0.780505
0.635988 0.777895 0.787866
0.762038 0.773610 0.811082
0.839567 0.778562 0.808874
0.156446 0.231053 0.837126
0.279787 0.237953 0.838009
0.468144 0.258631 0.840233
0.666881 0.305338 0.843279
0.856001 0.405742 0.840266
0.245699 0.339244 0.838421
0.328689 0.345358 0.838970
0.488755 0.365224 0.840577
0.670628 0.404797 0.843077
0.849046 0.479364 0.840318
0.385494 0.538275 0.838534
0.427702 0.540428 0.838883
0.538069 0.553237 0.840265
0.683317 0.576022 0.842365
0.834489 0.611395 0.841427
0.502761 0.682958 0.841640
0.535629 0.685807 0.841459
0.618797 0.695088 0.842100
0.724134 0.708754 0.844989
0.829775 0.721700 0.848170
0.620928 0.775567 0.854522
0.640611 0.775832 0.854987
0.694232 0.776910 0.856419
0.768289 0.779780 0.860577
0.870794 0.791154 0.876909
