gsg/04_Specialty/GSG_LUT_Specialty_Milky_Spring.cube
# GSG LUTs 1.0
# Copyright (c) 2016-2020 Greyscalegorilla
# See EULA for licensing and distribution information
# Converted by Briz LUT Converter
LUT_3D_SIZE 5
DOMAIN_MIN 0.000000 0.000000 0.000000
DOMAIN_MAX 0.903226 0.903226 0.903226
0.086691 0.111355 0.079609
0.156729 0.120942 0.089984
0.328473 0.143669 0.114475
0.629076 0.161629 0.137374
0.936721 0.220497 0.196298
0.152956 0.254472 0.126764
0.215593 0.251730 0.128327
0.361791 0.268888 0.145795
0.619970 0.287416 0.156107
0.907501 0.335434 0.214846
0.203915 0.504132 0.166576
0.258662 0.478598 0.162858
0.396369 0.471175 0.176517
0.614361 0.482465 0.196384
0.888534 0.523778 0.243941
0.284241 0.786616 0.232368
0.317335 0.746051 0.222486
0.432306 0.729812 0.221797
0.643718 0.746613 0.232603
0.904392 0.778558 0.257238
0.384552 0.967899 0.315286
0.398451 0.952229 0.281988
0.490727 0.945268 0.260585
0.683848 0.948553 0.255615
0.920562 0.960203 0.263566
0.093151 0.120722 0.171310
0.167861 0.126669 0.184415
0.338112 0.150153 0.218391
0.630391 0.165434 0.266462
0.933073 0.224648 0.318401
0.164752 0.262196 0.227538
0.221412 0.256516 0.225807
0.365179 0.266340 0.242070
0.614940 0.283761 0.265908
0.898845 0.329986 0.309707
0.211870 0.502468 0.282242
0.258508 0.474597 0.266175
0.387787 0.463685 0.262175
0.604766 0.470961 0.278847
0.884942 0.517504 0.317211
0.288660 0.777213 0.327059
0.316889 0.734477 0.304400
0.428960 0.724853 0.297823
0.638692 0.741081 0.311322
0.900201 0.772209 0.339921
0.380204 0.964455 0.381719
0.395721 0.949017 0.355866
0.485893 0.941771 0.342945
0.677795 0.944795 0.347273
0.916001 0.955915 0.364941
0.093797 0.128890 0.365788
0.177692 0.130142 0.379251
0.359090 0.149687 0.399614
0.635394 0.174985 0.443854
0.932322 0.235068 0.485875
0.153238 0.275672 0.402944
0.216805 0.264196 0.400379
0.371616 0.265758 0.414565
0.615194 0.287224 0.432310
0.893912 0.332234 0.463737
0.222059 0.508656 0.445555
0.264720 0.477410 0.427167
0.390006 0.461978 0.421415
0.606586 0.473520 0.430836
0.886011 0.520015 0.460029
0.300823 0.773878 0.481382
0.324783 0.734024 0.453752
0.433103 0.727953 0.443349
0.639757 0.741995 0.449776
0.899189 0.770846 0.469672
0.383292 0.965250 0.521045
0.399908 0.949401 0.491206
0.486126 0.941158 0.473037
0.675269 0.943204 0.470818
0.912694 0.953079 0.480956
0.090543 0.133105 0.641719
0.187595 0.134121 0.638402
0.377703 0.151172 0.647154
0.644263 0.188783 0.673132
0.933917 0.250865 0.718682
0.146097 0.286937 0.655144
0.220402 0.272294 0.638189
0.381956 0.274088 0.634197
0.619483 0.296093 0.646887
0.892723 0.340646 0.677786
0.227898 0.519993 0.674615
0.271788 0.485093 0.644646
0.398102 0.466054 0.627510
0.614785 0.483556 0.636480
0.890003 0.528318 0.666870
0.318168 0.775731 0.700563
0.338115 0.743243 0.664046
0.442188 0.735866 0.648017
0.645369 0.747697 0.651691
0.900990 0.774116 0.671071
0.391185 0.968955 0.739131
0.408910 0.952554 0.701004
0.491251 0.943294 0.675552
0.677435 0.944225 0.668939
0.912347 0.952901 0.676891
0.116594 0.149458 0.941053
0.211420 0.150937 0.935657
0.394502 0.168671 0.940552
0.656040 0.207452 0.958368
0.937642 0.271425 0.987923
0.173965 0.302698 0.947014
0.242494 0.287157 0.929241
0.396436 0.288037 0.921496
0.627577 0.309697 0.927400
0.895875 0.355222 0.948781
0.253070 0.532443 0.955684
0.291413 0.496060 0.926051
0.412236 0.478299 0.906802
0.627307 0.498935 0.913017
0.896163 0.540427 0.934957
0.339320 0.782906 0.966907
0.355199 0.756306 0.936808
0.454580 0.747094 0.919632
0.654124 0.756618 0.919011
0.904589 0.780324 0.931536
0.402474 0.974514 0.988550
0.421291 0.957507 0.958969
0.499304 0.947047 0.935434
0.682116 0.946804 0.926602
0.913600 0.954238 0.929555
