gsg/04_Specialty/GSG_LUT_Specialty_Swampy.cube
# GSG LUTs 1.0
# Copyright (c) 2016-2020 Greyscalegorilla
# See EULA for licensing and distribution information
# Converted by Briz LUT Converter
LUT_3D_SIZE 5
DOMAIN_MIN 0.000000 0.000000 0.000000
DOMAIN_MAX 0.903226 0.903226 0.903226
0.050794 0.050794 0.050794
0.173138 0.060648 0.060837
0.327000 0.085234 0.083107
0.532404 0.142069 0.131167
0.684076 0.239742 0.208941
0.142550 0.167537 0.079334
0.207970 0.183916 0.088847
0.368234 0.230492 0.126110
0.583532 0.325547 0.204022
0.717964 0.431289 0.276815
0.130568 0.433904 0.149521
0.237812 0.453007 0.171888
0.406822 0.494839 0.216232
0.626669 0.561114 0.288426
0.779012 0.613232 0.319314
0.249147 0.659230 0.245713
0.327613 0.672364 0.262020
0.526690 0.704562 0.292738
0.732004 0.733801 0.310888
0.857278 0.757400 0.317894
0.548568 0.814668 0.297735
0.600923 0.819179 0.296181
0.715122 0.833998 0.300914
0.829950 0.847707 0.294647
0.918099 0.858647 0.292526
0.051581 0.051581 0.073071
0.165849 0.066222 0.092651
0.333483 0.095178 0.122084
0.553813 0.161028 0.181076
0.703746 0.248612 0.238953
0.134823 0.185004 0.115107
0.196026 0.202690 0.127522
0.364860 0.251160 0.167434
0.588019 0.345923 0.244377
0.733489 0.450015 0.308000
0.106609 0.449978 0.183895
0.213719 0.468566 0.205920
0.400825 0.510946 0.252764
0.632471 0.576229 0.318041
0.794386 0.626460 0.338286
0.205397 0.670852 0.275960
0.301813 0.685427 0.293518
0.523938 0.716103 0.320485
0.738100 0.745340 0.333128
0.866890 0.768123 0.333043
0.532398 0.829550 0.322678
0.592253 0.836104 0.324285
0.715108 0.849120 0.330473
0.834058 0.860685 0.319912
0.924451 0.868578 0.302497
0.055008 0.062476 0.162527
0.148049 0.077645 0.190517
0.324203 0.112697 0.211428
0.552542 0.190543 0.259703
0.707850 0.272629 0.300894
0.123367 0.221792 0.250820
0.179792 0.239811 0.262886
0.345533 0.288742 0.294194
0.587697 0.377833 0.347716
0.742871 0.465321 0.372942
0.099555 0.491721 0.338182
0.134035 0.502289 0.347849
0.368735 0.546928 0.394440
0.640934 0.607987 0.439774
0.817713 0.653278 0.432972
0.119851 0.711934 0.466732
0.136282 0.717535 0.470049
0.493294 0.753968 0.499958
0.744882 0.780290 0.507051
0.888541 0.800786 0.482064
0.443858 0.869894 0.587144
0.536066 0.877312 0.592618
0.697250 0.893381 0.600150
0.839688 0.906488 0.589227
0.946512 0.912579 0.543582
0.064737 0.110126 0.352223
0.105274 0.122011 0.408498
0.290530 0.165359 0.432354
0.537934 0.245364 0.467903
0.702689 0.331993 0.486716
0.100527 0.298080 0.505712
0.138044 0.316251 0.529549
0.287124 0.359407 0.566428
0.558054 0.447496 0.618557
0.757442 0.525957 0.626418
0.109308 0.554643 0.628094
0.110196 0.563285 0.638023
0.264710 0.601934 0.676606
0.628671 0.661314 0.721527
0.835196 0.701831 0.717251
0.136528 0.755471 0.727111
0.138622 0.759904 0.731916
0.391413 0.789701 0.758081
0.723299 0.826341 0.784541
0.890226 0.849621 0.781350
0.240607 0.887814 0.800840
0.411655 0.902033 0.812076
0.640619 0.923776 0.830056
0.808931 0.941219 0.841470
0.927741 0.953979 0.836926
0.078514 0.199417 0.581677
0.096085 0.206084 0.628498
0.231912 0.235922 0.671182
0.499443 0.323607 0.720620
0.691590 0.419138 0.762852
0.097718 0.385358 0.690304
0.106976 0.397116 0.710376
0.180762 0.417662 0.747191
0.517159 0.506584 0.822959
0.765934 0.594256 0.849496
0.116037 0.608298 0.770354
0.116704 0.614870 0.777904
0.130255 0.637526 0.806658
0.588870 0.698386 0.869215
0.829472 0.744204 0.894388
0.155279 0.781346 0.834889
0.157968 0.787166 0.841305
0.187383 0.803050 0.861405
0.679641 0.850868 0.908823
0.875640 0.877887 0.929485
0.197076 0.901156 0.885793
0.200691 0.902676 0.889021
0.559827 0.934615 0.920529
0.774720 0.957306 0.944801
0.911956 0.972414 0.958903
