gsg/04_Specialty/GSG_LUT_Specialty_Saturated_Summer.cube
# GSG LUTs 1.0
# Copyright (c) 2016-2020 Greyscalegorilla
# See EULA for licensing and distribution information
# Converted by Briz LUT Converter
LUT_3D_SIZE 32
0.016850 0.019048 0.012943
0.042310 0.019315 0.012683
0.067880 0.020056 0.012147
0.095411 0.020489 0.011115
0.126385 0.019954 0.009855
0.160983 0.017118 0.008515
0.197566 0.012344 0.006704
0.235708 0.006270 0.004742
0.275411 0.000788 0.002852
0.317169 0.000173 0.000937
0.361440 0.000000 0.000165
0.405191 0.000000 0.000000
0.447855 0.000000 0.000000
0.492386 0.000000 0.000000
0.538485 0.000000 0.000000
0.584395 0.000000 0.000000
0.628382 0.000000 0.000000
0.670046 0.000000 0.000000
0.709465 0.000000 0.000000
0.746134 0.000000 0.000000
0.781677 0.000000 0.000000
0.813912 0.000000 0.000000
0.842507 0.000000 0.000000
0.870054 0.000000 0.000000
0.896963 0.000000 0.000000
0.923290 0.000000 0.000000
0.948891 0.000000 0.000000
0.974138 0.000000 0.000000
0.992729 0.000000 0.000000
0.999638 0.000000 0.000000
1.000000 0.006144 0.000000
1.000000 0.025397 0.000000
0.014266 0.043011 0.014447
0.036219 0.044279 0.012903
0.062841 0.046534 0.010388
0.092548 0.048352 0.008171
0.124326 0.047739 0.006820
0.159165 0.045425 0.005256
0.195705 0.041088 0.003549
0.233476 0.034999 0.002063
0.272405 0.027459 0.000829
0.313393 0.018842 0.000335
0.356981 0.009861 0.000000
0.400231 0.003158 0.000000
0.442963 0.000602 0.000000
0.487776 0.000371 0.000000
0.532987 0.000181 0.000000
0.578349 0.000060 0.000000
0.622581 0.000016 0.000000
0.664477 0.000004 0.000000
0.703905 0.000000 0.000000
0.740735 0.000000 0.000000
0.776538 0.000000 0.000000
0.809033 0.000000 0.000000
0.838061 0.000006 0.000000
0.865940 0.000031 0.000000
0.893109 0.000082 0.000000
0.919499 0.000196 0.000000
0.945307 0.000399 0.000000
0.970600 0.000701 0.000000
0.991014 0.004931 0.000000
0.999296 0.015786 0.000000
0.999992 0.036659 0.000000
1.000000 0.070826 0.000000
0.009681 0.067525 0.015676
0.027699 0.068020 0.014172
0.053087 0.070291 0.011365
0.084280 0.073278 0.007819
0.119630 0.075270 0.004590
0.155586 0.073666 0.002589
0.192407 0.070271 0.001251
0.229918 0.065420 0.000582
0.268348 0.058664 0.000169
0.308882 0.049765 0.000000
0.352312 0.039504 0.000000
0.395690 0.029548 0.000000
0.438615 0.021005 0.000000
0.483124 0.013521 0.000000
0.527694 0.007315 0.000000
0.572666 0.003343 0.000000
0.616621 0.001802 0.000000
0.658380 0.001327 0.000000
0.698073 0.001154 0.000000
0.735249 0.001125 0.000000
0.771292 0.001129 0.000000
0.804036 0.001166 0.000000
0.833314 0.001422 0.000000
0.861448 0.002350 0.000000
0.888865 0.004097 0.000000
0.915499 0.007889 0.000000
0.941366 0.014531 0.000000
0.966854 0.024345 0.000000
0.989088 0.036669 0.000000
0.998713 0.051941 0.000000
0.999975 0.074868 0.000000
1.000000 0.109945 0.000000
0.004411 0.093103 0.016314
0.016532 0.092615 0.015623
0.039178 0.094239 0.013080
0.070854 0.097721 0.008998
0.109965 0.102575 0.004177
0.150554 0.104370 0.001099
0.189778 0.103004 0.000178
0.228052 0.099284 0.000000
0.266292 0.094174 0.000000
0.306289 0.087862 0.000000
0.349907 0.080133 0.000000
0.394016 0.070979 0.000000
0.437641 0.060218 0.000000
0.482113 0.048520 0.000000
0.526509 0.038160 0.000000
0.571248 0.030844 0.000000
0.614671 0.026746 0.000000
0.656012 0.024409 0.000000
0.695488 0.023060 0.000000
0.732636 0.022456 0.000000
0.768562 0.022574 0.000000
0.801347 0.023367 0.000000
0.830674 0.025094 0.000000
0.858935 0.028291 0.000000
0.886381 0.032879 0.000000
0.913010 0.040508 0.000000
0.939068 0.052084 0.000000
0.964415 0.067853 0.000000
0.987797 0.083601 0.000000
0.998188 0.097625 0.000000
0.999960 0.116277 0.000000
1.000000 0.146016 0.000000
0.000000 0.120485 0.015747
0.004286 0.119266 0.016119
0.022417 0.120713 0.014314
0.052356 0.124219 0.010790
0.093150 0.129342 0.006022
0.142290 0.137638 0.001460
0.187599 0.140103 0.000000
0.229063 0.138178 0.000000
0.267946 0.133515 0.000000
0.307942 0.128745 0.000000
0.351793 0.123799 0.000000
0.396528 0.118759 0.000000
0.440958 0.113584 0.000000
0.485919 0.107798 0.000000
0.530871 0.101410 0.000000
0.575558 0.094538 0.000000
0.618427 0.087887 0.000000
0.659043 0.082626 0.000000
0.697769 0.079081 0.000000
0.734247 0.077241 0.000000
0.769633 0.077867 0.000000
0.802111 0.080474 0.000000
0.831233 0.084573 0.000000
0.859159 0.090719 0.000000
0.886337 0.098356 0.000000
0.912940 0.106875 0.000000
0.939005 0.115917 0.000000
0.964544 0.125123 0.000000
0.987556 0.133739 0.000000
0.997964 0.142468 0.000000
0.999953 0.156836 0.000000
1.000000 0.182945 0.000000
0.000000 0.151396 0.014542
0.001018 0.148812 0.014548
0.008159 0.148960 0.013410
0.028642 0.151526 0.010871
0.068447 0.156373 0.006459
0.118096 0.163405 0.001678
0.170643 0.171763 0.000032
0.221531 0.177437 0.000000
0.267205 0.177468 0.000000
0.309786 0.173398 0.000000
0.353175 0.168183 0.000000
0.395832 0.163052 0.000000
0.438252 0.158653 0.000000
0.482393 0.154991 0.000000
0.526956 0.151426 0.000000
0.571020 0.147712 0.000000
0.613898 0.144110 0.000000
0.655006 0.141492 0.000000
0.693993 0.139852 0.000000
0.730649 0.139069 0.000000
0.766105 0.139673 0.000000
0.798624 0.141170 0.000000
0.827966 0.143623 0.000000
0.856321 0.147655 0.000000
0.883680 0.152538 0.000000
0.910473 0.158106 0.000000
0.936612 0.163863 0.000000
0.962157 0.170198 0.000000
0.986585 0.176453 0.000000
0.997726 0.182719 0.000000
0.999946 0.195956 0.000000
1.000000 0.223892 0.000000
0.000000 0.177061 0.012131
0.000038 0.178261 0.012523
0.001749 0.178429 0.012621
0.012110 0.179970 0.010995
0.038622 0.184826 0.006712
0.091543 0.191596 0.001922
0.147152 0.200836 0.000197
0.204603 0.210993 0.000000
0.260699 0.218992 0.000000
0.309280 0.219251 0.000000
0.356280 0.216152 0.000000
0.398936 0.210733 0.000000
0.438338 0.204824 0.000000
0.479612 0.200633 0.000000
0.522566 0.197935 0.000000
0.565831 0.195768 0.000000
0.607985 0.193898 0.000000
0.648765 0.192704 0.000000
0.687975 0.192240 0.000000
0.725162 0.192236 0.000000
0.761068 0.192872 0.000000
0.793928 0.193831 0.000000
0.823705 0.195244 0.000000
0.852416 0.197698 0.000000
0.880205 0.200893 0.000000
0.907140 0.204545 0.000000
0.933459 0.208530 0.000000
0.959079 0.212784 0.000000
0.983925 0.217035 0.000000
0.996379 0.221508 0.000000
0.999906 0.233567 0.000000
1.000000 0.262050 0.000000
0.000000 0.208665 0.009161
0.000000 0.212550 0.010170
0.000134 0.212794 0.011078
0.002702 0.212902 0.010260
0.014455 0.216639 0.006909
0.063264 0.223267 0.002088
0.119753 0.231330 0.000197
0.181345 0.242083 0.000000
0.244301 0.255032 0.000000
0.303537 0.263422 0.000000
0.357982 0.265526 0.000000
0.404483 0.262140 0.000000
0.443635 0.255376 0.000000
0.481724 0.249023 0.000000
0.520912 0.244257 0.000000
0.561614 0.241336 0.000000
0.602642 0.239991 0.000000
0.642707 0.239559 0.000000
0.681766 0.239648 0.000000
0.719078 0.240072 0.000000
0.755379 0.240734 0.000000
0.788912 0.241490 0.000000
0.819173 0.242342 0.000000
0.848240 0.243739 0.000000
0.876312 0.245857 0.000000
0.903551 0.248195 0.000000
0.930023 0.250862 0.000000
0.955927 0.253815 0.000000
0.981091 0.256636 0.000000
0.995070 0.259611 0.000000
0.999867 0.269952 0.000000
1.000000 0.296239 0.000000
0.000000 0.240994 0.006452
0.000000 0.250473 0.007586
0.000000 0.252121 0.008548
0.000000 0.251033 0.008703
0.003386 0.251793 0.007262
0.034580 0.257795 0.002266
0.090085 0.264818 0.000299
0.153970 0.273101 0.000000
0.217235 0.284440 0.000000
0.286812 0.300362 0.000000
0.351560 0.310487 0.000000
0.406933 0.313513 0.000000
0.451297 0.309490 0.000000
0.488853 0.301741 0.000000
0.524431 0.293858 0.000000
0.561072 0.288099 0.000000
0.599530 0.285224 0.000000
0.638276 0.284262 0.000000
0.676301 0.284339 0.000000
0.712909 0.284778 0.000000
0.749298 0.285334 0.000000
0.783330 0.286002 0.000000
0.814290 0.286654 0.000000
0.843670 0.287558 0.000000
0.872018 0.288846 0.000000
0.899685 0.290426 0.000000
0.926664 0.292060 0.000000
0.953089 0.293907 0.000000
0.978660 0.295680 0.000000
0.993796 0.297436 0.000000
0.999828 0.306298 0.000000
1.000000 0.329828 0.000000
0.000000 0.248675 0.004214
0.000000 0.281613 0.005784
0.000000 0.291038 0.006866
0.000000 0.289019 0.007961
0.000760 0.286870 0.008362
0.012245 0.291372 0.003373
0.056826 0.297345 0.000877
0.119918 0.304540 0.000000
0.187347 0.313544 0.000000
0.253854 0.326081 0.000000
0.325479 0.341009 0.000000
0.391530 0.352452 0.000000
0.445599 0.356301 0.000000
0.490484 0.353545 0.000000
0.530126 0.347689 0.000000
0.565619 0.340158 0.000000
0.599629 0.333364 0.000000
0.634779 0.329433 0.000000
0.670777 0.327920 0.000000
0.705954 0.327235 0.000000
0.741613 0.327157 0.000000
0.775713 0.327527 0.000000
0.807253 0.328254 0.000000
0.837662 0.329221 0.000000
0.866745 0.330230 0.000000
0.894858 0.331378 0.000000
0.922337 0.332565 0.000000
0.949221 0.333780 0.000000
0.974975 0.334622 0.000000
0.991842 0.335477 0.000000
0.999769 0.344984 0.000000
1.000000 0.372657 0.000000
0.000000 0.272701 0.003017
0.000000 0.316775 0.004766
0.000000 0.329867 0.006026
0.000000 0.327457 0.007334
0.000000 0.324216 0.008537
0.002701 0.325388 0.005662
0.025043 0.330301 0.002178
0.077298 0.336904 0.000122
0.154237 0.344370 0.000000
0.221015 0.354276 0.000000
0.292036 0.367653 0.000000
0.361335 0.381117 0.000000
0.425706 0.392972 0.000000
0.483175 0.400425 0.000000
0.529986 0.399960 0.000000
0.569413 0.394669 0.000000
0.603838 0.387346 0.000000
0.636289 0.380706 0.000000
0.668744 0.375735 0.000000
0.700384 0.371619 0.000000
0.734388 0.369903 0.000000
0.768015 0.369665 0.000000
0.799501 0.369796 0.000000
0.830387 0.370477 0.000000
0.860209 0.371444 0.000000
0.889103 0.372389 0.000000
0.917151 0.373250 0.000000
0.944404 0.373739 0.000000
0.970586 0.373870 0.000000
0.989601 0.374114 0.000000
0.999701 0.383202 0.000000
1.000000 0.411210 0.000000
0.000000 0.319950 0.002946
0.000000 0.355803 0.004522
0.000000 0.366390 0.005782
0.000000 0.364167 0.007090
0.000000 0.360696 0.008694
0.000280 0.358453 0.008454
0.006711 0.361870 0.004278
0.043682 0.368076 0.000646
0.117385 0.375013 0.000000
0.189196 0.382974 0.000000
0.259323 0.393257 0.000000
0.327274 0.405201 0.000000
0.394971 0.419281 0.000000
0.462506 0.434237 0.000000
0.522153 0.444122 0.000000
0.569598 0.445174 0.000000
0.606674 0.439380 0.000000
0.639571 0.432227 0.000000
0.670311 0.425007 0.000000
0.698992 0.417876 0.000000
0.729955 0.412934 0.000000
0.761488 0.410257 0.000000
0.791730 0.408914 0.000000
0.822314 0.408875 0.000000
0.852586 0.409646 0.000000
0.882082 0.410368 0.000000
0.910811 0.410830 0.000000
0.938688 0.411107 0.000000
0.965408 0.410840 0.000000
0.987067 0.410498 0.000000
0.999625 0.417658 0.000000
1.000000 0.440837 0.000000
0.000000 0.356847 0.003513
0.000000 0.390095 0.005438
0.000000 0.400069 0.006784
0.000000 0.398275 0.008003
0.000000 0.394979 0.009819
0.000000 0.390602 0.011164
0.002539 0.391425 0.007667
0.021946 0.396268 0.002839
0.073506 0.403302 0.000070
0.156126 0.410273 0.000000
0.229987 0.418865 0.000000
0.296742 0.428502 0.000000
0.360959 0.439541 0.000000
0.429493 0.454709 0.000000
0.499119 0.472177 0.000000
0.559627 0.483638 0.000000
0.604866 0.484399 0.000000
0.640511 0.479063 0.000000
0.672635 0.472306 0.000000
0.701106 0.464356 0.000000
0.729637 0.456499 0.000000
0.758236 0.450517 0.000000
0.786225 0.446538 0.000000
0.814947 0.444379 0.000000
0.844528 0.444092 0.000000
0.874156 0.444371 0.000000
0.903462 0.444634 0.000000
0.932099 0.444803 0.000000
0.959657 0.444381 0.000000
0.983812 0.443789 0.000000
0.999068 0.449957 0.000000
1.000000 0.470960 0.000000
0.000000 0.358431 0.004482
0.000000 0.414263 0.007774
0.000000 0.431571 0.009460
0.000000 0.430033 0.010615
0.000000 0.426967 0.012226
0.000000 0.422405 0.013862
0.000569 0.420015 0.012833
0.004874 0.422005 0.008266
0.033364 0.428577 0.002011
0.119277 0.435748 0.000436
0.198725 0.443526 0.000000
0.268611 0.451830 0.000000
0.331432 0.461166 0.000000
0.395464 0.472812 0.000000
0.462031 0.487016 0.000000
0.532330 0.505574 0.000000
0.592133 0.517853 0.000000
0.634957 0.518435 0.000000
0.670664 0.514529 0.000000
0.701365 0.507778 0.000000
0.730585 0.499818 0.000000
0.758525 0.492416 0.000000
0.784911 0.486233 0.000000
0.811050 0.481060 0.000000
0.838706 0.478391 0.000000
0.867274 0.477145 0.000000
0.895896 0.476550 0.000000
0.924826 0.476296 0.000000
0.952897 0.475828 0.000000
0.979127 0.475096 0.000000
0.997107 0.483243 0.000000
1.000000 0.510631 0.000000
0.000000 0.386033 0.007491
0.000000 0.442283 0.011331
0.000000 0.459829 0.013407
0.000000 0.458461 0.014668
0.000000 0.455845 0.015994
0.000000 0.451695 0.017711
0.000026 0.447690 0.018486
0.000194 0.447169 0.015577
0.015496 0.452046 0.008277
0.081993 0.459491 0.002719
0.164526 0.467289 0.000448
0.241315 0.474986 0.000000
0.304359 0.482950 0.000000
0.365969 0.492290 0.000000
0.429088 0.503652 0.000000
0.495140 0.518292 0.000000
0.562505 0.535694 0.000000
0.620286 0.547865 0.000000
0.663803 0.550243 0.000000
0.698494 0.546770 0.000000
0.729680 0.540101 0.000000
0.758383 0.532597 0.000000
0.784788 0.525685 0.000000
0.810351 0.519479 0.000000
0.836347 0.514642 0.000000
0.862542 0.510724 0.000000
0.889244 0.507955 0.000000
0.917317 0.506557 0.000000
0.945459 0.505569 0.000000
0.973180 0.504690 0.000000
0.993809 0.512953 0.000000
1.000000 0.540502 0.000000
0.000000 0.433794 0.013195
0.000000 0.473406 0.016814
0.000000 0.485753 0.018906
0.000000 0.484642 0.020155
0.000000 0.482490 0.021355
0.000000 0.479252 0.023030
0.000000 0.475146 0.024612
0.000000 0.472561 0.023972
0.005418 0.474261 0.018560
0.043445 0.481749 0.008966
0.128082 0.489691 0.002593
0.213855 0.497326 0.000000
0.279014 0.504530 0.000000
0.339690 0.512395 0.000000
0.400095 0.521423 0.000000
0.460916 0.531801 0.000000
0.525586 0.546531 0.000000
0.590986 0.563834 0.000000
0.648452 0.576809 0.000000
0.692558 0.581022 0.000000
0.727324 0.577382 0.000000
0.757547 0.570898 0.000000
0.784662 0.564087 0.000000
0.810454 0.557468 0.000000
0.835847 0.551489 0.000000
0.860885 0.545992 0.000000
0.885959 0.541210 0.000000
0.911624 0.537344 0.000000
0.938474 0.534594 0.000000
0.966481 0.533104 0.000000
0.989362 0.539102 0.000000
1.000000 0.559502 0.000000
0.000000 0.462153 0.019371
0.000000 0.499089 0.024649
0.000000 0.510599 0.027342
0.000000 0.509748 0.028437
0.000000 0.507889 0.029296
0.000000 0.505192 0.030930
0.000000 0.501468 0.032496
0.000000 0.497476 0.033523
0.000279 0.496053 0.031168
0.020567 0.502273 0.020960
0.097471 0.509817 0.010546
0.184411 0.517321 0.002927
0.254140 0.524396 0.000000
0.315584 0.531813 0.000000
0.375029 0.539646 0.000000
0.433793 0.548402 0.000000
0.492803 0.558773 0.000000
0.555024 0.573128 0.000000
0.618630 0.590267 0.000000
0.675246 0.603847 0.000000
0.719867 0.608014 0.000000
0.754555 0.605420 0.000000
0.783451 0.600040 0.000000
0.810133 0.593828 0.000000
0.835624 0.587426 0.000000
0.860937 0.581583 0.000000
0.885980 0.576013 0.000000
0.910307 0.570468 0.000000
0.935254 0.565783 0.000000
0.961781 0.562459 0.000000
0.985061 0.567245 0.000000
1.000000 0.587357 0.000000
0.000000 0.471779 0.026287
0.000000 0.520007 0.034693
0.000000 0.535153 0.038324
0.000000 0.534302 0.039272
0.000000 0.532460 0.039764
0.000000 0.529942 0.041138
0.000000 0.526548 0.042512
0.000000 0.522338 0.043892
0.000057 0.519126 0.043449
0.013691 0.522269 0.036208
0.070614 0.528914 0.025244
0.151012 0.536216 0.013530
0.229909 0.543254 0.004955
0.293249 0.550735 0.001624
0.353066 0.558286 0.000294
0.410618 0.565878 0.000000
0.467364 0.574558 0.000000
0.524483 0.585178 0.000000
0.583049 0.598085 0.000000
0.643974 0.614313 0.000000
0.700580 0.627434 0.000000
0.745423 0.632924 0.000000
0.779823 0.632198 0.000000
0.808618 0.627855 0.000000
0.834769 0.621785 0.000000
0.860467 0.615749 0.000000
0.885974 0.610018 0.000000
0.910933 0.604451 0.000000
0.935337 0.598884 0.000000
0.960316 0.593748 0.000000
0.982891 0.598972 0.000000
1.000000 0.625003 0.000000
0.000000 0.497759 0.036843
0.000000 0.544380 0.046244
0.000000 0.559069 0.049932
0.000000 0.558232 0.050618
0.000000 0.556551 0.051106
0.000000 0.554356 0.052197
0.000000 0.551601 0.053192
0.000000 0.547901 0.054330
0.000000 0.544046 0.054785
0.006829 0.543804 0.051346
0.041917 0.549083 0.042721
0.116284 0.556194 0.031061
0.206795 0.563079 0.018558
0.272629 0.570199 0.008743
0.333342 0.577422 0.003481
0.390636 0.584586 0.000878
0.445666 0.591868 0.000000
0.499526 0.599937 0.000000
0.553802 0.609604 0.000000
0.609586 0.621680 0.000000
0.671026 0.638066 0.000000
0.726777 0.651706 0.000000
0.770554 0.658425 0.000000
0.804941 0.658690 0.000000
0.833161 0.654446 0.000000
0.859258 0.648702 0.000000
0.884793 0.642766 0.000000
0.910287 0.637034 0.000000
0.935382 0.631378 0.000000
0.960249 0.625822 0.000000
0.982599 0.629539 0.000000
1.000000 0.652747 0.000000
0.000000 0.536461 0.050589
0.000000 0.571466 0.058620
0.000000 0.582475 0.061608
0.000000 0.581802 0.061972
0.000000 0.580420 0.062520
0.000000 0.578803 0.063358
0.000000 0.576712 0.064133
0.000000 0.573888 0.065020
0.000000 0.570212 0.065907
0.001619 0.567567 0.065101
0.019167 0.570703 0.059789
0.086509 0.576815 0.051177
0.184251 0.583544 0.039496
0.253509 0.589989 0.025868
0.315448 0.596583 0.013816
0.372758 0.603323 0.004139
0.427053 0.610129 0.000000
0.479126 0.616932 0.000000
0.530313 0.624268 0.000000
0.581540 0.632976 0.000000
0.638689 0.645789 0.000000
0.697234 0.661136 0.000000
0.751283 0.675489 0.000000
0.798380 0.685905 0.000000
0.830581 0.685240 0.000000
0.857702 0.680457 0.000000
0.883681 0.674976 0.000000
0.908750 0.668820 0.000000
0.934550 0.663185 0.000000
0.960437 0.657779 0.000000
0.983285 0.657907 0.000000
1.000000 0.669605 0.000000
0.000000 0.561133 0.063728
0.000000 0.597346 0.072488
0.000000 0.608665 0.075560
0.000000 0.608090 0.075805
0.000000 0.606830 0.076036
0.000000 0.605516 0.076630
0.000000 0.603820 0.077223
0.000000 0.601619 0.077837
0.000000 0.598578 0.078560
0.000000 0.594994 0.078683
0.010449 0.595019 0.076139
0.066924 0.599038 0.070897
0.159730 0.605678 0.062672
0.234843 0.611794 0.051595
0.299155 0.617842 0.039090
0.356989 0.624065 0.026218
0.411023 0.630546 0.015541
0.462311 0.637095 0.007527
0.512045 0.643568 0.001784
0.560833 0.650571 0.000000
0.612920 0.659607 0.000000
0.667129 0.671570 0.000000
0.720890 0.685345 0.000000
0.773385 0.699533 0.000000
0.819409 0.709829 0.000000
0.854822 0.711936 0.000000
0.882767 0.708329 0.000000
0.908680 0.703060 0.000000
0.934126 0.696961 0.000000
0.960200 0.691288 0.000000
0.983339 0.692500 0.000000
1.000000 0.707637 0.000000
0.000000 0.579873 0.076986
0.000000 0.621521 0.087122
0.000000 0.634485 0.090595
0.000000 0.633771 0.090653
0.000000 0.632660 0.090545
0.000000 0.631387 0.090879
0.000000 0.629950 0.091244
0.000000 0.628087 0.091711
0.000000 0.625741 0.092107
0.000000 0.622226 0.092437
0.008063 0.619875 0.091563
0.051541 0.621505 0.088704
0.133755 0.627161 0.083480
0.216986 0.633258 0.076141
0.284461 0.639017 0.067157
0.342944 0.644725 0.056527
0.396632 0.650601 0.043764
0.447229 0.656824 0.030023
0.496075 0.663065 0.017803
0.543498 0.669245 0.008976
0.593040 0.676763 0.003191
0.642738 0.685439 0.000480
0.691391 0.695295 0.000000
0.741373 0.707111 0.000000
0.794421 0.722636 0.000000
0.841306 0.734029 0.000000
0.879065 0.738582 0.000000
0.907903 0.735779 0.000000
0.933624 0.730150 0.000000
0.959232 0.724345 0.000000
0.982339 0.727535 0.000000
1.000000 0.750490 0.000000
0.000000 0.607539 0.092757
0.000000 0.647003 0.102606
0.000000 0.659183 0.105972
0.000000 0.658403 0.105786
0.000000 0.657386 0.105597
0.000000 0.656276 0.105849
0.000000 0.654989 0.106081
0.000000 0.653543 0.106290
0.000000 0.651668 0.106739
0.000000 0.648635 0.107152
0.005817 0.645385 0.106970
0.037237 0.644718 0.105485
0.110033 0.648285 0.102313
0.201346 0.654203 0.097405
0.271934 0.659711 0.091199
0.331065 0.664994 0.083769
0.384273 0.670308 0.074243
0.434005 0.675921 0.062323
0.482025 0.681846 0.048421
0.528741 0.687896 0.032727
0.576664 0.694490 0.018575
0.623686 0.701410 0.009497
0.669003 0.709001 0.004573
0.715036 0.718013 0.001152
0.763859 0.729688 0.000078
0.816750 0.745637 0.000000
0.866731 0.760011 0.000000
0.903747 0.764319 0.000000
0.932157 0.761038 0.000000
0.958457 0.755884 0.000000
0.981766 0.758163 0.000000
1.000000 0.778093 0.000000
0.000000 0.645106 0.112112
0.000000 0.676577 0.120279
0.000000 0.686254 0.123057
0.000000 0.685661 0.122992
0.000000 0.684816 0.122920
0.000000 0.683798 0.122886
0.000000 0.682689 0.123277
0.000000 0.681415 0.123493
0.000000 0.679931 0.123857
0.000000 0.677564 0.124237
0.004147 0.674200 0.124163
0.026499 0.671309 0.123540
0.092005 0.672010 0.121797
0.189282 0.677446 0.118515
0.262425 0.682694 0.114154
0.322235 0.687683 0.108929
0.375297 0.692663 0.102481
0.424390 0.697804 0.094304
0.471629 0.703049 0.084277
0.517386 0.708684 0.072442
0.564466 0.715213 0.057257
0.610079 0.721527 0.039019
0.653079 0.727397 0.020658
0.695831 0.733983 0.005188
0.740318 0.742663 0.000636
0.787700 0.753809 0.000070
0.839209 0.768907 0.000000
0.895958 0.789372 0.000000
0.930150 0.791075 0.000000
0.958724 0.788098 0.000000
0.982762 0.786871 0.000000
1.000000 0.792587 0.000000
0.000000 0.676931 0.133097
0.000000 0.712541 0.142852
0.000000 0.723490 0.145988
0.000000 0.722785 0.145793
0.000000 0.721998 0.145591
0.000000 0.720959 0.145396
0.000000 0.719745 0.145535
0.000000 0.718484 0.145745
0.000000 0.717098 0.145816
0.000000 0.715018 0.145898
0.004391 0.711930 0.145880
0.028150 0.708354 0.145717
0.093184 0.707095 0.144762
0.186849 0.710486 0.142576
0.260215 0.714950 0.139667
0.320908 0.719483 0.136064
0.373970 0.724008 0.131633
0.422629 0.728659 0.125970
0.469173 0.733311 0.119196
0.514072 0.738179 0.111185
0.560161 0.743984 0.099903
0.604904 0.749819 0.084970
0.646854 0.755209 0.067902
0.687874 0.760666 0.050381
0.729288 0.766907 0.033892
0.772154 0.774392 0.016549
0.818374 0.785058 0.002927
0.870108 0.800530 0.000122
0.919505 0.814805 0.000000
0.959031 0.820907 0.000000
0.986269 0.825880 0.000000
1.000000 0.839222 0.000000
0.000000 0.704935 0.154075
0.000000 0.744034 0.165432
0.000000 0.756126 0.168916
0.000000 0.755185 0.168645
0.000000 0.754398 0.168215
0.000000 0.753382 0.168002
0.000000 0.752286 0.168011
0.000000 0.751071 0.168094
0.000000 0.749837 0.168246
0.000000 0.747960 0.168303
0.006221 0.745497 0.168443
0.039899 0.742148 0.168426
0.108864 0.739626 0.167963
0.188762 0.740518 0.166603
0.258643 0.743997 0.164703
0.319041 0.748213 0.162254
0.371596 0.752319 0.158933
0.419653 0.756558 0.154660
0.465327 0.760778 0.149656
0.509363 0.765179 0.143665
0.554345 0.770299 0.135655
0.598033 0.775542 0.125715
0.639157 0.780787 0.113871
0.679273 0.785934 0.100053
0.718980 0.791098 0.081001
0.759181 0.796832 0.057654
0.800808 0.803816 0.034700
0.844201 0.812405 0.017399
0.895260 0.827612 0.005044
0.943506 0.840766 0.000254
0.980786 0.856572 0.000000
1.000000 0.882146 0.000000
0.000000 0.736350 0.177455
0.000000 0.773348 0.188846
0.000000 0.784794 0.192361
0.000000 0.783981 0.191894
0.000000 0.783035 0.191421
0.000000 0.782205 0.191209
0.000000 0.781229 0.191248
0.000000 0.780354 0.191469
0.000000 0.779209 0.191764
0.001784 0.777585 0.192138
0.016065 0.775597 0.192312
0.062963 0.772946 0.192384
0.133582 0.769809 0.192376
0.196243 0.768463 0.191626
0.258838 0.770673 0.190196
0.316922 0.774291 0.188366
0.368403 0.778113 0.185638
0.415505 0.781957 0.182237
0.460251 0.785915 0.178372
0.503275 0.790122 0.173703
0.547205 0.794921 0.167556
0.589835 0.799699 0.160029
0.629952 0.804491 0.151482
0.669228 0.809636 0.141641
0.708044 0.814731 0.128021
0.746467 0.819506 0.110151
0.785324 0.824681 0.087146
0.825362 0.830673 0.056963
0.868023 0.838639 0.028784
0.917405 0.852395 0.010503
0.964656 0.873874 0.001493
0.999795 0.904943 0.000000
0.000000 0.776699 0.206294
0.000000 0.808278 0.216781
0.000000 0.818134 0.219896
0.000000 0.817375 0.219591
0.000000 0.816562 0.219119
0.000000 0.815616 0.218940
0.000000 0.814833 0.219125
0.000000 0.814022 0.219253
0.000000 0.812942 0.219733
0.007808 0.811579 0.220166
0.043007 0.809876 0.220408
0.101593 0.807642 0.220563
0.164488 0.804703 0.220572
0.213734 0.802304 0.220308
0.265890 0.802548 0.219404
0.318970 0.804922 0.217771
0.369060 0.808264 0.215454
0.414904 0.811723 0.212602
