gsg/04_Specialty/GSG_LUT_Specialty_MilkedOutGreen.cube
# GSG LUTs 1.0
# Copyright (c) 2016-2020 Greyscalegorilla
# See EULA for licensing and distribution information
# Converted by Briz LUT Converter
LUT_3D_SIZE 8
DOMAIN_MIN 0.000000 0.000000 0.000000
DOMAIN_MAX 0.903226 0.903226 0.903226
0.113797 0.148718 0.159219
0.135594 0.151837 0.161086
0.176045 0.159849 0.167907
0.235488 0.171925 0.178912
0.315483 0.187365 0.193099
0.417976 0.205680 0.210319
0.544826 0.226870 0.230155
0.698176 0.250447 0.252692
0.142550 0.207515 0.181189
0.163862 0.209047 0.180484
0.205696 0.215337 0.184797
0.268325 0.225617 0.192859
0.353335 0.239024 0.204198
0.462666 0.255414 0.218500
0.598276 0.274536 0.235510
0.761730 0.296309 0.255055
0.172279 0.281358 0.204317
0.192910 0.281909 0.201008
0.235882 0.287353 0.202481
0.301777 0.296411 0.207554
0.391761 0.308786 0.215904
0.507955 0.323920 0.227176
0.652103 0.341973 0.241246
0.825385 0.362756 0.257826
0.201182 0.370641 0.226405
0.220768 0.370735 0.220166
0.264958 0.375453 0.218645
0.333661 0.383793 0.220710
0.428504 0.395289 0.225860
0.551353 0.409786 0.233975
0.703391 0.426996 0.245116
0.878372 0.447154 0.262093
0.227201 0.475032 0.245736
0.245776 0.474883 0.236496
0.290748 0.479104 0.231722
0.362332 0.486841 0.230435
0.461667 0.497783 0.232266
0.588108 0.510885 0.240091
0.727076 0.525177 0.263189
0.871233 0.544201 0.296262
0.248659 0.593737 0.260412
0.265966 0.593556 0.248000
0.311664 0.597354 0.239662
0.386260 0.603110 0.238115
0.486757 0.607607 0.252366
0.602923 0.615117 0.277537
0.730214 0.628079 0.308830
0.864365 0.646658 0.346190
0.264051 0.725834 0.269077
0.282458 0.723521 0.256724
0.337967 0.718505 0.262165
0.418399 0.714719 0.279661
0.515716 0.716294 0.303213
0.625988 0.723557 0.332833
0.745747 0.736453 0.368392
0.870605 0.754928 0.410002
0.292426 0.857552 0.293623
0.329636 0.843042 0.304467
0.388088 0.833203 0.320266
0.466076 0.829145 0.342006
0.559376 0.830718 0.369809
0.664138 0.838135 0.403979
0.776499 0.851109 0.444074
0.892075 0.869513 0.489852
0.120887 0.155044 0.201268
0.142412 0.157371 0.201820
0.182953 0.164678 0.207318
0.242834 0.176139 0.216834
0.323589 0.190783 0.229525
0.427240 0.208323 0.245283
0.555643 0.228722 0.263761
0.710749 0.251755 0.284777
0.147863 0.212498 0.220146
0.168896 0.213159 0.218146
0.210768 0.218808 0.220965
0.273929 0.228302 0.227626
0.359737 0.241143 0.237517
0.470336 0.256667 0.250287
0.607428 0.275080 0.265842
0.772691 0.296085 0.284021
0.175942 0.285107 0.240159
0.196113 0.285116 0.235342
0.239300 0.289763 0.235489
0.305527 0.298170 0.239053
0.396359 0.309633 0.245961
0.513720 0.324092 0.255743
0.659302 0.341422 0.268359
0.834388 0.361386 0.283696
0.202784 0.373359 0.258903
0.222322 0.372902 0.251368
0.266450 0.376868 0.248417
0.335665 0.384521 0.248933
0.431231 0.395319 0.252662
0.555171 0.408915 0.259267
0.708379 0.425400 0.269135
0.875873 0.445269 0.288787
0.226965 0.476923 0.274898
0.245264 0.476009 0.264329
0.290299 0.479653 0.258052
0.362336 0.486640 0.255314
0.462492 0.496798 0.255730
0.586487 0.508180 0.266510
0.721755 0.522273 0.290884
0.863489 0.541568 0.323241
0.246359 0.594853 0.286206
0.263401 0.593915 0.272266
0.309151 0.597024 0.262700
0.385187 0.600085 0.264358
0.485031 0.603403 0.280161
0.599590 0.611104 0.304531
0.725042 0.624445 0.334876
0.857271 0.643452 0.371002
0.259647 0.725921 0.291284
0.282170 0.720280 0.282867
0.339114 0.713333 0.290352
0.418739 0.709685 0.307114
0.514783 0.711504 0.329570
0.623707 0.719169 0.358087
0.741525 0.732377 0.392615
0.864541 0.751291 0.433057
0.296168 0.851750 0.323206
0.333101 0.837484 0.332915
0.390537 0.827673 0.347181
0.467473 0.823757 0.367809
0.559577 0.825688 0.394524
0.662919 0.833353 0.427459
0.773481 0.846759 0.466541
0.887249 0.865498 0.511290
0.129324 0.162653 0.252369
0.150569 0.164268 0.252156
0.191217 0.170955 0.256836
0.251534 0.181488 0.265469
0.332971 0.195368 0.277506
0.437701 0.212146 0.292308
0.567640 0.231768 0.309922
0.724378 0.253858 0.330190
0.154618 0.218606 0.269408
0.175197 0.218657 0.266579
0.217080 0.223577 0.268640
0.280734 0.232266 0.274361
0.367191 0.244259 0.283386
0.478866 0.259034 0.295478
0.617485 0.276620 0.310055
0.784490 0.296895 0.327449
0.180708 0.290141 0.287242
0.200592 0.289379 0.281807
0.243787 0.293248 0.281038
0.310520 0.300886 0.283867
0.401987 0.311678 0.289906
0.520529 0.325265 0.298922
0.667519 0.341721 0.310613
0.844106 0.360966 0.325172
0.205671 0.377322 0.304092
0.224711 0.376136 0.295785
0.269035 0.379408 0.291921
0.338627 0.386151 0.291735
0.434979 0.396132 0.294633
0.559933 0.409026 0.300476
0.712950 0.424784 0.310171
0.871800 0.444564 0.331981
0.227769 0.479853 0.317909
0.245807 0.478361 0.306530
0.290819 0.481074 0.299490
0.363206 0.487345 0.295961
0.463895 0.496529 0.296077
0.585018 0.506321 0.309338
0.716887 0.520355 0.332457
0.856435 0.539815 0.362008
0.245058 0.596903 0.326960
0.261711 0.595162 0.312402
0.307792 0.597199 0.302500
0.385489 0.597588 0.306852
0.484155 0.600181 0.321957
0.597132 0.607895 0.343556
0.720581 0.621411 0.370994
0.850586 0.640588 0.404279
0.256199 0.726935 0.329995
0.283381 0.717835 0.325190
0.341411 0.709110 0.332752
0.419857 0.705432 0.346504
0.514495 0.707346 0.366077
0.621679 0.715034 0.391692
0.737641 0.728493 0.423311
0.858545 0.747616 0.460924
0.300809 0.846823 0.366683
0.337463 0.832770 0.373298
0.393781 0.822756 0.384439
0.469425 0.818890 0.402019
0.560109 0.820926 0.425956
0.661770 0.828787 0.455908
0.770387 0.842291 0.491986
0.882027 0.861286 0.533862
0.139163 0.171397 0.312088
0.159888 0.172311 0.311431
0.200496 0.178211 0.315774
0.261134 0.188026 0.324022
0.343275 0.200944 0.335578
0.449098 0.217017 0.350104
0.580456 0.235682 0.367261
0.739013 0.257001 0.387199
0.162298 0.225877 0.327977
0.182547 0.225193 0.324739
0.224450 0.229273 0.326385
0.288381 0.237165 0.331832
0.375655 0.248194 0.340533
0.488334 0.262192 0.352127
0.628404 0.278978 0.366356
0.797043 0.298414 0.383494
0.186451 0.296081 0.344748
0.206038 0.294640 0.338934
0.249249 0.297704 0.337868
0.316263 0.304445 0.340217
0.408494 0.314333 0.345901
0.527977 0.327205 0.354514
0.676330 0.342786 0.365875
0.854092 0.361278 0.380089
0.209503 0.382158 0.360353
0.228094 0.380148 0.351742
0.272359 0.382629 0.347535
0.342244 0.388604 0.346956
0.439316 0.397747 0.349475
0.565255 0.409823 0.355004
0.714445 0.424908 0.366013
0.867110 0.445027 0.387534
0.229397 0.483580 0.372870
0.246979 0.481293 0.361235
0.292064 0.483200 0.353845
0.364760 0.488716 0.349914
0.464889 0.496153 0.351886
0.583639 0.505358 0.364789
0.713118 0.519398 0.385409
0.850527 0.539171 0.411811
0.244478 0.599506 0.380690
0.260658 0.597071 0.365709
0.308861 0.596493 0.358213
0.387005 0.595432 0.362544
0.484447 0.597875 0.375088
0.595852 0.605926 0.393504
0.717397 0.619719 0.417872
0.845321 0.639143 0.448103
0.257780 0.726016 0.385975
0.287422 0.714932 0.381766
0.344894 0.705925 0.386496
0.422291 0.702302 0.397025
0.515476 0.704448 0.413435
0.621128 0.712403 0.435926
0.735223 0.726062 0.464352
0.853868 0.745442 0.498722
0.306683 0.843129 0.421325
0.343054 0.829076 0.424702
0.398288 0.819059 0.432481
0.472795 0.815219 0.446849
0.562036 0.817443 0.467472
0.662096 0.825609 0.494289
0.768819 0.839411 0.527182
0.878430 0.858608 0.565866
0.149734 0.181236 0.380007
0.170066 0.181346 0.379354
0.210579 0.186309 0.383716
0.271614 0.195234 0.391973
0.354492 0.207405 0.403505
0.461302 0.222443 0.417905
0.593997 0.240364 0.435062
0.754114 0.260802 0.454851
0.171042 0.234007 0.395424
0.190762 0.232539 0.392397
0.232673 0.235815 0.394033
0.296857 0.242734 0.399371
0.384720 0.252928 0.407990
0.498493 0.266034 0.419531
0.639782 0.282004 0.433750
0.810060 0.300598 0.450675
0.193077 0.302926 0.411785
0.212186 0.300571 0.406129
0.255314 0.302841 0.404900
0.322595 0.308701 0.407379
0.415537 0.317751 0.413011
0.536033 0.329615 0.421506
0.685683 0.344329 0.432804
0.864215 0.362088 0.447100
0.213949 0.387670 0.426996
0.232155 0.384832 0.418465
0.276266 0.386502 0.414149
0.346541 0.391568 0.413524
0.444241 0.399827 0.416061
0.570915 0.410950 0.421600
0.714417 0.425850 0.433495
0.861928 0.446488 0.453004
0.231573 0.487918 0.438960
0.248667 0.484792 0.427324
0.293718 0.485958 0.419968
0.366723 0.490399 0.416086
0.466334 0.496169 0.419138
0.582761 0.505164 0.430172
0.710396 0.519601 0.447528
0.845726 0.539773 0.470603
0.244311 0.602723 0.445957
0.260240 0.599334 0.431174
0.311309 0.596067 0.425328
0.389509 0.594066 0.428177
0.485672 0.596676 0.437419
0.595571 0.604989 0.452524
0.715406 0.619144 0.473545
0.841194 0.638876 0.500279
0.260842 0.725376 0.453131
0.292913 0.712805 0.448160
0.349443 0.703766 0.449397
0.425781 0.700306 0.456448
0.517706 0.702679 0.469537
0.621828 0.710934 0.488553
0.734099 0.725002 0.513662
0.850677 0.744685 0.544452
0.313703 0.840360 0.485144
0.349783 0.826434 0.485121
0.403879 0.816432 0.489332
0.477365 0.812813 0.500159
0.565367 0.815304 0.517238
0.663834 0.823778 0.540650
0.768760 0.837959 0.570143
0.876180 0.857556 0.605221
0.161353 0.191965 0.456158
0.181176 0.191149 0.455922
0.221553 0.195203 0.460507
0.282831 0.203182 0.468983
0.366311 0.214418 0.480822
0.474149 0.228619 0.495467
0.608062 0.245461 0.512868
0.769822 0.265106 0.532900
0.180452 0.242900 0.471823
0.199679 0.240545 0.469070
0.241538 0.242934 0.471075
0.305858 0.249022 0.476715
0.394437 0.258233 0.485501
0.509132 0.270483 0.497371
0.651729 0.285434 0.511784
0.823464 0.303018 0.528883
0.200282 0.310323 0.488424
0.218960 0.307167 0.482993
0.261971 0.308441 0.482108
0.329545 0.313412 0.484887
0.422957 0.321564 0.490743
0.544504 0.332578 0.499404
0.695213 0.346331 0.510991
0.870536 0.363930 0.525439
0.218947 0.393824 0.503549
0.236631 0.390075 0.495354
0.280620 0.390790 0.491520
0.351146 0.394988 0.491080
0.449413 0.402274 0.493779
0.575290 0.412628 0.499641
0.713697 0.427719 0.510292
0.857451 0.448864 0.526567
0.234304 0.492772 0.515578
0.250964 0.488743 0.504273
0.295783 0.489007 0.497188
0.369207 0.492166 0.493720
0.468244 0.496774 0.495854
0.582860 0.505977 0.503825
0.708718 0.520854 0.517596
0.841964 0.541404 0.536994
0.244641 0.606278 0.522493
0.261379 0.601373 0.508397
0.315013 0.595973 0.502195
0.393021 0.593543 0.502114
0.488041 0.596518 0.507743
0.596468 0.605247 0.519305
0.714534 0.619729 0.536529
0.838259 0.639952 0.559658
0.265406 0.725089 0.530273
0.299523 0.711457 0.522893
0.355152 0.702494 0.520310
0.430310 0.699377 0.523605
0.521069 0.702060 0.532923
0.623766 0.710650 0.548360
0.734229 0.725152 0.569712
0.848782 0.745136 0.596847
0.321627 0.838639 0.556894
0.357586 0.824830 0.553174
0.410729 0.815062 0.553460
0.483171 0.811688 0.560519
0.569897 0.814376 0.573942
0.666886 0.823191 0.593596
0.770098 0.837757 0.619296
0.875435 0.857724 0.650582
0.173642 0.203301 0.540502
0.192808 0.201630 0.540785
0.233132 0.204892 0.545975
0.294600 0.211759 0.555012
0.378644 0.221975 0.567280
0.487416 0.235275 0.582418
0.622624 0.251235 0.600284
0.785702 0.269826 0.620615
0.190468 0.252590 0.556855
0.209306 0.249202 0.554784
0.250836 0.250630 0.557181
0.315429 0.255691 0.563342
0.404577 0.263944 0.572744
0.520175 0.275233 0.584915
0.663934 0.289217 0.599907
0.837222 0.305987 0.617341
0.208200 0.318278 0.574123
0.226169 0.314136 0.569244
0.268991 0.314577 0.568968
0.336776 0.318532 0.572193
0.430834 0.325653 0.578495
0.553178 0.335649 0.587710
0.704657 0.348633 0.599433
0.873166 0.367188 0.612990
0.224341 0.400384 0.589789
0.241572 0.395722 0.582111
0.285389 0.395452 0.578820
0.356128 0.398680 0.578923
0.454897 0.404968 0.582022
0.578166 0.414881 0.587010
0.712859 0.430544 0.594504
0.853987 0.452442 0.607004
0.237336 0.497806 0.602256
0.253452 0.492914 0.591571
0.298091 0.492210 0.584919
0.372534 0.493750 0.581060
0.470737 0.498103 0.580189
0.583826 0.507690 0.584360
0.707938 0.523034 0.594157
0.839211 0.544099 0.609663
0.245177 0.609996 0.609445
0.265449 0.602629 0.595735
0.320183 0.596222 0.586816
0.397529 0.593927 0.582900
0.491486 0.597336 0.584655
0.598442 0.606412 0.592189
0.714738 0.621447 0.605588
0.836473 0.642140 0.624841
0.272816 0.724435 0.615572
0.306953 0.711148 0.604362
0.361761 0.702350 0.597711
0.436008 0.699523 0.597081
0.525585 0.702591 0.602485
0.626827 0.711623 0.614009
0.735656 0.726418 0.631338
0.848119 0.746997 0.654459
0.330568 0.837820 0.635012
0.366544 0.824478 0.627383
0.418622 0.814731 0.623585
0.490140 0.811638 0.626728
0.575784 0.814707 0.636198
0.671314 0.823869 0.651953
0.772633 0.838912 0.673565
0.876037 0.859367 0.700946
0.186506 0.215345 0.632676
0.205149 0.212714 0.633783
0.245234 0.214912 0.639783
0.306794 0.220812 0.649612
0.391390 0.230120 0.662673
0.500981 0.242176 0.678468
0.637449 0.257096 0.696955
0.802032 0.274891 0.717972
0.200997 0.262641 0.650310
0.219270 0.258374 0.649041
0.260573 0.258655 0.652203
0.325402 0.262802 0.659152
0.415050 0.270047 0.669328
0.531444 0.280176 0.682220
0.676365 0.293256 0.697610
0.850946 0.309006 0.715518
0.216385 0.326756 0.668654
0.233775 0.321738 0.664739
0.276343 0.320980 0.665063
0.344337 0.323964 0.669067
0.438900 0.330070 0.676114
0.562032 0.339106 0.685918
0.713859 0.351232 0.697822
0.872863 0.371802 0.707648
0.230147 0.407326 0.685366
0.246763 0.401658 0.678573
0.290391 0.400267 0.675946
0.361225 0.402519 0.676850
0.460484 0.407825 0.680386
0.580865 0.417919 0.681861
0.712307 0.434370 0.685103
0.851482 0.456844 0.693316
0.240624 0.503210 0.698645
0.256107 0.497385 0.688753
0.300675 0.495517 0.682824
0.376747 0.495828 0.675961
0.474060 0.500388 0.670883
0.585810 0.510439 0.670843
0.708257 0.526361 0.676548
0.837449 0.547919 0.687783
0.245870 0.613872 0.706480
0.270825 0.604275 0.690942
0.326460 0.597289 0.677877
0.403014 0.595386 0.669784
0.495776 0.599126 0.667310
0.601466 0.608783 0.670690
0.716075 0.624233 0.680044
0.835744 0.645462 0.694928
0.281285 0.724857 0.707028
0.315564 0.711819 0.691891
0.369410 0.703157 0.680838
0.442733 0.700633 0.676089
0.531266 0.704198 0.677299
0.631045 0.713632 0.684680
0.738150 0.729056 0.697791
0.848577 0.749999 0.716764
0.340772 0.838040 0.718682
0.376518 0.824943 0.707066
0.427782 0.815429 0.698920
0.498361 0.812630 0.697896
0.582777 0.816192 0.703229
0.676940 0.825743 0.714795
0.776444 0.841202 0.732241
0.877783 0.862113 0.755255
