gsg/04_Specialty/GSG_LUT_Specialty_FondMemories.cube
# GSG LUTs 1.0
# Copyright (c) 2016-2020 Greyscalegorilla
# See EULA for licensing and distribution information
# Converted by Briz LUT Converter
LUT_3D_SIZE 32
0.019048 0.015873 0.000000
0.032636 0.022175 0.000000
0.045665 0.028477 0.000000
0.061294 0.034779 0.000000
0.077112 0.041081 0.000158
0.094372 0.047343 0.002403
0.112458 0.053393 0.009776
0.131585 0.059333 0.016275
0.151751 0.064878 0.022514
0.173028 0.070282 0.028493
0.195368 0.075245 0.034133
0.218662 0.079948 0.039340
0.243208 0.084391 0.044192
0.268833 0.088369 0.048627
0.295695 0.091898 0.052802
0.323715 0.095073 0.056481
0.353082 0.097846 0.059758
0.383662 0.100083 0.062633
0.415566 0.101705 0.065012
0.448927 0.102919 0.066982
0.483367 0.103612 0.068431
0.519390 0.103620 0.069361
0.556887 0.103194 0.069597
0.595423 0.102328 0.069597
0.634999 0.101130 0.069408
0.673252 0.100855 0.070338
0.708401 0.102698 0.073441
0.743361 0.104967 0.076758
0.779724 0.106574 0.079594
0.816046 0.108315 0.082595
0.853291 0.109843 0.085147
0.890598 0.111355 0.087912
0.026090 0.028469 0.000000
0.038930 0.034511 0.000000
0.051675 0.040553 0.000014
0.066784 0.046626 0.000599
0.082121 0.052889 0.005086
0.099081 0.058939 0.012043
0.116748 0.064940 0.018540
0.135805 0.070731 0.024773
0.155650 0.076403 0.030690
0.176489 0.081626 0.036232
0.198566 0.086665 0.041609
0.221605 0.091444 0.046561
0.245982 0.095734 0.051247
0.271393 0.099712 0.055575
0.297964 0.103242 0.059495
0.325854 0.106416 0.063031
0.354965 0.109189 0.066178
0.385293 0.111426 0.068797
0.416940 0.113191 0.071058
0.450190 0.114361 0.072724
0.484622 0.115121 0.073980
0.520477 0.115215 0.074736
0.557722 0.114790 0.074891
0.596181 0.113929 0.074704
0.635756 0.112734 0.074254
0.674008 0.112649 0.074924
0.709369 0.114333 0.077774
0.744589 0.116343 0.081037
0.781219 0.117910 0.083643
0.818031 0.119193 0.086156
0.855551 0.120682 0.088669
0.892867 0.121950 0.091189
0.032786 0.041073 0.000000
0.045342 0.046870 0.000407
0.057583 0.052668 0.001227
0.072209 0.058718 0.008000
0.087270 0.064766 0.014711
0.103956 0.070802 0.020980
0.121317 0.076758 0.027158
0.139920 0.082359 0.032940
0.159549 0.088030 0.038654
0.180223 0.093253 0.044035
0.201949 0.098216 0.049066
0.224881 0.102919 0.053908
0.248897 0.107361 0.058340
0.274002 0.111340 0.062510
0.300343 0.114869 0.066297
0.327843 0.118051 0.069574
0.356816 0.120832 0.072582
0.387128 0.123069 0.075055
0.418621 0.124843 0.077065
0.451611 0.126155 0.078613
0.485783 0.127000 0.079694
0.521549 0.127105 0.080200
0.558771 0.126696 0.080256
0.597046 0.126004 0.079873
0.636559 0.124865 0.079164
0.674812 0.124589 0.079573
0.710397 0.126215 0.082348
0.745880 0.128016 0.085181
0.782969 0.129325 0.087496
0.820063 0.130569 0.089734
0.857813 0.131829 0.092016
0.895151 0.133105 0.094513
0.041609 0.057505 0.001111
0.053676 0.063271 0.007491
0.065655 0.068847 0.014028
0.079977 0.074875 0.020303
0.094542 0.080893 0.026497
0.110765 0.086730 0.032266
0.127841 0.092686 0.037973
0.146113 0.098281 0.043494
0.165247 0.103941 0.048889
0.185491 0.109181 0.053899
0.206941 0.114144 0.058750
0.229509 0.118847 0.063184
0.253132 0.123290 0.067430
0.277967 0.127278 0.071383
0.304034 0.130820 0.074778
0.331274 0.134102 0.077794
0.359974 0.137001 0.080542
0.390014 0.139262 0.082755
0.421261 0.141166 0.084623
0.453987 0.142438 0.085872
0.487904 0.143219 0.086613
0.523557 0.143487 0.086998
0.560456 0.143314 0.086715
0.598588 0.142518 0.086012
0.638077 0.141339 0.085042
0.676343 0.141050 0.085172
0.712336 0.142459 0.087471
0.748137 0.144179 0.089982
0.785261 0.145276 0.092034
0.822569 0.146284 0.093842
0.860113 0.147551 0.096272
0.897649 0.149033 0.098547
0.050431 0.074615 0.013021
0.062271 0.080128 0.020000
0.074006 0.085659 0.026494
0.087862 0.091478 0.032553
0.102162 0.097467 0.038347
0.118057 0.103299 0.043849
0.134619 0.109235 0.049110
0.152445 0.114806 0.054364
0.171294 0.120343 0.059474
0.191269 0.125733 0.064160
0.212294 0.130718 0.068655
0.234370 0.135421 0.072890
0.257855 0.139864 0.076741
0.282337 0.143944 0.080415
0.308017 0.147629 0.083564
0.334996 0.150821 0.086322
0.363322 0.153720 0.088794
0.392978 0.156209 0.090746
0.424079 0.158103 0.092226
0.456501 0.159431 0.093257
0.490216 0.160440 0.093823
0.525537 0.160808 0.093799
0.562418 0.160644 0.093319
0.600418 0.159872 0.092410
0.639671 0.158872 0.091180
0.678065 0.158454 0.090847
0.714312 0.159610 0.092625
0.750565 0.160877 0.094643
0.787751 0.161913 0.096407
0.825058 0.162921 0.098367
0.862632 0.164371 0.100382
0.899949 0.165639 0.102611
0.059293 0.093348 0.025334
0.071093 0.098599 0.031800
0.082776 0.103846 0.038066
0.096408 0.109607 0.044389
0.110421 0.115409 0.050447
0.125836 0.121241 0.055908
0.141952 0.127032 0.060909
0.159438 0.132743 0.065854
0.177852 0.138235 0.070540
0.197464 0.143547 0.074966
0.218050 0.148668 0.079132
0.239791 0.153397 0.083024
0.262863 0.157840 0.086644
0.287061 0.161921 0.089928
0.312480 0.165702 0.092894
0.339180 0.169029 0.095404
0.367205 0.171948 0.097506
0.396487 0.174438 0.099179
0.427226 0.176477 0.100399
0.459396 0.177936 0.101169
0.492840 0.178959 0.101475
0.527914 0.179471 0.101164
0.564519 0.179377 0.100260
0.602277 0.178792 0.099029
0.641414 0.177857 0.097509
0.679822 0.177439 0.096766
0.716288 0.178383 0.098039
0.752801 0.179424 0.099723
0.790019 0.180397 0.101256
0.827327 0.181401 0.102961
0.865107 0.182646 0.104921
0.902470 0.183867 0.106897
0.068274 0.112647 0.037339
0.079814 0.117632 0.043339
0.091299 0.122423 0.049331
0.104912 0.127988 0.055930
0.118707 0.133768 0.062364
0.133861 0.139738 0.067855
0.149678 0.145488 0.072755
0.166728 0.151034 0.077440
0.184780 0.156580 0.081854
0.203899 0.161984 0.085984
0.224098 0.167025 0.089890
0.245529 0.171893 0.093449
0.268232 0.176355 0.096677
0.292024 0.180464 0.099701
0.317155 0.184245 0.102314
0.343496 0.187695 0.104527
0.371050 0.190744 0.106345
0.400058 0.193259 0.107659
0.430490 0.195412 0.108618
0.462439 0.197091 0.109100
0.495570 0.198212 0.109127
0.530418 0.198724 0.108417
0.566702 0.198663 0.107186
0.604305 0.198243 0.105661
0.643113 0.197361 0.103709
0.681556 0.196944 0.102787
0.718264 0.197716 0.103619
0.754996 0.198683 0.104823
0.792283 0.199507 0.106255
0.829595 0.200496 0.107719
0.867376 0.201695 0.109419
0.904943 0.202710 0.111182
0.076789 0.132727 0.048879
0.088133 0.137396 0.054612
0.099614 0.141940 0.060176
0.113180 0.147429 0.066856
0.127000 0.152949 0.073329
0.141942 0.158699 0.079211
0.157498 0.164449 0.084727
0.174232 0.170007 0.089274
0.191777 0.175582 0.093348
0.210532 0.180961 0.097097
0.230507 0.186041 0.100703
0.251456 0.190909 0.104002
0.273735 0.195447 0.106949
0.297161 0.199700 0.109678
0.321861 0.203513 0.112031
0.347911 0.207058 0.113889
0.375205 0.210238 0.115344
0.403845 0.212887 0.116398
0.433896 0.215046 0.117065
0.465562 0.216753 0.117143
0.498432 0.217965 0.116798
0.532886 0.218534 0.115808
0.568987 0.218630 0.114317
0.606428 0.218268 0.112345
0.645142 0.217428 0.110025
0.683414 0.217023 0.108627
0.720295 0.217749 0.109031
0.757068 0.218536 0.109952
0.794483 0.219512 0.111124
0.831861 0.220469 0.112276
0.869644 0.221421 0.113766
0.907267 0.222427 0.115412
0.085045 0.153460 0.060097
0.096325 0.157682 0.065572
0.107795 0.162023 0.070924
0.121202 0.167192 0.077179
0.135192 0.172461 0.083596
0.150104 0.178035 0.089973
0.165453 0.183733 0.096156
0.181898 0.189320 0.101001
0.199069 0.194959 0.104880
0.217443 0.200299 0.108501
0.236980 0.205514 0.111713
0.257601 0.210405 0.114752
0.279474 0.214983 0.117365
0.302522 0.219315 0.119692
0.326738 0.223267 0.121749
0.352390 0.226846 0.123346
0.379391 0.230123 0.124541
0.407740 0.232865 0.125300
0.437421 0.235170 0.125569
0.468708 0.236905 0.125307
0.501335 0.238190 0.124540
0.535551 0.238954 0.123200
0.571392 0.239111 0.121359
0.608713 0.238796 0.118950
0.647265 0.238070 0.116175
0.685443 0.237744 0.114322
0.722418 0.238324 0.114534
0.759211 0.239080 0.115216
0.796512 0.240000 0.116127
0.834054 0.240774 0.116901
0.871911 0.241530 0.118244
0.909788 0.242467 0.119445
0.092969 0.174595 0.070936
0.104066 0.178632 0.076086
0.115472 0.182807 0.081353
0.128946 0.187547 0.087330
0.142936 0.192578 0.093379
0.157859 0.198051 0.099950
0.173233 0.203523 0.106394
0.189499 0.209012 0.111719
0.206467 0.214557 0.116189
0.224447 0.220032 0.119842
0.243549 0.225247 0.122771
0.263814 0.230202 0.125502
0.285329 0.234924 0.127855
0.307962 0.239300 0.129845
0.331836 0.243366 0.131537
0.357094 0.247083 0.132839
0.383704 0.250360 0.133738
0.411667 0.253141 0.134137
0.441055 0.255583 0.134064
0.471972 0.257505 0.133499
0.504385 0.258906 0.132281
0.538454 0.259695 0.130543
0.574057 0.259903 0.128112
0.611065 0.259742 0.125317
0.649478 0.258978 0.122227
0.687495 0.258773 0.120097
0.724282 0.259388 0.119957
0.761046 0.260144 0.120299
0.798511 0.260836 0.120941
0.836071 0.261586 0.121558
0.874172 0.262342 0.122541
0.912238 0.263098 0.123479
0.100374 0.196432 0.081539
0.111466 0.200297 0.086334
0.122715 0.204044 0.091342
0.136350 0.208524 0.097058
0.150351 0.213295 0.102869
0.165371 0.218507 0.109315
0.180889 0.223735 0.115585
0.197095 0.229066 0.121641
0.213816 0.234550 0.127096
0.231605 0.240025 0.131118
0.250335 0.245240 0.133924
0.270077 0.250223 0.136330
0.291214 0.255063 0.138423
0.313448 0.259545 0.140121
0.337016 0.263689 0.141506
0.361892 0.267540 0.142465
0.388112 0.270857 0.142973
0.415720 0.273776 0.143031
0.444723 0.276332 0.142662
0.475395 0.278303 0.141681
0.507528 0.279846 0.139994
0.541425 0.280696 0.137711
0.576824 0.281027 0.134790
0.613502 0.280975 0.131625
0.651570 0.280426 0.128181
0.689448 0.280279 0.125707
0.726286 0.280893 0.125371
0.763063 0.281581 0.125385
0.800741 0.282178 0.125684
0.838471 0.282991 0.125944
0.876978 0.283753 0.126829
0.915373 0.284588 0.127512
0.107259 0.218788 0.091536
0.118264 0.222227 0.096149
0.129513 0.225720 0.100902
0.143157 0.230020 0.106439
0.157257 0.234520 0.111990
0.172435 0.239397 0.118203
0.188026 0.244396 0.124415
0.204289 0.249600 0.130647
0.221119 0.254868 0.136638
0.238590 0.260278 0.141321
0.257060 0.265521 0.144781
0.276483 0.270621 0.147302
0.297219 0.275568 0.149078
0.319034 0.280087 0.150446
0.342196 0.284281 0.151436
0.366731 0.288211 0.152087
0.392561 0.291659 0.152205
0.419867 0.294710 0.151790
0.448564 0.297341 0.150985
0.478991 0.299413 0.149571
0.510787 0.301076 0.147503
0.544366 0.302016 0.144705
0.579443 0.302437 0.141417
0.615958 0.302533 0.137869
0.653681 0.302154 0.134184
0.691331 0.302044 0.131333
0.728203 0.302659 0.130567
0.765144 0.303278 0.130438
0.803762 0.304170 0.130348
0.842467 0.305253 0.130487
0.882354 0.306366 0.131206
0.922234 0.307551 0.131718
0.113624 0.241569 0.101178
0.124563 0.244749 0.105468
0.135726 0.247991 0.109965
0.149465 0.252170 0.115310
0.163634 0.256316 0.120686
0.178935 0.260877 0.126638
0.194756 0.265616 0.132609
0.211131 0.270560 0.138714
0.228107 0.275567 0.144851
0.245575 0.280791 0.150320
0.263785 0.286054 0.154970
0.282914 0.291197 0.158031
0.303268 0.296181 0.159568
0.324660 0.300823 0.160676
0.347427 0.305151 0.161334
0.371605 0.309134 0.161593
0.397093 0.312712 0.161272
0.424108 0.315885 0.160423
0.452582 0.318516 0.159132
0.482679 0.320646 0.157267
0.514154 0.322447 0.154801
0.547408 0.323614 0.151687
0.582150 0.324227 0.148072
0.618317 0.324439 0.144166
0.655901 0.324158 0.140074
0.693537 0.324146 0.136928
0.730435 0.324858 0.135901
0.767902 0.325712 0.135429
0.807964 0.327006 0.135153
0.848378 0.328453 0.135129
0.890446 0.330473 0.135838
0.932475 0.332380 0.136539
0.119367 0.264815 0.110197
0.130450 0.267738 0.114380
0.141479 0.270813 0.118706
0.155353 0.274631 0.123666
0.169499 0.278480 0.128917
0.184954 0.282823 0.134609
0.200949 0.287301 0.140368
0.217550 0.292008 0.146427
0.234671 0.296834 0.152470
0.252282 0.301811 0.158344
0.270371 0.306881 0.163768
0.289325 0.311922 0.167577
0.309323 0.316924 0.169681
0.330412 0.321639 0.170862
0.352792 0.326094 0.171155
0.376554 0.330208 0.170975
0.401730 0.333916 0.170239
0.428451 0.337162 0.168969
0.456532 0.339912 0.167245
0.486305 0.342219 0.164985
0.517454 0.344078 0.162135
0.550311 0.345416 0.158724
0.584777 0.346111 0.154670
0.620890 0.346585 0.150320
0.658909 0.346750 0.145929
0.697167 0.347209 0.142522
0.735209 0.348393 0.141235
0.773978 0.349718 0.140462
0.815384 0.351392 0.140055
0.857052 0.353345 0.140021
0.899571 0.356029 0.141424
0.942148 0.358864 0.142960
0.124660 0.288511 0.118768
0.135634 0.291284 0.122802
0.146662 0.294120 0.126905
0.160561 0.297559 0.131708
0.174934 0.301258 0.136699
0.190407 0.305217 0.142148
0.206544 0.309436 0.147746
0.223380 0.313914 0.153563
0.240676 0.318590 0.159395
0.258538 0.323265 0.165324
0.276829 0.328020 0.171035
0.295790 0.332987 0.175768
0.315484 0.337934 0.179201
0.336232 0.342667 0.180922
0.358234 0.347269 0.180758
0.381616 0.351451 0.180111
0.406401 0.355233 0.179058
0.432723 0.358599 0.177465
0.460465 0.361549 0.175271
0.489864 0.363997 0.172577
0.520690 0.365970 0.169404
0.553275 0.367443 0.165572
0.587459 0.368340 0.161164
0.623887 0.369253 0.156463
0.662825 0.370047 0.151784
0.702531 0.371262 0.148206
0.742768 0.373226 0.146680
0.783659 0.375332 0.145770
0.826137 0.377460 0.145121
0.868496 0.379922 0.145063
0.909944 0.383341 0.148066
0.951223 0.386955 0.151026
0.129245 0.312679 0.126866
0.140084 0.315322 0.130769
0.151120 0.317768 0.134492
0.165142 0.320946 0.139171
0.179652 0.324400 0.144008
0.195269 0.328202 0.149219
0.211643 0.332160 0.154643
0.228641 0.336352 0.160121
0.246154 0.340676 0.165797
0.264227 0.345126 0.171544
0.282830 0.349704 0.177352
0.301824 0.354416 0.182635
0.321374 0.359211 0.187084
0.341931 0.363951 0.189542
0.363614 0.368561 0.189843
0.386596 0.372801 0.189259
0.410991 0.376704 0.187816
0.436997 0.380275 0.185833
0.464408 0.383337 0.183316
0.493626 0.386005 0.180201
0.524668 0.388436 0.176680
0.557849 0.390402 0.172412
0.592843 0.391977 0.167501
0.630137 0.393567 0.162464
0.669890 0.395004 0.157612
0.710608 0.396874 0.154004
0.752157 0.399398 0.152266
0.794194 0.401938 0.151096
0.837280 0.404345 0.150293
0.880051 0.407192 0.150223
0.920090 0.411612 0.155147
0.959825 0.416133 0.160156
0.133152 0.337382 0.134428
0.143991 0.339643 0.138076
0.155036 0.341951 0.141660
0.169176 0.344869 0.146090
0.183718 0.348079 0.150781
0.199575 0.351730 0.155732
0.216079 0.355429 0.160920
0.233263 0.359332 0.166212
0.251102 0.363298 0.171530
0.269342 0.367524 0.177016
0.288164 0.371931 0.182605
0.307333 0.376339 0.187982
0.327094 0.380841 0.193049
0.347570 0.385450 0.196605
0.368977 0.389988 0.198410
0.391646 0.394350 0.198403
0.415585 0.398448 0.196569
0.441201 0.402080 0.194196
0.468222 0.405288 0.191362
0.497668 0.408448 0.187910
0.529523 0.411530 0.183917
0.564126 0.414403 0.179214
0.600991 0.417019 0.173644
0.639769 0.419462 0.168294
0.680335 0.421680 0.163507
0.721602 0.424127 0.159826
0.763460 0.426960 0.157852
0.805648 0.429650 0.156423
0.848978 0.432301 0.155473
0.891772 0.435291 0.155508
0.929982 0.440694 0.162758
0.967892 0.446256 0.170491
0.136382 0.362488 0.141321
0.147221 0.364504 0.144716
0.158265 0.366545 0.148284
0.172418 0.369328 0.152455
0.187114 0.372278 0.156885
0.203190 0.375669 0.161576
0.219743 0.379107 0.166501
0.237158 0.382750 0.171523
0.255187 0.386456 0.176593
0.273748 0.390422 0.181819
0.292741 0.394569 0.187148
0.312222 0.398716 0.192438
0.332326 0.402957 0.197794
0.352917 0.407357 0.202195
0.374201 0.411756 0.205438
0.396886 0.416231 0.206325
0.420927 0.420736 0.204930
0.446786 0.424929 0.202629
0.474403 0.428897 0.199465
0.504688 0.432769 0.195621
0.537366 0.436590 0.191154
0.572894 0.440147 0.185840
0.610840 0.443484 0.179802
0.650381 0.446505 0.174157
0.691274 0.449331 0.169396
0.732782 0.452325 0.165647
0.774784 0.455355 0.163439
0.817211 0.458284 0.161749
0.860801 0.461074 0.160539
0.903635 0.464326 0.160785
0.940138 0.470722 0.170636
0.976360 0.477191 0.181228
0.138903 0.388089 0.147623
0.149742 0.389814 0.150899
0.160795 0.391633 0.154185
0.175092 0.394259 0.158228
0.189901 0.396949 0.162398
0.206096 0.400080 0.166806
0.222789 0.403257 0.171330
0.240357 0.406672 0.176028
0.258663 0.410191 0.180924
0.277470 0.413792 0.185890
0.296781 0.417678 0.191004
0.316597 0.421565 0.196169
0.337004 0.425547 0.201489
0.357876 0.429686 0.206445
0.379307 0.433825 0.210907
0.402298 0.438474 0.213110
0.426916 0.443630 0.212960
0.453797 0.448811 0.211061
0.482939 0.454081 0.207555
0.514436 0.458877 0.203237
0.547957 0.463415 0.198249
0.584010 0.467593 0.192436
0.622252 0.471360 0.185865
0.661843 0.474778 0.179878
0.702643 0.478096 0.175162
0.744125 0.481382 0.171444
0.786247 0.484573 0.169025
0.828915 0.487744 0.167075
0.872766 0.490695 0.165605
0.915595 0.494299 0.166063
0.950663 0.501558 0.178857
0.985041 0.508953 0.192461
0.140675 0.414250 0.153177
0.151510 0.415761 0.156296
0.162425 0.417273 0.159365
0.176831 0.419654 0.163103
0.191795 0.422219 0.167014
0.208137 0.425089 0.171169
0.224974 0.428007 0.175472
0.242830 0.431151 0.179910
0.261372 0.434385 0.184584
0.280503 0.437760 0.189401
0.300195 0.441387 0.194288
0.320532 0.445120 0.199315
0.341663 0.449150 0.204608
0.363384 0.453463 0.209925
0.385848 0.458028 0.215165
0.409799 0.463171 0.218690
0.435247 0.468822 0.220458
0.462995 0.474692 0.219426
0.492906 0.480799 0.215668
0.525033 0.486307 0.210892
0.559053 0.491406 0.205384
0.595422 0.496072 0.199018
0.633818 0.500165 0.191839
0.673474 0.504031 0.185600
0.714170 0.507753 0.181053
0.755619 0.511360 0.177392
0.797951 0.514821 0.174636
0.840750 0.518252 0.172662
0.884165 0.521734 0.172052
0.926430 0.525767 0.173677
0.960967 0.533494 0.188459
0.995557 0.540864 0.203206
0.141620 0.440718 0.158061
0.152452 0.442223 0.160923
0.163275 0.443536 0.163817
0.177691 0.445651 0.167207
0.192773 0.447898 0.170877
0.209386 0.450508 0.174924
0.226523 0.453166 0.179047
0.244602 0.456064 0.183260
0.263437 0.459111 0.187780
0.282828 0.462250 0.192335
0.302973 0.465556 0.197125
0.324010 0.469370 0.202032
0.346242 0.473823 0.207224
0.369510 0.478771 0.212620
0.393881 0.484250 0.218197
0.419282 0.490058 0.223126
0.445770 0.496181 0.227399
0.474064 0.502485 0.227587
0.504152 0.508950 0.223774
0.536364 0.514912 0.218650
0.570498 0.520429 0.212621
0.606987 0.525496 0.205564
0.645525 0.529900 0.197783
0.685180 0.534213 0.191281
0.725787 0.538261 0.186888
0.767214 0.542204 0.183284
0.809758 0.545943 0.180237
0.852460 0.549772 0.178427
0.894945 0.553989 0.179728
0.937141 0.558273 0.182763
0.972595 0.565646 0.198086
1.000000 0.572878 0.213541
0.141549 0.467848 0.162188
0.152381 0.469022 0.164790
0.163215 0.470319 0.167435
0.177802 0.472165 0.170719
0.193044 0.474074 0.174141
0.209787 0.476424 0.178003
0.227305 0.478853 0.181898
0.245898 0.481718 0.186004
0.265293 0.484914 0.190350
0.285418 0.488206 0.194777
0.306532 0.491901 0.199567
0.328774 0.496230 0.204443
0.352252 0.501139 0.209579
0.376897 0.506509 0.214975
0.402753 0.512552 0.220556
0.429267 0.518768 0.226229
0.456626 0.525155 0.231909
0.485498 0.531671 0.233401
0.515712 0.538321 0.231051
0.548008 0.544597 0.226445
0.582122 0.550515 0.219917
0.618583 0.555959 0.212334
0.657182 0.560886 0.204058
0.696798 0.565497 0.197345
0.737382 0.569912 0.192869
0.778943 0.574287 0.189114
0.821731 0.578318 0.185824
0.864542 0.582339 0.184192
0.907321 0.586664 0.187127
0.949401 0.591266 0.191895
0.985508 0.598409 0.207966
1.000000 0.605884 0.224373
0.140525 0.495498 0.165450
0.151362 0.496335 0.167797
0.162370 0.497448 0.170354
0.177054 0.499051 0.173469
0.192547 0.500856 0.176786
0.209481 0.502946 0.180417
0.227323 0.505164 0.184212
0.246578 0.508086 0.188160
0.266938 0.511631 0.192490
0.288433 0.515687 0.196996
0.311242 0.520409 0.201718
0.334956 0.525491 0.206712
0.359668 0.531002 0.211781
0.385330 0.536665 0.217070
0.412082 0.542747 0.222538
0.439510 0.549038 0.228141
0.467649 0.555466 0.233886
0.496884 0.562031 0.236857
0.527234 0.568705 0.237349
0.559652 0.575202 0.234019
0.593857 0.581609 0.227070
0.630352 0.587521 0.219166
0.668828 0.592876 0.210753
0.708393 0.597862 0.203865
0.749112 0.602623 0.199015
0.790915 0.607340 0.194960
0.834835 0.611210 0.190683
0.878829 0.615037 0.188789
0.921098 0.619738 0.194173
0.962312 0.624855 0.201741
0.996260 0.632197 0.218627
1.000000 0.639757 0.235811
0.138721 0.523589 0.167931
0.149561 0.524341 0.170202
0.160660 0.525042 0.172579
0.175708 0.526748 0.175610
0.191531 0.528591 0.178755
0.209257 0.530981 0.182294
0.227782 0.533549 0.185958
0.247964 0.537007 0.189955
0.269429 0.541083 0.194163
0.292235 0.545909 0.198700
0.316331 0.551324 0.203337
0.341208 0.556871 0.208256
0.367076 0.562644 0.213297
0.393708 0.568582 0.218392
0.421136 0.574737 0.223617
0.449379 0.580936 0.228971
0.478299 0.587270 0.234362
0.508164 0.593840 0.238473
0.538905 0.600504 0.241339
0.571429 0.607169 0.239572
0.605680 0.613910 0.233449
0.642199 0.620155 0.225791
0.680497 0.625922 0.217506
0.720123 0.631408 0.210484
0.761365 0.636354 0.204898
0.804679 0.640705 0.199568
0.849952 0.644518 0.194371
0.894513 0.648446 0.192604
0.935635 0.653681 0.201149
0.975776 0.659325 0.212220
0.999299 0.666769 0.229812
1.000000 0.674331 0.247769
0.135949 0.552200 0.169633
0.146977 0.552759 0.171901
0.158121 0.553354 0.174205
0.173860 0.555314 0.177053
0.190236 0.557441 0.180141
0.209188 0.560804 0.183701
0.228933 0.564611 0.187446
0.250460 0.568989 0.191327
0.272983 0.573699 0.195437
0.296821 0.578841 0.199835
0.321763 0.584448 0.204390
0.347486 0.590208 0.209071
0.374151 0.596006 0.213917
0.401578 0.602009 0.218764
0.429860 0.608200 0.223720
0.458882 0.614368 0.228819
0.488583 0.620670 0.233917
0.519125 0.627136 0.238597
0.550489 0.633825 0.242765
0.583392 0.640608 0.242646
0.617716 0.647414 0.238653
0.654108 0.653980 0.232290
0.692300 0.660247 0.224160
0.733217 0.665553 0.216213
0.776085 0.670385 0.209391
0.820198 0.674736 0.203130
0.865951 0.678760 0.197351
0.910419 0.682949 0.196271
0.950548 0.688671 0.208630
0.989643 0.694836 0.223222
0.999745 0.702495 0.241701
1.000000 0.710063 0.260436
0.132530 0.581527 0.170948
0.144020 0.582438 0.173013
0.155581 0.583456 0.175136
0.171930 0.586083 0.178097
0.189229 0.588898 0.181008
0.209171 0.593148 0.184544
0.230316 0.598012 0.188198
0.252815 0.603011 0.192149
0.276327 0.608220 0.196093
0.300987 0.613549 0.200392
0.326710 0.619174 0.204726
0.353213 0.624971 0.209077
0.380638 0.630845 0.213536
0.408834 0.636886 0.218205
0.437929 0.642963 0.222927
0.467732 0.649227 0.227657
0.498315 0.655630 0.232495
0.529703 0.662066 0.237390
0.561822 0.668533 0.242192
0.595197 0.675295 0.243687
0.629619 0.682177 0.242305
0.666907 0.688551 0.237189
0.706644 0.694525 0.228875
0.748387 0.700064 0.220552
0.791834 0.705006 0.213126
0.836079 0.709719 0.206784
0.881713 0.714041 0.201755
0.925938 0.718662 0.202037
0.965302 0.724720 0.217381
0.997111 0.731202 0.234786
0.999970 0.738934 0.253979
1.000000 0.746504 0.272898
0.128386 0.612454 0.171184
0.140820 0.614936 0.173406
0.153311 0.617283 0.175472
0.170421 0.620730 0.178302
0.188728 0.624643 0.181328
0.209440 0.629225 0.184645
0.231314 0.634267 0.188058
0.254603 0.639410 0.191870
0.278933 0.644862 0.195672
0.304373 0.650286 0.199594
0.330811 0.656056 0.203668
0.358028 0.661854 0.207814
0.386366 0.667746 0.212115
0.415343 0.673796 0.216457
0.445218 0.679846 0.220806
0.475902 0.686033 0.225250
0.507395 0.692461 0.229723
0.539699 0.698883 0.234223
0.572691 0.705322 0.238819
0.607165 0.711782 0.241534
0.643535 0.717916 0.242211
0.682124 0.723936 0.238929
0.722368 0.729957 0.231964
0.764373 0.735786 0.224275
0.807909 0.741134 0.216564
0.851999 0.746181 0.210807
0.896867 0.750944 0.208893
0.940376 0.756078 0.212129
0.979897 0.762243 0.228851
0.998939 0.768774 0.247382
1.000000 0.776311 0.266143
1.000000 0.783875 0.284840
0.124101 0.645626 0.171184
0.137356 0.649276 0.173233
0.150693 0.652944 0.175296
0.168985 0.657357 0.178093
0.188109 0.661865 0.181122
0.209595 0.666667 0.184214
0.232175 0.671749 0.187544
0.256074 0.677073 0.191106
0.281184 0.682610 0.194722
0.307405 0.688142 0.198512
0.334610 0.693789 0.202326
0.362596 0.699662 0.206226
0.391739 0.705609 0.210292
0.421497 0.711618 0.214358
0.452153 0.717791 0.218520
0.483739 0.723959 0.222717
0.516143 0.730387 0.226909
0.549482 0.736807 0.230979
