gsg/04_Specialty/GSG_LUT_Specialty_SummerAfternoon.cube
# GSG LUTs 1.0
# Copyright (c) 2016-2020 Greyscalegorilla
# See EULA for licensing and distribution information
# Converted by Briz LUT Converter
LUT_3D_SIZE 32
0.000000 0.000000 0.000000
0.000000 0.000000 0.000000
0.000000 0.000000 0.000000
0.000780 0.000000 0.000000
0.009414 0.000000 0.000000
0.020371 0.000000 0.000000
0.032297 0.000000 0.000000
0.045878 0.000000 0.000000
0.060499 0.000000 0.000000
0.076301 0.000000 0.000000
0.093426 0.000000 0.000000
0.111592 0.000000 0.000000
0.131033 0.000000 0.000000
0.151664 0.000000 0.000000
0.173343 0.000000 0.000000
0.196085 0.000000 0.000000
0.220032 0.000000 0.000000
0.245185 0.000000 0.000000
0.271401 0.002127 0.000000
0.298665 0.006806 0.000000
0.326803 0.012257 0.000000
0.356028 0.017968 0.000000
0.386293 0.023766 0.000000
0.417519 0.029745 0.000000
0.449785 0.035984 0.004726
0.482894 0.042483 0.012013
0.517397 0.049242 0.019780
0.552397 0.056048 0.027595
0.588759 0.063075 0.035630
0.625310 0.070361 0.043925
0.663752 0.077908 0.052479
0.702076 0.085470 0.061050
0.000000 0.000000 0.000000
0.000003 0.000000 0.000000
0.000471 0.000000 0.000000
0.006664 0.000000 0.000000
0.015962 0.000000 0.000000
0.026972 0.000000 0.000000
0.039152 0.000000 0.000000
0.052938 0.000000 0.000000
0.067693 0.000000 0.000000
0.083936 0.000021 0.000000
0.101322 0.000104 0.000000
0.119834 0.000215 0.000000
0.139599 0.000337 0.000000
0.160344 0.000466 0.000000
0.182398 0.001995 0.000000
0.205652 0.006003 0.000000
0.229986 0.010670 0.000000
0.255269 0.015613 0.000000
0.281780 0.020769 0.000000
0.309407 0.026114 0.000000
0.337962 0.031664 0.000000
0.367540 0.037384 0.000037
0.398068 0.043363 0.000547
0.429735 0.049596 0.005827
0.462331 0.056087 0.013077
0.495898 0.062648 0.020590
0.530504 0.069415 0.028359
0.565731 0.076435 0.036386
0.602355 0.083713 0.044673
0.639395 0.091024 0.052999
0.678112 0.098578 0.061554
0.716940 0.106140 0.070133
0.000000 0.000000 0.000000
0.000218 0.000000 0.000000
0.003994 0.000000 0.000000
0.012840 0.000006 0.000000
0.022199 0.000077 0.000000
0.033626 0.000194 0.000000
0.045878 0.000327 0.000000
0.059915 0.000477 0.000000
0.074938 0.000647 0.000000
0.091430 0.001444 0.000000
0.109081 0.004078 0.000000
0.127864 0.007544 0.000000
0.147895 0.011342 0.000000
0.169009 0.015344 0.000000
0.191460 0.019749 0.000000
0.214975 0.024412 0.000000
0.239577 0.029210 0.000000
0.265257 0.034267 0.000000
0.292136 0.039570 0.000000
0.320022 0.045019 0.000000
0.348838 0.050723 0.000061
0.378836 0.056686 0.001466
0.409712 0.062909 0.006972
0.441644 0.069211 0.014223
0.474682 0.075702 0.021549
0.508564 0.082453 0.029244
0.543443 0.089464 0.037069
0.579125 0.096522 0.045098
0.616051 0.103815 0.053400
0.653368 0.111127 0.061933
0.692347 0.118910 0.070518
0.731435 0.126496 0.079349
0.000047 0.001016 0.000000
0.002292 0.001040 0.000000
0.008254 0.001046 0.000000
0.017081 0.001229 0.000000
0.026463 0.002332 0.000000
0.037985 0.004136 0.000000
0.050625 0.006204 0.000000
0.064789 0.008552 0.000000
0.080190 0.011217 0.000000
0.096780 0.014320 0.000000
0.114774 0.017708 0.000000
0.133965 0.021451 0.000000
0.154369 0.025508 0.000000
0.175897 0.029771 0.000000
0.198619 0.034333 0.000000
0.222407 0.039119 0.000000
0.247387 0.044035 0.000000
0.273438 0.049105 0.000000
0.300577 0.054537 0.000000
0.328724 0.060088 0.000058
0.357815 0.065785 0.001360
0.388082 0.071740 0.006523
0.419363 0.077963 0.013519
0.451632 0.084265 0.020929
0.484937 0.090774 0.028485
0.519078 0.097530 0.036066
0.554410 0.104522 0.044063
0.590210 0.111596 0.052133
0.627577 0.119077 0.060640
0.665367 0.126431 0.069005
0.704642 0.134216 0.077797
0.743991 0.142054 0.086864
0.001276 0.012675 0.000000
0.006789 0.012855 0.000000
0.012494 0.012887 0.000000
0.021135 0.013893 0.000000
0.030746 0.014967 0.000000
0.042459 0.016766 0.000000
0.055142 0.018845 0.000000
0.069534 0.021388 0.000000
0.085171 0.024199 0.000000
0.102076 0.027366 0.000000
0.120393 0.031032 0.000000
0.139772 0.035110 0.000000
0.160652 0.039395 0.000000
0.182557 0.043872 0.000000
0.205624 0.048629 0.000000
0.229776 0.053504 0.000000
0.255016 0.058420 0.000000
0.281328 0.063609 0.000000
0.308727 0.069017 0.000037
0.337153 0.074604 0.001087
0.366639 0.080252 0.005987
0.397254 0.086140 0.012814
0.428671 0.092363 0.019977
0.461286 0.098665 0.027311
0.494900 0.105345 0.034818
0.529302 0.112151 0.042603
0.564920 0.118983 0.050807
0.601178 0.126193 0.058935
0.638833 0.133527 0.067447
0.676706 0.141069 0.076017
0.716443 0.148868 0.084855
0.756060 0.156895 0.093923
0.007736 0.030304 0.000000
0.012949 0.030013 0.000000
0.018410 0.029835 0.000000
0.027047 0.030742 0.000000
0.036617 0.031583 0.000000
0.048303 0.033307 0.000000
0.061019 0.035126 0.000000
0.075411 0.037418 0.000000
0.091113 0.040044 0.000000
0.108204 0.043141 0.000000
0.126590 0.046630 0.000000
0.146189 0.050364 0.000000
0.167206 0.054568 0.000000
0.189217 0.058891 0.000000
0.212448 0.063405 0.000000
0.236725 0.068061 0.000000
0.262205 0.072956 0.000000
0.288777 0.078113 0.000022
0.316435 0.083525 0.000849
0.345252 0.089078 0.005349
0.374969 0.094797 0.012076
0.405900 0.100760 0.019048
0.437784 0.106983 0.026279
0.470593 0.113315 0.033771
0.504422 0.119974 0.041363
0.539116 0.126771 0.049328
0.575147 0.133815 0.057428
0.611727 0.140880 0.065713
0.649648 0.148379 0.074288
0.688017 0.155942 0.082863
0.727992 0.163702 0.091906
0.767907 0.171476 0.100981
0.015140 0.049588 0.000000
0.019887 0.049042 0.000000
0.025058 0.048746 0.000000
0.033671 0.049250 0.000000
0.042993 0.049868 0.000000
0.054567 0.051298 0.000000
0.067424 0.052896 0.000000
0.081854 0.054974 0.000000
0.097609 0.057458 0.000000
0.114853 0.060178 0.000000
0.133254 0.063406 0.000000
0.152885 0.066807 0.000000
0.173920 0.070558 0.000000
0.196046 0.074524 0.000000
0.219510 0.078871 0.000000
0.243970 0.083478 0.000000
0.269605 0.088243 0.000122
0.296414 0.093300 0.000992
0.324333 0.098566 0.005160
0.353410 0.104140 0.011761
0.383489 0.109907 0.018567
0.414629 0.115853 0.025571
0.446723 0.122076 0.032817
0.479944 0.128525 0.040309
0.514086 0.135103 0.048060
0.549205 0.141865 0.056072
0.585364 0.149041 0.064343
0.622350 0.156131 0.072661
0.660557 0.163587 0.081421
0.699379 0.171145 0.090060
0.739429 0.178707 0.099060
0.779802 0.186270 0.108133
0.023065 0.070787 0.000000
0.027544 0.069973 0.000000
0.032223 0.069239 0.000000
0.040771 0.069686 0.000000
0.049983 0.070204 0.000000
0.061658 0.071282 0.000000
0.074434 0.072795 0.000000
0.089023 0.074670 0.000000
0.104778 0.076988 0.000000
0.122053 0.079593 0.000000
0.140596 0.082579 0.000000
0.160380 0.085758 0.000000
0.181527 0.089324 0.000000
0.203796 0.093174 0.000000
0.227382 0.097318 0.000000
0.252167 0.101721 0.000374
0.278062 0.106356 0.001914
0.305036 0.111357 0.006333
0.333184 0.116484 0.012635
0.362498 0.121940 0.019237
0.392710 0.127559 0.026043
0.424174 0.133436 0.033180
0.456591 0.139620 0.040490
0.490031 0.145906 0.047981
0.524462 0.152500 0.055775
0.559809 0.159282 0.063755
0.596264 0.166246 0.072015
0.633471 0.173296 0.080382
0.671931 0.180524 0.089099
0.711013 0.188006 0.097916
0.751377 0.195565 0.106793
0.791957 0.203127 0.115861
0.031447 0.093158 0.000000
0.035596 0.092148 0.000000
0.039836 0.091154 0.000000
0.048220 0.091347 0.000000
0.057529 0.091693 0.000000
0.069114 0.092731 0.000000
0.081996 0.094021 0.000000
0.096614 0.095830 0.000000
0.112466 0.098050 0.000000
0.129852 0.100461 0.000000
0.148683 0.103292 0.000000
0.168577 0.106361 0.000000
0.189870 0.109733 0.000000
0.212284 0.113466 0.000106
0.236044 0.117553 0.000850
0.260956 0.121887 0.003504
0.287078 0.126425 0.008460
0.314312 0.131230 0.014526
0.342610 0.136235 0.020828
0.372067 0.141549 0.027429
0.402555 0.147095 0.034276
0.434259 0.152929 0.041393
0.466916 0.158914 0.048727
0.500476 0.165127 0.056237
0.535265 0.171429 0.064129
0.570763 0.178074 0.072035
0.607599 0.184867 0.080271
0.644933 0.191831 0.088747
0.683685 0.198881 0.097367
0.722975 0.206168 0.106172
0.763778 0.213654 0.115231
0.804498 0.221214 0.124306
0.040017 0.116381 0.000000
0.043796 0.115294 0.000000
0.047788 0.114112 0.000000
0.056087 0.114129 0.000000
0.065247 0.114403 0.000000
0.076911 0.115349 0.000000
0.089700 0.116452 0.000000
0.104400 0.118075 0.000000
0.120551 0.120136 0.000000
0.137989 0.122494 0.000000
0.156879 0.125267 0.000000
0.176921 0.128188 0.000025
0.198357 0.131514 0.000592
0.221031 0.135218 0.002303
0.245019 0.139100 0.005845
0.270065 0.143235 0.011409
0.296354 0.147736 0.017244
0.323848 0.152507 0.023309
0.352406 0.157407 0.029611
0.382055 0.162602 0.036213
0.412832 0.168120 0.043176
0.444713 0.173831 0.050282
0.477572 0.179629 0.057660
0.511392 0.185737 0.065201
0.546386 0.192020 0.073008
0.582185 0.198519 0.081035
0.619296 0.205218 0.089306
0.656951 0.212013 0.097625
0.696073 0.219040 0.106385
0.735464 0.226326 0.115207
0.776515 0.233637 0.124266
0.817677 0.241120 0.133341
0.048588 0.140565 0.000000
0.052282 0.139226 0.000000
0.056090 0.138039 0.000000
0.064146 0.137958 0.000000
0.073223 0.137981 0.000000
0.084832 0.138777 0.000000
0.097767 0.139864 0.000000
0.112466 0.141406 0.000000
0.128682 0.143382 0.000000
0.146307 0.145624 0.000069
0.165248 0.148285 0.000668
0.185458 0.151172 0.002137
0.207104 0.154406 0.004955
0.230005 0.157990 0.009880
0.254130 0.161771 0.015077
0.279340 0.165868 0.020687
0.305890 0.170239 0.026571
0.333601 0.174883 0.032636
0.362430 0.179793 0.038984
0.392430 0.184866 0.045618
0.423392 0.190287 0.052582
0.455471 0.195945 0.059805
0.488590 0.201717 0.067116
0.522671 0.207696 0.074666
0.557852 0.213935 0.082565
0.594029 0.220371 0.090614
0.631368 0.226975 0.098885
0.669353 0.233755 0.107273
0.708448 0.240781 0.116042
0.747846 0.247994 0.124865
0.788761 0.255452 0.133924
0.829777 0.262846 0.143078
0.057159 0.165528 0.000000
0.060685 0.164021 0.000000
0.064398 0.162734 0.000000
0.072283 0.162401 0.000000
0.081221 0.162275 0.000000
0.092898 0.163057 0.000000
0.105850 0.164040 0.000000
0.120619 0.165410 0.000235
0.136878 0.167278 0.001353
0.154651 0.169508 0.002793
0.173760 0.171968 0.005423
0.194225 0.174855 0.009767
0.216025 0.178099 0.014455
0.239116 0.181527 0.019449
0.263405 0.185309 0.024743
0.288876 0.189326 0.030273
0.315641 0.193611 0.036071
0.343527 0.198165 0.042184
0.372626 0.203046 0.048616
0.402818 0.208104 0.055337
0.433976 0.213438 0.062278
0.466316 0.218953 0.069471
0.499695 0.224672 0.076843
0.534100 0.230587 0.084541
0.569625 0.236803 0.092355
0.606080 0.243105 0.100366
0.643540 0.249744 0.108710
0.681464 0.256536 0.117180
0.719772 0.263719 0.126038
0.758129 0.271038 0.134950
0.797164 0.278905 0.144099
0.836244 0.286738 0.153507
0.065635 0.190988 0.000284
0.069159 0.189476 0.000281
0.072805 0.188026 0.000213
0.080593 0.187537 0.000613
0.089425 0.187313 0.001125
0.100965 0.187987 0.001839
0.113947 0.188838 0.002772
0.128865 0.190208 0.004348
0.145197 0.192036 0.007499
0.163043 0.194167 0.011170
0.182361 0.196621 0.015203
0.202980 0.199368 0.019497
0.225003 0.202526 0.024286
0.248257 0.205876 0.029280
0.272751 0.209603 0.034574
0.298482 0.213620 0.040150
0.325475 0.217905 0.045996
0.353626 0.222407 0.052196
0.382921 0.227153 0.058608
0.413308 0.232242 0.065359
0.444787 0.237475 0.072321
0.477420 0.242965 0.079491
0.511060 0.248647 0.086908
0.545702 0.254487 0.094624
0.581356 0.260688 0.102511
0.617884 0.266990 0.110544
0.655409 0.273496 0.119020
0.692959 0.280345 0.127460
0.729474 0.287911 0.136453
0.765847 0.295799 0.145616
0.801525 0.304130 0.155116
0.837252 0.312639 0.164693
0.073953 0.216858 0.004829
0.077486 0.215342 0.004821
0.081366 0.213793 0.004648
0.088989 0.213289 0.005680
0.097593 0.212911 0.007003
0.109134 0.213455 0.008846
0.122116 0.214286 0.011237
0.137067 0.215551 0.014202
0.153542 0.217299 0.017433
0.171507 0.219386 0.021104
0.190980 0.221734 0.025170
0.211789 0.224428 0.029496
0.234015 0.227508 0.034220
0.257375 0.230867 0.039257
0.282042 0.234520 0.044610
0.307984 0.238481 0.050208
0.335261 0.242714 0.056132
0.363662 0.247140 0.062381
0.393151 0.251865 0.068853
0.423797 0.256891 0.075584
0.455633 0.262054 0.082603
0.488580 0.267558 0.089826
0.522480 0.273150 0.097209
0.557008 0.279058 0.104912
0.592238 0.285376 0.112994
0.627962 0.291949 0.121167
0.664335 0.298687 0.129748
0.700501 0.305878 0.138514
0.735524 0.313809 0.147645
0.770296 0.321872 0.157054
0.804136 0.330647 0.166860
0.837953 0.339572 0.176651
0.082162 0.243326 0.014802
0.085919 0.241809 0.014801
0.089929 0.240223 0.014834
0.097425 0.239605 0.015752
0.105802 0.239127 0.016990
0.117342 0.239653 0.018929
0.130346 0.240364 0.021293
0.145386 0.241483 0.024176
0.161897 0.243121 0.027516
0.180000 0.245209 0.031187
0.199587 0.247556 0.035299
0.220521 0.250211 0.039710
0.242935 0.253165 0.044413
0.266555 0.256451 0.049463
0.291483 0.260107 0.054885
0.317616 0.263998 0.060475
0.345023 0.268157 0.066399
0.373632 0.272585 0.072717
0.403380 0.277325 0.079271
0.434287 0.282264 0.086042
0.466312 0.287392 0.093048
0.499480 0.292812 0.100272
0.533640 0.298436 0.107755
0.567890 0.304458 0.115581
0.601998 0.311000 0.123802
0.636096 0.318061 0.132298
0.670035 0.325418 0.141161
0.703915 0.333147 0.150311
0.737648 0.341400 0.159720
0.771236 0.349696 0.169389
0.804895 0.358486 0.179318
0.838316 0.367443 0.189397
0.089992 0.270148 0.024869
0.094265 0.268636 0.024877
0.098602 0.267171 0.025168
0.105838 0.266415 0.026059
0.113971 0.265801 0.027178
0.125409 0.266202 0.029131
0.138438 0.266801 0.031494
0.153586 0.267919 0.034377
0.170128 0.269527 0.037717
0.188357 0.271527 0.041388
0.208120 0.273836 0.045500
0.229267 0.276406 0.049959
0.251810 0.279349 0.054794
0.275618 0.282579 0.059861
0.300752 0.286165 0.065264
0.327138 0.290000 0.070928
0.354797 0.294159 0.076852
0.383601 0.298578 0.083170
0.413610 0.303189 0.089724
0.444560 0.308151 0.096650
0.476392 0.313390 0.103830
0.509087 0.319007 0.111255
0.542569 0.324886 0.118899
0.575970 0.331256 0.127033
0.609071 0.338088 0.135441
0.642008 0.345410 0.144181
0.674599 0.353153 0.153307
0.707124 0.361180 0.162717
0.740084 0.369467 0.172386
0.772996 0.378014 0.182205
0.806254 0.386935 0.192387
0.839529 0.395880 0.202592
0.097554 0.297373 0.035078
0.102478 0.295864 0.035216
0.107408 0.294513 0.035629
0.114372 0.293627 0.036520
0.122147 0.292883 0.037623
0.133475 0.293154 0.039466
0.146504 0.293647 0.041829
0.161681 0.294765 0.044712
0.178353 0.296341 0.048085
0.196712 0.298211 0.051849
0.216565 0.300431 0.055961
0.237801 0.303000 0.060420
0.260555 0.305944 0.065255
0.284546 0.309173 0.070375
0.309884 0.312702 0.075852
0.336461 0.316468 0.081577
0.364445 0.320627 0.087565
0.393570 0.325046 0.093883
0.423839 0.329584 0.100437
0.454586 0.334647 0.107440
0.485898 0.340229 0.114832
0.517475 0.346235 0.122603
0.549258 0.352594 0.130726
0.581211 0.359391 0.139194
0.613304 0.366516 0.147960
0.645431 0.373997 0.156886
0.677771 0.381869 0.166249
0.710056 0.389917 0.175808
0.742755 0.398318 0.185722
0.775407 0.406877 0.195683
0.808405 0.415920 0.206117
0.841546 0.424995 0.216582
0.104982 0.324865 0.045295
0.110687 0.323494 0.045689
0.116340 0.322250 0.046209
0.122893 0.321229 0.046976
0.130214 0.320240 0.047975
0.141520 0.320397 0.049935
0.154437 0.320903 0.052298
0.169640 0.321991 0.055181
0.186404 0.323463 0.058550
0.204836 0.325298 0.062341
0.224873 0.327429 0.066549
0.246209 0.329994 0.071007
0.269172 0.332896 0.075797
0.293341 0.336043 0.080893
0.318939 0.339572 0.086439
0.345654 0.343402 0.092286
0.373691 0.347631 0.098474
0.402710 0.352197 0.105003
0.432686 0.357011 0.111834
0.463087 0.362341 0.119113
0.493758 0.368183 0.126771
0.524570 0.374450 0.134803
0.555437 0.381141 0.143259
0.586485 0.388228 0.151929
0.617879 0.395510 0.161016
0.649581 0.403017 0.170229
0.681527 0.410989 0.179739
0.713750 0.419055 0.189435
0.746116 0.427563 0.199593
0.778495 0.436259 0.209815
0.811348 0.445311 0.220379
0.844098 0.454386 0.231100
0.112151 0.352594 0.055489
0.118782 0.351475 0.056139
0.125250 0.350230 0.056796
0.131415 0.349198 0.057552
0.138262 0.348077 0.058466
0.149427 0.348033 0.060499
0.162251 0.348604 0.062771
0.177455 0.349553 0.065769
0.194255 0.350939 0.069109
0.212824 0.352775 0.072809
0.233021 0.354870 0.077040
0.254567 0.357349 0.081594
0.277710 0.360242 0.086439
0.302099 0.363409 0.091563
0.327875 0.366938 0.097090
0.354728 0.370891 0.103137
0.382636 0.375322 0.109585
0.411196 0.380156 0.116513
0.440373 0.385426 0.123864
0.470069 0.391209 0.131577
0.500065 0.397274 0.139538
0.530353 0.403751 0.147829
0.560914 0.410524 0.156468
0.591807 0.417587 0.165366
0.622892 0.424971 0.174603
0.654397 0.432510 0.184044
0.686013 0.440482 0.193722
0.717930 0.448672 0.203660
0.750160 0.457198 0.213951
0.782293 0.465864 0.224419
0.814885 0.475052 0.235274
0.847406 0.484131 0.246114
0.119059 0.380622 0.065721
0.126428 0.379610 0.066632
0.133767 0.378501 0.067533
0.139802 0.377329 0.068275
0.146277 0.376194 0.069034
0.157092 0.376036 0.070945
0.169916 0.376462 0.073276
0.185153 0.377329 0.076356
0.202095 0.378715 0.079696
0.220741 0.380551 0.083410
0.241019 0.382646 0.087659
0.262789 0.385141 0.092235
0.286166 0.388105 0.097273
0.310772 0.391398 0.102697
0.336595 0.395149 0.108540
0.363431 0.399315 0.114919
0.391132 0.403929 0.121705
0.419375 0.409105 0.128949
0.448068 0.414676 0.136666
0.477249 0.420579 0.144682
0.506840 0.426858 0.152903
0.536761 0.433409 0.161455
0.567029 0.440167 0.170353
0.597738 0.447265 0.179401
0.628589 0.454740 0.188780
0.659834 0.462303 0.198459
0.691315 0.470275 0.208397
0.722907 0.478554 0.218465
0.754820 0.487093 0.228904
0.786829 0.495803 0.239622
0.819171 0.505093 0.250691
0.851384 0.514175 0.261688
0.125708 0.408854 0.075899
0.133766 0.408003 0.077070
0.141917 0.406979 0.078215
0.147781 0.405719 0.078948
0.154024 0.404585 0.079609
0.164786 0.404386 0.081453
0.177478 0.404600 0.083863
0.192737 0.405467 0.086943
0.209752 0.406813 0.090283
0.228444 0.408531 0.094025
0.248915 0.410677 0.098361
0.270945 0.413313 0.103069
0.294582 0.416399 0.108429
0.319343 0.419960 0.114355
0.345165 0.424105 0.120730
0.371880 0.428614 0.127501
0.399320 0.433440 0.134678
0.427217 0.438765 0.142258
0.455670 0.444421 0.150144
0.484657 0.450362 0.158354
0.513987 0.456687 0.166835
0.543648 0.463292 0.175647
0.573768 0.470070 0.184694
0.604146 0.477238 0.193886
0.634818 0.484737 0.203501
0.665839 0.492427 0.213313
0.697138 0.500429 0.223481
0.728485 0.508708 0.233727
0.760195 0.517248 0.244413
0.791891 0.526047 0.255392
0.823968 0.535342 0.266630
0.855985 0.544582 0.277884
0.131931 0.437252 0.086148
0.140770 0.436499 0.087413
0.149658 0.435784 0.088802
0.155571 0.434353 0.089535
0.161576 0.433069 0.090197
0.172256 0.432857 0.092040
0.184875 0.432999 0.094450
0.200209 0.433865 0.097568
0.217565 0.435231 0.101121
0.236624 0.437056 0.105157
0.257472 0.439401 0.109745
0.279763 0.442266 0.114884
0.303596 0.445556 0.120644
0.328410 0.449344 0.126989
0.354232 0.453704 0.133810
0.380745 0.458435 0.140889
0.407925 0.463436 0.148370
0.435594 0.468750 0.156162
0.463798 0.474427 0.164279
0.492561 0.480390 0.172681
0.521738 0.486735 0.181358
0.551198 0.493314 0.190319
0.581119 0.500184 0.199511
0.611320 0.507401 0.208938
0.641819 0.514900 0.218813
0.672465 0.522659 0.228815
0.703473 0.530679 0.239088
0.734704 0.538958 0.249567
0.766104 0.547646 0.260514
0.797605 0.556461 0.271598
0.829428 0.565757 0.283086
0.861271 0.575084 0.294600
0.137808 0.465910 0.096309
0.147595 0.465330 0.097924
0.157052 0.464606 0.099389
0.163048 0.463256 0.100122
0.169106 0.461878 0.100784
0.179538 0.461515 0.102627
0.192079 0.461657 0.105038
0.207767 0.462562 0.108251
0.225555 0.464128 0.112264
0.245312 0.466213 0.116847
0.266778 0.468818 0.122079
0.289447 0.471943 0.127794
0.313443 0.475493 0.133932
0.338184 0.479436 0.140604
0.363827 0.483753 0.147630
0.390169 0.488432 0.154970
0.417088 0.493563 0.162622
0.444547 0.498956 0.170547
0.472569 0.504644 0.178833
0.501071 0.510591 0.187408
0.530039 0.516956 0.196315
0.559267 0.523628 0.205482
0.588927 0.530461 0.214786
0.618927 0.537650 0.224423
0.649186 0.545149 0.234559
0.679649 0.553049 0.244681
0.710560 0.561101 0.255259
0.741476 0.569380 0.266014
0.772689 0.578140 0.277065
0.804013 0.586963 0.288318
0.835580 0.596258 0.299894
0.866990 0.605758 0.311663
0.143424 0.494647 0.106574
0.153879 0.494141 0.108155
0.164035 0.493529 0.109807
0.170564 0.492262 0.110744
0.176910 0.491039 0.111757
0.187801 0.490643 0.113787
0.200650 0.490937 0.116455
0.216736 0.491900 0.120180
0.235101 0.493678 0.124573
0.255265 0.495889 0.129644
0.277115 0.498755 0.135282
0.299963 0.502076 0.141418
0.323818 0.505699 0.147961
0.348419 0.509685 0.154831
0.373907 0.513971 0.161971
0.400023 0.518698 0.169483
0.426775 0.523866 0.177358
0.454066 0.529206 0.185498
0.481859 0.534893 0.193921
0.510213 0.540952 0.202726
0.538874 0.547270 0.211777
0.567899 0.553925 0.221140
0.597359 0.560860 0.230654
0.627098 0.568081 0.240530
0.657237 0.575580 0.250786
0.687538 0.583390 0.261070
0.718110 0.591573 0.271803
0.748844 0.599882 0.282800
0.779875 0.608642 0.294047
0.810946 0.617634 0.305554
0.842252 0.626941 0.317321
0.873331 0.636331 0.329166
0.148781 0.523573 0.116720
0.159948 0.523075 0.118429
0.170701 0.522707 0.120171
0.178035 0.521465 0.121551
0.185414 0.520494 0.122954
0.197301 0.520303 0.125799
0.211170 0.520845 0.129105
0.227807 0.521974 0.133387
0.246384 0.523850 0.138203
0.266698 0.526220 0.143582
0.288418 0.529089 0.149480
0.311158 0.532325 0.155831
0.334875 0.535949 0.162480
0.359242 0.539935 0.169468
0.384592 0.544305 0.176831
0.410551 0.549075 0.184573
0.437076 0.554145 0.192611
0.464137 0.559455 0.200915
0.491780 0.565142 0.209461
0.519875 0.571240 0.218447
0.548308 0.577541 0.227717
0.577161 0.584302 0.237189
0.606515 0.591343 0.246902
0.636049 0.598582 0.257039
0.665830 0.606081 0.267360
0.695994 0.613841 0.278000
0.726290 0.622065 0.288977
0.756809 0.630548 0.300059
0.787588 0.639332 0.311542
0.818398 0.648206 0.323132
0.849445 0.657688 0.335147
0.880452 0.667021 0.347379
0.154272 0.552759 0.127000
0.166827 0.552460 0.129177
0.178905 0.552170 0.131523
0.187417 0.551302 0.133419
0.195836 0.550413 0.135306
0.208366 0.550451 0.138777
0.222867 0.551088 0.142612
0.239886 0.552420 0.147255
0.258731 0.554311 0.152526
0.278867 0.556721 0.158165
0.300390 0.559573 0.164260
0.322953 0.562771 0.170719
0.346394 0.566395 0.177494
0.370621 0.570381 0.184588
0.395736 0.574688 0.192123
0.421465 0.579353 0.200017
0.447832 0.584395 0.208185
0.474728 0.589812 0.216627
0.502143 0.595589 0.225401
0.530088 0.601565 0.234503
0.558351 0.607918 0.243957
0.586963 0.614653 0.253653
0.616096 0.621647 0.263608
0.645385 0.629033 0.274005
0.675017 0.636583 0.284543
0.704838 0.644342 0.295317
0.734846 0.652566 0.306361
0.765105 0.661097 0.317795
0.795623 0.669889 0.329379
0.826174 0.678895 0.341159
0.857151 0.688249 0.353430
0.887959 0.697775 0.365780
0.160636 0.582000 0.137540
0.175394 0.582376 0.140874
0.189823 0.582488 0.144393
0.199843 0.581728 0.147021
0.209582 0.581058 0.149587
0.222289 0.581282 0.153334
0.236323 0.581716 0.157297
0.253143 0.582922 0.162118
0.271679 0.584812 0.167369
0.291614 0.587163 0.173209
0.312972 0.589870 0.179404
0.335224 0.593068 0.186018
0.358525 0.596691 0.192982
0.382607 0.600677 0.200347
0.407580 0.604963 0.208001
0.433049 0.609603 0.216031
0.459180 0.614750 0.224329
0.485951 0.620180 0.233008
0.513198 0.625885 0.242043
0.540912 0.631958 0.251251
0.568933 0.638270 0.260867
0.597424 0.645056 0.270823
0.626217 0.652101 0.280893
0.655339 0.659370 0.291339
0.684799 0.667038 0.302085
0.714333 0.674843 0.313080
0.744244 0.683067 0.324508
0.774275 0.691599 0.335912
0.804534 0.700390 0.347851
0.834824 0.709441 0.359906
0.865586 0.718950 0.372438
0.896136 0.728528 0.384797
0.168467 0.611666 0.149191
0.185348 0.612389 0.153599
0.201902 0.613004 0.157976
0.213463 0.612467 0.161384
0.224353 0.612001 0.164638
0.236821 0.612068 0.168419
0.250351 0.612462 0.172390
0.266902 0.613588 0.177282
0.285147 0.615259 0.182678
0.304834 0.617502 0.188608
0.325947 0.620263 0.194966
0.347926 0.623393 0.201682
0.371074 0.627071 0.208815
0.394953 0.630927 0.216317
0.419566 0.635212 0.224113
0.444878 0.639955 0.232266
0.470858 0.645122 0.240805
0.497390 0.650447 0.249628
