gsg/04_Specialty/GSG_LUT_Specialty_PhotoAlbum.cube
# GSG LUTs 1.0
# Copyright (c) 2016-2020 Greyscalegorilla
# See EULA for licensing and distribution information
# Converted by Briz LUT Converter
LUT_3D_SIZE 32
0.043712 0.043712 0.043712
0.066753 0.041695 0.041695
0.093206 0.039647 0.039631
0.123628 0.037103 0.036835
0.158762 0.034298 0.033715
0.198716 0.031195 0.029895
0.242641 0.027618 0.025720
0.289354 0.023837 0.020875
0.337248 0.020056 0.015834
0.385072 0.016275 0.010792
0.432321 0.012572 0.005672
0.478443 0.009043 0.001418
0.523502 0.005514 0.000000
0.567309 0.002088 0.000000
0.609563 0.000134 0.000000
0.648509 0.000000 0.000000
0.683926 0.000000 0.000000
0.717019 0.000000 0.000000
0.748293 0.000000 0.000000
0.778345 0.000000 0.000000
0.807617 0.000000 0.000000
0.836441 0.000000 0.000000
0.865178 0.000000 0.000000
0.894096 0.000000 0.000000
0.923085 0.000000 0.000000
0.952665 0.000000 0.000000
0.982615 0.000000 0.000000
0.998361 0.000000 0.000000
1.000000 0.000000 0.000000
1.000000 0.000000 0.000000
1.000000 0.000000 0.000000
1.000000 0.000000 0.000000
0.047761 0.059656 0.047753
0.063086 0.062834 0.040128
0.088706 0.061153 0.036880
0.119106 0.058877 0.033800
0.154231 0.056300 0.030406
0.194218 0.053198 0.026324
0.238349 0.049629 0.021928
0.285068 0.045856 0.017015
0.333026 0.042081 0.011722
0.381029 0.038371 0.006442
0.428353 0.034842 0.001921
0.474560 0.031313 0.000000
0.519556 0.027878 0.000000
0.563409 0.024605 0.000000
0.605522 0.021442 0.000000
0.644468 0.018539 0.000000
0.680007 0.016023 0.000000
0.713080 0.013754 0.000000
0.744244 0.011627 0.000000
0.774146 0.009615 0.000000
0.803324 0.007602 0.000000
0.832303 0.005751 0.000000
0.860940 0.003986 0.000000
0.889606 0.002227 0.000000
0.918715 0.001014 0.000000
0.947947 0.000750 0.000000
0.977801 0.000694 0.000000
0.997740 0.000644 0.000000
1.000000 0.000595 0.000000
1.000000 0.000547 0.000000
1.000000 0.000505 0.000000
1.000000 0.000465 0.000000
0.052361 0.077727 0.052054
0.063932 0.082724 0.045661
0.085560 0.084625 0.035776
0.115093 0.083009 0.031236
0.149929 0.080693 0.027108
0.189694 0.077658 0.022698
0.233854 0.074347 0.017784
0.280752 0.070818 0.012471
0.328709 0.067230 0.007173
0.376648 0.063531 0.002432
0.423887 0.060007 0.000000
0.470243 0.056495 0.000000
0.515239 0.053070 0.000000
0.559093 0.049896 0.000000
0.601205 0.046878 0.000000
0.640144 0.044098 0.000000
0.675552 0.041703 0.000000
0.708503 0.039443 0.000000
0.739659 0.037323 0.000000
0.769552 0.035456 0.000000
0.798714 0.033544 0.000000
0.827377 0.031699 0.000000
0.855856 0.029945 0.000000
0.884505 0.028355 0.000000
0.913403 0.026662 0.000000
0.942410 0.025097 0.000000
0.972185 0.023407 0.000000
0.997015 0.021860 0.000000
1.000000 0.020347 0.000000
1.000000 0.018850 0.000000
1.000000 0.017575 0.000000
1.000000 0.016330 0.000000
0.057954 0.098704 0.056615
0.068197 0.104466 0.050749
0.085458 0.108232 0.041764
0.111944 0.109663 0.029871
0.145952 0.108269 0.024006
0.185415 0.105735 0.018831
0.229315 0.102644 0.013422
0.276004 0.099159 0.007804
0.323943 0.095654 0.002618
0.371942 0.092149 0.000000
0.419245 0.088716 0.000000
0.465430 0.085447 0.000000
0.510417 0.082194 0.000000
0.554256 0.079034 0.000000
0.596347 0.076130 0.000000
0.635149 0.073489 0.000000
0.670428 0.071106 0.000000
0.703242 0.068983 0.000000
0.734281 0.066980 0.000000
0.764024 0.065123 0.000000
0.792950 0.063358 0.000000
0.821671 0.061610 0.000000
0.850020 0.060026 0.000000
0.878420 0.058350 0.000000
0.906905 0.056780 0.000000
0.936120 0.055287 0.000000
0.965394 0.053984 0.000000
0.995466 0.052511 0.000000
0.999927 0.051041 0.000000
1.000000 0.049762 0.000000
1.000000 0.048524 0.000000
1.000000 0.047509 0.000000
0.064099 0.123093 0.061468
0.073838 0.129113 0.055814
0.088963 0.134133 0.047594
0.111217 0.137651 0.035809
0.143033 0.138806 0.022150
0.181678 0.137206 0.014955
0.225265 0.134497 0.008793
0.271693 0.131457 0.003129
0.319429 0.128229 0.000000
0.367331 0.124961 0.000000
0.414384 0.121716 0.000000
0.460409 0.118559 0.000000
0.505277 0.115566 0.000000
0.548949 0.112574 0.000000
0.590809 0.109802 0.000000
0.629336 0.107314 0.000000
0.664468 0.105061 0.000000
0.697126 0.103062 0.000000
0.727990 0.101220 0.000000
0.757608 0.099468 0.000000
0.786481 0.097744 0.000000
0.814987 0.096168 0.000000
0.842932 0.094678 0.000000
0.871157 0.093174 0.000000
0.899601 0.091686 0.000000
0.928251 0.090378 0.000000
0.957365 0.089144 0.000000
0.987156 0.087703 0.000000
0.999119 0.086636 0.000000
1.000000 0.085429 0.000000
1.000000 0.084407 0.000000
1.000000 0.083461 0.000000
0.071062 0.151042 0.066761
0.080724 0.157078 0.060908
0.094553 0.162674 0.053149
0.114204 0.167647 0.042128
0.142090 0.170899 0.027855
0.178754 0.171853 0.012558
0.221577 0.170286 0.004383
0.267682 0.167617 0.000000
0.315148 0.164769 0.000000
0.362760 0.161633 0.000000
0.409621 0.158648 0.000000
0.455530 0.155751 0.000000
0.500138 0.153019 0.000000
0.543550 0.150286 0.000000
0.585149 0.147757 0.000000
0.623416 0.145526 0.000000
0.658268 0.143445 0.000000
0.690529 0.141603 0.000000
0.721015 0.139998 0.000000
0.750332 0.138384 0.000000
0.778792 0.136965 0.000000
0.806792 0.135566 0.000000
0.834518 0.134267 0.000000
0.862347 0.132896 0.000000
0.890404 0.131623 0.000000
0.918744 0.130403 0.000000
0.947524 0.129355 0.000000
0.976672 0.128203 0.000000
0.997918 0.127209 0.000000
0.999987 0.126241 0.000000
1.000000 0.125312 0.000000
1.000000 0.124794 0.000000
0.078971 0.181969 0.072008
0.088360 0.188066 0.066062
0.101460 0.194090 0.058394
0.119570 0.199672 0.048124
0.144547 0.204473 0.034628
0.177632 0.207670 0.017545
0.218885 0.208560 0.002300
0.264264 0.206835 0.000000
0.311343 0.204349 0.000000
0.358529 0.201674 0.000000
0.405082 0.198983 0.000000
0.450698 0.196346 0.000000
0.495046 0.193874 0.000000
0.538178 0.191402 0.000000
0.579489 0.189040 0.000000
0.617474 0.187057 0.000000
0.651935 0.185341 0.000000
0.683837 0.183733 0.000000
0.713943 0.182248 0.000000
0.742789 0.180934 0.000000
0.770879 0.179722 0.000000
0.798431 0.178511 0.000000
0.825637 0.177473 0.000000
0.852910 0.176513 0.000000
0.880313 0.175590 0.000000
0.908020 0.174641 0.000000
0.936050 0.173721 0.000000
0.964734 0.172982 0.000000
0.993613 0.172275 0.000000
0.999763 0.171612 0.000000
1.000000 0.171189 0.000000
1.000000 0.170783 0.000000
0.087290 0.214959 0.076994
0.096528 0.221255 0.070661
0.109336 0.227365 0.063208
0.126545 0.233505 0.053351
0.149386 0.239274 0.040423
0.179648 0.243851 0.024206
0.217764 0.246935 0.006696
0.261848 0.247400 0.000000
0.308248 0.245733 0.000000
0.355019 0.243562 0.000000
0.401069 0.241290 0.000000
0.446272 0.238950 0.000000
0.490304 0.236738 0.000000
0.533035 0.234549 0.000000
0.573915 0.232480 0.000000
0.611514 0.230730 0.000000
0.645585 0.229246 0.000000
0.677200 0.227790 0.000000
0.707014 0.226477 0.000000
0.735509 0.225423 0.000000
0.763169 0.224471 0.000000
0.790220 0.223520 0.000000
0.816945 0.222703 0.000000
0.843567 0.221987 0.000000
0.870509 0.221477 0.000000
0.897410 0.220833 0.000000
0.924678 0.220339 0.000000
0.952370 0.219939 0.000000
0.980614 0.219549 0.000000
0.998921 0.219387 0.000000
1.000000 0.219485 0.000000
1.000000 0.219599 0.000000
0.095671 0.248801 0.081657
0.105093 0.255166 0.075326
0.117669 0.261487 0.067931
0.134085 0.268083 0.058057
0.155885 0.274380 0.045658
0.184054 0.280028 0.030532
0.219295 0.284507 0.012754
0.260850 0.287096 0.000244
0.306226 0.287348 0.000000
0.352289 0.285895 0.000000
0.397859 0.284033 0.000000
0.442627 0.282082 0.000000
0.486138 0.280154 0.000000
0.528376 0.278317 0.000000
0.568744 0.276610 0.000000
0.605879 0.275063 0.000000
0.639559 0.273742 0.000000
0.670754 0.272546 0.000000
0.700141 0.271493 0.000000
0.728025 0.270661 0.000000
0.755214 0.269945 0.000000
0.781812 0.269254 0.000000
0.808150 0.268563 0.000000
0.834307 0.268053 0.000000
0.860533 0.267754 0.000000
0.886857 0.267406 0.000000
0.913552 0.267184 0.000000
0.940384 0.267210 0.000000
0.967774 0.267275 0.000000
0.994963 0.267569 0.000000
0.999892 0.268122 0.000000
1.000000 0.268754 0.000000
0.104171 0.282831 0.085943
0.113593 0.289377 0.079613
0.126133 0.295715 0.072258
0.141986 0.302578 0.062484
0.163089 0.309269 0.050771
0.189750 0.315750 0.036010
0.222843 0.321186 0.018338
0.261740 0.325158 0.002482
0.305141 0.327317 0.000000
0.350339 0.327454 0.000000
0.395330 0.326384 0.000000
0.439430 0.324741 0.000000
0.482375 0.323144 0.000000
0.524138 0.321632 0.000000
0.563968 0.320202 0.000000
0.600483 0.319015 0.000000
0.633737 0.317954 0.000000
0.664399 0.317019 0.000000
0.693248 0.316225 0.000000
0.720702 0.315542 0.000000
0.747352 0.314971 0.000000
0.773404 0.314515 0.000000
0.799172 0.314084 0.000000
0.824787 0.313834 0.000000
0.850353 0.313655 0.000000
0.876058 0.313673 0.000000
0.902067 0.313746 0.000000
0.928226 0.314032 0.000000
0.954686 0.314358 0.000000
0.981415 0.314911 0.000000
0.999111 0.315794 0.000000
1.000000 0.316870 0.000000
0.112411 0.316625 0.090149
0.121987 0.323098 0.083887
0.134447 0.329599 0.076225
0.150160 0.336665 0.066871
0.170542 0.343773 0.055303
0.196215 0.350568 0.041201
0.227670 0.356673 0.024568
0.264508 0.361682 0.007886
0.305513 0.365285 0.000000
0.349257 0.367124 0.000000
0.393535 0.367255 0.000000
0.437000 0.366258 0.000000
0.479281 0.365023 0.000000
0.520403 0.363844 0.000000
0.559612 0.362775 0.000000
0.595569 0.361848 0.000000
0.628221 0.361047 0.000000
0.658325 0.360372 0.000000
0.686552 0.359794 0.000000
0.713520 0.359338 0.000000
0.739605 0.358966 0.000000
0.765022 0.358683 0.000000
0.790176 0.358543 0.000000
0.815186 0.358517 0.000000
0.840149 0.358578 0.000000
0.865113 0.358857 0.000000
0.890487 0.359190 0.000000
0.915742 0.359736 0.000000
0.941399 0.360322 0.000000
0.967126 0.361209 0.000000
0.992855 0.362448 0.000000
1.000000 0.363709 0.000000
0.120477 0.349726 0.094183
0.130209 0.356212 0.087918
0.142587 0.362866 0.080424
0.158186 0.369956 0.071111
0.178103 0.377335 0.059944
0.203038 0.384519 0.046610
0.233379 0.391259 0.030764
0.268365 0.397050 0.013448
0.307356 0.401581 0.000964
0.349213 0.404751 0.000000
0.392263 0.406127 0.000000
0.434977 0.406252 0.000000
0.476641 0.405636 0.000000
0.517052 0.404771 0.000000
0.555651 0.403962 0.000000
0.590960 0.403295 0.000000
0.622921 0.402755 0.000000
0.652424 0.402340 0.000000
0.680081 0.401975 0.000000
0.706438 0.401747 0.000000
0.731969 0.401686 0.000000
0.756754 0.401579 0.000000
0.781390 0.401702 0.000000
0.805715 0.401901 0.000000
0.829965 0.402202 0.000000
0.854238 0.402670 0.000000
0.878630 0.403247 0.000000
0.902911 0.404054 0.000000
0.927531 0.404899 0.000000
0.951988 0.406121 0.000000
0.976507 0.407465 0.000000
0.996621 0.408815 0.000000
0.128449 0.382213 0.098310
0.137965 0.388915 0.091741
0.150494 0.395447 0.084572
0.166048 0.402543 0.075621
0.185730 0.410032 0.065096
0.209896 0.417629 0.051984
0.239298 0.424769 0.036958
0.272988 0.431188 0.020291
0.310263 0.436459 0.005172
0.350200 0.440431 0.000000
0.391717 0.443115 0.000000
0.433469 0.444427 0.000000
0.474369 0.444567 0.000000
0.514057 0.444232 0.000000
0.551917 0.443684 0.000000
0.586574 0.443277 0.000000
0.617917 0.442997 0.000000
0.646854 0.442842 0.000000
0.673899 0.442774 0.000000
0.699573 0.442832 0.000000
0.724462 0.442930 0.000000
0.748692 0.443092 0.000000
0.772562 0.443326 0.000000
0.796079 0.443829 0.000000
0.819451 0.444358 0.000000
0.842890 0.444938 0.000000
0.866177 0.445745 0.000000
0.889343 0.446729 0.000000
0.912799 0.447823 0.000000
0.936528 0.449157 0.000000
0.960425 0.450660 0.000000
0.984426 0.452361 0.002080
0.136161 0.414022 0.102596
0.146028 0.420379 0.096231
0.158432 0.427214 0.089069
0.173601 0.434497 0.080261
0.193157 0.441963 0.070283
0.216974 0.449738 0.057904
0.245507 0.457198 0.043519
0.278099 0.464050 0.028128
0.313996 0.469997 0.012068
0.352220 0.474673 0.001381
0.391954 0.478250 0.000000
0.432441 0.480722 0.000000
0.472385 0.481886 0.000000
0.511321 0.482215 0.000000
0.548469 0.482105 0.000000
0.582426 0.481959 0.000000
0.613042 0.481939 0.000000
0.641330 0.482044 0.000000
0.667808 0.482150 0.000000
0.692899 0.482343 0.000000
0.717065 0.482661 0.000000
0.740478 0.483115 0.000000
0.763298 0.483591 0.000000
0.785855 0.484189 0.000000
0.808231 0.484888 0.000000
0.830592 0.485636 0.000000
0.853253 0.486597 0.000000
0.875857 0.487694 0.000000
0.898787 0.489029 0.001942
0.921899 0.490527 0.005216
0.945224 0.492139 0.008698
0.968703 0.494246 0.015715
0.143503 0.444649 0.106991
0.153546 0.450940 0.100810
0.166024 0.457672 0.093992
0.181117 0.465050 0.085499
0.200228 0.472843 0.075405
0.223841 0.480635 0.063989
0.251777 0.488264 0.050800
0.283360 0.495548 0.036058
0.317956 0.502014 0.020266
0.354797 0.507220 0.006598
0.392902 0.511411 0.000224
0.431921 0.514805 0.000000
0.470887 0.516977 0.000000
0.508909 0.517994 0.000000
0.545263 0.518555 0.000000
0.578500 0.518790 0.000000
0.608465 0.518973 0.000000
0.636034 0.519285 0.000000
0.661636 0.519651 0.000000
0.685778 0.520017 0.000000
0.709007 0.520469 0.000000
0.731482 0.521048 0.000000
0.753421 0.521761 0.000000
0.775238 0.522418 0.000000
0.797159 0.523329 0.000000
0.819006 0.524229 0.002135
0.841140 0.525304 0.005422
0.863347 0.526543 0.008741
0.885775 0.528024 0.014981
0.908337 0.529640 0.023122
0.931170 0.531502 0.031759
0.954240 0.533759 0.041175
0.150325 0.472961 0.111529
0.160239 0.479400 0.105230
0.172870 0.486108 0.098940
0.188061 0.493348 0.090841
0.206871 0.501200 0.081106
0.230112 0.509221 0.070236
0.257601 0.517011 0.058142
0.288465 0.524531 0.044349
0.322034 0.531274 0.029917
0.357608 0.537049 0.015593
0.394415 0.541714 0.004098
0.431920 0.545730 0.000000
0.469704 0.548617 0.000000
0.506890 0.550513 0.000000
0.542392 0.551670 0.000000
0.574914 0.552369 0.000000
0.603984 0.552804 0.000000
0.630471 0.553247 0.000000
0.655091 0.553820 0.000000
0.678371 0.554374 0.000000
0.700873 0.554954 0.000000
0.722855 0.555666 0.000400
0.744407 0.556422 0.002603
0.765929 0.557266 0.005706
0.787394 0.558242 0.008969
0.808924 0.559345 0.014797
0.830587 0.560581 0.022167
0.852377 0.561945 0.029825
0.874406 0.563548 0.038277
0.896585 0.565300 0.046958
0.919004 0.567301 0.056237
0.940864 0.570271 0.064981
0.156627 0.498925 0.116066
0.166655 0.505120 0.110138
0.178928 0.512072 0.103636
0.194262 0.519288 0.096118
0.213217 0.526945 0.087408
0.235849 0.535205 0.076660
0.262899 0.543149 0.065346
0.293112 0.550902 0.052505
0.325966 0.557807 0.039505
0.360556 0.563916 0.026330
0.396151 0.569060 0.013909
0.432355 0.573466 0.003830
0.468887 0.576891 0.000154
0.505166 0.579620 0.000000
0.539749 0.581403 0.000000
0.571023 0.582423 0.000000
0.599118 0.583249 0.000000
0.624762 0.583875 0.000000
0.648822 0.584521 0.000732
0.671789 0.585205 0.003037
0.693949 0.585915 0.006030
0.715626 0.586671 0.009593
0.736918 0.587517 0.015138
0.758086 0.588491 0.021717
0.779161 0.589597 0.028688
0.800403 0.590831 0.035951
0.821699 0.592197 0.043679
0.843098 0.593690 0.051927
0.864851 0.595423 0.060688
0.886652 0.597306 0.069746
0.908071 0.599925 0.078684
0.928890 0.603797 0.085651
0.162409 0.522943 0.120737
0.172426 0.529279 0.115040
0.184850 0.535966 0.108866
0.200042 0.543322 0.101724
0.218953 0.550979 0.093528
0.241298 0.559280 0.083528
0.267856 0.567432 0.072785
0.297613 0.575286 0.061087
0.329682 0.582586 0.048898
0.363411 0.588775 0.037329
0.397976 0.594206 0.026144
0.433092 0.599000 0.014928
0.468353 0.602869 0.006563
0.503176 0.606105 0.003154
0.536539 0.608458 0.001538
0.566952 0.609959 0.001840
0.594474 0.611036 0.004052
0.619859 0.611924 0.006411
0.643588 0.612691 0.010084
0.666238 0.613447 0.015392
0.688062 0.614289 0.021536
0.709437 0.615093 0.027945
0.730552 0.616023 0.034559
0.751407 0.617130 0.041532
0.772191 0.618362 0.048889
0.793065 0.619623 0.056642
0.814075 0.621088 0.064778
0.835228 0.622717 0.073408
0.856723 0.624467 0.082459
0.877762 0.626961 0.091388
0.897827 0.630583 0.098578
0.918855 0.634472 0.104526
0.167813 0.545709 0.125527
0.177726 0.552259 0.119874
0.190337 0.558750 0.114152
0.205550 0.565942 0.107795
0.224105 0.573855 0.099607
0.246391 0.582151 0.090484
0.272563 0.590311 0.080677
0.301870 0.598322 0.069932
0.333350 0.605748 0.059072
0.366216 0.612247 0.048562
0.399919 0.617970 0.038597
0.433855 0.622871 0.029624
0.467614 0.627004 0.022887
0.500909 0.630408 0.018535
0.533275 0.633253 0.015488
0.563401 0.635410 0.014745
0.590606 0.636837 0.017461
0.615669 0.637914 0.022133
0.639206 0.638863 0.027443
0.661522 0.639766 0.033496
0.683123 0.640734 0.040143
0.704192 0.641673 0.046880
0.725001 0.642648 0.053955
0.745596 0.643838 0.061247
0.766229 0.645098 0.068966
0.786785 0.646473 0.076986
0.807633 0.647966 0.085495
0.828521 0.649691 0.094408
0.849496 0.651711 0.103563
0.869039 0.655309 0.110997
0.888959 0.659188 0.117122
0.910379 0.662972 0.122644
0.173106 0.567695 0.130765
0.183021 0.574244 0.125236
0.195672 0.580688 0.120130
0.210791 0.587863 0.113735
0.229277 0.595691 0.106462
0.251368 0.603994 0.098145
0.277115 0.612234 0.089028
0.305929 0.620421 0.079102
0.336825 0.627910 0.069496
0.369022 0.634617 0.060278
0.401766 0.640632 0.051892
0.434385 0.645447 0.046746
0.466910 0.649626 0.043257
0.499217 0.653298 0.040456
0.530794 0.656509 0.038254
0.560351 0.659155 0.036451
0.587372 0.661102 0.036747
0.612199 0.662456 0.040764
0.635448 0.663618 0.046225
0.657605 0.664689 0.052073
0.678991 0.665698 0.058841
0.699815 0.666706 0.065854
0.720379 0.667821 0.073441
0.740714 0.669054 0.081020
0.761167 0.670430 0.088936
0.781486 0.671921 0.097365
0.802033 0.673433 0.106258
0.822825 0.675289 0.115318
0.842163 0.678460 0.123041
0.861141 0.682378 0.129318
0.881522 0.686316 0.135084
0.903312 0.689952 0.140242
0.178243 0.589216 0.136311
0.188460 0.595457 0.131564
0.200743 0.602117 0.126326
0.215826 0.609303 0.120296
0.234243 0.616960 0.113767
0.256196 0.625304 0.106120
0.281573 0.633755 0.097603
0.309921 0.641963 0.088893
0.340183 0.649566 0.080199
0.371624 0.656235 0.073462
0.403435 0.661920 0.069072
0.435155 0.666920 0.066133
0.466899 0.671375 0.063974
0.498456 0.675300 0.061836
0.529189 0.678680 0.060610
0.558016 0.681631 0.059520
0.584581 0.684018 0.059134
0.609280 0.685926 0.060881
0.632376 0.687309 0.065581
0.654319 0.688450 0.071505
0.675497 0.689621 0.078106
0.696148 0.690792 0.085353
0.716482 0.692024 0.093094
0.736673 0.693284 0.101103
0.756907 0.694734 0.109287
0.776965 0.696246 0.118107
0.797306 0.697891 0.127033
0.816640 0.700678 0.135122
0.835197 0.704581 0.141422
0.854586 0.708386 0.147179
0.875335 0.712251 0.152735
0.897389 0.715790 0.157478
0.183284 0.610312 0.142353
0.193512 0.616540 0.138055
0.205847 0.623063 0.133278
0.220710 0.630462 0.127293
0.239177 0.637969 0.121804
0.260918 0.646327 0.114678
0.285847 0.654883 0.106748
0.313713 0.663187 0.099343
0.343517 0.670599 0.093523
0.374200 0.677034 0.089749
0.405368 0.682672 0.087614
0.436536 0.687904 0.085509
0.467640 0.692505 0.084344
0.498502 0.696552 0.083387
0.528540 0.700142 0.082721
0.556672 0.703353 0.082568
0.582587 0.705959 0.083256
0.606912 0.708185 0.084000
0.629934 0.710093 0.086211
0.651770 0.711529 0.091525
0.672775 0.712789 0.098239
0.693196 0.714049 0.105430
0.713270 0.715427 0.113229
0.733266 0.716736 0.121454
0.753261 0.718185 0.130029
0.773327 0.719831 0.138880
0.792434 0.722274 0.147163
0.810553 0.725949 0.153594
0.829272 0.729812 0.159581
0.849011 0.733601 0.164857
0.870025 0.737382 0.170061
0.892505 0.740919 0.174619
0.188152 0.631407 0.149002
0.198312 0.637536 0.144727
0.210969 0.643905 0.140719
0.225803 0.651316 0.135464
0.243862 0.659043 0.129931
0.265509 0.667222 0.124068
0.290275 0.675580 0.117721
0.317879 0.683572 0.112896
0.347113 0.690703 0.110174
0.377296 0.697302 0.107859
0.407877 0.703021 0.106697
0.438580 0.708307 0.105868
0.469022 0.712974 0.105518
0.499242 0.717306 0.105445
0.528624 0.721178 0.105477
0.556191 0.724471 0.106352
0.581545 0.727297 0.107844
0.605356 0.729733 0.109051
0.627984 0.731961 0.110674
0.649781 0.733920 0.113473
0.670691 0.735493 0.119004
0.690969 0.736815 0.126259
0.710838 0.738249 0.134022
0.730702 0.739709 0.142348
0.750482 0.741203 0.151223
0.769576 0.743332 0.159526
0.787433 0.746802 0.166233
0.805437 0.750639 0.172060
0.824395 0.754586 0.177443
0.844556 0.758221 0.182674
0.865842 0.761824 0.187392
0.888487 0.765355 0.191760
0.193123 0.652582 0.156351
0.203273 0.658821 0.152263
0.215676 0.665151 0.148477
0.230878 0.672017 0.144476
0.248580 0.680027 0.139138
0.270198 0.688103 0.134551
0.294778 0.696153 0.130993
0.322187 0.703706 0.128793
0.351145 0.710671 0.127634
0.380892 0.717211 0.126772
0.410995 0.723187 0.126424
0.441143 0.728537 0.126380
0.471065 0.733419 0.126667
0.500700 0.737889 0.127634
0.529625 0.741820 0.128868
0.556584 0.745212 0.130539
0.581418 0.748205 0.132458
0.604696 0.750897 0.134154
0.626828 0.753247 0.136293
0.648200 0.755478 0.139025
0.669114 0.757483 0.142469
0.689373 0.759204 0.148065
0.709134 0.760755 0.155637
0.728843 0.762267 0.164047
0.747960 0.764200 0.172435
0.765597 0.767354 0.179339
0.783121 0.771279 0.185117
0.801497 0.775099 0.190570
0.820739 0.778938 0.195496
0.841057 0.782496 0.200409
0.862596 0.786025 0.204620
0.885431 0.789555 0.208901
0.198165 0.673756 0.164481
0.208122 0.680247 0.160461
0.220410 0.686565 0.156916
0.235742 0.693224 0.153880
0.253559 0.700900 0.150169
0.275197 0.708577 0.148118
0.299833 0.716231 0.146866
0.327039 0.723641 0.146023
0.355868 0.730475 0.146263
0.385112 0.737099 0.146220
0.414780 0.743225 0.146498
0.444448 0.748726 0.147170
0.473890 0.753600 0.148490
0.503146 0.758125 0.150411
0.531477 0.762267 0.152279
0.557977 0.765877 0.154462
0.582290 0.769097 0.156966
0.605056 0.771854 0.159702
0.626761 0.774233 0.162910
0.647716 0.776618 0.166018
0.668321 0.778924 0.168746
0.688448 0.780970 0.172791
0.708189 0.782891 0.178610
0.727570 0.784653 0.186545
0.745207 0.787806 0.193128
0.762141 0.791555 0.198692
0.779803 0.795541 0.204064
0.798330 0.799362 0.209037
0.817816 0.802972 0.213670
0.838512 0.806507 0.218087
0.860319 0.810219 0.222143
0.883414 0.813565 0.225854
0.203206 0.695325 0.173587
0.213318 0.701668 0.170001
0.225988 0.707769 0.167778
0.241363 0.713992 0.166801
0.259559 0.721021 0.165532
0.281035 0.728551 0.164544
0.305669 0.735949 0.164300
0.332583 0.743434 0.164541
0.361027 0.750546 0.164905
0.389897 0.757267 0.165440
0.419126 0.763424 0.166777
0.448494 0.768835 0.168827
0.477550 0.773941 0.170809
0.506330 0.778561 0.173327
0.534109 0.782882 0.175776
0.560210 0.786450 0.179051
0.584207 0.789625 0.182511
0.606551 0.792599 0.185724
0.627874 0.795155 0.189523
0.648425 0.797574 0.193065
0.668405 0.799937 0.196658
0.688282 0.802307 0.200443
0.707883 0.804591 0.204878
0.725665 0.808090 0.208584
0.742424 0.811963 0.213071
0.759576 0.815755 0.218117
0.777525 0.819576 0.223042
0.796436 0.823364 0.228018
0.816201 0.826925 0.232257
0.837208 0.830454 0.236343
0.859279 0.834029 0.239808
0.882634 0.837315 0.242940
0.208452 0.717413 0.183938
0.219434 0.722472 0.183152
0.232208 0.728323 0.182247
0.247745 0.734464 0.182102
0.265703 0.741470 0.181473
0.287462 0.748491 0.181786
0.311954 0.755981 0.182481
0.338835 0.763369 0.183472
0.366665 0.770765 0.184104
0.395380 0.777473 0.185682
0.424474 0.783396 0.188140
0.453377 0.789119 0.190506
0.482129 0.794234 0.193801
0.510434 0.798914 0.197269
0.537930 0.803236 0.200855
0.563534 0.806893 0.204890
0.587164 0.810149 0.208968
0.609110 0.813273 0.212553
0.629941 0.816111 0.216138
0.650117 0.818575 0.220187
0.669889 0.820992 0.224739
0.689300 0.823360 0.229368
0.706925 0.827095 0.231595
0.723628 0.831588 0.232913
0.740741 0.835876 0.234314
0.758273 0.839915 0.238064
0.776492 0.843564 0.242611
0.795526 0.847312 0.246866
0.815715 0.850872 0.250920
0.836811 0.854402 0.254378
0.859327 0.857732 0.257663
0.882949 0.861215 0.260286
0.215235 0.738320 0.198566
0.226387 0.743333 0.198552
0.239576 0.748529 0.199092
0.255163 0.754653 0.199282
0.273197 0.761515 0.199314
0.294647 0.768624 0.200263
0.319032 0.776180 0.201374
0.345575 0.783669 0.202956
0.373303 0.790831 0.204528
0.401877 0.797466 0.207204
0.430659 0.803809 0.209931
0.459256 0.809311 0.213606
0.487550 0.814416 0.217656
0.515604 0.819192 0.221857
0.542722 0.823632 0.226077
0.567922 0.827517 0.230446
0.591162 0.830904 0.234935
0.612826 0.833944 0.239591
