gsg/04_Specialty/GSG_LUT_Specialty_PulpSubtle.cube
# GSG LUTs 1.0
# Copyright (c) 2016-2020 Greyscalegorilla
# See EULA for licensing and distribution information
# Converted by Briz LUT Converter
LUT_3D_SIZE 8
DOMAIN_MIN 0.000000 0.000000 0.000000
DOMAIN_MAX 0.903226 0.903226 0.903226
0.000000 0.000000 0.000000
0.066422 0.000000 0.000000
0.160692 0.000000 0.001575
0.250865 0.002174 0.005396
0.349340 0.000000 0.009374
0.458175 0.000000 0.013187
0.567899 0.000000 0.021883
0.677522 0.000000 0.020269
0.006767 0.052511 0.006412
0.071932 0.046738 0.005815
0.160518 0.047821 0.001626
0.253183 0.053511 0.006264
0.351431 0.039636 0.010576
0.460439 0.012434 0.017597
0.568754 0.000183 0.016000
0.676631 0.000000 0.023145
0.018512 0.134287 0.017063
0.074730 0.125164 0.009870
0.160484 0.115862 0.009667
0.255763 0.118645 0.010879
0.357329 0.111695 0.015645
0.465069 0.099406 0.015394
0.571861 0.077635 0.021222
0.680289 0.033917 0.022340
0.044326 0.219150 0.034157
0.089511 0.204415 0.029818
0.165993 0.195502 0.021325
0.259736 0.184345 0.018513
0.358500 0.186605 0.020824
0.467631 0.182272 0.022202
0.574661 0.179377 0.025086
0.680589 0.168432 0.021786
0.017094 0.306589 0.051132
0.077461 0.292452 0.050842
0.169951 0.279021 0.043150
0.264126 0.270799 0.025655
0.363776 0.258339 0.026816
0.471635 0.258039 0.028620
0.578439 0.259706 0.023145
0.684584 0.259062 0.022101
0.000000 0.401434 0.061483
0.063502 0.384542 0.061043
0.171542 0.370583 0.061322
0.267919 0.361908 0.034062
0.370107 0.348009 0.036178
0.474023 0.339006 0.026146
0.581177 0.339770 0.023380
0.685686 0.342330 0.019156
0.000000 0.498105 0.067116
0.056085 0.479487 0.064601
0.175965 0.462969 0.070906
0.274376 0.453738 0.045843
0.376562 0.443890 0.024795
0.477982 0.432025 0.028717
0.584946 0.419167 0.018452
0.689919 0.420022 0.013440
0.000630 0.590531 0.078057
0.081677 0.570529 0.073099
0.191458 0.555858 0.076020
0.286961 0.543389 0.055823
0.382536 0.534500 0.026464
0.486326 0.523967 0.005991
0.591699 0.508348 0.011585
0.692338 0.497006 0.006285
0.000378 0.000000 0.071511
0.033251 0.005751 0.035816
0.127127 0.004831 0.024966
0.215461 0.006029 0.024608
0.308157 0.000640 0.017823
0.415066 0.000000 0.017721
0.524582 0.000000 0.021689
0.632617 0.000000 0.018599
0.006272 0.041310 0.047218
0.094256 0.093960 0.093420
0.178140 0.096605 0.080369
0.272780 0.097745 0.074671
0.376238 0.083061 0.069403
0.481668 0.065103 0.064111
0.589551 0.017079 0.059527
0.696222 0.001635 0.053839
0.018288 0.111588 0.056277
0.107219 0.169108 0.098847
0.182905 0.158236 0.080899
0.278480 0.163201 0.071766
0.381156 0.159195 0.065729
0.485867 0.154015 0.059046
0.593886 0.146270 0.049861
0.700972 0.125771 0.045674
0.035799 0.194378 0.069953
0.115869 0.249901 0.111178
0.187445 0.242282 0.091747
0.279833 0.231712 0.071574
0.382337 0.232732 0.065025
0.488294 0.234719 0.058300
0.596367 0.233471 0.044307
0.702848 0.228832 0.036462
0.026307 0.279044 0.083568
0.100778 0.343168 0.118860
0.189321 0.330366 0.101923
0.287267 0.319507 0.076129
0.386845 0.307285 0.061983
0.491511 0.310452 0.050088
0.598925 0.314449 0.038754
0.704208 0.314051 0.026465
0.002538 0.373160 0.089159
0.095453 0.434865 0.126226
0.194384 0.422234 0.110662
0.290161 0.412658 0.079819
0.392694 0.399875 0.056302
0.495275 0.387767 0.046097
0.601866 0.390145 0.031275
0.706343 0.396036 0.014036
0.003563 0.467408 0.097831
0.113130 0.528370 0.133457
0.203329 0.514797 0.119756
0.298475 0.504102 0.086635
0.400927 0.494437 0.048301
0.503073 0.480231 0.037065
0.605081 0.468270 0.019476
0.709358 0.472864 0.004454
0.015763 0.557710 0.106658
0.123433 0.619819 0.135078
0.219632 0.606842 0.124588
0.312002 0.594078 0.095693
0.406352 0.584243 0.046454
0.508718 0.572998 0.009293
0.610762 0.559971 0.001825
0.714606 0.547768 0.000964
0.000000 0.000000 0.154508
0.016658 0.000000 0.118414
0.089817 0.006576 0.079172
0.181673 0.003200 0.074572
0.270521 0.005239 0.068778
0.373092 0.000000 0.056354
0.480696 0.000000 0.057717
0.588970 0.000000 0.050832
0.002295 0.036395 0.133412
0.075862 0.093211 0.171236
0.150722 0.096570 0.139646
0.240529 0.100868 0.131457
0.336313 0.095776 0.126376
0.441637 0.083339 0.118452
0.550603 0.042797 0.111946
0.656727 0.007518 0.104759
0.016398 0.092887 0.113108
0.111023 0.148663 0.155049
0.208228 0.205487 0.191518
0.305291 0.208012 0.181211
0.406902 0.205547 0.174891
0.511042 0.204140 0.166967
0.616842 0.200764 0.162208
0.721345 0.195351 0.152868
0.030151 0.173854 0.116568
0.117756 0.231867 0.157963
0.215462 0.291582 0.198488
0.310501 0.282858 0.182527
0.411798 0.286573 0.170019
0.517053 0.287880 0.161708
0.622398 0.288598 0.154599
0.727511 0.287269 0.145863
0.028507 0.255430 0.123802
0.115998 0.318445 0.161410
0.223482 0.379199 0.204699
0.315589 0.372257 0.184931
0.413643 0.361699 0.166214
0.518462 0.363818 0.155465
0.622808 0.366994 0.145002
0.727758 0.370546 0.133845
0.014996 0.345922 0.131251
0.115251 0.410470 0.172183
0.231774 0.471482 0.213091
0.324826 0.464298 0.191171
0.420700 0.454024 0.165419
0.521688 0.441270 0.148651
0.625408 0.443887 0.135948
0.729496 0.448474 0.122861
0.005661 0.438472 0.141162
0.126837 0.502012 0.179675
0.244935 0.563066 0.218951
0.333782 0.555780 0.193377
0.426968 0.545815 0.163642
0.528453 0.533169 0.141293
0.629361 0.520990 0.122892
0.732400 0.524843 0.106871
0.009261 0.529940 0.148260
0.138779 0.593409 0.186004
0.258963 0.655753 0.224192
0.342900 0.647470 0.201982
0.434980 0.636759 0.166781
0.534453 0.625119 0.136077
0.636192 0.610572 0.114836
0.737374 0.599669 0.086258
0.002174 0.000000 0.236898
0.009712 0.000000 0.202013
0.070321 0.001313 0.164845
0.152358 0.000954 0.131206
0.235111 0.007428 0.120239
0.332187 0.001899 0.112943
0.437944 0.000000 0.108996
0.544304 0.000000 0.103944
0.001459 0.039476 0.216263
0.051851 0.094544 0.253709
0.131257 0.094580 0.221812
0.208830 0.100179 0.186549
0.299783 0.100873 0.174541
0.401619 0.090684 0.169366
0.509074 0.065184 0.161814
0.614300 0.023144 0.157762
0.012001 0.095750 0.193742
0.085189 0.154004 0.233311
0.192406 0.207906 0.273247
0.275106 0.211108 0.240112
0.371928 0.213263 0.231959
0.476668 0.211331 0.222433
0.580759 0.210029 0.215639
0.682839 0.205948 0.208239
0.028768 0.152802 0.172422
0.125163 0.209840 0.213159
0.227830 0.272702 0.255869
0.344815 0.335665 0.297131
0.443186 0.339149 0.286640
0.546606 0.341182 0.277394
0.650476 0.342551 0.268351
0.752896 0.343907 0.259678
0.027167 0.232473 0.175853
0.125248 0.294786 0.214442
0.239516 0.358023 0.261729
0.352294 0.423967 0.303644
0.449802 0.417634 0.286346
0.550545 0.421194 0.275761
0.654724 0.424127 0.264769
0.759344 0.425660 0.255328
0.024909 0.321423 0.178803
0.123346 0.386263 0.220046
0.248349 0.449374 0.267769
0.363955 0.513305 0.312294
0.455345 0.509270 0.290474
0.552728 0.497597 0.270004
0.656033 0.499752 0.258740
0.760744 0.502491 0.246543
0.019062 0.411886 0.187851
0.126329 0.478552 0.226540
0.260276 0.541088 0.275145
0.374772 0.604830 0.320342
0.462517 0.600018 0.298963
0.559556 0.588290 0.271527
0.659314 0.576067 0.252460
0.763541 0.578702 0.238858
0.022164 0.502652 0.194599
0.143252 0.568913 0.234681
0.268639 0.632559 0.282072
0.382921 0.697015 0.329309
0.470915 0.691001 0.305428
0.566000 0.679850 0.274363
0.665547 0.667570 0.250727
0.767731 0.653973 0.231550
0.000000 0.000000 0.321186
0.000514 0.000000 0.284070
0.050078 0.000358 0.246320
0.129803 0.004322 0.207769
0.205452 0.005765 0.175547
0.297905 0.003629 0.165100
0.401176 0.000000 0.158309
0.504439 0.000000 0.152895
0.000449 0.038004 0.299059
0.025327 0.094005 0.339534
0.112651 0.094549 0.304245
0.192809 0.097935 0.264300
0.268656 0.103587 0.229848
0.367141 0.096231 0.218036
0.470922 0.082783 0.213799
0.575624 0.041876 0.207473
0.005761 0.096068 0.276183
0.072296 0.150902 0.318816
0.171063 0.206180 0.361131
0.259971 0.212356 0.324523
0.340090 0.216638 0.287972
0.440279 0.215893 0.277208
0.543537 0.213472 0.268912
0.646026 0.209293 0.261441
0.017139 0.155570 0.251678
0.105394 0.211077 0.294049
0.213960 0.274289 0.338687
0.330306 0.338574 0.381836
0.416076 0.345448 0.350299
0.515407 0.347766 0.339984
0.618019 0.349662 0.330837
0.720729 0.349417 0.322504
0.047365 0.210667 0.231818
0.133512 0.272393 0.273148
0.247823 0.337480 0.317335
0.367993 0.405712 0.368803
0.481967 0.467772 0.409026
0.579916 0.473432 0.398939
0.683609 0.475198 0.388848
0.787687 0.476341 0.380114
0.037238 0.297021 0.233677
0.135112 0.361838 0.275504
0.262144 0.426385 0.322375
0.380638 0.493039 0.375970
0.490587 0.557229 0.418881
0.587783 0.552652 0.400785
0.690705 0.555451 0.388561
0.795390 0.557981 0.378024
0.017738 0.389517 0.236241
0.143874 0.455474 0.277049
0.272173 0.517207 0.330915
0.393696 0.583580 0.384640
0.498836 0.647668 0.428885
0.592655 0.644208 0.405770
0.692543 0.630887 0.383639
0.797458 0.634330 0.371441
0.023067 0.480157 0.242636
0.153235 0.545343 0.286655
0.285223 0.608213 0.336606
0.401554 0.675916 0.392676
0.507203 0.740080 0.439185
0.598775 0.736324 0.414697
0.698354 0.723927 0.386676
0.801425 0.710837 0.365647
0.000000 0.000000 0.413155
0.000000 0.000000 0.373884
0.019263 0.000000 0.333469
0.108128 0.001799 0.292153
0.187456 0.003788 0.255499
0.265025 0.003633 0.220752
0.363285 0.000000 0.208870
0.466142 0.000000 0.205392
0.000000 0.034697 0.390138
0.000563 0.091854 0.434922
0.071113 0.093857 0.396775
0.170780 0.097311 0.354415
0.251822 0.100869 0.314178
0.331348 0.100128 0.277258
0.433436 0.091616 0.266076
0.538589 0.062245 0.258142
0.000285 0.095688 0.365452
0.027702 0.152801 0.410046
0.150408 0.205186 0.455562
0.240534 0.210377 0.419306
0.324036 0.213650 0.375952
0.408930 0.217822 0.337999
0.506675 0.218050 0.325802
0.608330 0.214211 0.318222
0.007649 0.156536 0.339295
0.077545 0.212579 0.385042
0.191326 0.274576 0.435068
0.312551 0.337448 0.481335
0.399544 0.346205 0.443178
0.483017 0.349525 0.403682
0.581889 0.352609 0.391246
0.683042 0.353013 0.382155
0.035075 0.212385 0.315174
0.118392 0.274273 0.360536
0.231491 0.340548 0.407228
0.352832 0.409276 0.459525
0.468048 0.471854 0.504327
0.554262 0.480627 0.471615
0.653420 0.482208 0.458410
0.755967 0.484373 0.448604
0.045499 0.275133 0.297148
0.151390 0.338520 0.340988
0.263972 0.406442 0.386232
0.389807 0.474071 0.439019
0.504140 0.540817 0.493066
0.616043 0.602651 0.537360
0.719859 0.607789 0.525716
0.826209 0.609772 0.515705
0.028111 0.364751 0.294620
0.150146 0.430813 0.339811
0.282694 0.494717 0.389187
0.403333 0.561050 0.444193
0.517093 0.627541 0.500714
0.627862 0.693815 0.548165
0.728633 0.689747 0.530192
0.835495 0.692109 0.516563
0.027846 0.455937 0.298563
0.160574 0.521874 0.346334
0.296858 0.583996 0.395954
0.415785 0.650308 0.453885
0.524574 0.718883 0.511520
0.633245 0.787810 0.559211
0.734212 0.784234 0.536653
0.836570 0.771003 0.512910
0.000000 0.000000 0.511410
0.000000 0.000000 0.470453
0.000106 0.000000 0.426281
0.073206 0.000000 0.383167
0.166652 0.001675 0.342612
0.247533 0.001232 0.303100
0.328336 0.000000 0.267374
0.429430 0.000000 0.256785
0.000000 0.024301 0.487702
0.000000 0.084761 0.535838
0.008275 0.093022 0.493985
0.136957 0.092956 0.450341
0.230704 0.096654 0.405501
0.316998 0.098481 0.364059
0.399508 0.093215 0.326895
0.501247 0.074122 0.314832
0.000000 0.092497 0.461866
0.000233 0.152030 0.510150
0.089307 0.206915 0.558971
0.211998 0.208623 0.519990
0.304960 0.210608 0.473926
0.390624 0.216927 0.428991
0.476028 0.217839 0.388288
0.573510 0.218707 0.376924
0.000000 0.155294 0.433913
0.030590 0.213876 0.482259
0.160740 0.275380 0.536206
0.284793 0.337812 0.588069
0.379107 0.344274 0.548229
0.467541 0.349380 0.499751
0.549769 0.355236 0.456784
0.647706 0.356596 0.444925
0.011169 0.212736 0.408571
0.094303 0.276666 0.456011
0.208286 0.341885 0.509138
0.327650 0.410401 0.565071
0.442739 0.471869 0.615154
0.535707 0.480964 0.572541
0.619327 0.485702 0.528237
0.718137 0.488044 0.515775
0.048611 0.273888 0.382211
0.137212 0.339777 0.430653
0.252396 0.407296 0.481586
0.369636 0.476769 0.535165
0.487172 0.544190 0.591365
0.601661 0.607001 0.643124
0.692364 0.616094 0.606458
0.795262 0.619115 0.593024
0.053680 0.339876 0.361802
0.165900 0.407138 0.407578
0.283782 0.473111 0.458307
0.408345 0.542135 0.514278
0.525264 0.608119 0.570309
0.642554 0.678112 0.632108
0.757546 0.743525 0.681746
0.866504 0.749315 0.671086
0.034851 0.431462 0.361038
0.165423 0.498183 0.408704
0.297616 0.562718 0.460318
0.422167 0.630046 0.517677
0.537820 0.695936 0.577482
0.652618 0.767464 0.640749
0.769232 0.838141 0.696233
0.873968 0.833161 0.675304
0.000000 0.000000 0.618646
0.000000 0.000000 0.571155
0.000000 0.000000 0.527609
0.005300 0.000000 0.480889
0.131544 0.000000 0.436359
0.227739 0.000203 0.392942
0.311020 0.000000 0.351076
0.394515 0.000000 0.313056
0.000000 0.012461 0.592199
0.000000 0.074670 0.642624
0.000000 0.082711 0.597749
0.067242 0.086294 0.551681
0.201290 0.088707 0.505404
0.296130 0.095052 0.458085
0.383361 0.088277 0.414310
0.467166 0.081148 0.377957
0.000000 0.081601 0.565359
0.000000 0.147183 0.618371
0.011094 0.203967 0.668220
0.164619 0.206626 0.626926
0.277124 0.209277 0.578772
0.372469 0.212562 0.529541
0.458562 0.216207 0.482725
0.539395 0.219535 0.442438
0.000000 0.154226 0.535740
0.000336 0.212629 0.586506
0.097876 0.277346 0.643229
0.240602 0.337890 0.700184
0.348329 0.342916 0.659346
0.444774 0.346861 0.607580
0.532979 0.352175 0.556742
0.613863 0.358592 0.514269
0.000000 0.214386 0.508226
0.029047 0.279050 0.558671
0.166904 0.342951 0.615252
0.293662 0.411361 0.677202
0.412384 0.471201 0.732155
0.510446 0.478564 0.688822
0.601933 0.484268 0.633904
0.683961 0.490025 0.588676
0.009875 0.278316 0.479628
0.112390 0.344133 0.530236
0.220737 0.409632 0.585602
0.340074 0.479394 0.646345
0.456914 0.546255 0.708558
0.571461 0.606814 0.766544
0.670080 0.616148 0.720200
0.758353 0.622022 0.669570
0.043718 0.342219 0.452931
0.151846 0.409233 0.503760
0.266994 0.476910 0.556252
0.387200 0.545332 0.615625
0.500203 0.613075 0.676825
0.616656 0.681492 0.742999
0.737090 0.747163 0.805704
0.835274 0.758008 0.761311
0.078284 0.405273 0.430523
0.189178 0.473252 0.480109
0.303338 0.540088 0.534790
0.424245 0.610025 0.592867
0.537601 0.677286 0.651973
0.656601 0.748940 0.717481
0.780280 0.822343 0.789641
0.896667 0.886486 0.847477
