gsg/04_Specialty/GSG_LUT_Specialty_Saturated_Summer.cube
# GSG LUTs 1.0
# Copyright (c) 2016-2020 Greyscalegorilla
# See EULA for licensing and distribution information
# Converted by Briz LUT Converter
LUT_3D_SIZE 8
DOMAIN_MIN 0.000000 0.000000 0.000000
DOMAIN_MAX 0.903226 0.903226 0.903226
0.016850 0.019048 0.012943
0.126385 0.019954 0.009855
0.275411 0.000788 0.002852
0.447855 0.000000 0.000000
0.628382 0.000000 0.000000
0.781677 0.000000 0.000000
0.896963 0.000000 0.000000
0.992729 0.000000 0.000000
0.000000 0.120485 0.015747
0.093150 0.129342 0.006022
0.267946 0.133515 0.000000
0.440958 0.113584 0.000000
0.618427 0.087887 0.000000
0.769633 0.077867 0.000000
0.886337 0.098356 0.000000
0.987556 0.133739 0.000000
0.000000 0.240994 0.006452
0.003386 0.251793 0.007262
0.217235 0.284440 0.000000
0.451297 0.309490 0.000000
0.599530 0.285224 0.000000
0.749298 0.285334 0.000000
0.872018 0.288846 0.000000
0.978660 0.295680 0.000000
0.000000 0.356847 0.003513
0.000000 0.394979 0.009819
0.073506 0.403302 0.000070
0.360959 0.439541 0.000000
0.604866 0.484399 0.000000
0.729637 0.456499 0.000000
0.844528 0.444092 0.000000
0.959657 0.444381 0.000000
0.000000 0.462153 0.019371
0.000000 0.507889 0.029296
0.000279 0.496053 0.031168
0.254140 0.524396 0.000000
0.492803 0.558773 0.000000
0.719867 0.608014 0.000000
0.835624 0.587426 0.000000
0.935254 0.565783 0.000000
0.000000 0.561133 0.063728
0.000000 0.606830 0.076036
0.000000 0.598578 0.078560
0.159730 0.605678 0.062672
0.411023 0.630546 0.015541
0.612920 0.659607 0.000000
0.819409 0.709829 0.000000
0.934126 0.696961 0.000000
0.000000 0.676931 0.133097
0.000000 0.721998 0.145591
0.000000 0.717098 0.145816
0.093184 0.707095 0.144762
0.373970 0.724008 0.131633
0.560161 0.743984 0.099903
0.729288 0.766907 0.033892
0.919505 0.814805 0.000000
0.000000 0.873685 0.263169
0.000000 0.898899 0.273794
0.008197 0.893193 0.272782
0.214308 0.883594 0.272921
0.394916 0.882372 0.268987
0.567221 0.893313 0.254236
0.722410 0.907125 0.224594
0.873107 0.921420 0.157331
0.037741 0.031943 0.103809
0.127154 0.031396 0.099013
0.274743 0.006565 0.095961
0.400682 0.000000 0.089078
0.505149 0.000000 0.073604
0.634459 0.000000 0.059601
0.764905 0.000000 0.041050
0.875718 0.000285 0.011084
0.000811 0.134016 0.102900
0.117377 0.130578 0.103617
0.261387 0.125749 0.096857
0.419349 0.109253 0.087933
0.578017 0.086587 0.075651
0.727132 0.078869 0.055972
0.848092 0.102115 0.025986
0.954162 0.136579 0.007145
0.000000 0.259049 0.110644
0.060462 0.266039 0.112497
0.237349 0.285415 0.100600
0.442223 0.294636 0.054340
0.595210 0.278653 0.023667
0.744284 0.280371 0.007754
0.866247 0.285749 0.004987
0.972865 0.294676 0.001487
0.000000 0.371425 0.102741
0.000109 0.409207 0.119464
0.127574 0.404485 0.112626
0.376498 0.443251 0.074781
0.603890 0.478664 0.005856
0.725948 0.449582 0.000127
0.845495 0.442447 0.000000
0.960562 0.443409 0.000000
0.000000 0.474883 0.110761
0.000000 0.518035 0.126722
0.008544 0.503865 0.125577
0.273693 0.526130 0.106829
0.501451 0.560780 0.052948
0.720633 0.606335 0.002979
0.834094 0.584048 0.000000
0.935198 0.563805 0.000000
0.000000 0.570203 0.133148
0.000000 0.614640 0.148784
0.000000 0.606668 0.148204
0.187631 0.606168 0.142201
0.419617 0.631458 0.123080
0.617457 0.660870 0.079659
0.820392 0.709536 0.009973
0.934073 0.695491 0.000000
0.000000 0.681255 0.180657
0.000000 0.725966 0.196770
0.000000 0.721242 0.195828
0.145076 0.710020 0.193305
0.380853 0.724025 0.187135
0.563295 0.744006 0.172291
0.731631 0.767452 0.141280
0.921414 0.815763 0.048495
0.000000 0.875286 0.296098
0.000000 0.900727 0.308273
0.040495 0.895451 0.306481
0.239086 0.885662 0.305083
0.398729 0.881688 0.301588
0.569133 0.892596 0.290745
0.723696 0.906873 0.269489
0.874142 0.921437 0.224125
0.039844 0.047162 0.231707
0.139675 0.047130 0.224499
0.260815 0.043194 0.216799
0.380335 0.002563 0.188276
0.489803 0.000000 0.176612
0.626918 0.000000 0.193701
0.766124 0.007942 0.217668
0.877301 0.078123 0.216867
0.011071 0.138830 0.232187
0.129734 0.136338 0.224883
0.250489 0.134349 0.213564
0.402151 0.121358 0.208756
0.567709 0.108996 0.222466
0.724274 0.116655 0.240297
0.846315 0.147296 0.241129
0.952176 0.179243 0.231627
0.000000 0.275586 0.232707
0.108391 0.291428 0.247881
0.271208 0.289211 0.252416
0.445380 0.288246 0.246721
0.603619 0.283435 0.241266
0.745879 0.286810 0.235399
0.864489 0.297577 0.228002
0.970687 0.309684 0.216044
0.000000 0.401787 0.232430
0.127589 0.440261 0.264575
0.227483 0.424468 0.254821
0.407098 0.450926 0.251565
0.600293 0.463716 0.221448
0.725068 0.442859 0.194799
0.849265 0.444166 0.187526
0.961862 0.445533 0.172564
0.009408 0.503366 0.239383
0.021481 0.540614 0.257627
0.154860 0.527669 0.251397
0.311469 0.527755 0.245876
0.521163 0.566474 0.243109
0.721086 0.601739 0.215177
0.829170 0.575618 0.154107
0.935504 0.560875 0.106691
0.000000 0.588063 0.241080
0.000335 0.627750 0.260704
0.070581 0.620457 0.257727
0.241766 0.606685 0.251259
0.437012 0.631909 0.251574
0.627396 0.663653 0.249691
0.822036 0.708743 0.228392
0.932416 0.691158 0.123217
0.000000 0.690233 0.268707
0.000000 0.732166 0.287997
0.035748 0.727394 0.285759
0.226136 0.717317 0.280904
0.393377 0.721651 0.278941
0.569788 0.743247 0.279513
0.736626 0.768796 0.276232
0.924246 0.816840 0.253820
0.000000 0.877502 0.362821
0.008890 0.901829 0.375417
0.141679 0.897033 0.372987
0.284655 0.888744 0.370114
0.405873 0.879271 0.365803
0.572424 0.890762 0.362644
0.725782 0.905423 0.353764
0.876031 0.920768 0.330972
0.037300 0.066982 0.371452
0.147957 0.068592 0.365547
0.260287 0.066067 0.334713
0.352548 0.046419 0.300220
0.449905 0.010116 0.278642
0.594761 0.000000 0.287101
0.743295 0.030724 0.320818
0.864932 0.128760 0.348962
0.038458 0.146827 0.360949
0.143720 0.146280 0.354911
0.260140 0.142864 0.336721
0.375159 0.135893 0.323316
0.519028 0.125973 0.327818
0.690153 0.124961 0.346839
0.825459 0.166546 0.370404
0.940034 0.223321 0.393415
0.000000 0.272688 0.369070
0.112217 0.286695 0.388075
0.270334 0.278129 0.377001
0.407021 0.274167 0.362665
0.570172 0.282052 0.373286
0.726857 0.295628 0.391347
0.855848 0.324134 0.412194
0.965574 0.352716 0.425769
0.000000 0.423770 0.376096
0.075411 0.461387 0.411257
0.275318 0.459103 0.414284
0.441525 0.455440 0.419390
0.599760 0.454893 0.413971
0.732265 0.454368 0.411508
0.851627 0.459237 0.410130
0.958199 0.461593 0.403587
0.075400 0.535659 0.370687
0.184727 0.571664 0.402710
0.307750 0.566567 0.412438
0.394208 0.548762 0.402219
0.550479 0.575951 0.410794
0.712984 0.585912 0.393294
0.822685 0.565580 0.366268
0.937092 0.562811 0.360271
0.193418 0.618266 0.392813
0.243379 0.653325 0.417918
0.281339 0.645657 0.404395
0.350116 0.630565 0.390299
0.463070 0.631717 0.387345
0.644747 0.669815 0.406343
0.822257 0.705111 0.403375
0.926406 0.680856 0.346398
0.129946 0.708468 0.394138
0.176923 0.745060 0.413570
0.241330 0.739677 0.407357
0.324960 0.730176 0.399482
0.413977 0.716964 0.388333
0.579599 0.741707 0.401786
0.745672 0.771520 0.417120
0.926462 0.816166 0.417533
0.138888 0.883379 0.460392
0.190917 0.905922 0.473820
0.260909 0.901079 0.470074
0.348922 0.893321 0.464411
0.436610 0.881717 0.456084
0.577090 0.887803 0.457348
0.730648 0.904497 0.461010
0.881187 0.921149 0.456523
0.079097 0.092253 0.491859
0.161736 0.089409 0.472529
0.258425 0.083083 0.434001
0.343686 0.075708 0.386485
0.423597 0.056100 0.365568
0.533206 0.043392 0.371804
0.708399 0.058372 0.410630
0.841112 0.129482 0.437792
0.087981 0.158827 0.473453
0.165559 0.158121 0.468117
0.271368 0.154452 0.452502
0.379851 0.149801 0.428242
0.491334 0.143458 0.427472
0.629729 0.149698 0.445577
0.792602 0.169026 0.467379
0.916477 0.218195 0.487033
0.034278 0.266737 0.478113
0.151013 0.280826 0.501180
0.281738 0.275981 0.489649
0.408895 0.270604 0.470696
0.526124 0.269759 0.466334
0.669921 0.287758 0.484106
0.820959 0.310927 0.500930
0.939067 0.344746 0.519542
0.000000 0.417923 0.499048
0.098999 0.452331 0.540186
0.272893 0.446887 0.538001
0.428688 0.432508 0.524052
0.551010 0.425628 0.507152
0.698141 0.445645 0.523941
0.832204 0.465357 0.541924
0.948476 0.486943 0.561647
0.025431 0.552372 0.509994
0.146054 0.587750 0.544686
0.297284 0.586066 0.546623
0.445569 0.584241 0.552007
0.578443 0.581547 0.557729
0.711569 0.582908 0.556361
0.829707 0.582954 0.557607
0.940641 0.583242 0.556566
0.228647 0.646161 0.501394
0.288014 0.678261 0.530795
0.366740 0.673972 0.535019
0.465135 0.666507 0.542838
0.527008 0.648764 0.528749
0.668393 0.678327 0.548197
0.814869 0.690139 0.538825
0.918315 0.667679 0.506363
0.303524 0.731875 0.522860
0.347382 0.764196 0.549974
0.399837 0.760277 0.552563
0.441925 0.750901 0.538437
0.487502 0.734213 0.516841
0.591925 0.737761 0.517478
0.759834 0.775981 0.547951
0.929008 0.812796 0.552732
0.359178 0.894582 0.593406
0.377873 0.913133 0.603847
0.387944 0.909062 0.589751
0.428783 0.901398 0.574503
0.495499 0.890734 0.563376
0.583167 0.882644 0.554376
0.737039 0.902419 0.568020
0.890803 0.922982 0.578279
0.142550 0.109953 0.551294
0.191972 0.107582 0.537869
0.268853 0.101375 0.510045
0.348875 0.092914 0.472829
0.418226 0.087899 0.438347
0.521478 0.080524 0.455018
0.647902 0.103463 0.489181
0.800672 0.141249 0.523632
0.155671 0.174357 0.571862
0.209271 0.174708 0.570705
0.298020 0.170776 0.559380
0.403666 0.166809 0.545492
0.501945 0.164775 0.527707
0.612753 0.162057 0.538407
0.733623 0.185312 0.558250
0.879610 0.218401 0.579745
0.133286 0.268842 0.574454
0.207738 0.285872 0.605929
0.310917 0.282991 0.599572
0.428026 0.277831 0.586756
0.532964 0.272472 0.567621
0.644699 0.275000 0.573546
0.764612 0.302192 0.589478
0.906985 0.331372 0.605872
0.061741 0.412791 0.602471
0.173955 0.440290 0.643259
0.298704 0.430240 0.636121
0.432332 0.418854 0.621581
0.546595 0.407697 0.600521
0.654685 0.408334 0.596779
0.779363 0.437776 0.614001
0.916553 0.461739 0.629546
0.065081 0.544436 0.617796
0.175246 0.576340 0.654667
0.298681 0.573772 0.654814
0.432554 0.567530 0.654048
0.556567 0.552125 0.641464
0.664575 0.543822 0.626390
0.797487 0.567751 0.645944
0.923666 0.583882 0.663335
0.195714 0.657441 0.626843
0.260690 0.687965 0.657401
0.350549 0.686718 0.658718
0.463104 0.685553 0.662354
0.578640 0.685648 0.669636
0.694119 0.685251 0.676793
0.816471 0.688080 0.677826
0.927574 0.687263 0.679310
0.341408 0.760102 0.630466
0.382065 0.789187 0.657210
0.433943 0.786303 0.658992
0.509844 0.780852 0.662575
0.591965 0.772015 0.666815
0.646636 0.752016 0.649531
0.783422 0.784453 0.674615
0.926086 0.798114 0.668136
0.410032 0.911650 0.693550
0.437688 0.926389 0.707157
0.478610 0.922682 0.707836
0.541789 0.916116 0.708997
0.591127 0.906797 0.696451
0.635527 0.891081 0.671901
0.744512 0.897017 0.674142
0.906100 0.925585 0.699200
0.210658 0.134609 0.594242
0.240242 0.132492 0.586350
0.297045 0.127940 0.569968
0.368730 0.121687 0.548181
0.451731 0.121423 0.542517
0.543932 0.127933 0.546886
0.657409 0.130874 0.581789
0.751082 0.159752 0.596576
0.241755 0.202954 0.670218
0.281298 0.205585 0.676877
0.353221 0.203244 0.672032
0.448582 0.200090 0.664743
0.544818 0.197617 0.655206
0.635069 0.197058 0.641307
0.737387 0.196569 0.655429
0.832371 0.226236 0.664269
0.228505 0.289108 0.679665
0.284302 0.306168 0.715866
0.363969 0.303568 0.711957
0.467117 0.299399 0.704682
0.568203 0.294082 0.692827
0.660201 0.287850 0.674058
0.762687 0.289885 0.683591
0.858989 0.321198 0.690701
0.188094 0.411089 0.700906
0.251197 0.432993 0.738243
0.342617 0.427361 0.733365
0.457565 0.421124 0.725546
0.565466 0.411885 0.712105
0.662085 0.399737 0.691721
0.765203 0.401527 0.696447
0.867933 0.434807 0.706535
0.157541 0.546562 0.723023
0.226758 0.571948 0.757602
0.323603 0.564662 0.754128
0.438165 0.549820 0.746177
0.552169 0.533831 0.731512
0.656558 0.516263 0.709653
0.759309 0.513531 0.705897
0.875349 0.547854 0.723312
0.210018 0.655103 0.730392
0.263920 0.681343 0.760429
0.343500 0.679274 0.760788
0.447755 0.675986 0.761844
0.556657 0.669194 0.761667
0.665627 0.651046 0.748054
0.765666 0.638806 0.731309
0.898113 0.668283 0.755405
0.296956 0.770488 0.749168
0.339900 0.797411 0.776184
0.402105 0.796173 0.776831
0.491722 0.794737 0.778875
0.591886 0.793903 0.782679
0.701229 0.794624 0.789989
0.811439 0.793295 0.795847
0.932467 0.798328 0.798595
0.442907 0.931849 0.796232
0.468092 0.943172 0.807651
0.509245 0.941271 0.808960
0.573838 0.937730 0.811368
0.649586 0.932168 0.814518
0.730922 0.921616 0.815844
0.784765 0.900805 0.793896
0.926605 0.928013 0.816905
0.298562 0.193147 0.664682
0.320739 0.194288 0.666805
0.372018 0.198119 0.674696
0.449483 0.204481 0.687221
0.535288 0.211567 0.697129
0.624106 0.219001 0.702211
0.708483 0.225770 0.700747
0.804245 0.224345 0.722072
0.355967 0.270804 0.789705
0.386504 0.275388 0.800323
0.440773 0.275244 0.798725
0.519914 0.275544 0.796630
0.606597 0.276176 0.792511
0.695236 0.277489 0.785057
0.780026 0.278569 0.773740
0.873342 0.275381 0.786221
0.349872 0.347531 0.810543
0.390281 0.360633 0.838020
0.448151 0.358973 0.835578
0.531086 0.356663 0.831127
0.620756 0.353461 0.823881
0.712029 0.349741 0.813324
0.798591 0.344908 0.798763
0.894426 0.343519 0.809398
0.313524 0.444828 0.819833
0.358158 0.462058 0.849780
0.422994 0.459784 0.847985
0.513477 0.455650 0.843801
0.608928 0.449039 0.835916
0.705102 0.440092 0.824400
0.795437 0.428358 0.808165
0.894354 0.427826 0.816743
0.280924 0.558966 0.833876
0.323536 0.575432 0.860044
0.386037 0.567031 0.856216
0.477914 0.555830 0.850234
0.582717 0.546906 0.843287
0.686853 0.534478 0.831792
0.783970 0.517992 0.814897
0.887520 0.517370 0.820424
0.273170 0.670062 0.845336
0.312483 0.688310 0.869183
0.374062 0.684784 0.868699
0.462342 0.676227 0.866247
0.558688 0.658569 0.858467
0.665606 0.639476 0.845259
0.771300 0.619940 0.826898
0.878928 0.615172 0.824916
0.310512 0.780393 0.861144
0.345894 0.800404 0.883642
0.400306 0.798104 0.883453
0.480809 0.794380 0.883316
0.573014 0.788911 0.883316
0.674217 0.778932 0.881528
0.779519 0.754491 0.866277
0.887357 0.738590 0.849867
0.377451 0.945135 0.921264
0.404793 0.953065 0.929667
0.454743 0.951233 0.929203
0.531699 0.947990 0.928519
0.622231 0.944026 0.927856
0.725071 0.939358 0.928125
0.835761 0.933770 0.929049
0.941636 0.920508 0.922849
