gsg/04_Specialty/GSG_LUT_Specialty_TechnicolorDreamcoat.cube
# GSG LUTs 1.0
# Copyright (c) 2016-2020 Greyscalegorilla
# See EULA for licensing and distribution information
# Converted by Briz LUT Converter
LUT_3D_SIZE 32
0.000000 0.045177 0.083028
0.000055 0.045429 0.083524
0.001946 0.045713 0.083792
0.005916 0.046469 0.084320
0.012186 0.047225 0.085076
0.022396 0.047981 0.085793
0.036717 0.048738 0.086344
0.054882 0.049494 0.087046
0.076687 0.050061 0.087487
0.102273 0.049848 0.087739
0.131624 0.048856 0.087991
0.163142 0.046823 0.088243
0.196762 0.042664 0.088306
0.235417 0.034976 0.088054
0.279058 0.023459 0.087692
0.325511 0.009272 0.086951
0.373280 0.001079 0.085817
0.421561 0.000221 0.084422
0.469676 0.000000 0.082768
0.516972 0.000000 0.080854
0.565591 0.000000 0.078365
0.612438 0.000000 0.075426
0.656253 0.000000 0.072401
0.698996 0.000000 0.069014
0.740841 0.000000 0.065107
0.781252 0.000000 0.060877
0.819898 0.000000 0.056591
0.856300 0.000000 0.052093
0.889700 0.000000 0.047997
0.922037 0.000000 0.044192
0.956194 0.000000 0.040648
0.995360 0.000000 0.037363
0.000000 0.048998 0.085809
0.000054 0.049494 0.085060
0.001913 0.049770 0.084791
0.005988 0.050251 0.084539
0.013447 0.050603 0.084615
0.024224 0.051558 0.085302
0.039149 0.052361 0.085839
0.057934 0.053316 0.086478
0.079753 0.053955 0.086793
0.105420 0.054071 0.087227
0.135040 0.053509 0.087476
0.166829 0.051831 0.087636
0.201302 0.048098 0.087539
0.241143 0.040886 0.087179
0.284931 0.029819 0.086672
0.331250 0.014699 0.085927
0.378751 0.003758 0.084667
0.426633 0.000694 0.083150
0.474374 0.000000 0.081350
0.521405 0.000000 0.079329
0.569609 0.000000 0.076831
0.616277 0.000000 0.073725
0.660083 0.000000 0.070442
0.702824 0.000000 0.066976
0.744663 0.000000 0.062865
0.784856 0.000000 0.058380
0.823022 0.000000 0.054034
0.858902 0.000000 0.049321
0.891774 0.000000 0.044965
0.923826 0.000000 0.040679
0.958187 0.000000 0.036859
0.997117 0.000000 0.033077
0.000000 0.054149 0.088865
0.000022 0.054670 0.087864
0.000885 0.055190 0.087076
0.004483 0.055712 0.086096
0.012565 0.056245 0.085572
0.025451 0.056788 0.085297
0.042135 0.057589 0.085343
0.061941 0.058581 0.085750
0.084285 0.059455 0.086045
0.110313 0.059767 0.086450
0.140475 0.059380 0.086612
0.172923 0.058202 0.086607
0.208514 0.055001 0.086407
0.249477 0.048441 0.085897
0.293421 0.038178 0.085266
0.339226 0.023521 0.084375
0.386198 0.009336 0.083099
0.433667 0.001886 0.081445
0.481006 0.000046 0.079538
0.527603 0.000000 0.077362
0.575571 0.000000 0.074605
0.622035 0.000000 0.071398
0.665565 0.000000 0.067932
0.708181 0.000000 0.064205
0.749772 0.000000 0.059651
0.789301 0.000000 0.055030
0.826688 0.000000 0.050268
0.861994 0.000000 0.045449
0.894130 0.000000 0.040876
0.925860 0.000000 0.036552
0.959716 0.000000 0.032502
0.998566 0.000000 0.028713
0.000000 0.061263 0.092465
0.000000 0.062019 0.091409
0.000118 0.062777 0.090362
0.002392 0.063583 0.089099
0.009513 0.064593 0.087811
0.025540 0.065280 0.086581
0.045385 0.066023 0.085857
0.067823 0.066706 0.085538
0.091917 0.067413 0.085422
0.118817 0.068052 0.085338
0.149929 0.068021 0.085297
0.183906 0.067054 0.085178
0.221341 0.064550 0.084791
0.263094 0.059012 0.084170
0.306812 0.049928 0.083293
0.351972 0.036497 0.082142
0.398269 0.019336 0.080618
0.445033 0.006081 0.078827
0.491514 0.000945 0.076886
0.537311 0.000000 0.074560
0.584351 0.000000 0.071551
0.629995 0.000000 0.068084
0.672858 0.000000 0.064358
0.714521 0.000000 0.060371
0.755047 0.000000 0.055557
0.793898 0.000000 0.050472
0.830564 0.000000 0.045362
0.865113 0.000000 0.040076
0.896743 0.000000 0.035419
0.927934 0.000000 0.030880
0.961200 0.000000 0.026792
0.998929 0.000000 0.022978
0.000000 0.072008 0.096877
0.000000 0.072859 0.095339
0.000043 0.073662 0.094047
0.000882 0.074714 0.092730
0.005039 0.076293 0.091154
0.023418 0.078361 0.089425
0.047555 0.079209 0.088020
0.074689 0.079398 0.086479
0.102491 0.079561 0.085233
0.131651 0.080292 0.084260
0.164944 0.080515 0.083684
0.201639 0.080026 0.083086
0.241164 0.078091 0.082187
0.282900 0.073481 0.081268
0.326166 0.065873 0.080172
0.370823 0.054269 0.078759
0.416242 0.036278 0.077087
0.461753 0.017550 0.075007
0.506965 0.005539 0.072688
0.551339 0.000758 0.070204
0.596708 0.000022 0.067009
0.640446 0.000000 0.063260
0.681392 0.000000 0.059241
0.721613 0.000000 0.054915
0.760870 0.000000 0.049767
0.798630 0.000000 0.044205
0.834626 0.000000 0.038415
0.868617 0.000000 0.032798
0.900035 0.000000 0.027881
0.930533 0.000000 0.023317
0.962563 0.000000 0.019047
0.998235 0.000000 0.015006
0.000000 0.088054 0.102407
0.000000 0.089670 0.100530
0.000013 0.090716 0.098980
0.000244 0.091748 0.097436
0.002048 0.093145 0.095564
0.015662 0.095547 0.093500
0.042259 0.098159 0.091347
0.074899 0.099971 0.089104
0.107990 0.099916 0.087346
0.142855 0.099561 0.085519
0.180875 0.099266 0.083778
0.219983 0.098683 0.081891
0.259875 0.097350 0.079895
0.301895 0.094099 0.077716
0.345230 0.088312 0.075611
0.389548 0.079476 0.073702
0.434357 0.065798 0.071547
0.478987 0.047402 0.068943
0.523136 0.027918 0.066164
0.566298 0.011153 0.063160
0.610366 0.003752 0.059530
0.652830 0.001676 0.055283
0.692968 0.000471 0.050702
0.732271 0.000051 0.045499
0.770457 0.000000 0.039547
0.807104 0.000000 0.033447
0.842011 0.000000 0.027456
0.875071 0.000000 0.021700
0.905309 0.000000 0.016823
0.935147 0.000000 0.012560
0.966087 0.000000 0.008820
0.999590 0.000000 0.005112
0.000000 0.109323 0.109685
0.000000 0.111562 0.107043
0.000000 0.112852 0.105197
0.000000 0.113884 0.103521
0.000565 0.115327 0.101197
0.007923 0.118185 0.098791
0.032987 0.121837 0.096069
0.070141 0.125734 0.092910
0.112583 0.128236 0.089883
0.152830 0.127250 0.087119
0.195328 0.125610 0.084369
0.237958 0.123335 0.081670
0.279824 0.120714 0.078814
0.322463 0.117448 0.075603
0.366141 0.112745 0.072224
0.410352 0.106096 0.068657
0.454722 0.096598 0.064762
0.498658 0.082991 0.060750
0.541668 0.065848 0.056994
0.583578 0.047541 0.053148
0.626302 0.030344 0.048545
0.667570 0.016692 0.043427
0.706585 0.007898 0.038099
0.744750 0.004421 0.032269
0.781602 0.003484 0.026037
0.816762 0.002937 0.019962
0.850288 0.002479 0.014527
0.881861 0.002163 0.009521
0.911185 0.002042 0.006418
0.940002 0.002165 0.004266
0.969367 0.002586 0.002611
1.000000 0.003592 0.000985
0.000000 0.140147 0.119784
0.000000 0.142391 0.116421
0.000000 0.143815 0.113948
0.000000 0.144784 0.111765
0.000024 0.146067 0.109035
0.002471 0.148527 0.105995
0.020507 0.152383 0.102622
0.058412 0.157285 0.098549
0.112351 0.162231 0.093859
0.160912 0.163687 0.089336
0.209178 0.161286 0.085231
0.255554 0.156864 0.081544
0.300098 0.151911 0.077885
0.344617 0.146865 0.073695
0.389235 0.141357 0.069104
0.433322 0.135345 0.064156
0.476870 0.128429 0.058508
0.519915 0.119672 0.052455
0.562006 0.108532 0.046319
0.602898 0.095266 0.039758
0.644093 0.076619 0.033277
0.683769 0.058018 0.027228
0.721133 0.044177 0.021552
0.757566 0.035811 0.016145
0.792619 0.030133 0.011522
0.826320 0.025339 0.007533
0.858415 0.021422 0.004110
0.888761 0.018695 0.001287
0.917075 0.017787 0.000262
0.944856 0.018719 0.000012
0.972449 0.022515 0.000000
1.000000 0.031076 0.000000
0.000000 0.180606 0.132892
0.000000 0.184246 0.129566
0.000000 0.185954 0.126251
0.000000 0.186550 0.123287
0.000000 0.186898 0.119744
0.000635 0.187877 0.115653
0.008475 0.190705 0.111259
0.040622 0.194560 0.106507
0.101375 0.199733 0.100500
0.161837 0.205491 0.093160
0.218649 0.205391 0.086661
0.270240 0.200945 0.081204
0.317979 0.193821 0.076399
0.365498 0.185694 0.071182
0.412113 0.177542 0.065595
0.456891 0.169924 0.059602
0.499919 0.162813 0.052719
0.541923 0.155686 0.044547
0.582973 0.148568 0.035268
0.622669 0.141342 0.025194
0.662401 0.132444 0.016380
0.700431 0.122305 0.009986
0.735925 0.111807 0.005618
0.770313 0.100755 0.002342
0.803528 0.089239 0.000825
0.835675 0.079050 0.000117
0.866591 0.070892 0.000000
0.895996 0.065175 0.000000
0.923399 0.063462 0.000000
0.950152 0.065229 0.000000
0.975850 0.073905 0.000000
1.000000 0.092520 0.000000
0.000000 0.223546 0.147040
0.000000 0.232149 0.145466
0.000000 0.235507 0.141672
0.000000 0.235540 0.137227
0.000000 0.234184 0.132953
0.000140 0.233186 0.127927
0.003612 0.233680 0.122400
0.024077 0.235699 0.116664
0.072647 0.239618 0.110053
0.143190 0.244921 0.101789
0.212228 0.250333 0.091914
0.274288 0.251120 0.082661
0.328123 0.245499 0.074944
0.378958 0.236906 0.067813
0.428221 0.227276 0.060549
0.475919 0.216988 0.052612
0.520975 0.207291 0.043797
0.563123 0.198855 0.034183
0.603269 0.191248 0.024110
0.641328 0.184470 0.014347
0.679737 0.178284 0.006736
0.716937 0.172845 0.002630
0.751613 0.168031 0.001241
0.784878 0.162796 0.000526
0.816780 0.157102 0.000212
0.847617 0.151856 0.000034
0.877113 0.147544 0.000000
0.905194 0.144319 0.000000
0.931232 0.142990 0.000000
0.956780 0.144060 0.000000
0.980277 0.150209 0.000000
1.000000 0.163512 0.000000
0.000000 0.271267 0.162385
0.000000 0.281909 0.162081
0.000000 0.285927 0.157544
0.000000 0.285722 0.151783
0.000000 0.283567 0.146988
0.000000 0.281758 0.141414
0.000929 0.280825 0.135139
0.008047 0.281328 0.128465
0.038423 0.283926 0.121142
0.116032 0.289058 0.112513
0.194383 0.295623 0.101435
0.267557 0.301196 0.088646
0.332042 0.302091 0.075664
0.389530 0.296115 0.064240
0.442390 0.286707 0.053600
0.492022 0.275320 0.042937
0.538436 0.263615 0.031951
0.581928 0.252434 0.020997
0.622862 0.242175 0.011412
0.660522 0.234084 0.005092
0.697772 0.227833 0.001708
0.733612 0.223370 0.000267
0.767084 0.220514 0.000000
0.799286 0.218185 0.000000
0.830342 0.216772 0.000000
0.859992 0.214932 0.000000
0.887963 0.212832 0.000000
0.914699 0.210649 0.000000
0.939280 0.209129 0.000000
0.963422 0.209387 0.000000
0.984804 0.213606 0.000000
1.000000 0.223301 0.000000
0.000000 0.323148 0.179290
0.000000 0.331455 0.178699
0.000000 0.334902 0.173536
0.000000 0.334981 0.166937
0.000000 0.333201 0.161566
0.000000 0.331277 0.155636
0.000000 0.329873 0.148865
0.000000 0.329112 0.141353
0.015110 0.330076 0.133163
0.082271 0.334699 0.124304
0.168080 0.340539 0.113046
0.252141 0.347421 0.099068
0.324962 0.353400 0.082185
0.391900 0.354013 0.063815
0.451338 0.348344 0.046941
0.503803 0.337713 0.032054
0.551084 0.324805 0.019121
0.595557 0.311725 0.008962
0.637384 0.299269 0.002772
0.675926 0.288398 0.000366
0.713470 0.279320 0.000000
0.748439 0.273028 0.000000
0.780490 0.269542 0.000000
0.811335 0.267615 0.000000
0.841277 0.267375 0.000000
0.869891 0.267309 0.000000
0.897040 0.266911 0.000000
0.922935 0.266394 0.000000
0.946505 0.264627 0.000000
0.969608 0.263974 0.000000
0.988813 0.266342 0.000000
1.000000 0.272693 0.000000
0.000000 0.375454 0.196999
0.000000 0.383091 0.196852
0.000000 0.386294 0.191748
0.000000 0.386337 0.184503
0.000000 0.384179 0.177473
0.000000 0.381901 0.171225
0.000000 0.379753 0.163937
0.000000 0.377763 0.155631
0.006402 0.376653 0.146579
0.048378 0.379362 0.136993
0.137580 0.384128 0.125769
0.230434 0.389523 0.112787
0.307313 0.396042 0.095632
0.381643 0.402659 0.072398
0.449677 0.403800 0.047845
0.508968 0.398266 0.024726
0.559127 0.386983 0.008930
0.603809 0.373598 0.002212
0.645791 0.360314 0.000228
0.685257 0.347074 0.000000
0.723931 0.334508 0.000000
0.759375 0.324721 0.000000
0.791107 0.318344 0.000000
0.820978 0.314358 0.000000
0.849684 0.312638 0.000000
0.877461 0.312476 0.000000
0.904107 0.313000 0.000000
0.929683 0.313995 0.000000
0.952847 0.312997 0.000000
0.974966 0.312050 0.000000
0.992155 0.312809 0.000000
1.000000 0.316365 0.000000
0.000000 0.424302 0.215211
0.000000 0.436791 0.217673
0.000000 0.441342 0.214001
0.000000 0.440439 0.205972
0.000000 0.436698 0.195948
0.000000 0.433014 0.189025
0.000000 0.429678 0.181102
0.000000 0.426626 0.172343
0.001317 0.424172 0.162642
0.026234 0.423851 0.151953
0.109783 0.427152 0.140502
0.206371 0.432030 0.127991
0.288559 0.437598 0.112745
0.363873 0.443881 0.091480
0.437131 0.449790 0.063902
0.505295 0.452504 0.031826
0.562675 0.447536 0.009208
0.609881 0.436120 0.001828
0.652274 0.422792 0.000059
0.691315 0.408926 0.000000
0.729904 0.395127 0.000000
0.766266 0.382529 0.000000
0.799257 0.372268 0.000000
0.829857 0.364884 0.000000
0.858586 0.360573 0.000000
0.885766 0.358574 0.000000
0.911555 0.357852 0.000000
0.936246 0.357872 0.000000
0.958886 0.357923 0.000000
0.979922 0.357433 0.000000
0.995186 0.357734 0.000000
1.000000 0.360369 0.000000
0.000000 0.471488 0.235173
0.000000 0.483719 0.238306
0.000000 0.488085 0.235880
0.000000 0.487167 0.227567
0.000000 0.483575 0.215386
0.000000 0.479962 0.208092
0.000000 0.476800 0.200024
0.000000 0.473886 0.191232
0.000000 0.471433 0.181275
0.016542 0.469790 0.169914
0.085750 0.471065 0.157777
0.180588 0.474615 0.145385
0.272272 0.479724 0.131529
0.348698 0.485287 0.113273
0.422370 0.491449 0.088877
0.493633 0.497345 0.056692
0.558331 0.499573 0.025625
0.612202 0.494626 0.007695
0.657084 0.483719 0.001156
0.696407 0.469966 0.000000
0.734735 0.455464 0.000000
0.771125 0.441936 0.000000
0.804553 0.430022 0.000000
0.836080 0.419846 0.000000
0.865748 0.411607 0.000000
0.893098 0.406301 0.000000
0.918313 0.403394 0.000000
0.942208 0.401499 0.000000
0.964064 0.400458 0.000000
0.983847 0.400039 0.000000
0.997430 0.400595 0.000000
1.000000 0.402812 0.000000
0.000000 0.514632 0.255725
0.000000 0.523129 0.257781
0.000000 0.526581 0.255928
0.000000 0.526485 0.248339
0.000000 0.524419 0.235416
0.000000 0.522243 0.228149
0.000000 0.520057 0.220361
0.000000 0.517911 0.211909
0.000000 0.516103 0.202165
0.009765 0.514085 0.190668
0.057241 0.513281 0.177782
0.148906 0.514906 0.165195
0.255584 0.519211 0.152388
0.333660 0.524183 0.136809
0.406801 0.529347 0.117320
0.477042 0.534961 0.091738
0.544180 0.540446 0.058724
0.605299 0.543097 0.026891
0.657872 0.539988 0.006227
0.699917 0.528810 0.000000
0.738031 0.513910 0.000000
0.774081 0.500074 0.000000
0.807232 0.487626 0.000000
0.838818 0.475897 0.000000
0.868760 0.465261 0.000000
0.896762 0.456549 0.000000
0.922699 0.449741 0.000000
0.946885 0.444531 0.000000
0.968297 0.441938 0.000000
0.986962 0.440828 0.000000
0.999007 0.441360 0.000000
1.000000 0.443932 0.000000
0.000000 0.555847 0.278916
0.000000 0.562555 0.281110
0.000000 0.565275 0.279664
0.000000 0.565203 0.272714
0.000000 0.563414 0.260002
0.000000 0.561607 0.251007
0.000000 0.559657 0.242820
0.000000 0.557613 0.234527
0.000000 0.555838 0.225043
0.003581 0.553657 0.213696
0.030939 0.551739 0.200599
0.118319 0.551400 0.187532
0.237519 0.553949 0.175001
0.318108 0.558738 0.161614
0.391713 0.563528 0.145882
0.460442 0.568378 0.127081
0.526019 0.573602 0.100377
0.589052 0.579262 0.066573
0.647748 0.583041 0.033996
0.698189 0.580677 0.008680
0.739507 0.569160 0.000305
0.775211 0.555108 0.000041
0.807883 0.542311 0.000000
0.839042 0.530285 0.000000
0.868594 0.519193 0.000000
0.896917 0.508843 0.000000
0.923797 0.499238 0.000000
0.948913 0.490925 0.000000
0.971009 0.485096 0.000000
0.989027 0.481441 0.000000
0.999682 0.480233 0.000000
1.000000 0.482374 0.000000
0.000000 0.596739 0.306353
0.000000 0.604005 0.309772
0.000000 0.606158 0.308686
0.000000 0.605076 0.302098
0.000000 0.602434 0.289981
0.000000 0.599931 0.277780
0.000000 0.597529 0.268741
0.000000 0.595257 0.260395
0.000000 0.593350 0.251115
0.000672 0.591319 0.240244
0.018203 0.589295 0.227654
0.101779 0.587757 0.214337
0.225277 0.588374 0.201448
0.307327 0.592119 0.189252
0.380747 0.596536 0.175954
0.448345 0.601176 0.160675
0.511885 0.605803 0.141213
0.572317 0.610430 0.116213
0.630670 0.615226 0.085159
0.687422 0.620323 0.046682
0.736001 0.616885 0.022074
0.774896 0.606529 0.009876
0.808051 0.594439 0.002056
0.838988 0.582418 0.000069
0.868384 0.571326 0.000000
0.896369 0.560881 0.000000
0.923049 0.550731 0.000000
0.948333 0.540911 0.000000
0.971098 0.531423 0.000000
0.989214 0.524111 0.000000
0.999688 0.519361 0.000000
1.000000 0.518406 0.000000
0.000000 0.634298 0.335374
0.000000 0.640441 0.338871
0.000000 0.641988 0.337836
0.000000 0.640746 0.332173
0.000000 0.638316 0.321526
0.000000 0.636257 0.307331
0.000000 0.634314 0.297853
0.000000 0.632448 0.289914
0.000000 0.630976 0.281142
0.000288 0.629434 0.271107
0.016641 0.627664 0.259259
0.100056 0.625866 0.246321
0.223698 0.625077 0.233221
0.304262 0.626588 0.220659
0.375727 0.629867 0.208695
0.441004 0.633838 0.196065
0.501982 0.637831 0.181026
0.559967 0.641823 0.162493
0.616130 0.645994 0.139355
0.671160 0.650743 0.109962
0.725726 0.654614 0.075525
0.771568 0.652270 0.043792
0.807525 0.643754 0.021044
0.838875 0.632634 0.011474
0.867913 0.621616 0.005676
0.895395 0.611056 0.001880
0.921555 0.600455 0.000206
0.946415 0.589951 0.000000
0.968872 0.579249 0.000000
0.987831 0.569414 0.000000
0.999645 0.561525 0.000000
1.000000 0.556469 0.000000
0.000000 0.666651 0.363866
0.000000 0.670724 0.366523
0.000000 0.672107 0.365872
0.000000 0.671473 0.361834
0.000000 0.670079 0.353621
0.000000 0.669363 0.339249
0.000000 0.668421 0.329668
0.000000 0.667351 0.322230
0.000000 0.666477 0.314379
0.001452 0.665300 0.305046
0.022025 0.663863 0.293839
0.108397 0.662253 0.281612
0.230340 0.660710 0.268530
0.306389 0.660178 0.255080
0.374200 0.661755 0.243260
0.436424 0.664838 0.232368
0.494748 0.668387 0.220455
0.550480 0.671941 0.206225
0.604410 0.675568 0.189686
0.656685 0.679195 0.170381
0.710692 0.684087 0.142771
0.761559 0.688191 0.111258
0.804348 0.687856 0.081530
0.837686 0.679811 0.055562
0.866177 0.668961 0.028016
0.893082 0.658164 0.009249
0.918722 0.647469 0.001006
0.943322 0.636997 0.000000
0.965973 0.626479 0.000000
0.986135 0.616597 0.000000
0.999303 0.607857 0.000000
1.000000 0.600937 0.000000
0.000000 0.700272 0.400354
0.000000 0.702996 0.402372
0.000000 0.703615 0.401479
0.000000 0.702952 0.398069
0.000000 0.701581 0.391404
0.000000 0.701066 0.377539
0.000000 0.700382 0.366908
0.000000 0.699645 0.358510
0.000000 0.698934 0.351155
0.009603 0.698017 0.342434
0.056138 0.696841 0.332154
0.145417 0.695547 0.320977
0.246579 0.694171 0.308704
0.315322 0.692902 0.295218
0.377599 0.692992 0.282696
0.435952 0.695046 0.272360
0.491510 0.698368 0.262740
0.544703 0.701855 0.251885
0.596210 0.705293 0.239507
0.646214 0.708756 0.225270
0.697246 0.712453 0.206865
0.747045 0.717157 0.184773
0.792568 0.721169 0.160252
0.832452 0.721277 0.133357
0.863471 0.714485 0.102754
0.890536 0.704886 0.076207
0.915879 0.694699 0.053948
0.940011 0.684375 0.032186
0.962573 0.674040 0.009539
0.983174 0.664176 0.000478
0.997501 0.655376 0.000000
1.000000 0.648107 0.000000
0.000000 0.732593 0.441120
0.000000 0.734707 0.443202
0.000000 0.734703 0.441871
0.000000 0.733388 0.438127
0.000000 0.731729 0.432200
0.000000 0.730855 0.419551
0.000096 0.730270 0.407789
0.000907 0.729684 0.398340
0.008720 0.729056 0.391542
0.045542 0.728325 0.383562
0.116813 0.727579 0.374234
0.200126 0.726688 0.364156
0.274352 0.725726 0.353056
0.333776 0.724482 0.340319
0.388971 0.723570 0.327201
0.441761 0.724162 0.315556
0.493176 0.726585 0.306351
0.543127 0.729863 0.297898
0.591576 0.733080 0.288305
0.638893 0.736234 0.277118
0.687305 0.739529 0.263124
0.734064 0.743047 0.247115
0.778058 0.747001 0.229727
0.821054 0.751800 0.210749
0.856902 0.751554 0.189761
0.886709 0.746361 0.166513
0.912657 0.738277 0.139057
0.936314 0.728365 0.104404
0.958195 0.717902 0.065011
0.978731 0.707779 0.037999
0.994278 0.698557 0.019104
1.000000 0.691189 0.000165
0.018024 0.760321 0.480759
0.023497 0.761928 0.482923
0.026661 0.761845 0.481696
0.028970 0.760471 0.478161
0.031005 0.758823 0.472860
0.031865 0.758073 0.462409
0.031057 0.757781 0.450500
0.033903 0.757596 0.440789
0.055141 0.757252 0.434682
0.117249 0.756824 0.427662
0.190079 0.756297 0.419207
0.257161 0.755719 0.409935
0.311460 0.755048 0.399839
0.360582 0.754013 0.387913
0.407632 0.752776 0.374809
0.453445 0.751818 0.361248
0.499242 0.752582 0.350490
0.545079 0.755121 0.342677
0.590135 0.757820 0.334731
0.634426 0.760593 0.325821
0.680163 0.763709 0.314830
0.724470 0.766868 0.302672
0.766142 0.770117 0.289880
0.806744 0.773932 0.275774
0.845788 0.778264 0.260109
0.879563 0.778905 0.242426
0.907783 0.774802 0.221028
0.931759 0.766728 0.193608
0.953272 0.756696 0.157920
0.973768 0.746761 0.118102
0.990703 0.737734 0.076150
1.000000 0.730371 0.032825
0.081744 0.784615 0.519721
0.106633 0.786081 0.521905
0.121343 0.786025 0.521316
0.131499 0.785074 0.518482
0.140795 0.783623 0.514117
0.144937 0.783161 0.506426
0.139917 0.783296 0.495545
0.145817 0.783468 0.486018
0.176448 0.783544 0.479954
0.222303 0.783408 0.473788
0.269665 0.783032 0.466199
0.313882 0.782528 0.457680
0.353524 0.781929 0.448106
0.392446 0.781044 0.436850
0.431177 0.779807 0.424203
0.469951 0.778242 0.410217
0.509576 0.777558 0.397377
0.550484 0.778656 0.388077
0.591889 0.780850 0.380958
0.632982 0.783409 0.373916
0.675850 0.786310 0.365405
0.717687 0.789235 0.356019
0.756966 0.792073 0.346070
0.794891 0.795092 0.335222
0.831788 0.798578 0.322551
0.867750 0.802400 0.308180
0.900383 0.804158 0.292487
0.926727 0.801022 0.275098
0.948419 0.792687 0.248400
0.969247 0.784124 0.217500
0.987493 0.776197 0.183738
1.000000 0.769231 0.148159
0.218559 0.809571 0.566103
0.237067 0.810652 0.567891
0.247280 0.810397 0.566741
0.253824 0.809217 0.563711
0.260258 0.807781 0.559371
0.264795 0.807005 0.553211
0.259910 0.806903 0.543464
0.261520 0.807003 0.533712
0.280280 0.807192 0.526721
0.308822 0.807176 0.521335
0.339417 0.807040 0.514669
0.370334 0.806798 0.507453
0.401022 0.806590 0.499408
0.432624 0.806122 0.489870
0.464773 0.805369 0.479007
0.497610 0.804415 0.466904
0.531478 0.803602 0.454032
0.566912 0.803793 0.443233
0.603727 0.805287 0.435733
0.641042 0.807454 0.429747
0.680194 0.809973 0.423131
0.718535 0.812442 0.415633
0.754631 0.814959 0.407596
0.789713 0.817578 0.398839
0.823780 0.820023 0.388608
0.857287 0.823219 0.376774
0.889639 0.826318 0.363565
0.919526 0.827793 0.349361
0.943275 0.824199 0.330705
0.964386 0.817725 0.307108
0.983494 0.810400 0.281172
1.000000 0.804144 0.255859
0.332900 0.831880 0.609492
0.341769 0.832449 0.610565
0.345641 0.831943 0.608991
0.347604 0.830640 0.605664
0.350238 0.829013 0.601405
0.354944 0.828122 0.596733
0.352264 0.827994 0.588564
0.350578 0.828367 0.579430
0.358260 0.828606 0.572081
0.378304 0.828810 0.567736
0.400798 0.828934 0.562293
0.424404 0.828972 0.556487
0.448857 0.829081 0.550081
0.474586 0.828930 0.542218
0.500946 0.828608 0.533056
0.528181 0.828067 0.522711
0.556658 0.827311 0.510794
0.586588 0.826926 0.499038
0.618092 0.827437 0.489869
0.651079 0.829049 0.483847
0.686441 0.831272 0.478472
0.721366 0.833558 0.472752
0.754404 0.835720 0.466721
0.786738 0.838127 0.460136
0.818384 0.840458 0.452413
0.849079 0.842842 0.443181
0.879115 0.845257 0.432059
0.908842 0.847891 0.418869
0.934489 0.847891 0.403029
0.957274 0.845092 0.384364
0.977978 0.840144 0.364314
0.997637 0.834519 0.344275
0.411123 0.851463 0.648470
0.416251 0.851724 0.648990
0.417923 0.850988 0.647380
0.418401 0.849892 0.644240
0.420085 0.848433 0.640546
0.425059 0.847754 0.637509
0.424934 0.847776 0.631315
0.423204 0.848199 0.623599
0.426126 0.848927 0.616648
0.440786 0.849179 0.613054
0.457912 0.849418 0.608767
0.476251 0.849644 0.604133
0.495424 0.849801 0.598734
0.515813 0.849785 0.592095
0.537082 0.849559 0.584282
0.559151 0.849057 0.575189
0.582504 0.848407 0.564524
0.607277 0.847581 0.552639
0.633535 0.847262 0.541693
0.661839 0.848133 0.534430
0.693434 0.849937 0.529871
0.725130 0.852133 0.525831
0.755370 0.854374 0.521750
0.785089 0.856660 0.517434
0.814328 0.858939 0.512089
0.842643 0.861042 0.505248
0.870328 0.863100 0.496437
0.897204 0.864690 0.484978
0.923565 0.866394 0.469967
0.947777 0.866991 0.455939
0.970676 0.865740 0.442302
0.992769 0.862169 0.428028
0.478404 0.870196 0.686786
0.481595 0.870210 0.687021
0.482837 0.869658 0.685661
0.483380 0.868843 0.683244
0.485096 0.867809 0.680503
0.489791 0.867171 0.678552
0.491570 0.867259 0.674391
0.490705 0.867848 0.668260
0.491225 0.868722 0.661885
0.501161 0.869132 0.658457
0.513563 0.869316 0.654565
0.527178 0.869348 0.650401
0.541596 0.869369 0.645578
0.557122 0.869279 0.639647
0.573640 0.868935 0.632696
0.591184 0.868431 0.624651
0.610013 0.867911 0.615507
0.630493 0.867240 0.605281
