gsg/04_Specialty/GSG_LUT_Specialty_BrightBrightBlue.cube
# GSG LUTs 1.0
# Copyright (c) 2016-2020 Greyscalegorilla
# See EULA for licensing and distribution information
# Converted by Briz LUT Converter
LUT_3D_SIZE 5
DOMAIN_MIN 0.000000 0.000000 0.000000
DOMAIN_MAX 0.903226 0.903226 0.903226
0.000000 0.000000 0.000000
0.252196 0.039419 0.099728
0.505873 0.083012 0.156966
0.620662 0.103761 0.164922
0.837276 0.143629 0.150049
0.108929 0.248210 0.137335
0.293847 0.261271 0.157368
0.532639 0.287116 0.163224
0.643814 0.301546 0.153900
0.856148 0.330747 0.116274
0.169428 0.580133 0.143700
0.337462 0.593005 0.126606
0.564565 0.616572 0.087581
0.673201 0.628504 0.064922
0.886904 0.647619 0.050566
0.162125 0.766678 0.082540
0.338302 0.778542 0.061389
0.572059 0.797050 0.048221
0.685503 0.804041 0.074491
0.907030 0.813132 0.114373
0.146788 0.908275 0.045744
0.337585 0.916523 0.058920
0.580236 0.928016 0.108867
0.695986 0.932538 0.116122
0.920708 0.938209 0.118797
0.036512 0.018134 0.210635
0.259974 0.047496 0.253135
0.510648 0.089179 0.303202
0.624790 0.109488 0.317279
0.840616 0.148490 0.322851
0.117287 0.252093 0.282685
0.298862 0.265398 0.303792
0.536051 0.291319 0.322812
0.646847 0.305623 0.323624
0.858699 0.334388 0.309204
0.169970 0.584102 0.320921
0.338255 0.596963 0.314110
0.565426 0.620109 0.293666
0.674181 0.631770 0.280068
0.888844 0.649190 0.274756
0.160140 0.770280 0.290618
0.337734 0.782126 0.277761
0.573000 0.799327 0.274116
0.686792 0.805719 0.278260
0.908816 0.813821 0.287728
0.146594 0.910906 0.273068
0.337669 0.918781 0.276695
0.581023 0.929449 0.284824
0.697018 0.933578 0.288865
0.921994 0.938753 0.292794
0.087258 0.047257 0.536279
0.281776 0.070117 0.561990
0.524652 0.108155 0.596014
0.636890 0.127248 0.607247
0.850439 0.163375 0.616902
0.138665 0.265312 0.581369
0.312740 0.278861 0.596520
0.545557 0.304541 0.613050
0.655237 0.318565 0.616532
0.866004 0.345605 0.613982
0.169583 0.596875 0.616826
0.339738 0.609264 0.615447
0.567569 0.630989 0.608474
0.677323 0.641077 0.605250
0.895449 0.653268 0.612359
0.152507 0.781961 0.607393
0.336560 0.792148 0.605279
0.576203 0.805309 0.611375
0.690972 0.810057 0.616848
0.914238 0.815417 0.629218
0.148130 0.918689 0.610059
0.338202 0.924933 0.614889
0.583410 0.933295 0.625334
0.700035 0.936330 0.630790
0.925747 0.939931 0.639180
0.107716 0.061720 0.689716
0.293088 0.082932 0.711812
0.532223 0.119197 0.741617
0.643373 0.137548 0.751949
0.855867 0.171783 0.762267
0.148407 0.273542 0.728560
0.319535 0.287073 0.742007
0.550434 0.312655 0.757587
0.659552 0.326236 0.761566
0.870003 0.351956 0.762393
0.168006 0.604525 0.762834
0.339786 0.616510 0.762850
0.568508 0.637090 0.760233
0.679983 0.645433 0.762417
0.899401 0.654850 0.774655
0.147987 0.788578 0.760071
0.337054 0.797056 0.763062
0.578140 0.808215 0.773354
0.693404 0.812084 0.780499
0.917358 0.815963 0.795580
0.147395 0.922620 0.771539
0.338275 0.928075 0.777906
0.584498 0.935090 0.790920
0.701566 0.937608 0.797496
0.927757 0.940225 0.807933
0.121178 0.072850 0.804600
0.301312 0.093085 0.824578
0.537729 0.128106 0.852149
0.648178 0.145866 0.862082
0.859942 0.178306 0.873197
0.154805 0.280465 0.840164
0.324365 0.294009 0.852644
0.553978 0.319197 0.867831
0.662769 0.332341 0.872288
0.872992 0.356916 0.875426
0.166064 0.610698 0.874087
0.339464 0.622372 0.875217
0.569685 0.641482 0.876648
0.682182 0.648343 0.881792
0.902551 0.655741 0.897732
0.146922 0.793131 0.877585
0.337357 0.800609 0.882841
0.579535 0.810289 0.896144
0.695271 0.813439 0.904470
0.919824 0.816212 0.921627
0.146392 0.925661 0.893842
0.338110 0.930343 0.901708
0.585275 0.936487 0.916368
0.702570 0.938564 0.923763
0.929056 0.940455 0.935730
