gsg/04_Specialty/GSG_LUT_Specialty_MilySkies.cube
# GSG LUTs 1.0
# Copyright (c) 2016-2020 Greyscalegorilla
# See EULA for licensing and distribution information
# Converted by Briz LUT Converter
LUT_3D_SIZE 32
0.050794 0.061538 0.077167
0.052692 0.062807 0.077664
0.058868 0.064366 0.077947
0.067005 0.066730 0.078727
0.076017 0.070007 0.079704
0.086510 0.073284 0.080539
0.098184 0.076608 0.081894
0.111899 0.080082 0.083658
0.128599 0.083296 0.085612
0.148679 0.086250 0.088062
0.172216 0.088865 0.090330
0.199480 0.090961 0.092686
0.230454 0.092347 0.095301
0.264603 0.092694 0.097972
0.301390 0.092000 0.100382
0.340518 0.090267 0.102651
0.381354 0.087495 0.104793
0.422963 0.083682 0.106408
0.465091 0.078971 0.107385
0.507141 0.074229 0.108141
0.548356 0.070007 0.108425
0.588696 0.066966 0.108094
0.628776 0.066352 0.107070
0.668132 0.068959 0.105628
0.705880 0.075702 0.103360
0.742006 0.087258 0.100642
0.776368 0.101091 0.097255
0.808909 0.116271 0.093513
0.839631 0.131206 0.089511
0.868534 0.145622 0.085706
0.896089 0.159518 0.081925
0.922100 0.172650 0.079121
0.050794 0.071425 0.088574
0.051129 0.073631 0.087420
0.054642 0.075418 0.087113
0.063181 0.077219 0.087587
0.072292 0.079459 0.088319
0.083419 0.081756 0.089091
0.096389 0.084348 0.090037
0.111301 0.087357 0.091004
0.128731 0.090309 0.092753
0.149412 0.093085 0.094503
0.173734 0.095692 0.096493
0.201597 0.097788 0.098908
0.232742 0.099380 0.101159
0.266998 0.100346 0.103419
0.303930 0.100424 0.105570
0.342944 0.099594 0.107460
0.383650 0.097862 0.109090
0.425255 0.095224 0.110457
0.467237 0.091952 0.111280
0.509027 0.088324 0.111481
0.550139 0.085220 0.111476
0.590305 0.083320 0.111137
0.629958 0.083740 0.110278
0.668798 0.087536 0.108730
0.706026 0.094580 0.106589
0.742025 0.104532 0.103927
0.776172 0.116897 0.100738
0.808255 0.129913 0.097254
0.838900 0.143200 0.093078
0.867801 0.156077 0.089251
0.895349 0.168909 0.085257
0.921123 0.181252 0.082681
0.050794 0.083052 0.102060
0.050801 0.083845 0.103176
0.051410 0.086247 0.099931
0.057981 0.087811 0.098624
0.068150 0.089176 0.098464
0.079669 0.091124 0.098507
0.093840 0.093014 0.098966
0.110301 0.095518 0.099599
0.128943 0.098145 0.100815
0.150524 0.101004 0.102114
0.175729 0.103378 0.103746
0.204123 0.105502 0.105558
0.235697 0.107588 0.107247
0.270124 0.108979 0.109238
0.307172 0.109566 0.111121
0.346308 0.109622 0.112734
0.386876 0.108922 0.114080
0.428350 0.107334 0.115041
0.470179 0.105266 0.115507
0.511698 0.103235 0.115599
0.552544 0.101625 0.115426
0.592451 0.101170 0.114826
0.631999 0.102421 0.113719
0.670456 0.106199 0.112277
0.707176 0.112784 0.110185
0.742684 0.121805 0.107519
0.776528 0.132138 0.104158
0.808748 0.143511 0.100847
0.839007 0.155454 0.097143
0.867849 0.167457 0.093393
0.895152 0.179489 0.090117
0.921123 0.191035 0.087376
0.050794 0.095270 0.117366
0.050794 0.095779 0.118538
0.050866 0.097277 0.117548
0.052728 0.099930 0.113978
0.061688 0.101638 0.111306
0.073713 0.103171 0.110603
0.089928 0.104820 0.110335
0.108707 0.107075 0.110410
0.129304 0.109419 0.110910
0.152572 0.111922 0.111695
0.178785 0.114451 0.112758
0.207910 0.116918 0.114072
0.240020 0.119132 0.115536
0.274861 0.121080 0.117092
0.312067 0.122463 0.118563
0.351116 0.123174 0.119655
0.391461 0.123386 0.120399
0.432686 0.122976 0.120877
0.474241 0.122328 0.121190
0.515350 0.121684 0.121109
0.555832 0.121492 0.120675
0.595470 0.122078 0.119831
0.634563 0.123954 0.118650
0.672475 0.128038 0.117191
0.708864 0.134108 0.114934
0.744276 0.142170 0.112222
0.777900 0.151467 0.109244
0.809661 0.161778 0.106027
0.840001 0.172265 0.102575
0.868622 0.182755 0.099323
0.895664 0.193694 0.096568
0.921171 0.204199 0.094529
0.050794 0.108913 0.132049
0.050794 0.109172 0.133026
0.050807 0.109760 0.133852
0.051174 0.112225 0.131707
0.054011 0.115831 0.127421
0.065159 0.117901 0.124310
0.082554 0.119587 0.123149
0.104577 0.121700 0.122770
0.128492 0.124125 0.122636
0.154358 0.126530 0.122997
0.182236 0.129184 0.123779
0.212624 0.131990 0.124701
0.245489 0.134618 0.125644
0.280778 0.136939 0.126574
0.318262 0.138937 0.127293
0.357541 0.140414 0.127852
0.397983 0.141504 0.128401
0.439071 0.142224 0.128590
0.480219 0.142702 0.128415
0.520962 0.143214 0.127981
0.561042 0.143974 0.127287
0.600512 0.145553 0.126333
0.639515 0.148402 0.125141
0.676853 0.152625 0.123518
0.712835 0.158337 0.121375
0.747726 0.165696 0.118738
0.780923 0.174028 0.115820
0.812293 0.183111 0.112860
0.841901 0.192500 0.109900
0.870125 0.201917 0.107198
0.896810 0.211569 0.104995
0.922179 0.221025 0.103100
0.050794 0.125172 0.147450
0.050794 0.125424 0.148253
0.050794 0.125716 0.149238
0.050813 0.126875 0.149512
0.051241 0.130799 0.146223
0.055214 0.135346 0.141874
0.072014 0.138020 0.138448
0.097540 0.140149 0.136823
0.125584 0.142406 0.136380
0.154916 0.145232 0.136469
0.185795 0.148323 0.136813
0.218538 0.151456 0.137085
0.252931 0.154483 0.137518
0.289080 0.157242 0.137831
0.326994 0.159675 0.138024
0.366327 0.161746 0.138077
0.406639 0.163466 0.137995
0.447529 0.164926 0.137780
0.488298 0.166267 0.137305
0.528733 0.167657 0.136594
0.568593 0.169212 0.135665
0.608783 0.171925 0.134491
0.650283 0.176186 0.133175
0.688143 0.181134 0.131500
0.723615 0.187090 0.129378
0.757643 0.193910 0.126953
0.789668 0.201469 0.124440
0.819888 0.209518 0.121988
0.848670 0.217669 0.119548
0.875951 0.225861 0.117566
0.901715 0.234218 0.116065
0.926125 0.242625 0.115160
0.050794 0.145354 0.164528
0.050794 0.145654 0.165489
0.050794 0.145906 0.166513
0.050794 0.146338 0.167597
0.050819 0.148877 0.166595
0.051783 0.154027 0.162700
0.060463 0.159309 0.157842
0.086857 0.162673 0.153897
0.120694 0.165450 0.151645
0.154464 0.168169 0.151058
0.188596 0.171555 0.150845
0.224223 0.175251 0.150733
0.261385 0.178878 0.150735
0.299517 0.182237 0.150545
0.338359 0.184963 0.150337
0.378085 0.187332 0.149870
0.418267 0.189499 0.149292
0.458685 0.191434 0.148579
0.499220 0.193269 0.147611
0.539577 0.195381 0.146554
0.579279 0.197729 0.145467
0.618099 0.200661 0.144259
0.656386 0.204583 0.142652
0.692927 0.209398 0.140707
0.727883 0.215122 0.138690
0.761341 0.221430 0.136476
0.792666 0.228208 0.134082
0.822510 0.235112 0.132002
0.850614 0.242245 0.130071
0.877355 0.249549 0.128564
0.902796 0.256722 0.127383
0.926740 0.264083 0.127150
0.050794 0.168671 0.182591
0.050794 0.169113 0.183300
0.050794 0.169365 0.184320
0.050794 0.169653 0.185516
0.050794 0.170656 0.186293
0.050916 0.174584 0.184194
0.054235 0.180838 0.179495
0.073620 0.187235 0.174262
0.111729 0.191819 0.169635
0.150998 0.194982 0.166675
0.188497 0.198032 0.165363
0.226589 0.201623 0.164961
0.265826 0.205656 0.164688
0.306256 0.209610 0.164276
0.347459 0.213192 0.163630
0.388446 0.216208 0.162729
0.429010 0.218705 0.161761
0.469384 0.220962 0.160654
0.509653 0.223121 0.159336
0.549471 0.225460 0.157985
0.588227 0.228103 0.156524
0.625720 0.230984 0.155140
0.662280 0.234645 0.153515
0.697698 0.239305 0.151570
0.731901 0.244611 0.149553
0.764547 0.250195 0.147384
0.795245 0.256074 0.145377
0.824464 0.262126 0.143417
0.852083 0.268371 0.141899
0.878309 0.274567 0.140672
0.903229 0.280831 0.139994
0.926850 0.287211 0.140139
0.050794 0.196022 0.201308
0.050794 0.196272 0.201887
0.050794 0.196467 0.202773
0.050794 0.196778 0.203822
0.050794 0.197179 0.205192
0.050794 0.199168 0.205403
0.051320 0.204580 0.201916
0.061098 0.212032 0.196701
0.099125 0.219479 0.190806
0.145766 0.225198 0.185162
0.187701 0.228562 0.181199
0.227679 0.231549 0.179511
0.268704 0.235338 0.178920
0.310655 0.239398 0.178287
0.353366 0.243468 0.177494
0.396441 0.247356 0.176532
0.439152 0.250861 0.175304
0.480661 0.253779 0.173910
0.521002 0.256226 0.172361
0.559954 0.258594 0.170672
0.597433 0.260985 0.169025
0.633797 0.263626 0.167447
0.669226 0.266958 0.165696
0.703613 0.271134 0.163732
0.736987 0.275822 0.161764
0.768700 0.280705 0.159762
0.798581 0.285920 0.158003
0.826855 0.291048 0.156359
0.854010 0.296147 0.155051
0.879787 0.301584 0.154196
0.904191 0.306767 0.153970
0.927291 0.312230 0.154823
0.050794 0.226870 0.220284
0.050794 0.227114 0.220964
0.050794 0.227141 0.221564
0.050794 0.227555 0.222529
0.050794 0.227839 0.223844
0.050794 0.228673 0.225188
0.050794 0.231995 0.224038
0.055196 0.238740 0.219773
0.083445 0.246994 0.213817
0.136174 0.255471 0.207130
0.186236 0.262043 0.200496
0.229083 0.265334 0.195698
0.271035 0.268211 0.193427
0.314155 0.272057 0.192327
0.358007 0.276222 0.191429
0.402295 0.280378 0.190555
0.446518 0.284501 0.189421
0.489896 0.288344 0.188065
0.531381 0.291494 0.186484
0.570330 0.293935 0.184749
0.607082 0.296034 0.182985
0.642393 0.298403 0.181220
0.676552 0.301230 0.179282
0.709895 0.304748 0.177266
0.741976 0.308599 0.175438
0.772712 0.312765 0.173591
0.801799 0.317010 0.172071
0.829354 0.321254 0.170844
0.855738 0.325499 0.169721
0.881072 0.329810 0.169455
0.905032 0.334296 0.169649
0.927543 0.338619 0.170948
0.050794 0.260759 0.239442
0.050794 0.261003 0.240031
0.050794 0.261019 0.240711
0.050794 0.261271 0.241514
0.050794 0.261554 0.242796
0.050794 0.262112 0.244226
0.050794 0.263578 0.245060
0.052115 0.268425 0.242688
0.069744 0.276162 0.237553
0.124171 0.285391 0.230878
0.181244 0.294765 0.223377
0.230654 0.301846 0.216091
0.275354 0.305836 0.210624
0.319179 0.308948 0.207577
0.364009 0.312655 0.206069
0.409009 0.316697 0.205065
0.453542 0.320609 0.203971
0.497290 0.324436 0.202792
0.539478 0.327937 0.201472
0.579467 0.330963 0.199891
0.616848 0.333446 0.198258
0.651897 0.335707 0.196603
0.685398 0.338152 0.194747
0.717609 0.340862 0.192811
0.748462 0.343899 0.191065
0.777995 0.347022 0.189515
0.806156 0.350144 0.188274
0.832931 0.353267 0.187307
0.858536 0.356460 0.186672
0.883017 0.359819 0.186764
0.906374 0.363270 0.187559
0.928189 0.366726 0.189208
0.050794 0.297767 0.259033
0.050794 0.298011 0.259608
0.050794 0.298027 0.260134
0.050794 0.298279 0.261002
0.050794 0.298551 0.262117
0.050794 0.298966 0.263517
0.050794 0.299550 0.265057
0.050972 0.301853 0.265133
0.063683 0.308358 0.261445
0.115850 0.317271 0.255484
0.175796 0.327339 0.248289
0.230799 0.337887 0.240365
0.281781 0.346521 0.232732
0.327622 0.350721 0.226547
0.372014 0.353258 0.222596
0.417152 0.356485 0.220492
0.461814 0.359917 0.219305
0.505297 0.363086 0.218386
0.547181 0.366145 0.217326
0.587205 0.369093 0.216058
0.625217 0.371893 0.214882
0.661187 0.374725 0.213635
0.695057 0.377190 0.212190
0.726878 0.379464 0.210629
0.756615 0.381464 0.209166
0.784855 0.383375 0.207812
0.811855 0.385286 0.206743
0.837582 0.387197 0.206098
0.862297 0.389250 0.205962
0.885833 0.391404 0.206493
0.908163 0.393804 0.207560
0.929355 0.396219 0.209721
0.050794 0.337658 0.279357
0.050794 0.337808 0.279712
0.050794 0.337823 0.280241
0.050794 0.338066 0.281138
0.050794 0.338233 0.281964
0.050794 0.338470 0.283312
0.050794 0.338672 0.284871
0.050794 0.339637 0.286188
0.062277 0.343654 0.284996
0.112832 0.351476 0.280452
0.173587 0.361214 0.273912
0.229847 0.372025 0.266251
0.283402 0.382957 0.257695
0.333111 0.390631 0.249019
0.378094 0.393949 0.241935
0.421832 0.395862 0.237162
0.465893 0.398302 0.234625
0.509106 0.400818 0.233555
0.550420 0.403176 0.232754
0.589762 0.405466 0.231901
0.627538 0.407913 0.231124
0.663903 0.410720 0.230330
0.698649 0.413541 0.229584
0.731314 0.416092 0.228757
0.761320 0.417800 0.227961
0.789353 0.419103 0.227233
0.815478 0.420046 0.226517
0.840527 0.420916 0.226192
0.864424 0.421786 0.226467
0.887263 0.422973 0.227273
0.908970 0.424338 0.228783
0.929481 0.425806 0.231368
0.050794 0.378495 0.299626
0.050794 0.378495 0.300127
0.050794 0.378497 0.300541
0.050794 0.378534 0.301201
0.050794 0.378552 0.301989
0.050794 0.378659 0.303060
0.050794 0.378601 0.304514
0.050794 0.378898 0.306155
0.062729 0.380580 0.307025
0.114624 0.385880 0.304743
0.175155 0.394522 0.299260
0.230006 0.404617 0.292173
0.282309 0.415329 0.283896
0.333945 0.425566 0.274482
0.382325 0.432482 0.265250
0.425989 0.435180 0.257632
0.468122 0.436375 0.252151
0.510368 0.437895 0.249223
0.551183 0.439453 0.248187
0.590067 0.440963 0.247729
0.627332 0.442831 0.247305
0.663464 0.445150 0.246893
0.698332 0.447679 0.246668
0.731388 0.450164 0.246673
0.762363 0.452181 0.247007
0.791134 0.453574 0.247315
0.817469 0.454187 0.247592
0.842323 0.454472 0.247957
0.865733 0.454355 0.248539
0.887956 0.454736 0.249701
0.908991 0.455076 0.251767
0.928875 0.455756 0.254724
0.050794 0.418890 0.319934
0.050794 0.418887 0.320434
0.050794 0.418771 0.320808
0.050794 0.418635 0.321325
0.050794 0.418521 0.322013
0.050794 0.418404 0.323043
0.050794 0.418270 0.324259
0.050794 0.418211 0.325856
0.064201 0.418620 0.327609
0.120776 0.421098 0.327794
0.181660 0.427755 0.324169
0.234042 0.436828 0.318011
0.283639 0.446645 0.310527
0.333535 0.456879 0.301708
0.383449 0.466406 0.291956
0.429970 0.472604 0.282404
0.471900 0.474726 0.274126
0.512074 0.475239 0.267926
0.551629 0.475753 0.264771
0.589987 0.476523 0.263985
0.627020 0.477828 0.264076
0.662909 0.479531 0.264138
0.697351 0.481415 0.264365
0.730105 0.483161 0.264987
0.761158 0.484836 0.266097
0.790400 0.486098 0.267422
0.817592 0.486927 0.269049
0.843126 0.487354 0.270857
0.866559 0.486938 0.272544
0.888377 0.486682 0.274484
0.908790 0.486111 0.276947
0.927898 0.486006 0.280310
0.050794 0.457891 0.340218
0.050794 0.457883 0.340604
0.050794 0.457647 0.341108
0.050794 0.457623 0.341624
0.050794 0.457371 0.342283
0.050794 0.457159 0.343207
0.050794 0.457111 0.344386
0.050794 0.456888 0.345832
0.065922 0.456859 0.347631
0.128747 0.457763 0.349355
0.192423 0.461552 0.348390
0.242794 0.468668 0.343797
0.288932 0.477337 0.337118
0.335402 0.486603 0.329110
0.382970 0.496003 0.320098
0.430606 0.504619 0.310091
0.475114 0.510230 0.300211
0.515168 0.512092 0.291521
0.552871 0.511971 0.285061
0.589933 0.511710 0.281920
0.626557 0.512306 0.281366
0.662245 0.513408 0.281819
0.696241 0.514554 0.282783
0.728559 0.515519 0.284087
0.759225 0.516414 0.285748
0.788396 0.517207 0.287796
0.815829 0.517667 0.290442
0.841758 0.518051 0.293413
0.865699 0.517985 0.296855
0.887787 0.517626 0.300353
0.907941 0.516771 0.303971
0.926401 0.516137 0.308094
0.050794 0.494947 0.360763
0.050794 0.494971 0.361043
0.050794 0.495711 0.362157
0.050794 0.495687 0.362672
0.050794 0.495435 0.363331
0.050794 0.495202 0.364256
0.050794 0.495049 0.365410
0.051334 0.494797 0.366726
0.070594 0.494638 0.368395
0.141099 0.494863 0.370538
0.207467 0.496246 0.371720
0.256593 0.500686 0.369541
0.299365 0.507826 0.364180
0.342009 0.516052 0.357030
0.385731 0.524411 0.348912
0.430752 0.532900 0.339641
0.475911 0.540723 0.329566
0.518290 0.545960 0.319681
0.556392 0.547628 0.311001
0.591925 0.547090 0.304509
0.627005 0.546531 0.301158
0.661818 0.546674 0.300680
0.695432 0.547040 0.302010
0.727302 0.547224 0.303964
0.757545 0.547338 0.306276
0.786326 0.547452 0.308975
0.813475 0.547262 0.312271
0.839144 0.547105 0.316002
0.863166 0.546860 0.320453
0.885502 0.546489 0.325581
0.905794 0.546000 0.331135
0.924132 0.545378 0.336957
0.050794 0.530592 0.382102
0.050794 0.530656 0.382536
0.050794 0.532569 0.384222
0.050794 0.532546 0.384739
0.050794 0.532294 0.385409
0.050794 0.532041 0.386301
0.050794 0.531763 0.387357
0.054593 0.531403 0.388672
0.086890 0.531214 0.390311
0.162207 0.531214 0.392430
0.226855 0.531420 0.394571
0.274614 0.533236 0.394938
0.314959 0.538225 0.391630
0.353735 0.545146 0.385579
0.393416 0.552596 0.378243
0.434525 0.560174 0.369996
0.476887 0.567757 0.360856
0.519372 0.574800 0.350979
0.559630 0.579730 0.341216
0.596080 0.581433 0.332518
0.629653 0.580622 0.325893
0.662333 0.579368 0.322492
0.694945 0.578642 0.322530
0.726202 0.578107 0.324654
0.755986 0.577475 0.327577
0.784273 0.576700 0.330932
0.811001 0.575915 0.334761
0.836285 0.575134 0.339127
0.859910 0.574353 0.344115
0.881958 0.573573 0.350095
0.902233 0.573028 0.357008
0.920556 0.572524 0.364622
0.050794 0.564607 0.404317
0.050794 0.564783 0.404979
0.050794 0.565812 0.405979
0.050794 0.565802 0.406507
0.050794 0.565678 0.407263
0.050794 0.565426 0.408059
0.051425 0.565127 0.409114
0.064571 0.564710 0.410430
0.119400 0.564630 0.412068
0.190694 0.564589 0.414156
0.247974 0.564410 0.416457
0.293381 0.564694 0.418259
0.332445 0.567138 0.417509
0.368249 0.572341 0.413256
0.403994 0.578878 0.406928
0.441194 0.585615 0.399715
0.479782 0.592433 0.391730
0.519357 0.599255 0.382783
0.559318 0.605710 0.373184
0.597821 0.610465 0.363621
0.632760 0.611981 0.355158
0.663976 0.610609 0.348810
0.694253 0.608636 0.345643
0.724715 0.607247 0.345996
0.754052 0.605862 0.349110
0.781819 0.604447 0.352992
0.808144 0.603126 0.357362
0.833027 0.601825 0.362349
0.856274 0.600524 0.368000
0.877948 0.599355 0.374647
0.897926 0.598300 0.382196
0.915845 0.597637 0.390917
0.050794 0.595983 0.427051
0.050794 0.596235 0.427650
0.050794 0.596471 0.428164
0.050794 0.596471 0.428817
0.050794 0.596439 0.429457
0.051445 0.596187 0.430359
0.059543 0.595917 0.431289
0.094378 0.595610 0.432638
0.162861 0.595494 0.434393
0.224009 0.595423 0.436437
0.272358 0.595171 0.438551
0.314178 0.594933 0.440704
0.351771 0.595508 0.441978
0.385665 0.598521 0.440204
0.418089 0.603764 0.435412
0.451313 0.609803 0.429167
0.485973 0.615893 0.422145
0.521833 0.621984 0.414377
0.558892 0.627987 0.405901
0.596561 0.633634 0.396762
0.633263 0.637877 0.387760
0.666376 0.639221 0.379768
0.695318 0.637339 0.373844
0.723714 0.634901 0.370572
0.752196 0.632891 0.371574
0.779684 0.630927 0.375564
0.805633 0.629077 0.380550
0.830012 0.627255 0.386204
0.852831 0.625569 0.392623
0.874091 0.623990 0.399910
0.893554 0.622711 0.408276
0.910954 0.621789 0.417779
0.050794 0.625444 0.450935
0.050794 0.625539 0.451440
0.050794 0.625775 0.451949
0.051053 0.625760 0.452550
0.055281 0.625606 0.453239
0.070844 0.625491 0.454096
0.098555 0.625239 0.455109
0.154805 0.625023 0.456572
0.213108 0.624915 0.458237
0.260639 0.624727 0.460136
0.301472 0.624424 0.462153
0.338907 0.623979 0.464287
0.373914 0.623676 0.466471
0.406178 0.624703 0.467094
0.435973 0.628136 0.464399
0.465507 0.633101 0.459323
0.496216 0.638492 0.453293
0.528311 0.643878 0.446618
0.561691 0.649138 0.439280
0.596289 0.654261 0.431260
0.631698 0.659050 0.422795
0.666457 0.662866 0.414229
0.697739 0.663746 0.406838
0.724845 0.661563 0.401360
0.751425 0.658707 0.398199
0.778169 0.656316 0.399854
0.803604 0.653988 0.404819
0.827599 0.651783 0.411051
0.849918 0.649682 0.418230
0.870510 0.647739 0.426357
0.889443 0.646133 0.435446
0.906322 0.644949 0.445886
0.063697 0.653110 0.476545
0.068297 0.652947 0.477049
0.072587 0.653023 0.477553
0.077904 0.653015 0.478065
0.093892 0.652923 0.478693
0.136374 0.652766 0.479633
0.177677 0.652653 0.480704
0.223139 0.652418 0.482083
0.263418 0.652227 0.483616
0.299787 0.651927 0.485328
0.334125 0.651532 0.487345
0.366861 0.651140 0.489389
0.398396 0.650636 0.491646
0.428491 0.650499 0.493595
0.456557 0.651890 0.493354
0.483056 0.655350 0.490139
0.509947 0.659834 0.485065
0.538267 0.664402 0.479259
0.567974 0.668931 0.472888
0.598968 0.673412 0.465962
0.631123 0.677595 0.458515
0.664191 0.681567 0.450437
0.696857 0.684605 0.442344
0.726409 0.685134 0.435432
0.751715 0.682603 0.430279
0.776498 0.679580 0.427559
0.801311 0.676978 0.429717
0.824744 0.674382 0.435452
0.846682 0.671921 0.443144
0.866688 0.669710 0.451962
0.884935 0.667919 0.461903
0.901288 0.666312 0.473213
0.123912 0.677656 0.503454
0.138730 0.677585 0.503958
0.152488 0.677585 0.504463
0.168491 0.677585 0.504983
0.190158 0.677553 0.505685
0.222066 0.677313 0.506514
0.252592 0.677120 0.507424
0.281832 0.676868 0.508701
0.310796 0.676571 0.510034
0.339534 0.676120 0.511510
0.368075 0.675694 0.513403
0.396289 0.675355 0.515420
0.424182 0.674851 0.517559
0.451516 0.674304 0.519811
0.477831 0.674296 0.521268
0.502489 0.676089 0.520334
0.526323 0.679443 0.516618
0.551051 0.683287 0.511688
0.577204 0.687114 0.506222
0.604645 0.690863 0.500263
0.633357 0.694520 0.493858
0.663320 0.698005 0.486884
0.694111 0.701204 0.479293
0.724642 0.703572 0.471517
0.752362 0.703647 0.464774
0.775882 0.700957 0.460363
0.799026 0.698004 0.458226
0.821716 0.695064 0.460493
0.843194 0.692332 0.467457
0.862687 0.689861 0.476874
0.880337 0.687886 0.487499
0.896168 0.686116 0.499586
0.227382 0.699831 0.531947
0.237676 0.699831 0.532270
0.248112 0.699819 0.532774
0.261136 0.699632 0.533284
0.276601 0.699437 0.533853
0.294222 0.699185 0.534452
0.313662 0.698933 0.535268
0.334612 0.698640 0.536341
0.356795 0.698184 0.537461
0.379764 0.697680 0.538811
0.403358 0.697196 0.540467
0.427402 0.696735 0.542297
0.451615 0.696231 0.544291
0.475851 0.695624 0.546484
0.499896 0.695064 0.548615
0.523025 0.695380 0.549625
0.544781 0.697282 0.547844
0.566442 0.700396 0.543985
0.589172 0.703661 0.539250
0.613312 0.706816 0.534227
0.638710 0.709971 0.528745
0.665339 0.712961 0.522796
0.693049 0.715691 0.516218
0.721504 0.718114 0.509041
0.749977 0.719777 0.501638
0.776249 0.719869 0.495597
0.798128 0.717358 0.492026
0.819393 0.714175 0.490508
0.839930 0.711347 0.493478
0.858868 0.708634 0.501705
0.875997 0.706223 0.512937
0.891488 0.704258 0.525803
0.310505 0.718862 0.560369
0.316131 0.718862 0.560629
0.322367 0.718847 0.561133
0.330612 0.718613 0.561637
0.340995 0.718532 0.562141
0.353507 0.718280 0.562715
0.368015 0.718027 0.563641
0.384129 0.717720 0.564539
0.401726 0.717265 0.565757
0.420493 0.716901 0.567088
0.440180 0.716397 0.568679
0.460607 0.715893 0.570444
0.481551 0.715389 0.572324
0.502811 0.714861 0.574454
0.524303 0.714240 0.576716
0.545543 0.713739 0.578710
0.565868 0.714275 0.579108
0.585208 0.716338 0.576758
0.604835 0.718997 0.572884
0.625710 0.721632 0.568643
0.647873 0.724267 0.564015
0.671186 0.726736 0.558957
0.695692 0.729079 0.553493
0.721118 0.731224 0.547412
0.747281 0.732919 0.540756
0.773657 0.734311 0.533892
0.798208 0.734166 0.528240
0.818478 0.731819 0.525487
0.837373 0.728885 0.525311
0.855686 0.725917 0.528793
0.872113 0.723368 0.538988
0.887140 0.721336 0.552397
0.376911 0.735634 0.589783
0.380749 0.735437 0.590043
0.385172 0.735434 0.590534
0.391211 0.735370 0.590854
0.398935 0.735161 0.591384
0.408465 0.734909 0.592107
0.419504 0.734657 0.592902
0.432268 0.734394 0.593769
0.446529 0.734105 0.595029
0.461961 0.733782 0.596361
0.478335 0.733342 0.597888
0.495769 0.732971 0.599589
0.513794 0.732467 0.601499
0.532263 0.731963 0.603498
0.551153 0.731348 0.605766
0.570210 0.730710 0.608012
0.589132 0.730454 0.609708
0.606977 0.731249 0.609462
0.624155 0.733097 0.607023
0.641956 0.735332 0.603552
0.660975 0.737522 0.599719
0.681128 0.739471 0.595461
0.702354 0.741333 0.590856
0.724454 0.743160 0.585921
0.747487 0.744595 0.580357
0.771153 0.745904 0.574222
0.795102 0.746850 0.567971
0.817587 0.746745 0.562678
0.836109 0.744596 0.560886
0.852586 0.741628 0.562126
0.868540 0.738885 0.566382
0.883643 0.737044 0.578920
0.437347 0.750175 0.620347
0.440251 0.750129 0.620601
0.443520 0.749931 0.620891
0.448130 0.749907 0.621186
0.454114 0.749682 0.621881
0.461654 0.749608 0.622492
0.470548 0.749356 0.623459
0.480989 0.749104 0.624491
0.492762 0.748852 0.625804
0.505751 0.748588 0.627347
0.519699 0.748308 0.629071
0.534481 0.748042 0.630895
0.549934 0.747670 0.632897
0.565898 0.747166 0.634992
0.582371 0.746644 0.637260
0.599218 0.746118 0.639628
0.616181 0.745529 0.642047
0.632636 0.745433 0.643515
0.648062 0.746392 0.642826
0.663104 0.748049 0.640268
0.679000 0.749738 0.637137
0.695892 0.751444 0.633798
0.713751 0.752917 0.630039
0.732621 0.754259 0.625955
0.752201 0.755540 0.621550
0.772322 0.756470 0.616502
0.793135 0.757274 0.611093
0.814336 0.757968 0.605170
0.834872 0.757733 0.600136
0.851371 0.755915 0.599286
0.865680 0.753192 0.602294
0.881185 0.751601 0.608460
0.497688 0.763015 0.653228
0.499604 0.762802 0.653480
0.502228 0.762771 0.653732
0.505533 0.762748 0.654011
0.510143 0.762500 0.654543
0.516012 0.762309 0.655092
0.522858 0.762194 0.655881
0.531112 0.761771 0.656725
0.540268 0.761519 0.657828
0.550550 0.761267 0.659131
0.561951 0.760946 0.660593
0.574057 0.760550 0.662293
0.586785 0.760203 0.664036
0.600172 0.759699 0.665976
0.614077 0.759195 0.667902
0.628488 0.758691 0.670069
0.643259 0.758061 0.672370
0.658205 0.757490 0.674685
