gsg/04_Specialty/GSG_LUT_Specialty_Rich_and_Toasty.cube
# GSG LUTs 1.0
# Copyright (c) 2016-2020 Greyscalegorilla
# See EULA for licensing and distribution information
# Converted by Briz LUT Converter
LUT_3D_SIZE 32
0.050794 0.068620 0.040781
0.056584 0.069124 0.041790
0.062271 0.069660 0.042830
0.070109 0.070668 0.044342
0.078428 0.071708 0.045918
0.088590 0.073008 0.047934
0.099413 0.074568 0.049998
0.111536 0.076387 0.052322
0.124960 0.078404 0.054906
0.139612 0.080562 0.057679
0.155303 0.083083 0.060609
0.172208 0.085777 0.063886
0.190200 0.088802 0.067257
0.209169 0.091930 0.070991
0.229446 0.095207 0.074914
0.250809 0.098720 0.078932
0.273244 0.102375 0.083217
0.296751 0.106172 0.087636
0.321344 0.110347 0.092174
0.346946 0.114632 0.096861
0.373477 0.119075 0.101808
0.400859 0.123613 0.107015
0.429280 0.128323 0.112308
0.458561 0.133294 0.117602
0.488621 0.138335 0.123085
0.519461 0.143377 0.128631
0.551286 0.148623 0.134381
0.583725 0.153917 0.140179
0.617126 0.159431 0.146197
0.650880 0.164977 0.152247
0.685604 0.170523 0.158297
0.720635 0.176068 0.164591
0.053567 0.077443 0.043814
0.059364 0.077703 0.044822
0.065289 0.078214 0.045855
0.073158 0.078963 0.047367
0.081697 0.079783 0.048911
0.091861 0.081080 0.050715
0.102793 0.082579 0.052779
0.115312 0.084147 0.055101
0.128743 0.086035 0.057679
0.143545 0.088296 0.060451
0.159591 0.090638 0.063379
0.176588 0.093158 0.066654
0.194930 0.095865 0.070027
0.214309 0.098885 0.073654
0.234735 0.102017 0.077435
0.256225 0.105404 0.081453
0.278916 0.108929 0.085612
0.302549 0.112722 0.089913
0.327291 0.116610 0.094450
0.353145 0.120685 0.099282
0.379776 0.124962 0.104163
0.407331 0.129410 0.109118
0.435840 0.133948 0.114327
0.465304 0.138661 0.119619
0.495622 0.143631 0.125101
0.526716 0.148664 0.130647
0.558595 0.153704 0.136391
0.591035 0.158952 0.142188
0.624656 0.164244 0.147985
0.658442 0.169531 0.153783
0.693403 0.175052 0.160046
0.728449 0.180354 0.166103
0.056371 0.086344 0.047107
0.062153 0.086580 0.048092
0.068093 0.086834 0.048910
0.076198 0.087375 0.050408
0.084742 0.088178 0.051952
0.095010 0.089385 0.053756
0.106340 0.090488 0.055816
0.118929 0.092052 0.058076
0.132621 0.093867 0.060479
0.147678 0.095884 0.063245
0.163974 0.098053 0.066107
0.181153 0.100563 0.069300
0.199606 0.103172 0.072731
0.219235 0.106038 0.076215
0.239922 0.109056 0.079987
0.261665 0.112190 0.083997
0.284486 0.115585 0.088157
0.308394 0.119241 0.092457
0.333366 0.123013 0.096987
0.359236 0.126937 0.101674
0.386025 0.130970 0.106463
0.413836 0.135324 0.111418
0.442604 0.139856 0.116460
0.472153 0.144393 0.121683
0.502659 0.149108 0.127153
0.533819 0.153893 0.132695
0.565899 0.158874 0.138241
0.598391 0.163914 0.143986
0.632014 0.169161 0.149781
0.666021 0.174225 0.155579
0.701012 0.179503 0.161598
0.736295 0.184781 0.167647
0.059624 0.096428 0.050636
0.065201 0.096428 0.051400
0.071157 0.096472 0.052424
0.079478 0.097162 0.053706
0.088101 0.097748 0.055229
0.098771 0.098736 0.057033
0.110170 0.099839 0.059054
0.123019 0.101351 0.061194
0.136971 0.102977 0.063697
0.152222 0.104959 0.066359
0.168616 0.107054 0.069384
0.186128 0.109401 0.072496
0.204885 0.111907 0.075858
0.224635 0.114622 0.079383
0.245582 0.117534 0.083025
0.267474 0.120545 0.086923
0.290437 0.123810 0.091082
0.314593 0.127341 0.095356
0.339814 0.130970 0.099783
0.365945 0.134799 0.104456
0.392847 0.138817 0.109236
0.420836 0.143007 0.114191
0.449848 0.147449 0.119233
0.479633 0.151962 0.124455
0.510216 0.156493 0.129749
0.541565 0.161227 0.135221
0.573729 0.166017 0.140762
0.606428 0.170998 0.146307
0.640102 0.176016 0.152074
0.674111 0.181055 0.157849
0.709323 0.186310 0.163669
0.744614 0.191382 0.169688
0.062712 0.106668 0.054197
0.068510 0.106667 0.054991
0.074467 0.106655 0.055985
0.082842 0.106977 0.057245
0.091697 0.107681 0.058569
0.102430 0.108504 0.060373
0.114063 0.109600 0.062430
0.127172 0.111080 0.064681
0.141376 0.112577 0.067037
0.156864 0.114254 0.069690
0.173518 0.116339 0.072693
0.191212 0.118587 0.075804
0.210087 0.120950 0.079081
0.230097 0.123573 0.082563
0.251304 0.126442 0.086234
0.273457 0.129450 0.090118
0.296680 0.132584 0.094277
0.320958 0.135980 0.098444
0.346326 0.139509 0.102853
0.372697 0.143318 0.107397
0.399867 0.147182 0.112083
0.428107 0.151273 0.117027
0.457212 0.155548 0.122069
0.487030 0.159833 0.127268
0.517816 0.164307 0.132553
0.549248 0.169016 0.137847
0.581761 0.173800 0.143346
0.614553 0.178589 0.148891
0.648430 0.183379 0.154629
0.682490 0.188367 0.160225
0.717735 0.193407 0.166215
0.753027 0.198661 0.172019
0.066281 0.118091 0.058017
0.072078 0.118043 0.058978
0.078050 0.117838 0.059766
0.086648 0.118319 0.061030
0.095758 0.118660 0.062389
0.106689 0.119634 0.064187
0.118429 0.120690 0.066178
0.131767 0.121950 0.068328
0.146176 0.123337 0.070818
0.161767 0.125161 0.073410
0.178681 0.127150 0.076261
0.196635 0.129253 0.079373
0.215770 0.131616 0.082650
0.236023 0.134223 0.086132
0.257468 0.136973 0.089803
0.279880 0.139864 0.093667
0.303364 0.142889 0.097806
0.327786 0.146181 0.101973
0.353318 0.149688 0.106259
0.379819 0.153350 0.110843
0.407279 0.157131 0.115475
0.435696 0.161078 0.120343
0.464965 0.165256 0.125357
0.495031 0.169530 0.130416
0.526077 0.174004 0.135627
0.557738 0.178542 0.140911
0.590180 0.183251 0.146410
0.623136 0.188034 0.151956
0.657076 0.192824 0.157501
0.691339 0.197613 0.163239
0.726803 0.202601 0.169034
0.762141 0.207641 0.174792
0.070062 0.130174 0.062145
0.075907 0.129922 0.062900
0.081881 0.129715 0.063642
0.090543 0.130151 0.064926
0.099845 0.130466 0.066464
0.110890 0.131262 0.068195
0.123023 0.132308 0.070084
0.136456 0.133541 0.072325
0.151125 0.134952 0.074694
0.166976 0.136681 0.077285
0.184135 0.138525 0.080137
0.202334 0.140628 0.083249
0.221742 0.142973 0.086526
0.242140 0.145484 0.089988
0.263726 0.148122 0.093631
0.286399 0.150987 0.097397
0.310143 0.154012 0.101430
0.334824 0.157304 0.105597
0.360589 0.160692 0.109882
0.387331 0.164239 0.114438
0.414919 0.168002 0.119082
0.443523 0.171948 0.123935
0.472908 0.175982 0.128822
0.503174 0.180196 0.133952
0.534444 0.184634 0.139044
0.566189 0.189161 0.144283
0.598984 0.193698 0.149781
0.632047 0.198448 0.155286
0.666178 0.203195 0.160826
0.700505 0.207980 0.166371
0.735972 0.212815 0.172153
0.771515 0.217803 0.177707
0.073953 0.143448 0.066682
0.079995 0.143194 0.067431
0.085982 0.142920 0.067982
0.094834 0.143178 0.069261
0.104218 0.143535 0.070731
0.115515 0.144283 0.072370
0.127872 0.145302 0.074387
0.141597 0.146453 0.076501
0.156498 0.147922 0.078993
0.172634 0.149506 0.081626
0.189968 0.151349 0.084460
0.208382 0.153452 0.087534
0.228086 0.155721 0.090811
0.248658 0.158171 0.094190
0.270479 0.160827 0.097744
0.293382 0.163614 0.101540
0.317386 0.166639 0.105545
0.342328 0.169902 0.109685
0.368239 0.173264 0.113971
0.395158 0.176691 0.118406
0.422971 0.180377 0.123101
0.451816 0.184287 0.127890
0.481460 0.188341 0.132814
0.511946 0.192531 0.137839
0.543309 0.196844 0.142923
0.575225 0.201295 0.148130
0.608105 0.205821 0.153618
0.641397 0.210523 0.158951
0.675610 0.215135 0.164465
0.710126 0.219906 0.169959
0.745660 0.224879 0.175738
0.781204 0.229674 0.181291
0.078302 0.157564 0.071283
0.084346 0.157306 0.072033
0.090393 0.156910 0.072642
0.099270 0.157180 0.073849
0.108914 0.157635 0.075221
0.120440 0.158263 0.076970
0.132924 0.159266 0.078987
0.146968 0.160526 0.081059
0.162015 0.161850 0.083453
0.178468 0.163433 0.086226
0.196034 0.165276 0.088999
0.214769 0.167380 0.091945
0.234661 0.169648 0.095222
0.255570 0.172019 0.098602
0.277594 0.174650 0.102241
0.300658 0.177541 0.106110
0.324890 0.180534 0.110017
0.350092 0.183662 0.114097
0.376226 0.186939 0.118382
0.403379 0.190405 0.122817
0.431370 0.194075 0.127471
0.460388 0.197876 0.132238
0.490273 0.201980 0.137028
0.520879 0.206112 0.141999
0.552405 0.210491 0.147180
0.584465 0.214817 0.152314
0.617527 0.219308 0.157724
0.651014 0.223845 0.163047
0.685480 0.228603 0.168561
0.720020 0.233333 0.173878
0.755798 0.238180 0.179645
0.791414 0.242971 0.185198
0.082910 0.172862 0.076214
0.088960 0.172608 0.076968
0.095192 0.172319 0.077676
0.104218 0.172578 0.078791
0.114049 0.172948 0.080249
0.125775 0.173654 0.081890
0.138483 0.174564 0.083861
0.152657 0.175824 0.085990
0.167973 0.177148 0.088366
0.184584 0.178731 0.091087
0.202489 0.180574 0.093882
0.221483 0.182678 0.096851
0.241593 0.184946 0.100083
0.262695 0.187317 0.103492
0.285029 0.189948 0.107140
0.308325 0.192839 0.110917
0.332724 0.195738 0.114824
0.358186 0.198779 0.118957
0.384475 0.202056 0.123242
0.411812 0.205632 0.127677
0.440135 0.209256 0.132215
0.469330 0.213116 0.136918
0.499416 0.217149 0.141707
0.530282 0.221364 0.146678
0.561873 0.225649 0.151719
0.594283 0.229934 0.156901
0.627429 0.234424 0.162180
0.660978 0.238962 0.167474
0.695616 0.243720 0.172988
0.730307 0.248281 0.178306
0.766200 0.253222 0.184003
0.802072 0.258017 0.189555
0.087778 0.189484 0.081587
0.093907 0.189226 0.082259
0.100161 0.188846 0.082881
0.109520 0.189114 0.084076
0.119432 0.189557 0.085460
0.131266 0.190208 0.087169
0.144235 0.191249 0.089078
0.158691 0.192463 0.091284
0.174340 0.193848 0.093636
0.191184 0.195431 0.096286
0.209256 0.197274 0.099112
0.228458 0.199378 0.102112
0.248894 0.201646 0.105282
0.270363 0.204051 0.108731
0.292879 0.206692 0.112356
0.316340 0.209540 0.116121
0.340999 0.212479 0.120028
0.366722 0.215558 0.124077
0.393271 0.218835 0.128363
0.420820 0.222363 0.132798
0.449261 0.226007 0.137335
0.478654 0.229841 0.142038
0.509001 0.233849 0.146827
0.540069 0.238064 0.151798
0.571826 0.242349 0.156840
0.604411 0.246698 0.161881
0.637657 0.251203 0.167127
0.671369 0.255741 0.172421
0.705888 0.260570 0.177864
0.740740 0.265212 0.183248
0.776326 0.270143 0.188783
0.812123 0.275017 0.194328
0.093080 0.207318 0.087219
0.099287 0.207063 0.087815
0.105547 0.206764 0.088508
0.115011 0.207098 0.089637
0.125183 0.207413 0.091082
0.137264 0.208208 0.092735
0.150420 0.209233 0.094696
0.165118 0.210422 0.096837
0.180967 0.211934 0.099210
0.198094 0.213543 0.101918
0.216457 0.215448 0.104719
0.235865 0.217551 0.107724
0.256528 0.219820 0.111001
0.278204 0.222293 0.114380
0.301020 0.224956 0.117909
0.324789 0.227713 0.121633
0.349663 0.230738 0.125540
0.375604 0.233897 0.129631
0.402414 0.237174 0.133866
0.430121 0.240600 0.138265
0.458758 0.244287 0.142802
0.488412 0.248127 0.147505
0.518957 0.252109 0.152294
0.550137 0.256324 0.157265
0.582240 0.260609 0.162307
0.614920 0.265091 0.167348
0.648450 0.269629 0.172522
0.682141 0.274241 0.177801
0.715880 0.279466 0.183252
0.749773 0.284628 0.188790
0.784223 0.290165 0.194420
0.818796 0.295569 0.200055
0.098783 0.226665 0.093206
0.104930 0.226408 0.093860
0.111292 0.226052 0.094411
0.120919 0.226454 0.095671
0.131266 0.226854 0.096995
0.143597 0.227650 0.098759
0.156942 0.228705 0.100618
0.171860 0.230021 0.102887
0.188090 0.231558 0.105219
0.205431 0.233255 0.107810
0.223994 0.235235 0.110662
0.243769 0.237402 0.113774
0.264631 0.239671 0.117051
0.286471 0.242144 0.120430
0.309618 0.244849 0.123959
0.333734 0.247658 0.127652
0.358787 0.250683 0.131559
0.384911 0.253842 0.135681
0.411981 0.257119 0.139879
0.439949 0.260604 0.144194
0.468786 0.264327 0.148694
0.498666 0.268274 0.153397
0.529359 0.272307 0.158187
0.560754 0.276521 0.163087
0.592971 0.280880 0.168104
0.625665 0.285460 0.173222
0.659300 0.290015 0.178361
0.692710 0.294930 0.183631
0.725124 0.300797 0.189365
0.757317 0.306878 0.195023
0.789738 0.313205 0.200811
0.822325 0.319548 0.206704
0.104636 0.247351 0.099610
0.110938 0.247099 0.100217
0.117451 0.246885 0.100768
0.127183 0.247257 0.102028
0.137655 0.247792 0.103352
0.150254 0.248604 0.105116
0.163890 0.249746 0.106975
0.179030 0.251061 0.109244
0.195521 0.252637 0.111576
0.213122 0.254431 0.114168
0.231944 0.256426 0.117019
0.251980 0.258695 0.120131
0.273103 0.261003 0.123408
0.295202 0.263539 0.126787
0.318563 0.266312 0.130316
0.342933 0.269203 0.134082
0.368299 0.272281 0.137989
0.394628 0.275489 0.142038
0.421911 0.278766 0.146323
0.450140 0.282343 0.150609
0.479206 0.286124 0.155051
0.509260 0.290071 0.159754
0.540181 0.294176 0.164544
0.571607 0.298573 0.169409
0.603298 0.303258 0.174414
0.635429 0.308287 0.179653
0.668028 0.313274 0.185032
0.700461 0.318694 0.190431
0.731896 0.324989 0.196179
0.763061 0.331529 0.201977
0.794549 0.338320 0.207874
0.826059 0.345126 0.213817
0.111048 0.269644 0.106274
0.117350 0.269396 0.106916
0.123880 0.269298 0.107567
0.133861 0.269802 0.108735
0.144494 0.270352 0.110158
0.157330 0.271265 0.111922
0.171135 0.272454 0.113782
0.186649 0.273859 0.116050
0.203400 0.275463 0.118382
0.221262 0.277380 0.121006
0.240344 0.279475 0.123900
0.260640 0.281783 0.126937
0.282023 0.284218 0.130214
0.304383 0.286841 0.133593
0.327990 0.289614 0.137172
0.352617 0.292558 0.140945
0.378260 0.295709 0.144852
0.404771 0.298993 0.148894
0.432251 0.302384 0.153129
0.460740 0.306007 0.157482
0.490086 0.309788 0.161897
0.520316 0.313809 0.166560
0.551373 0.318051 0.171350
0.582467 0.322781 0.176320
0.613137 0.328044 0.181533
0.643903 0.333732 0.186821
0.674637 0.339690 0.192412
0.705446 0.345712 0.197976
0.736330 0.352299 0.203841
0.767118 0.358864 0.209650
0.798582 0.365761 0.215577
0.830092 0.372571 0.221490
0.117838 0.293615 0.113435
0.124259 0.293371 0.113947
0.130804 0.293403 0.114719
0.141033 0.293918 0.115775
0.151805 0.294592 0.117319
0.164901 0.295620 0.119083
0.178967 0.296821 0.120942
0.194714 0.298361 0.123238
0.211634 0.300091 0.125661
0.229790 0.302107 0.128289
0.249179 0.304241 0.131189
0.269655 0.306676 0.134216
0.291344 0.309197 0.137493
0.314036 0.311870 0.140872
0.337910 0.314764 0.144511
0.362742 0.317838 0.148293
0.388576 0.320989 0.152200
0.415412 0.324282 0.156233
0.443205 0.327811 0.160408
0.471664 0.331635 0.164843
0.500773 0.335736 0.169299
0.530529 0.340134 0.174037
0.560897 0.344747 0.178949
0.591149 0.349854 0.184041
0.620999 0.355616 0.189400
0.650753 0.361637 0.194817
0.680499 0.368096 0.200444
0.710457 0.374541 0.206113
0.741010 0.381192 0.212009
0.771634 0.387758 0.217819
0.802974 0.394671 0.223731
0.834479 0.401481 0.229659
0.125023 0.319327 0.120997
0.131573 0.319083 0.121509
0.138241 0.319123 0.122289
0.148506 0.319768 0.123451
0.159636 0.320572 0.124881
0.172883 0.321730 0.126666
0.187208 0.323062 0.128606
0.203187 0.324731 0.130828
0.220270 0.326559 0.133349
0.238723 0.328612 0.135977
0.258461 0.330876 0.138918
0.279197 0.333396 0.142030
0.301195 0.335966 0.145307
0.324172 0.338769 0.148686
0.348233 0.341794 0.152269
0.373325 0.344937 0.156042
0.399419 0.348218 0.160014
0.426515 0.351633 0.164047
0.454569 0.355162 0.168222
0.482825 0.359294 0.172657
0.511251 0.363916 0.177276
0.539885 0.368920 0.182275
0.568683 0.374362 0.187446
0.597617 0.380100 0.192706
0.626687 0.386088 0.197999
0.655994 0.392240 0.203490
0.685561 0.398618 0.209141
0.715499 0.405152 0.214810
0.745937 0.411706 0.220592
0.776549 0.418260 0.226389
0.807889 0.424928 0.232423
0.839269 0.431730 0.238229
0.132735 0.346780 0.129095
0.139289 0.346804 0.129603
0.146081 0.346851 0.130261
0.156509 0.347620 0.131534
0.167869 0.348560 0.132979
0.181273 0.349842 0.134761
0.195859 0.351310 0.136691
0.212098 0.353104 0.138926
0.229476 0.355036 0.141482
0.248249 0.357162 0.144205
0.268191 0.359605 0.147135
0.289267 0.362173 0.150246
0.311525 0.364875 0.153523
0.334769 0.367806 0.156959
0.359093 0.370969 0.160566
0.384306 0.374250 0.164331
0.410315 0.377792 0.168364
0.437045 0.381606 0.172544
0.464615 0.385472 0.176840
0.492294 0.389944 0.181357
0.519989 0.394872 0.186104
0.547859 0.400205 0.191225
0.575737 0.406097 0.196518
0.603942 0.412048 0.201812
0.632581 0.418063 0.207105
0.661604 0.424310 0.212596
0.691136 0.430612 0.218234
0.720959 0.437010 0.223798
0.751381 0.443425 0.229564
0.781882 0.449967 0.235362
0.813199 0.456521 0.241396
0.844594 0.463319 0.247202
0.140801 0.376053 0.137666
0.147497 0.376301 0.138170
0.154303 0.376486 0.138721
0.164951 0.377266 0.140006
0.176473 0.378324 0.141549
0.190137 0.379770 0.143337
0.204982 0.381449 0.145315
0.221514 0.383268 0.147607
0.239253 0.385358 0.150081
0.258273 0.387727 0.152895
0.278451 0.390248 0.155847
0.299742 0.392905 0.158959
0.322352 0.395825 0.162236
0.345902 0.398889 0.165658
0.370500 0.402166 0.169311
0.395601 0.405767 0.173222
0.421220 0.409715 0.177402
0.447144 0.413988 0.181772
0.473444 0.418507 0.186250
0.500137 0.423317 0.190894
0.527135 0.428450 0.195775
0.554530 0.433873 0.200849
0.582112 0.439665 0.206097
0.610162 0.445597 0.211391
0.638773 0.451511 0.216684
0.667592 0.457611 0.222175
0.697168 0.463886 0.227721
0.726790 0.470188 0.233266
0.757178 0.476490 0.239033
0.787680 0.482888 0.244698
0.818890 0.489432 0.250723
0.850250 0.496089 0.256528
0.149466 0.407491 0.146686
0.156265 0.407893 0.147190
0.163080 0.408186 0.147741
0.173893 0.409121 0.149025
0.185675 0.410327 0.150569
0.199599 0.411879 0.152373
0.214705 0.413673 0.154437
0.231520 0.415647 0.156739
0.249572 0.417905 0.159250
0.268806 0.420470 0.162094
0.289284 0.423145 0.165119
0.310696 0.425993 0.168230
0.333381 0.429173 0.171565
0.356848 0.432518 0.175162
0.381156 0.436036 0.178975
0.405905 0.439868 0.182993
0.430979 0.444104 0.187278
0.456273 0.448612 0.191697
0.481830 0.453488 0.196321
0.507895 0.458490 0.201071
0.534403 0.463592 0.205922
0.561363 0.468897 0.210910
0.588849 0.474568 0.216019
0.616802 0.480436 0.221269
0.645258 0.486258 0.226563
0.673961 0.492132 0.232053
0.703392 0.498232 0.237599
0.733030 0.504379 0.243145
0.763290 0.510662 0.248776
0.793777 0.516964 0.254471
0.824987 0.523502 0.260354
0.856095 0.529907 0.266155
0.158541 0.440892 0.156012
0.165349 0.441236 0.156674
0.172476 0.441698 0.157226
0.183402 0.442877 0.158510
0.195444 0.444189 0.160054
0.209628 0.445904 0.161857
0.224994 0.447878 0.163952
0.242070 0.450112 0.166403
0.260382 0.452566 0.168987
0.279876 0.455158 0.171785
0.300614 0.458032 0.174749
0.322163 0.461248 0.178023
0.344665 0.464687 0.181557
0.367623 0.468398 0.185387
0.391121 0.472394 0.189381
0.415177 0.476450 0.193562
0.439681 0.480817 0.197928
0.464548 0.485360 0.202347
0.489845 0.490129 0.206935
0.515591 0.495008 0.211659
0.541802 0.499988 0.216448
0.568545 0.505088 0.221296
0.595926 0.510566 0.226399
0.623673 0.516201 0.231550
0.651991 0.521958 0.236803
0.680673 0.527756 0.242167
0.709892 0.533627 0.247682
0.739572 0.539651 0.253228
0.769616 0.545779 0.258773
0.800079 0.552066 0.264548
0.831289 0.558452 0.270345
0.862303 0.564756 0.276143
0.168112 0.476490 0.166001
0.175092 0.476921 0.166589
0.182407 0.477643 0.167301
0.193651 0.479058 0.168585
0.205825 0.480403 0.170150
0.220413 0.482377 0.172098
0.236008 0.484580 0.174177
0.253210 0.486941 0.176602
0.271740 0.489633 0.179357
0.291275 0.492443 0.182300
0.311932 0.495555 0.185348
0.333310 0.498865 0.188770
0.355468 0.502565 0.192501
0.378039 0.506433 0.196384
0.400985 0.510512 0.200492
0.424425 0.514744 0.204772
0.448495 0.519155 0.209098
0.473059 0.523613 0.213518
0.498096 0.528196 0.217959
0.523582 0.532814 0.222577
0.549533 0.537591 0.227259
0.576187 0.542574 0.232102
0.603388 0.547727 0.237174
0.630998 0.553177 0.242239
0.659165 0.558783 0.247469
0.687676 0.564410 0.252763
0.716791 0.570176 0.258123
0.746313 0.576042 0.263642
0.776257 0.581922 0.269187
0.806712 0.588029 0.274807
0.837762 0.594320 0.280594
0.868935 0.600457 0.286392
0.178290 0.514081 0.176510
0.185521 0.514772 0.177022
0.192858 0.515743 0.177809
0.204428 0.517265 0.179093
0.216801 0.518956 0.180669
0.231719 0.521163 0.182713
0.247558 0.523498 0.184956
0.264918 0.526157 0.187475
0.283509 0.528975 0.190355
0.302971 0.532018 0.193559
0.323312 0.535328 0.196842
0.344223 0.538786 0.200410
0.365890 0.542455 0.204191
0.388023 0.546266 0.208074
0.410650 0.550199 0.212140
0.433844 0.554301 0.216330
0.457613 0.558533 0.220615
0.481917 0.562857 0.224939
0.506694 0.567216 0.229357
0.532026 0.571681 0.233909
0.557783 0.576264 0.238473
0.584113 0.581040 0.243224
0.611024 0.585902 0.248087
0.638560 0.590999 0.253078
0.666532 0.596455 0.258309
0.694923 0.601861 0.263463
0.723877 0.607433 0.268868
0.753303 0.613203 0.274251
0.783237 0.619000 0.279775
0.813529 0.624864 0.285320
0.844492 0.630972 0.291102
0.875741 0.637024 0.296900
0.188987 0.553956 0.187459
0.196301 0.554902 0.188147
0.204006 0.555953 0.188771
0.215835 0.557676 0.190242
0.228445 0.559668 0.191981
0.243465 0.561965 0.194066
0.259530 0.564446 0.196534
0.276947 0.567113 0.199151
0.295491 0.570089 0.202190
0.314693 0.573185 0.205520
0.334622 0.576541 0.209004
0.355200 0.580070 0.212620
0.376464 0.583624 0.216331
0.398228 0.587294 0.220103
0.420609 0.591022 0.224136
0.443482 0.594856 0.228200
0.466991 0.598922 0.232392
0.491035 0.603020 0.236677
0.515656 0.607224 0.240999
0.540848 0.611548 0.245461
0.566373 0.615898 0.249998
0.592516 0.620414 0.254701
0.619074 0.625016 0.259362
0.646350 0.629800 0.264280
0.674221 0.634892 0.269370
0.702449 0.640159 0.274426
0.731309 0.645506 0.279725
0.760565 0.651077 0.285029
0.790476 0.656688 0.290543
0.820532 0.662299 0.296089
0.851479 0.668146 0.301871
0.882548 0.674190 0.307487
0.200205 0.596053 0.198929
0.207718 0.597446 0.199683
0.215743 0.598697 0.200445
0.227833 0.600662 0.202158
0.240696 0.602710 0.204003
0.255860 0.604987 0.206428
0.271819 0.607350 0.208985
0.289150 0.609938 0.211769
0.307336 0.612817 0.214857
0.326260 0.615858 0.218150
0.345884 0.618957 0.221545
0.366202 0.622230 0.225093
0.387181 0.625686 0.228731
0.408673 0.629122 0.232502
0.430887 0.632683 0.236340
0.453570 0.636357 0.240361
0.476818 0.640195 0.244520
0.500601 0.644137 0.248714
0.525000 0.648093 0.252999
0.549841 0.652104 0.257318
0.575155 0.656316 0.261783
0.601148 0.660638 0.266357
0.627555 0.664981 0.271047
0.654608 0.669504 0.275861
0.682121 0.674141 0.280708
0.710213 0.679142 0.285706
0.738902 0.684240 0.290953
0.768073 0.689551 0.296246
0.797805 0.695073 0.301590
0.827784 0.700442 0.307117
0.858726 0.706211 0.312716
0.889732 0.711875 0.318264
0.212139 0.640230 0.211115
0.219906 0.641544 0.211878
0.228001 0.643030 0.212887
0.240351 0.644862 0.214671
0.253423 0.646885 0.216708
0.268487 0.648982 0.219229
0.284488 0.651298 0.221835
0.301433 0.653829 0.224822
0.319316 0.656462 0.227859
0.337979 0.659283 0.230990
0.357343 0.662105 0.234282
0.377331 0.665100 0.237748
0.397999 0.668331 0.241422
0.419351 0.671590 0.245083
0.441242 0.675030 0.248864
0.463681 0.678474 0.252786
0.486771 0.682052 0.256742
0.510294 0.685764 0.260814
0.534432 0.689452 0.264985
0.559100 0.693300 0.269308
0.584244 0.697237 0.273700
0.609997 0.701382 0.278168
0.636183 0.705528 0.282739
0.662991 0.709791 0.287471
0.690354 0.714125 0.292260
0.718104 0.718695 0.297088
0.746670 0.723495 0.302296
0.775661 0.728546 0.307418
0.805317 0.733857 0.312687
0.835291 0.738971 0.318209
0.866043 0.744534 0.323754
0.896845 0.749884 0.329300
0.224853 0.687101 0.224081
0.233084 0.687946 0.225057
0.241380 0.689065 0.226311
0.253759 0.690622 0.228099
0.266682 0.692242 0.230178
0.281646 0.694086 0.232699
0.297326 0.696191 0.235275
0.314091 0.698500 0.238135
0.331555 0.700873 0.241160
0.349958 0.703434 0.244196
0.369062 0.706062 0.247328
0.388773 0.708862 0.250705
0.409169 0.711781 0.254260
0.430289 0.714839 0.257805
0.451899 0.718020 0.261468
0.474075 0.721316 0.265268
0.496928 0.724528 0.269175
0.520192 0.727880 0.273211
0.544070 0.731427 0.277262
0.568632 0.735130 0.281469
0.593613 0.738926 0.285769
0.619106 0.742761 0.290220
0.645032 0.746595 0.294758
0.671580 0.750598 0.299324
0.698719 0.754672 0.304061
0.726346 0.758943 0.308850
0.754722 0.763474 0.313706
0.783460 0.768086 0.318721
0.813084 0.773111 0.323983
0.842866 0.778156 0.329313
0.873559 0.783274 0.334846
0.904313 0.788562 0.340392
0.238347 0.734491 0.237615
0.246665 0.735029 0.238844
0.255191 0.735630 0.240135
0.267368 0.736724 0.241924
0.280228 0.738076 0.243976
0.294960 0.739845 0.246311
0.310312 0.741690 0.248879
0.326716 0.743739 0.251659
0.344055 0.745851 0.254520
0.362197 0.748152 0.257545
0.380973 0.750463 0.260580
0.400354 0.752948 0.263799
0.420545 0.755651 0.267246
0.441275 0.758415 0.270645
0.462720 0.761358 0.274284
0.484650 0.764299 0.278065
0.507134 0.767340 0.281863
0.530253 0.770516 0.285676
