gsg/04_Specialty/GSG_LUT_Specialty_Antiqued.cube
# GSG LUTs 1.0
# Copyright (c) 2016-2020 Greyscalegorilla
# See EULA for licensing and distribution information
# Converted by Briz LUT Converter
LUT_3D_SIZE 32
0.215873 0.157265 0.199756
0.239537 0.157273 0.201008
0.262161 0.157509 0.202017
0.283745 0.157509 0.203001
0.304289 0.157541 0.203726
0.323754 0.157753 0.204230
0.341967 0.157753 0.204734
0.359195 0.157753 0.205238
0.375643 0.157753 0.205680
0.391524 0.157824 0.205932
0.407484 0.157998 0.206184
0.424050 0.157998 0.206349
0.442199 0.157998 0.206444
0.462531 0.158100 0.206593
0.485423 0.158242 0.206593
0.510938 0.158242 0.206475
0.538288 0.158368 0.206223
0.566001 0.158486 0.205837
0.593336 0.158628 0.205191
0.620410 0.158880 0.204435
0.647068 0.159132 0.203679
0.673370 0.159219 0.202923
0.699413 0.159392 0.201993
0.725015 0.159644 0.200803
0.750096 0.160085 0.199732
0.774658 0.160392 0.198527
0.798905 0.160644 0.197267
0.822892 0.160896 0.196006
0.846177 0.161369 0.194525
0.869140 0.161873 0.193241
0.891607 0.162141 0.191744
0.913797 0.162637 0.190232
0.218882 0.181181 0.202009
0.242286 0.181425 0.203001
0.264665 0.181425 0.203749
0.286218 0.181449 0.204474
0.306503 0.181669 0.204978
0.325716 0.181669 0.205474
0.343722 0.181669 0.205924
0.360889 0.181671 0.206174
0.377148 0.181738 0.206357
0.393026 0.181913 0.206426
0.408980 0.181913 0.206593
0.425546 0.181916 0.206591
0.443602 0.182013 0.206582
0.463784 0.182158 0.206475
0.486672 0.182161 0.206220
0.512182 0.182284 0.205845
0.539407 0.182410 0.205337
0.567001 0.182544 0.204820
0.594336 0.182796 0.204030
0.621406 0.183048 0.203165
0.648065 0.183300 0.202245
0.674365 0.183552 0.201231
0.700238 0.183810 0.200042
0.725771 0.184064 0.198779
0.750853 0.184316 0.197513
0.775605 0.184765 0.196053
0.799898 0.185071 0.194739
0.823672 0.185537 0.193265
0.846933 0.185821 0.191745
0.869896 0.186301 0.190232
0.892592 0.186813 0.188712
0.914554 0.187317 0.186955
0.221356 0.204057 0.203742
0.244515 0.204301 0.204474
0.266634 0.204301 0.204978
0.287928 0.204325 0.205465
0.307997 0.204545 0.205924
0.327197 0.204545 0.206173
0.345157 0.204548 0.206409
0.362133 0.204613 0.206593
0.378392 0.204789 0.206589
0.394198 0.204789 0.206578
0.409973 0.204795 0.206573
0.426539 0.204886 0.206475
0.444594 0.205040 0.206223
0.464776 0.205049 0.205964
0.487550 0.205160 0.205586
0.512923 0.205412 0.205065
0.540147 0.205538 0.204427
0.567742 0.205672 0.203528
0.595077 0.205924 0.202646
0.622002 0.206186 0.201583
0.648722 0.206444 0.200470
0.674957 0.206696 0.199280
0.700914 0.207121 0.197842
0.726511 0.207444 0.196499
0.751593 0.207708 0.195045
0.776168 0.208161 0.193520
0.800404 0.208665 0.192004
0.824190 0.209169 0.190478
0.847652 0.209467 0.188743
0.870637 0.209949 0.187192
0.893103 0.210690 0.185443
0.915294 0.211202 0.183678
0.223097 0.225893 0.204979
0.246225 0.226114 0.205458
0.268107 0.226137 0.205924
0.289165 0.226161 0.206174
0.309202 0.226382 0.206401
0.328181 0.226382 0.206593
0.346142 0.226429 0.206589
0.363118 0.226626 0.206564
0.379371 0.226632 0.206489
0.395099 0.226649 0.206319
0.410721 0.226720 0.206216
0.427272 0.226878 0.205947
0.445327 0.226979 0.205686
0.465499 0.227124 0.205317
0.488167 0.227248 0.204703
0.513427 0.227500 0.203935
0.540651 0.227638 0.203142
0.568246 0.227784 0.202108
0.595567 0.228036 0.200973
0.622497 0.228423 0.199795
0.649211 0.228776 0.198520
0.675592 0.229036 0.197085
0.701478 0.229462 0.195573
0.726998 0.229802 0.194043
0.752092 0.230249 0.192506
0.776837 0.230753 0.190791
0.800941 0.231258 0.189212
0.824893 0.231762 0.187483
0.848178 0.232287 0.185718
0.871141 0.232794 0.183932
0.893607 0.233534 0.182166
0.915798 0.234046 0.180377
0.224546 0.246690 0.205924
0.247422 0.246697 0.206175
0.269290 0.246934 0.206394
0.290138 0.246957 0.206593
0.310123 0.247178 0.206589
0.328933 0.247183 0.206557
0.346867 0.247251 0.206483
0.363835 0.247429 0.206231
0.380015 0.247509 0.206034
0.395658 0.247666 0.205940
0.411354 0.247676 0.205609
0.427765 0.247773 0.205180
0.445799 0.247923 0.204813
0.465879 0.248044 0.204296
0.488519 0.248297 0.203649
0.513900 0.248549 0.202757
0.541124 0.248801 0.201623
0.568719 0.249053 0.200462
0.595930 0.249323 0.199160
0.622896 0.249588 0.197791
0.649541 0.249998 0.196340
0.675844 0.250358 0.194817
0.701887 0.250794 0.193282
0.727330 0.251298 0.191579
0.752522 0.251802 0.189814
0.777157 0.252306 0.188025
0.801410 0.252810 0.186254
0.825369 0.253342 0.184462
0.848679 0.254042 0.182665
0.871645 0.254596 0.180698
0.894112 0.255339 0.178890
0.916302 0.255882 0.176880
0.225515 0.266407 0.206389
0.248177 0.266454 0.206593
0.270007 0.266690 0.206591
0.290835 0.266714 0.206550
0.310649 0.266934 0.206483
0.329576 0.266974 0.206231
0.347332 0.267179 0.205979
0.364252 0.267234 0.205718
0.380312 0.267423 0.205435
0.396033 0.267434 0.205172
0.411662 0.267528 0.204813
0.428129 0.267681 0.204309
0.446051 0.267801 0.203790
0.466131 0.268053 0.203142
0.488771 0.268305 0.202253
0.514152 0.268557 0.201226
0.541376 0.268809 0.200071
0.568949 0.269083 0.198677
0.596266 0.269472 0.197283
0.623215 0.269834 0.195832
0.649793 0.270259 0.194147
0.676096 0.270763 0.192521
0.702139 0.271267 0.190823
0.727740 0.271771 0.189029
0.752822 0.272306 0.187254
0.777581 0.272819 0.185293
0.801875 0.273323 0.183448
0.825683 0.274040 0.181464
0.849127 0.274611 0.179448
0.872110 0.275348 0.177623
0.894615 0.276104 0.175619
0.916806 0.276860 0.173603
0.226224 0.284919 0.206593
0.248832 0.285171 0.206546
0.270464 0.285407 0.206530
0.291292 0.285431 0.206274
0.311080 0.285651 0.205979
0.329828 0.285691 0.205719
0.347574 0.285905 0.205418
0.364468 0.285987 0.205084
0.380511 0.286152 0.204667
0.396126 0.286244 0.204309
0.411816 0.286399 0.203790
0.428232 0.286518 0.203253
0.446256 0.286770 0.202636
0.466336 0.287022 0.201769
0.488976 0.287274 0.200766
0.514357 0.287526 0.199614
0.541581 0.287803 0.198305
0.569068 0.288211 0.196865
0.596313 0.288574 0.195325
0.623388 0.288976 0.193643
0.650045 0.289480 0.191878
0.676348 0.289984 0.190114
0.702391 0.290522 0.188316
0.727992 0.291039 0.186356
0.753111 0.291696 0.184492
0.777842 0.292283 0.182520
0.802167 0.292836 0.180503
0.826120 0.293560 0.178446
0.849442 0.294316 0.176423
0.872409 0.295073 0.174406
0.895066 0.295829 0.172344
0.917263 0.296585 0.170326
0.226673 0.302651 0.206538
0.249084 0.302848 0.206292
0.270712 0.303088 0.206220
0.291488 0.303163 0.205898
0.311277 0.303383 0.205468
0.330025 0.303423 0.205128
0.347733 0.303675 0.204624
0.364512 0.303872 0.204150
0.380708 0.303935 0.203750
0.396266 0.304132 0.203246
0.411879 0.304232 0.202663
0.428359 0.304447 0.201973
0.446256 0.304699 0.201266
0.466336 0.304951 0.200348
0.488976 0.305228 0.199307
0.514357 0.305510 0.198020
0.541581 0.305888 0.196507
0.569176 0.306393 0.194873
0.596510 0.306787 0.193194
0.623585 0.307212 0.191396
0.650278 0.307716 0.189610
0.676600 0.308220 0.187808
0.702643 0.308898 0.185852
0.728245 0.309473 0.183836
0.753515 0.310019 0.181776
0.778177 0.310733 0.179747
0.802593 0.311489 0.177684
0.826445 0.312245 0.175494
0.849877 0.313002 0.173403
0.872910 0.313758 0.171330
0.895380 0.314568 0.169127
0.917350 0.315436 0.167269
0.226862 0.319603 0.206286
0.249273 0.319672 0.205971
0.270889 0.319863 0.205703
0.291488 0.320115 0.205211
0.311277 0.320344 0.204813
0.330025 0.320438 0.204309
0.347733 0.320678 0.203793
0.364498 0.320838 0.203197
0.380645 0.320950 0.202536
0.396221 0.321202 0.201985
0.411859 0.321396 0.201402
0.428318 0.321503 0.200624
0.446256 0.321714 0.199827
0.466336 0.321993 0.198866
0.488976 0.322363 0.197605
0.514357 0.322745 0.196196
0.541581 0.323156 0.194619
0.569210 0.323660 0.192942
0.596573 0.324164 0.191141
0.623648 0.324668 0.189200
0.650422 0.325172 0.187300
0.676832 0.325719 0.185348
0.702895 0.326417 0.183331
0.728497 0.326992 0.181268
0.753767 0.327685 0.179095
0.778581 0.328441 0.176986
0.802875 0.329198 0.174753
0.826862 0.329954 0.172642
0.850205 0.330767 0.170397
0.873225 0.331588 0.168246
0.895512 0.332707 0.166344
0.916783 0.333964 0.165127
0.226862 0.335917 0.205963
0.249273 0.336164 0.205465
0.270889 0.336248 0.205124
0.291482 0.336500 0.204536
0.311206 0.336752 0.203867
0.329954 0.337004 0.203289
0.347676 0.337223 0.202692
0.364457 0.337335 0.202032
0.380464 0.337569 0.201410
0.396072 0.337768 0.200704
0.411752 0.338020 0.200071
0.428176 0.338211 0.199228
0.446185 0.338351 0.198287
0.466295 0.338706 0.197282
0.488976 0.339100 0.195990
0.514357 0.339470 0.194454
0.541581 0.339974 0.192690
0.569310 0.340478 0.190886
0.596754 0.340982 0.188948
0.623829 0.341530 0.186931
0.650532 0.342062 0.184915
0.677025 0.342731 0.182850
0.703147 0.343487 0.180760
0.728749 0.344115 0.178542
0.754019 0.344826 0.176407
0.778833 0.345583 0.174178
0.803187 0.346339 0.171909
0.827185 0.347095 0.169640
0.850435 0.348200 0.167564
0.872871 0.349288 0.165839
0.894592 0.350774 0.164452
0.915956 0.352042 0.163362
0.226862 0.352286 0.205380
0.249195 0.352539 0.204874
0.270810 0.352791 0.204277
0.291386 0.353043 0.203537
0.310954 0.353295 0.202930
0.329702 0.353547 0.202174
0.347458 0.353799 0.201450
0.364378 0.354051 0.200827
0.380385 0.354260 0.200071
0.395966 0.354390 0.199315
0.411610 0.354642 0.198533
0.428064 0.354894 0.197637
0.446012 0.355146 0.196628
0.466194 0.355500 0.195485
0.488976 0.355894 0.194068
0.514357 0.356265 0.192438
0.541581 0.356809 0.190632
0.569310 0.357352 0.188696
0.596800 0.357856 0.186679
0.623908 0.358510 0.184614
0.650723 0.359159 0.182516
0.677278 0.359803 0.180306
0.703399 0.360534 0.178038
0.729001 0.361290 0.175769
0.754333 0.362108 0.173500
0.779164 0.362882 0.171168
0.803597 0.363704 0.168884
0.827336 0.364610 0.166890
0.849919 0.366048 0.165324
0.872126 0.367332 0.163958
0.893836 0.368753 0.162929
0.915026 0.370097 0.161755
0.226775 0.369609 0.204537
0.248942 0.369861 0.203939
0.270558 0.370113 0.203182
0.291134 0.370374 0.202426
0.310701 0.370704 0.201659
0.329450 0.370956 0.200827
0.347205 0.371208 0.200054
0.364126 0.371460 0.199228
0.380133 0.371712 0.198472
0.395762 0.371964 0.197690
0.411497 0.372216 0.196794
0.427926 0.372468 0.195786
0.445925 0.372720 0.194744
0.466107 0.373075 0.193514
0.488889 0.373508 0.192013
0.514312 0.373926 0.190292
0.541626 0.374511 0.188357
0.569349 0.375139 0.186293
0.596896 0.375682 0.184237
0.624127 0.376336 0.182071
0.650975 0.377092 0.179746
0.677530 0.377742 0.177447
0.703651 0.378447 0.175178
0.729317 0.379204 0.172845
0.754732 0.380149 0.170487
0.779442 0.381100 0.168212
0.803484 0.382167 0.166164
0.826578 0.383478 0.164788
0.849155 0.384892 0.163463
0.871369 0.386167 0.162425
0.893080 0.387428 0.161416
0.914270 0.388846 0.160495
0.226523 0.388515 0.203435
0.248687 0.388770 0.202675
0.270212 0.389113 0.201821
0.290796 0.389380 0.200977
0.310449 0.389767 0.200189
0.329198 0.390019 0.199205
0.346953 0.390290 0.198322
0.363874 0.390618 0.197369
0.379881 0.390870 0.196588
0.395510 0.391122 0.195691
0.411296 0.391374 0.194683
0.427776 0.391626 0.193641
0.445710 0.391915 0.192477
0.465950 0.392288 0.191177
0.488731 0.392737 0.189641
0.514231 0.393287 0.187758
0.541707 0.393840 0.185693
0.569472 0.394478 0.183497
0.596991 0.395147 0.181315
0.624318 0.395841 0.179051
0.651227 0.396597 0.176649
0.677782 0.397353 0.174263
0.703970 0.398109 0.171897
0.729781 0.398936 0.169490
0.754822 0.400052 0.167286
0.779004 0.401300 0.165518
0.802552 0.402639 0.164056
0.825652 0.404045 0.162854
0.848298 0.405325 0.161826
0.870519 0.406586 0.160906
0.892320 0.407846 0.159995
0.913514 0.409106 0.159329
0.226169 0.409705 0.201969
0.248328 0.410064 0.201103
0.269707 0.410453 0.200095
0.290307 0.410715 0.199100
0.310095 0.411060 0.198220
0.328843 0.411312 0.197195
0.346599 0.411611 0.196101
0.363543 0.412060 0.195124
0.379629 0.412312 0.194226
0.395258 0.412564 0.193218
0.411044 0.412850 0.192176
0.427560 0.413171 0.191048
0.445579 0.413518 0.189814
0.465890 0.413919 0.188346
0.488731 0.414328 0.186664
0.514231 0.414957 0.184731
0.541760 0.415587 0.182536
0.569656 0.416275 0.180211
0.597243 0.417031 0.177896
0.624570 0.417787 0.175478
0.651545 0.418543 0.173048
0.678206 0.419369 0.170578
0.704243 0.420304 0.168202
0.729674 0.421453 0.166226
0.754225 0.422813 0.164630
0.778136 0.424105 0.163283
0.801646 0.425570 0.162101
0.824788 0.426870 0.161070
0.847396 0.428130 0.160246
0.869613 0.429391 0.159486
0.891559 0.430651 0.158928
0.912860 0.431911 0.158423
0.225554 0.433715 0.200095
0.247717 0.434105 0.198972
0.269203 0.434464 0.197857
0.289803 0.434739 0.196838
0.309591 0.435212 0.195716
0.328357 0.435482 0.194590
0.346205 0.435852 0.193448
0.363156 0.436213 0.192326
0.379295 0.436493 0.191232
0.395006 0.436827 0.190192
0.410792 0.437122 0.189062
0.427358 0.437504 0.187885
0.445456 0.437922 0.186545
0.465808 0.438370 0.184930
0.488781 0.438857 0.183116
0.514341 0.439488 0.181055
0.541943 0.440175 0.178729
0.569969 0.440931 0.176273
0.597605 0.441687 0.173830
0.625000 0.442444 0.171366
0.651896 0.443342 0.168916
0.678286 0.444491 0.166733
0.703824 0.445822 0.164936
0.728670 0.447214 0.163559
0.753184 0.448509 0.162280
0.777242 0.449770 0.161212
0.800872 0.451142 0.160296
0.823908 0.452424 0.159497
0.846626 0.453685 0.158959
0.868857 0.454945 0.158432
0.890803 0.456205 0.158270
0.912245 0.457466 0.157998
0.224798 0.460609 0.197723
0.247080 0.460983 0.196345
0.268589 0.461365 0.195093
0.289299 0.461751 0.193939
0.309087 0.462224 0.192572
0.327874 0.462515 0.191332
0.345835 0.462972 0.190177
0.362782 0.463251 0.188916
0.378944 0.463627 0.187689
0.394754 0.463973 0.186522
0.410578 0.464263 0.185302
0.427224 0.464682 0.184082
0.445374 0.465186 0.182600
0.465808 0.465690 0.180913
0.488895 0.466194 0.178985
0.514650 0.466816 0.176728
0.542314 0.467634 0.174272
0.570412 0.468447 0.171687
0.598041 0.469340 0.169250
0.625106 0.470341 0.167045
0.651489 0.471580 0.165124
0.677333 0.472967 0.163600
0.702782 0.474358 0.162299
0.727662 0.475742 0.161214
0.752268 0.477033 0.160295
0.776352 0.478294 0.159504
0.800095 0.479554 0.158845
0.823255 0.480712 0.158423
0.845988 0.481957 0.158148
0.868219 0.483217 0.158006
0.890051 0.484478 0.158112
0.911489 0.485738 0.158234
0.224042 0.489472 0.194572
0.246449 0.489968 0.193190
0.267966 0.490236 0.191799
0.288794 0.490740 0.190397
0.308599 0.491229 0.188900
0.327496 0.491610 0.187530
0.345481 0.491985 0.186245
0.362559 0.492366 0.184883
0.378818 0.492742 0.183623
0.394664 0.493088 0.182326
0.410578 0.493418 0.180976
0.427269 0.493923 0.179671
0.445549 0.494427 0.178140
0.466060 0.494931 0.176323
0.489204 0.495492 0.174264
0.515150 0.496183 0.171817
0.542814 0.497131 0.169361
0.570514 0.498273 0.167105
0.597695 0.499484 0.165131
0.624292 0.500744 0.163524
0.650481 0.502162 0.162254
0.676324 0.503509 0.161124
0.701863 0.504770 0.160083
0.726873 0.506118 0.159351
0.751511 0.507409 0.158823
0.775697 0.508669 0.158422
0.799464 0.509824 0.158154
0.822734 0.510961 0.158013
0.845484 0.512206 0.158111
0.867714 0.513466 0.158359
0.889547 0.514727 0.158734
0.910859 0.515861 0.159242
0.223286 0.518831 0.191043
0.245831 0.519332 0.189637
0.267462 0.519720 0.187995
0.288303 0.520099 0.186469
0.308244 0.520603 0.184836
0.327266 0.521090 0.183341
0.345386 0.521501 0.181921
0.362559 0.521950 0.180464
0.378852 0.522266 0.179169
0.394832 0.522738 0.177738
0.410835 0.523120 0.176305
0.427579 0.523534 0.174910
0.445981 0.524038 0.173217
0.466620 0.524598 0.171294
0.489721 0.525351 0.169210
0.515254 0.526310 0.167176
0.542441 0.527526 0.165265
0.569777 0.528912 0.163585
0.596746 0.530222 0.162178
0.623372 0.531482 0.161010
0.649683 0.532814 0.160045
0.675659 0.534113 0.159266
0.701241 0.535374 0.158708
0.726438 0.536634 0.158310
0.751050 0.537894 0.158133
0.775304 0.539047 0.158019
0.799094 0.540189 0.158222
0.822364 0.541431 0.158499
0.845114 0.542692 0.158875
0.867344 0.543827 0.159494
0.889161 0.545079 0.160265
0.910489 0.546229 0.161156
0.222671 0.547788 0.187231
0.245331 0.548434 0.185569
0.267109 0.548932 0.183811
0.288093 0.549340 0.182156
0.308152 0.549844 0.180532
0.327315 0.550326 0.178896
0.345528 0.550711 0.177356
0.362732 0.551192 0.175753
0.379164 0.551617 0.174320
0.395226 0.552080 0.172848
0.411310 0.552450 0.171424
0.428225 0.552885 0.169848
0.446462 0.553499 0.168285
0.466709 0.554339 0.166727
0.489463 0.555352 0.165137
0.514599 0.556556 0.163714
0.541518 0.557869 0.162348
0.568861 0.559179 0.161060
0.596025 0.560440 0.160041
0.622845 0.561700 0.159266
0.649210 0.562960 0.158617
0.675357 0.564125 0.158268
0.701020 0.565339 0.158130
0.726299 0.566600 0.158024
0.750939 0.567750 0.158217
0.775194 0.568896 0.158510
0.798984 0.570137 0.159093
0.822254 0.571274 0.159744
0.845004 0.572516 0.160522
0.867234 0.573680 0.161548
0.888944 0.574934 0.162696
0.910237 0.576194 0.163992
0.222466 0.576525 0.183197
0.245130 0.577124 0.181283
0.267023 0.577638 0.179509
0.288243 0.578282 0.177614
0.308315 0.578786 0.175934
0.327591 0.579275 0.174185
0.345958 0.579671 0.172529
0.363307 0.580054 0.170906
0.379779 0.580597 0.169317
0.395644 0.581228 0.168030
0.411403 0.581820 0.166863
0.427977 0.582479 0.165595
0.445960 0.583210 0.164428
0.465981 0.584127 0.163322
0.488578 0.585178 0.162217
0.513862 0.586356 0.161183
0.540989 0.587617 0.160154
0.568486 0.588877 0.159265
0.595778 0.590051 0.158620
0.622703 0.591248 0.158260
0.649204 0.592509 0.158065
0.675372 0.593604 0.158099
0.701126 0.594785 0.158253
0.726448 0.595934 0.158519
0.751089 0.597083 0.159206
0.775344 0.598322 0.159899
0.799133 0.599457 0.160888
0.822403 0.600611 0.161953
0.845153 0.601859 0.163103
0.867243 0.603119 0.164635
0.888944 0.604235 0.166204
0.910134 0.605491 0.167868
0.222466 0.604947 0.178849
0.245292 0.605609 0.176835
0.267344 0.606118 0.174903
0.288668 0.606704 0.172910
0.308902 0.607208 0.171125
0.328280 0.607737 0.169248
0.346389 0.608387 0.167724
0.363362 0.608984 0.166517
0.379525 0.609673 0.165326
0.395193 0.610430 0.164416
0.410839 0.611135 0.163570
0.427209 0.611785 0.162725
0.445209 0.612602 0.161818
0.465354 0.613491 0.160942
0.488085 0.614408 0.160188
0.513543 0.615534 0.159384
0.540848 0.616713 0.158746
0.568529 0.617898 0.158320
0.595935 0.619016 0.158070
0.622860 0.620174 0.158094
0.649525 0.621333 0.158257
0.675718 0.622479 0.158692
0.701509 0.623599 0.159269
0.726858 0.624750 0.160027
0.751621 0.625866 0.160991
0.775784 0.627090 0.162184
0.799543 0.628146 0.163573
0.822813 0.629367 0.165133
0.845421 0.630627 0.166719
0.867555 0.631888 0.168614
0.889107 0.633064 0.170541
0.910292 0.634322 0.172626
0.222797 0.633014 0.174146
0.245718 0.633597 0.172130
0.268014 0.634112 0.170113
0.289298 0.634803 0.168152
0.309109 0.635627 0.166719
0.328076 0.636315 0.165267
0.345883 0.637071 0.164158
0.362740 0.637827 0.163321
0.378789 0.638541 0.162503
0.394541 0.639174 0.161795
0.410302 0.639905 0.161156
0.426815 0.640549 0.160459
0.444934 0.641229 0.159843
0.465217 0.642103 0.159242
0.488073 0.643066 0.158777
0.513663 0.644112 0.158362
0.541099 0.645161 0.158114
0.568908 0.646213 0.158033
0.596353 0.647353 0.158190
0.623379 0.648479 0.158579
0.650163 0.649518 0.159216
0.676387 0.650691 0.160087
0.702178 0.651778 0.161131
0.727528 0.652845 0.162287
0.752229 0.654002 0.163723
0.776438 0.655244 0.165370
0.800213 0.656300 0.167054
0.823339 0.657521 0.169094
0.845847 0.658781 0.171200
0.868053 0.660042 0.173379
0.889527 0.661302 0.175727
0.910544 0.662563 0.178329
0.223475 0.660648 0.169357
0.246208 0.661337 0.167530
0.268043 0.662192 0.166050
0.288835 0.662972 0.164608
0.308559 0.663949 0.163526
0.327335 0.664705 0.162484
0.345236 0.665428 0.161668
0.362235 0.666044 0.160951
0.378573 0.666738 0.160374
0.394383 0.667313 0.159817
0.410170 0.668013 0.159346
0.426797 0.668627 0.158973
0.445059 0.669270 0.158648
0.465463 0.670022 0.158322
0.488456 0.670952 0.158107
0.514173 0.671866 0.158034
0.541739 0.672874 0.158176
0.569585 0.673882 0.158534
0.597131 0.674932 0.159075
0.624278 0.676076 0.159864
0.651093 0.677152 0.160929
0.677317 0.678208 0.162234
0.703108 0.679362 0.163773
0.728457 0.680421 0.165392
0.753098 0.681484 0.167254
0.777352 0.682705 0.169337
0.800997 0.683906 0.171459
0.824026 0.685004 0.173856
0.846524 0.686242 0.176460
0.868568 0.687502 0.179087
0.890031 0.688763 0.181950
0.910969 0.690023 0.184899
0.223325 0.688125 0.165473
0.245799 0.689064 0.164093
0.267427 0.689893 0.163019
0.288213 0.690825 0.161970
0.308188 0.691638 0.161148
0.327134 0.692365 0.160366
0.345129 0.692957 0.159797
0.362307 0.693622 0.159283
0.378755 0.694175 0.158966
0.394617 0.694697 0.158649
0.410591 0.695304 0.158352
0.427366 0.695954 0.158164
0.445673 0.696569 0.158099
0.466183 0.697313 0.158034
0.489322 0.698105 0.158079
0.515073 0.698980 0.158442
0.542769 0.699988 0.159068
0.570704 0.700996 0.159858
0.598291 0.702005 0.160878
0.625468 0.703052 0.162047
0.652282 0.704084 0.163517
0.678506 0.705093 0.165317
0.704297 0.706146 0.167248
0.729647 0.707307 0.169334
0.754287 0.708362 0.171662
0.778396 0.709567 0.174103
0.801946 0.710828 0.176711
0.824964 0.711875 0.179566
0.847461 0.713104 0.182682
0.869270 0.714364 0.185659
0.890716 0.715625 0.189031
0.911473 0.717066 0.192430
0.222821 0.715412 0.162700
0.245427 0.716224 0.161643
0.267242 0.716983 0.160830
0.288112 0.717791 0.160040
0.308323 0.718547 0.159479
0.327353 0.719264 0.158958
0.345556 0.719779 0.158649
0.362937 0.720328 0.158352
0.379385 0.720832 0.158149
0.395321 0.721336 0.158092
0.411493 0.721919 0.158035
0.428311 0.722589 0.157998
0.446692 0.723114 0.158144
0.467344 0.723754 0.158455
0.490605 0.724511 0.158846
0.516460 0.725385 0.159633
0.544188 0.726393 0.160584
0.572153 0.727298 0.161773
0.599740 0.728221 0.163314
0.626917 0.729229 0.165080
0.653732 0.730238 0.166997
0.679956 0.731374 0.169123
0.705747 0.732443 0.171468
0.730956 0.733492 0.174057
0.755548 0.734661 0.176905
0.779605 0.735757 0.179816
0.803143 0.736981 0.182932
0.826161 0.738193 0.186143
0.848488 0.739446 0.189584
0.870219 0.740707 0.193181
0.891479 0.741967 0.196898
0.912167 0.743283 0.200622
0.222711 0.741849 0.160573
0.245571 0.742605 0.159776
0.267464 0.743361 0.159223
0.288708 0.744098 0.158694
0.308994 0.744677 0.158393
0.328205 0.745394 0.158132
0.346465 0.745898 0.158083
0.363890 0.746402 0.158034
0.380389 0.746906 0.157998
0.396487 0.747410 0.158055
0.412698 0.747930 0.158258
0.429587 0.748466 0.158531
0.448115 0.748970 0.158974
0.468801 0.749577 0.159541
0.492087 0.750333 0.160332
0.517972 0.751112 0.161505
0.545803 0.752019 0.162919
0.573863 0.753001 0.164602
0.601449 0.753874 0.166549
0.628747 0.754799 0.168666
0.655511 0.755808 0.171140
0.681665 0.756981 0.173799
0.707456 0.758068 0.176647
0.732624 0.759077 0.179610
0.757202 0.760274 0.182775
0.781101 0.761338 0.186162
0.804600 0.762551 0.189798
0.827447 0.763811 0.193482
0.849699 0.765071 0.197386
0.871240 0.766332 0.201366
0.892434 0.767592 0.205541
0.912923 0.768853 0.209729
0.223120 0.767655 0.159171
0.246041 0.768405 0.158634
0.268337 0.768963 0.158342
0.289669 0.769696 0.158073
0.309987 0.770205 0.158032
0.329451 0.770743 0.157998
0.347883 0.771247 0.158037
0.365308 0.771752 0.158249
0.381872 0.772256 0.158513
0.398157 0.772700 0.158888
0.414368 0.773059 0.159272
0.431273 0.773563 0.159888
0.449833 0.774068 0.160472
0.470605 0.774674 0.161375
0.494009 0.775430 0.162572
0.519894 0.776187 0.164028
0.547749 0.777069 0.165964
0.575832 0.777965 0.168154
0.603419 0.778858 0.170501
0.630620 0.779850 0.173090
0.657425 0.780858 0.175964
0.683635 0.781893 0.179087
0.709280 0.782914 0.182456
0.734389 0.784074 0.185904
0.758808 0.785166 0.189541
0.782788 0.786348 0.193438
0.806146 0.787429 0.197423
0.828740 0.788657 0.201594
0.850959 0.789917 0.205833
0.872457 0.791177 0.210269
0.893449 0.792636 0.214962
0.913884 0.793903 0.219465
0.224050 0.792729 0.158336
0.247186 0.793272 0.158060
0.269571 0.793984 0.158027
0.291102 0.794517 0.158018
0.311454 0.795021 0.158238
0.331143 0.795526 0.158457
0.349608 0.795989 0.158724
0.367081 0.796321 0.159196
0.383820 0.796825 0.159730
0.400134 0.797259 0.160383
0.416414 0.797590 0.160944
0.433388 0.798094 0.161764
0.451892 0.798598 0.162720
0.472722 0.799115 0.163900
0.496122 0.799748 0.165476
0.522124 0.800504 0.167412
0.549978 0.801386 0.169758
0.578061 0.802261 0.172363
