gsg/04_Specialty/GSG_LUT_Specialty_FondMemories.cube
# GSG LUTs 1.0
# Copyright (c) 2016-2020 Greyscalegorilla
# See EULA for licensing and distribution information
# Converted by Briz LUT Converter
LUT_3D_SIZE 5
DOMAIN_MIN 0.000000 0.000000 0.000000
DOMAIN_MAX 0.903226 0.903226 0.903226
0.019048 0.015873 0.000000
0.131585 0.059333 0.016275
0.295695 0.091898 0.052802
0.519390 0.103620 0.069361
0.779724 0.106574 0.079594
0.076789 0.132727 0.048879
0.174232 0.170007 0.089274
0.321861 0.203513 0.112031
0.532886 0.218534 0.115808
0.794483 0.219512 0.111124
0.124660 0.288511 0.118768
0.223380 0.313914 0.153563
0.358234 0.347269 0.180758
0.553275 0.367443 0.165572
0.826137 0.377460 0.145121
0.141549 0.467848 0.162188
0.245898 0.481718 0.186004
0.402753 0.512552 0.220556
0.618583 0.555959 0.212334
0.907321 0.586664 0.187127
0.119375 0.684446 0.169861
0.257064 0.716870 0.189901
0.458828 0.757940 0.216813
0.714175 0.798842 0.236186
0.997618 0.840117 0.254251
0.039025 0.037315 0.085478
0.146555 0.078278 0.127484
0.306007 0.104682 0.173227
0.527859 0.110237 0.199825
0.788625 0.108472 0.209781
0.088981 0.149754 0.142155
0.185777 0.180126 0.173674
0.339898 0.204523 0.199530
0.557995 0.210898 0.206285
0.804496 0.217223 0.209297
0.130245 0.299231 0.204381
0.221595 0.323627 0.218817
0.365598 0.349813 0.237507
0.569304 0.363431 0.225878
0.842852 0.380377 0.228911
0.141922 0.472687 0.239625
0.234620 0.491791 0.238990
0.408912 0.523704 0.268691
0.637302 0.561883 0.266740
0.914525 0.596064 0.284348
0.122659 0.694503 0.249593
0.250086 0.734716 0.254388
0.461991 0.773012 0.278799
0.729232 0.810324 0.294772
0.998431 0.851445 0.362173
0.049281 0.047572 0.225468
0.166002 0.083594 0.249319
0.314974 0.117760 0.287767
0.532821 0.118807 0.331159
0.792254 0.113325 0.349364
0.088148 0.163071 0.255423
0.193639 0.186777 0.283532
0.346095 0.212375 0.310371
0.562161 0.214422 0.330417
0.807964 0.218672 0.334527
0.137742 0.309412 0.298652
0.223838 0.331277 0.315196
0.372327 0.350892 0.327804
0.588815 0.363007 0.332374
0.840217 0.395609 0.364031
0.147001 0.477278 0.336721
0.233203 0.501147 0.336762
0.414154 0.536106 0.356683
0.654971 0.568784 0.371971
0.913071 0.612349 0.426451
0.127276 0.706172 0.364144
0.250079 0.749577 0.369254
0.470355 0.786190 0.390775
0.745411 0.820398 0.416931
0.999174 0.866641 0.507672
0.052259 0.050628 0.398330
0.181823 0.079525 0.407196
0.336567 0.115034 0.423030
0.537619 0.127353 0.462763
0.795888 0.118398 0.492930
0.080769 0.171167 0.403628
0.197355 0.187342 0.428092
0.357070 0.213430 0.436689
0.564185 0.219672 0.462696
0.811118 0.221871 0.472973
0.121332 0.322951 0.418449
0.217034 0.337727 0.436564
0.375376 0.352117 0.449683
0.601648 0.368047 0.472122
0.845307 0.409387 0.506588
0.152709 0.483006 0.442571
0.241228 0.511436 0.461670
0.421188 0.546436 0.488861
0.665761 0.579185 0.518251
0.910898 0.633848 0.575257
0.132325 0.718933 0.497939
0.256796 0.761876 0.513543
0.494819 0.792234 0.545332
0.763652 0.830729 0.580706
0.999845 0.885998 0.663247
0.048446 0.046981 0.605057
0.191542 0.069563 0.600588
0.362958 0.097273 0.601857
0.551185 0.127132 0.607777
0.799388 0.123250 0.641422
0.067223 0.173852 0.588525
0.196703 0.184392 0.604068
0.371832 0.202855 0.602046
0.569001 0.222430 0.604515
0.816956 0.226620 0.624169
0.095792 0.332874 0.577269
0.204495 0.341025 0.593766
0.380813 0.352567 0.602489
0.614273 0.375166 0.629408
0.857365 0.421077 0.657406
0.130206 0.497396 0.575162
0.232728 0.525955 0.613139
0.429454 0.555820 0.648678
0.675954 0.592691 0.677085
0.920754 0.653527 0.716472
0.137642 0.732782 0.647167
0.264583 0.774519 0.675200
0.515136 0.803034 0.701107
0.785501 0.844594 0.742715
0.999932 0.910608 0.815255
