gsg/04_Specialty/GSG_LUT_Specialty_Swampy.cube
# GSG LUTs 1.0
# Copyright (c) 2016-2020 Greyscalegorilla
# See EULA for licensing and distribution information
# Converted by Briz LUT Converter
LUT_3D_SIZE 8
DOMAIN_MIN 0.000000 0.000000 0.000000
DOMAIN_MAX 0.903226 0.903226 0.903226
0.050794 0.050794 0.050794
0.124101 0.056387 0.056387
0.189145 0.062161 0.062224
0.276466 0.075954 0.072291
0.377187 0.097239 0.090653
0.496522 0.131388 0.121108
0.612375 0.184734 0.165686
0.684076 0.239742 0.208941
0.094513 0.094702 0.059112
0.149505 0.106782 0.065280
0.209343 0.120052 0.073300
0.305232 0.143027 0.091417
0.408134 0.174859 0.114875
0.538265 0.224823 0.156068
0.642311 0.287621 0.206144
0.706814 0.359003 0.250196
0.156603 0.198417 0.086707
0.179351 0.205254 0.090346
0.229193 0.220898 0.100537
0.326388 0.248147 0.123057
0.424788 0.285591 0.152598
0.556371 0.342088 0.202991
0.656845 0.399435 0.250803
0.722617 0.457800 0.286959
0.171980 0.355579 0.129670
0.185233 0.360835 0.133101
0.249936 0.376781 0.149764
0.347383 0.403832 0.174796
0.449903 0.437773 0.207090
0.582061 0.485691 0.255863
0.679308 0.532423 0.295466
0.755445 0.568881 0.314713
0.164331 0.504912 0.178219
0.195335 0.511559 0.185362
0.278037 0.527669 0.204814
0.371141 0.548509 0.228178
0.491046 0.579103 0.260664
0.622341 0.611246 0.294908
0.727969 0.636335 0.312157
0.802291 0.660071 0.320939
0.221474 0.630139 0.232581
0.256406 0.636645 0.239321
0.325579 0.648702 0.254598
0.426967 0.668761 0.277216
0.568772 0.690278 0.294570
0.689602 0.708285 0.308188
0.780397 0.724597 0.315853
0.846037 0.738454 0.319857
0.345701 0.734208 0.281067
0.375256 0.736563 0.283431
0.446424 0.744818 0.289922
0.557178 0.758509 0.297262
0.664218 0.772405 0.304501
0.755210 0.784683 0.306715
0.827981 0.795131 0.310703
0.885222 0.804487 0.310828
0.548568 0.814668 0.297735
0.568662 0.816267 0.297387
0.614848 0.822059 0.295852
0.680939 0.829494 0.300111
0.749057 0.837532 0.298175
0.813749 0.846474 0.294750
0.872446 0.853069 0.294211
0.918099 0.858647 0.292526
0.051069 0.051069 0.057529
0.119605 0.056328 0.067043
0.186466 0.067060 0.076553
0.282682 0.079305 0.091358
0.387755 0.102796 0.112776
0.519512 0.138491 0.146946
0.630980 0.192335 0.189002
0.696375 0.246735 0.225948
0.089926 0.104567 0.074390
0.141984 0.115737 0.080071
0.203418 0.129656 0.090918
0.302311 0.153539 0.110315
0.406394 0.184973 0.136652
0.540656 0.235700 0.181120
0.648042 0.298235 0.229819
0.716837 0.370344 0.268462
0.153704 0.210286 0.101202
0.176632 0.216717 0.105761
0.223954 0.231678 0.116684
0.323113 0.259690 0.140197
0.424918 0.297367 0.172469
0.558542 0.352496 0.222895
0.661824 0.409314 0.268485
0.729716 0.468905 0.302280
0.163844 0.366309 0.142723
0.175911 0.370115 0.145863
0.240960 0.386197 0.162081
0.343392 0.412938 0.188794
0.449940 0.447681 0.222435
0.584356 0.495317 0.271091
0.683298 0.539415 0.307304
0.763088 0.574300 0.323661
0.144357 0.510275 0.187017
0.177405 0.517077 0.194971
0.268842 0.533243 0.216143
0.367185 0.554913 0.240599
0.490406 0.585700 0.273484
0.625797 0.617168 0.305467
0.732496 0.641561 0.320666
0.808270 0.665024 0.328534
0.203169 0.635099 0.241082
0.241739 0.640771 0.249028
0.317723 0.654157 0.265322
0.423936 0.674137 0.288082
0.570114 0.695334 0.304866
0.693015 0.713289 0.316517
0.783540 0.728870 0.322585
0.850522 0.743811 0.325952
0.334631 0.737350 0.290482
0.367320 0.742133 0.293118
0.442161 0.750013 0.299473
0.555290 0.763281 0.306957
0.665003 0.777149 0.312471
0.757055 0.788839 0.314773
0.831311 0.799095 0.317168
0.887959 0.808368 0.315368
0.543988 0.818224 0.304241
0.564810 0.821525 0.304561
0.612406 0.826009 0.303261
0.680014 0.834597 0.306894
0.749909 0.842724 0.302761
0.814611 0.850042 0.298464
0.874585 0.856600 0.299392
0.919735 0.862051 0.295155
0.051833 0.051833 0.081264
0.111922 0.057874 0.096048
0.181443 0.068019 0.103702
0.278397 0.084155 0.119763
0.386144 0.110138 0.142136
0.517248 0.152248 0.178606
0.634779 0.201048 0.215881
0.706266 0.249429 0.244369
0.086888 0.116162 0.104819
0.132122 0.125329 0.111167
0.196406 0.138953 0.121468
0.297269 0.163127 0.141893
0.406268 0.194887 0.167641
0.547009 0.243998 0.209302
0.655087 0.306408 0.253756
0.722519 0.378689 0.289273
0.151357 0.223112 0.136068
0.173620 0.231136 0.140683
0.217405 0.244937 0.150368
0.317401 0.273645 0.174568
0.422544 0.310293 0.203849
0.560370 0.365260 0.251114
0.667686 0.421030 0.293294
0.740143 0.481215 0.322917
0.146686 0.378954 0.177588
0.156314 0.384198 0.181446
0.221606 0.399827 0.196067
0.335092 0.427855 0.224128
0.446771 0.462078 0.255184
0.585997 0.508223 0.299455
0.690145 0.550276 0.330342
0.776891 0.583999 0.340044
0.118163 0.522828 0.222212
0.133893 0.527480 0.225847
0.243623 0.544569 0.248844
0.356953 0.567300 0.274011
0.486915 0.598368 0.304789
0.630803 0.627830 0.329946
0.739557 0.651409 0.340762
0.819459 0.674243 0.344279
0.156329 0.644841 0.271630
0.201997 0.650687 0.279559
0.294223 0.664828 0.296885
0.414526 0.685043 0.318128
0.569287 0.705604 0.332151
0.696090 0.723010 0.339503
0.789804 0.737906 0.341999
0.859702 0.752458 0.340420
0.298057 0.749965 0.320728
0.338465 0.753854 0.323740
0.425369 0.762033 0.330601
0.548846 0.775245 0.337038
0.664351 0.788608 0.341152
0.759788 0.800031 0.338740
0.836590 0.809665 0.334456
0.896089 0.817882 0.328849
0.527098 0.835216 0.346668
0.552474 0.837261 0.349728
0.605318 0.843096 0.353970
0.678064 0.850336 0.359732
0.751649 0.858144 0.363640
0.820321 0.865061 0.358814
0.880891 0.869774 0.347523
0.926964 0.872562 0.321880
0.053913 0.059191 0.128449
0.101469 0.063999 0.146499
0.172819 0.073991 0.153940
0.271366 0.092298 0.167330
0.383401 0.120885 0.187136
0.518400 0.166385 0.219893
0.633771 0.219195 0.256195
0.710439 0.261770 0.276415
0.081823 0.131304 0.167420
0.122364 0.140691 0.174855
0.184172 0.153270 0.183684
0.286710 0.178147 0.199979
0.399692 0.210995 0.222001
0.544798 0.260456 0.257410
0.659004 0.318579 0.293282
0.729881 0.383552 0.318186
0.142818 0.245149 0.210179
0.164525 0.252442 0.215598
0.207099 0.267141 0.223789
0.303749 0.293788 0.242517
0.415815 0.329893 0.265795
0.560311 0.380929 0.303307
0.671622 0.432574 0.334759
0.745737 0.491080 0.355103
0.115849 0.402786 0.258659
0.122566 0.407187 0.261238
0.177482 0.419978 0.272592
0.315313 0.449353 0.300030
0.436622 0.483458 0.326116
0.584850 0.527519 0.359499
0.700116 0.564535 0.375009
0.788231 0.596252 0.374481
0.103645 0.547292 0.305116
0.105608 0.548221 0.307308
0.181912 0.561144 0.322592
0.330354 0.587501 0.351087
0.475038 0.618663 0.380078
0.634525 0.646397 0.397988
0.750253 0.668348 0.399070
0.831939 0.689250 0.387403
0.115249 0.667094 0.358564
0.126659 0.670541 0.361376
0.221588 0.683606 0.377906
0.388270 0.705293 0.404689
0.562804 0.724814 0.421344
0.699927 0.742648 0.428340
0.799206 0.757187 0.426084
0.872962 0.770454 0.411330
0.158038 0.769103 0.421674
0.233851 0.774555 0.427295
0.373648 0.785690 0.439062
0.530454 0.798692 0.452088
0.661296 0.811250 0.460016
0.764115 0.821536 0.460921
0.845839 0.830818 0.454818
0.908917 0.838621 0.438561
0.484178 0.859409 0.492379
0.516673 0.862291 0.495143
0.582784 0.868951 0.499254
0.667927 0.877248 0.500790
0.750334 0.884570 0.497877
0.825538 0.890221 0.491283
0.891651 0.894518 0.479367
0.941119 0.896562 0.461775
0.057403 0.071882 0.212305
0.084225 0.077127 0.238462
0.157741 0.090253 0.244783
0.256870 0.109518 0.256508
0.375456 0.140888 0.271486
0.514320 0.189077 0.295934
0.632390 0.240665 0.321915
0.707125 0.285299 0.334850
0.079161 0.157472 0.267531
0.113124 0.166966 0.277910
0.163428 0.177687 0.289081
0.266871 0.202020 0.304143
0.386700 0.236154 0.324589
0.533388 0.288863 0.356358
0.654534 0.348239 0.383175
0.736470 0.403920 0.389076
0.129229 0.275714 0.317595
0.146970 0.281824 0.323155
0.185581 0.296316 0.334601
0.277030 0.321621 0.353272
0.398522 0.358506 0.377090
0.550644 0.408825 0.410792
0.671110 0.459504 0.435045
0.757103 0.506934 0.436470
0.101225 0.431932 0.380878
0.102524 0.436619 0.384418
0.115981 0.446466 0.391783
0.274419 0.477019 0.421448
0.413937 0.511632 0.447804
0.574785 0.555032 0.478402
0.709280 0.585109 0.483343
0.805545 0.612523 0.470232
0.108622 0.578085 0.462864
0.108874 0.581298 0.465094
0.114269 0.587615 0.470775
0.268141 0.614509 0.497388
0.450248 0.646393 0.523442
0.633215 0.671554 0.533156
0.758670 0.692383 0.527575
0.847598 0.712280 0.508480
0.120068 0.699781 0.547224
0.120377 0.702187 0.548046
0.123417 0.707570 0.551486
0.317174 0.731110 0.572196
0.539799 0.753377 0.584799
0.695910 0.770467 0.588540
0.804381 0.783538 0.579483
0.884920 0.795464 0.553436
0.141727 0.794146 0.610718
0.143974 0.795096 0.611119
0.249952 0.804344 0.617779
0.480335 0.824015 0.630254
0.639269 0.839377 0.637839
0.756631 0.851564 0.637816
0.848336 0.861401 0.628003
0.916425 0.867866 0.605972
0.399852 0.878056 0.669389
0.445847 0.881838 0.671211
0.529610 0.889805 0.675801
0.633166 0.899610 0.680573
0.728572 0.908739 0.684032
0.811374 0.916799 0.681706
0.884744 0.922869 0.671349
0.942964 0.927205 0.646531
0.062555 0.096814 0.314207
0.075442 0.103466 0.353189
0.133603 0.115255 0.364589
0.234507 0.138504 0.376084
0.359132 0.171497 0.393464
0.503432 0.217348 0.414439
0.626464 0.274158 0.438880
0.703917 0.321454 0.449734
0.079272 0.196721 0.408122
0.102639 0.206832 0.427074
0.148113 0.218054 0.444947
0.231205 0.238717 0.462378
0.362026 0.275169 0.481160
0.515356 0.328879 0.506710
0.643937 0.391085 0.527058
0.734128 0.441854 0.527048
0.111132 0.321301 0.483853
0.124718 0.328889 0.492952
0.154443 0.341846 0.509073
0.225534 0.362446 0.528538
0.366007 0.400584 0.554068
0.527449 0.451444 0.584769
0.660961 0.502020 0.602721
0.767731 0.543025 0.588772
0.101711 0.475154 0.556098
0.102088 0.479452 0.560624
0.103047 0.488480 0.572238
0.204585 0.512610 0.595137
0.371024 0.549388 0.628080
0.558752 0.590734 0.655475
0.710254 0.619837 0.659749
0.814304 0.643889 0.646236
0.114299 0.612523 0.628796
0.114635 0.615493 0.631837
0.115277 0.622457 0.639304
0.167990 0.638810 0.655975
0.407788 0.674722 0.688387
0.618449 0.702053 0.705891
0.758013 0.723330 0.708339
0.855224 0.742051 0.692811
0.125770 0.726134 0.688650
0.126363 0.728375 0.690957
0.127440 0.733104 0.695517
0.215264 0.746791 0.707650
0.499390 0.775304 0.730930
0.678459 0.795550 0.744155
0.798407 0.811270 0.747732
0.884915 0.824800 0.738547
0.157438 0.812683 0.733593
0.158217 0.814135 0.735276
0.160976 0.817883 0.738858
0.409621 0.839547 0.756421
0.605469 0.858412 0.770960
0.737209 0.872717 0.778801
0.835658 0.884363 0.779916
0.909811 0.894113 0.772739
0.273299 0.886317 0.778459
0.342719 0.892303 0.782660
0.469196 0.902677 0.791012
0.594314 0.914599 0.799878
0.701291 0.925434 0.806908
0.792506 0.935058 0.811663
0.870098 0.942759 0.811587
0.930981 0.948743 0.802595
0.071732 0.152728 0.472094
0.077104 0.157052 0.511940
0.112395 0.166577 0.530745
0.194754 0.181766 0.551559
0.330781 0.218539 0.569045
0.479893 0.266438 0.594410
0.614072 0.320292 0.616780
0.696908 0.373152 0.627822
0.083278 0.251584 0.561444
0.096863 0.258714 0.584352
0.135331 0.267890 0.598063
0.204081 0.286332 0.616941
0.328430 0.323035 0.643738
0.488112 0.380892 0.676089
0.628993 0.443540 0.706663
0.729698 0.491389 0.713125
0.102480 0.369492 0.615284
0.106523 0.375694 0.625758
0.120550 0.385642 0.638049
0.166645 0.399401 0.658161
0.324997 0.436652 0.693715
0.500615 0.492537 0.729166
0.657864 0.543579 0.751802
0.773333 0.584653 0.756403
0.106768 0.515123 0.673929
0.107243 0.518484 0.680105
0.107958 0.526508 0.689135
0.132143 0.541475 0.705319
0.316230 0.577224 0.746299
0.537892 0.616906 0.778688
0.705154 0.648927 0.792168
0.813238 0.675686 0.794105
0.118166 0.641792 0.731655
0.118413 0.644483 0.735527
0.119185 0.651239 0.743857
0.122011 0.663070 0.756751
0.343892 0.695005 0.789405
0.593678 0.724015 0.815827
0.748439 0.747525 0.828470
0.850747 0.767376 0.829358
0.136012 0.745327 0.777999
0.137133 0.747787 0.780851
0.139661 0.753194 0.786802
0.147935 0.761432 0.795967
0.438951 0.790186 0.823231
0.653170 0.813685 0.844693
0.785800 0.830792 0.856195
0.877736 0.845601 0.859528
0.167862 0.824861 0.809831
0.168431 0.826058 0.811851
0.170424 0.830919 0.816911
0.298982 0.846316 0.831660
0.563807 0.870868 0.854664
0.713719 0.887259 0.869539
0.821696 0.900793 0.878798
0.900844 0.911765 0.882144
0.196318 0.892294 0.842748
0.214245 0.895154 0.844348
0.372042 0.907543 0.856008
0.547119 0.923346 0.870656
0.672180 0.935782 0.882555
0.772494 0.946757 0.892356
0.856537 0.955716 0.898626
0.921211 0.962852 0.901234
0.078514 0.199417 0.581677
0.079912 0.204081 0.611038
0.106172 0.208389 0.632922
0.171610 0.223054 0.656041
0.304510 0.257325 0.681228
0.455721 0.308391 0.710248
0.601066 0.365522 0.744170
0.691590 0.419138 0.762852
0.088542 0.298479 0.647373
0.093781 0.306616 0.673461
0.113858 0.314033 0.691305
0.162418 0.323204 0.710408
0.291750 0.358547 0.744495
0.461921 0.421075 0.777987
0.618765 0.484664 0.813181
0.734990 0.527334 0.823116
0.101747 0.414593 0.701928
0.102508 0.418477 0.710310
0.107301 0.427243 0.721470
0.121804 0.436898 0.737272
0.273223 0.467024 0.778057
0.469552 0.521287 0.821894
0.655391 0.571981 0.848170
0.776635 0.616095 0.857604
0.110750 0.548662 0.747930
0.111040 0.551873 0.752093
0.111732 0.558611 0.760283
0.112904 0.570294 0.774954
0.235472 0.595933 0.811339
0.505411 0.638567 0.850054
0.695782 0.670369 0.872238
0.813520 0.699148 0.883556
0.121336 0.665405 0.791712
0.121582 0.668460 0.794425
0.122135 0.674209 0.801054
0.123556 0.686171 0.816397
0.236473 0.707299 0.841657
0.557480 0.739876 0.874486
0.734833 0.765101 0.894457
0.844502 0.786751 0.904734
0.145914 0.760408 0.827004
0.146720 0.762288 0.828775
0.149125 0.767617 0.835995
0.153342 0.776819 0.847090
0.336030 0.797901 0.869283
0.619868 0.825800 0.897586
0.769452 0.843845 0.915151
0.869536 0.859766 0.924891
0.175197 0.838269 0.857408
0.175536 0.838807 0.859806
0.177629 0.844043 0.865121
0.188607 0.850547 0.873372
0.501076 0.878014 0.900430
0.684838 0.897216 0.920813
0.804548 0.911559 0.934643
0.891931 0.924056 0.942689
0.197076 0.901156 0.885793
0.197357 0.901660 0.886298
0.218740 0.905388 0.890921
0.470761 0.926307 0.911481
0.632272 0.941718 0.928091
0.748508 0.953921 0.941097
0.840853 0.964758 0.952235
0.911956 0.972414 0.958903
