gsg/04_Specialty/GSG_LUT_Specialty_Painterly.cube
# GSG LUTs 1.0
# Copyright (c) 2016-2020 Greyscalegorilla
# See EULA for licensing and distribution information
# Converted by Briz LUT Converter
LUT_3D_SIZE 32
0.103297 0.107204 0.148474
0.109851 0.107212 0.148474
0.116657 0.107464 0.148490
0.127575 0.107740 0.148742
0.141754 0.108212 0.148962
0.156454 0.108504 0.149002
0.171720 0.109008 0.149301
0.187821 0.109512 0.149695
0.205089 0.110016 0.149821
0.224129 0.110520 0.150254
0.245587 0.111024 0.150427
0.269818 0.111269 0.150427
0.297263 0.110922 0.150427
0.328087 0.110008 0.150223
0.362180 0.108165 0.149829
0.399512 0.105424 0.149340
0.439970 0.101642 0.148458
0.483154 0.096821 0.147048
0.528796 0.091244 0.145000
0.576179 0.085746 0.142282
0.624546 0.081397 0.138627
0.673362 0.080759 0.133932
0.721746 0.085060 0.128024
0.768805 0.094301 0.120454
0.814116 0.107157 0.111064
0.856623 0.121950 0.099657
0.896420 0.136870 0.085966
0.933830 0.151530 0.070787
0.969341 0.165930 0.056292
0.998235 0.179385 0.051061
1.000000 0.192036 0.050794
1.000000 0.204396 0.050794
0.103793 0.112285 0.149994
0.110395 0.112064 0.149994
0.117559 0.112347 0.149971
0.129774 0.113095 0.149749
0.143717 0.113783 0.149773
0.158173 0.114080 0.150016
0.173248 0.114574 0.150262
0.189405 0.115012 0.150514
0.206924 0.115333 0.150766
0.226150 0.115838 0.151016
0.247700 0.116342 0.151184
0.272192 0.116678 0.151184
0.299802 0.116597 0.151089
0.330737 0.116151 0.150837
0.365091 0.115081 0.150475
0.402560 0.113238 0.149848
0.443145 0.110501 0.148836
0.486447 0.107140 0.147312
0.531942 0.103663 0.145263
0.579075 0.100342 0.142537
0.627340 0.098538 0.138874
0.675820 0.099718 0.134005
0.723515 0.104608 0.127837
0.770159 0.113356 0.120188
0.815010 0.124680 0.110595
0.857003 0.137667 0.098742
0.896485 0.150794 0.084945
0.933641 0.164083 0.069762
0.968893 0.177396 0.055040
0.998205 0.190044 0.050979
1.000000 0.201915 0.050794
1.000000 0.213494 0.050794
0.104061 0.118807 0.151806
0.111955 0.119075 0.151782
0.119958 0.119326 0.151545
0.130674 0.119811 0.151508
0.144964 0.120271 0.151300
0.159741 0.120724 0.151281
0.175271 0.120945 0.151299
0.191457 0.121065 0.151538
0.209000 0.121553 0.151786
0.228403 0.122050 0.151956
0.250381 0.122570 0.151961
0.275138 0.123085 0.151966
0.303019 0.123412 0.151867
0.334214 0.123349 0.151618
0.368828 0.122822 0.151247
0.406436 0.121760 0.150506
0.447020 0.120203 0.149372
0.490323 0.118401 0.147960
0.535681 0.116587 0.145866
0.582839 0.115143 0.142887
0.630880 0.115105 0.138963
0.679149 0.117500 0.133835
0.726465 0.123045 0.127395
0.772414 0.131242 0.119469
0.816684 0.141910 0.109441
0.858359 0.153583 0.097634
0.897383 0.165775 0.083464
0.934432 0.178048 0.068189
0.969453 0.189906 0.053337
0.998240 0.201675 0.050868
1.000000 0.212763 0.050794
1.000000 0.223546 0.050794
0.104470 0.128804 0.154327
0.113573 0.129269 0.154052
0.122149 0.129308 0.153823
0.132926 0.129515 0.153592
0.145624 0.129335 0.153542
0.160802 0.129537 0.153271
0.177214 0.129958 0.152857
0.193972 0.130246 0.152877
0.212016 0.130559 0.153011
0.232066 0.130963 0.153018
0.254346 0.131718 0.153106
0.279469 0.132436 0.153177
0.307791 0.132998 0.153026
0.339275 0.133566 0.152816
0.374149 0.133920 0.152315
0.411918 0.133910 0.151562
0.452527 0.133654 0.150415
0.495829 0.133151 0.148716
0.541187 0.132839 0.146380
0.588066 0.133341 0.143222
0.635898 0.135189 0.139014
0.683484 0.138746 0.133601
0.730092 0.144568 0.126731
0.775506 0.152905 0.118292
0.819237 0.162876 0.108079
0.860552 0.173538 0.095665
0.899287 0.184674 0.081121
0.935852 0.195724 0.065644
0.970559 0.206699 0.052242
0.998309 0.217234 0.050808
1.000000 0.227465 0.050794
1.000000 0.237213 0.050794
0.103966 0.140588 0.156942
0.113609 0.140810 0.156484
0.123304 0.141091 0.156438
0.134397 0.141293 0.156189
0.147107 0.141239 0.155993
0.160987 0.140668 0.155897
0.177471 0.140677 0.155493
0.195672 0.141273 0.155185
0.215253 0.142212 0.154799
0.236279 0.142856 0.154828
0.259433 0.143718 0.154947
0.285173 0.144936 0.154914
0.314133 0.146103 0.154799
0.346200 0.147353 0.154521
0.381367 0.148491 0.154012
0.419535 0.149614 0.153107
0.460420 0.150627 0.151781
0.503738 0.151580 0.149685
0.549096 0.152971 0.146954
0.595975 0.155109 0.143354
0.643482 0.158465 0.138605
0.690526 0.163433 0.132639
0.736737 0.170061 0.125261
0.781639 0.178250 0.116287
0.824565 0.187701 0.105302
0.865002 0.197606 0.092245
0.903070 0.207533 0.077196
0.939045 0.217638 0.062109
0.973081 0.227366 0.051707
0.998468 0.236835 0.050794
1.000000 0.245781 0.050794
1.000000 0.254480 0.050794
0.103541 0.154012 0.160534
0.113577 0.154065 0.160282
0.123533 0.154505 0.160027
0.135448 0.154602 0.159762
0.148282 0.154828 0.159736
0.162530 0.154770 0.159557
0.177819 0.154304 0.159518
0.196013 0.154641 0.159242
0.216767 0.155954 0.158791
0.240006 0.157653 0.158487
0.265345 0.159580 0.158141
0.292743 0.161390 0.157781
0.322744 0.163195 0.157432
0.355566 0.165168 0.156886
0.391317 0.167283 0.156054
0.430008 0.169342 0.154840
0.471264 0.171436 0.152994
0.514725 0.173902 0.150494
0.560147 0.176892 0.147192
0.607058 0.180468 0.142918
0.654215 0.185018 0.137456
0.701402 0.191393 0.130736
0.749987 0.199884 0.121919
0.795076 0.208791 0.111802
0.836642 0.217712 0.099615
0.875630 0.226664 0.085493
0.912438 0.235412 0.070111
0.947378 0.244044 0.055929
0.979837 0.252514 0.051122
0.998894 0.260889 0.050794
1.000000 0.268586 0.050794
1.000000 0.276198 0.050794
0.103257 0.169562 0.165970
0.113230 0.169815 0.165763
0.123269 0.170129 0.165453
0.136425 0.170614 0.165035
0.149738 0.170915 0.164987
0.164362 0.171216 0.164945
0.180044 0.171355 0.164936
0.197268 0.171084 0.164820
0.217822 0.172161 0.164413
0.242304 0.174503 0.163776
0.269988 0.177847 0.162858
0.300716 0.181465 0.161838
0.333400 0.184746 0.160792
0.367991 0.187724 0.159588
0.404840 0.190611 0.158207
0.444065 0.193626 0.156361
0.485605 0.196923 0.153970
0.529326 0.200555 0.150875
0.575099 0.204753 0.146836
0.622038 0.209823 0.141665
0.668524 0.215706 0.135361
0.713920 0.222584 0.127999
0.758852 0.230399 0.118870
0.802101 0.238904 0.107612
0.842667 0.247239 0.094107
0.880780 0.255383 0.079139
0.916758 0.263302 0.063910
0.950952 0.270748 0.052694
0.982593 0.278293 0.050851
0.999066 0.285451 0.050794
1.000000 0.292139 0.050794
1.000000 0.298460 0.050794
0.101249 0.187727 0.172075
0.111876 0.187987 0.172005
0.122202 0.188495 0.171570
0.135802 0.189056 0.171313
0.150675 0.189617 0.171011
0.166029 0.190178 0.170789
0.182421 0.190713 0.170696
0.200165 0.191026 0.170529
0.219477 0.191355 0.170487
0.243436 0.193508 0.169727
0.271917 0.197501 0.168453
0.304407 0.202422 0.166887
0.340354 0.207885 0.164929
0.378841 0.213260 0.162672
0.418136 0.217890 0.160314
0.458639 0.222026 0.157746
0.500853 0.226246 0.154591
0.544888 0.231000 0.150581
0.590647 0.236379 0.145526
0.636653 0.242304 0.139555
0.681597 0.248690 0.132526
0.725279 0.255575 0.124308
0.768066 0.263209 0.114106
0.809647 0.271105 0.101588
0.848994 0.278769 0.086977
0.886041 0.286006 0.071553
0.920978 0.292895 0.057551
0.954473 0.299300 0.051390
0.985175 0.305626 0.050794
0.999227 0.311672 0.050794
1.000000 0.317453 0.050794
1.000000 0.322596 0.050794
0.095829 0.209721 0.178313
0.107197 0.210046 0.178061
0.118974 0.210627 0.177805
0.133483 0.211389 0.177471
0.150486 0.212218 0.176990
0.167744 0.213095 0.176673
0.185389 0.213951 0.176368
0.204273 0.214892 0.176101
0.224171 0.215465 0.175847
0.246239 0.216307 0.175572
0.273891 0.219596 0.174403
0.306893 0.225155 0.172384
0.344182 0.231977 0.169954
0.384895 0.239336 0.166717
0.428280 0.246853 0.162908
0.472922 0.253936 0.158779
0.517771 0.260206 0.154160
0.562867 0.266214 0.148957
0.608138 0.272268 0.142897
0.652587 0.278467 0.135912
0.695710 0.284845 0.127882
0.737741 0.291557 0.118433
0.779011 0.298594 0.106731
0.818815 0.305615 0.092838
0.856519 0.312271 0.077317
0.892310 0.318518 0.062535
0.926182 0.324378 0.053009
0.958692 0.329742 0.050911
0.988474 0.335028 0.050794
0.999434 0.339856 0.050794
1.000000 0.344340 0.050794
1.000000 0.348686 0.050794
0.082516 0.236346 0.184080
0.096263 0.236858 0.183899
0.110560 0.237619 0.183631
0.127593 0.238472 0.183120
0.147343 0.239585 0.182542
0.167984 0.240891 0.181965
0.188014 0.242032 0.181449
0.208494 0.243169 0.181125
0.230361 0.244413 0.180611
0.253065 0.245247 0.180265
0.278262 0.246544 0.179577
0.309681 0.250925 0.177841
0.347232 0.258269 0.174954
0.389006 0.266872 0.171107
0.434474 0.276351 0.166322
0.482859 0.286398 0.160446
0.532404 0.296205 0.153596
0.580683 0.304911 0.146055
0.626547 0.312206 0.138123
0.669770 0.318500 0.129863
0.711098 0.324397 0.120485
0.751478 0.330345 0.109355
0.790830 0.336477 0.096023
0.828605 0.342303 0.080914
0.864636 0.347743 0.065781
0.898922 0.352625 0.054597
0.931670 0.357314 0.051101
0.963296 0.361565 0.050794
0.991898 0.365736 0.050794
0.999648 0.369451 0.050794
1.000000 0.372782 0.050794
1.000000 0.376194 0.050794
0.063642 0.268329 0.188885
0.076355 0.268841 0.188798
0.092140 0.269613 0.188530
0.114845 0.270645 0.188003
0.139404 0.271947 0.187246
0.164625 0.273566 0.186478
0.189066 0.275245 0.185719
0.212429 0.276642 0.185230
0.236558 0.278235 0.184496
0.261735 0.279779 0.183781
0.287518 0.280932 0.183050
0.316103 0.282826 0.182082
0.352079 0.288895 0.179462
0.394558 0.298302 0.175188
0.441101 0.308945 0.169664
0.490715 0.320426 0.162579
0.542302 0.332347 0.153899
0.593977 0.344168 0.143536
0.642986 0.354406 0.132159
0.687313 0.361886 0.120768
0.728117 0.367678 0.108748
0.766994 0.372708 0.095375
0.804350 0.377401 0.080873
0.840114 0.381682 0.066699
0.874417 0.385504 0.055648
0.907200 0.389023 0.051306
0.938761 0.392348 0.050794
0.969129 0.395216 0.050794
0.995592 0.398005 0.050794
0.999872 0.400411 0.050794
1.000000 0.402778 0.050794
1.000000 0.404900 0.050794
0.052999 0.306203 0.192737
0.056919 0.306802 0.192482
0.067160 0.307574 0.192130
0.089896 0.308614 0.191594
0.122306 0.310016 0.190760
0.155591 0.311873 0.189936
0.186915 0.314140 0.188796
0.215272 0.316007 0.187881
0.242734 0.317883 0.186972
0.270805 0.319968 0.185874
0.299545 0.322241 0.184721
0.329264 0.324203 0.183617
0.362468 0.327577 0.182146
0.402771 0.334833 0.178475
0.449477 0.345669 0.172351
0.499628 0.357979 0.164232
0.551512 0.370717 0.154169
0.603788 0.383520 0.141895
0.654271 0.395314 0.127681
0.701396 0.405287 0.111587
0.744560 0.412863 0.093815
0.783619 0.417966 0.077003
0.819651 0.421322 0.063886
0.853464 0.423686 0.055304
0.885950 0.425711 0.051398
0.917072 0.427428 0.050794
0.947267 0.429071 0.050794
0.975970 0.430515 0.050794
0.997734 0.431765 0.050794
0.999980 0.432926 0.050794
1.000000 0.433997 0.050794
1.000000 0.434905 0.050794
0.050794 0.350128 0.195006
0.050866 0.350884 0.194746
0.053473 0.351656 0.194236
0.062465 0.352712 0.193596
0.093115 0.354268 0.192594
0.137119 0.356233 0.191555
0.178785 0.358772 0.190054
0.215470 0.361302 0.188632
0.248120 0.363576 0.187317
0.279809 0.366127 0.185959
0.311911 0.368979 0.184443
0.344814 0.371911 0.182654
0.377762 0.374070 0.181134
0.413258 0.376802 0.178994
0.456177 0.384247 0.173980
0.505425 0.395880 0.165492
0.557032 0.408813 0.154486
0.608466 0.421370 0.141213
0.658420 0.433047 0.125528
0.706245 0.443659 0.106614
0.751410 0.452625 0.084098
0.792951 0.459323 0.063764
0.830235 0.463257 0.054046
0.864100 0.465120 0.051219
0.895439 0.465786 0.050794
0.925301 0.465815 0.050794
0.954293 0.465813 0.050794
0.981490 0.465960 0.050794
0.998534 0.465775 0.050794
1.000000 0.465768 0.050794
1.000000 0.465639 0.050794
1.000000 0.465501 0.050794
0.050794 0.399157 0.195195
0.050794 0.399913 0.194832
0.050794 0.400685 0.194306
0.051658 0.401731 0.193430
0.064439 0.403214 0.192377
0.105227 0.405293 0.190972
0.161432 0.407775 0.189286
0.210249 0.410562 0.187310
0.250976 0.413357 0.185398
0.287281 0.416024 0.183644
0.322676 0.418803 0.181723
0.358511 0.421965 0.179478
0.394262 0.424879 0.177028
0.429366 0.426558 0.174817
0.466855 0.429181 0.171776
0.511071 0.436342 0.165204
0.560624 0.447507 0.154421
0.611040 0.459361 0.140500
0.660040 0.470265 0.124021
0.707197 0.480146 0.103825
0.752517 0.488872 0.079532
0.795163 0.496037 0.058482
0.834593 0.501262 0.051336
0.870654 0.504310 0.050794
0.902727 0.505017 0.050794
0.932498 0.504340 0.050794
0.960608 0.503041 0.050794
0.986325 0.501740 0.050794
0.998983 0.500235 0.050794
1.000000 0.499022 0.050794
1.000000 0.497744 0.050794
1.000000 0.496664 0.050794
0.050794 0.451794 0.193194
0.050794 0.452550 0.192686
0.050794 0.453322 0.192044
0.050794 0.454354 0.191025
0.052314 0.455681 0.189825
0.071874 0.457545 0.188064
0.132858 0.459908 0.186091
0.197647 0.462791 0.183658
0.250161 0.465936 0.181083
0.293097 0.468620 0.178636
0.332283 0.471263 0.176218
0.370851 0.474222 0.173548
0.409445 0.477365 0.170359
0.447445 0.480161 0.166884
0.484252 0.481650 0.163811
0.522620 0.483671 0.159970
0.566229 0.489477 0.152188
0.613793 0.498588 0.139481
0.661631 0.508280 0.122665
0.708216 0.517253 0.101676
0.752916 0.525085 0.076978
0.795156 0.531451 0.056646
0.834961 0.536431 0.050910
0.872211 0.539895 0.050794
0.906414 0.541664 0.050794
0.937873 0.541902 0.050794
0.966436 0.540322 0.050794
0.991349 0.538128 0.050794
0.999457 0.535464 0.050794
1.000000 0.532990 0.050794
1.000000 0.530626 0.050794
1.000000 0.528536 0.050794
0.050794 0.506227 0.189090
0.050794 0.506980 0.188460
0.050794 0.507637 0.187680
0.050794 0.508669 0.186537
0.050794 0.509946 0.185167
0.056063 0.511454 0.183029
0.098862 0.513719 0.180796
0.178446 0.516575 0.178016
0.244991 0.519698 0.174717
0.297091 0.522581 0.171433
0.341234 0.525104 0.168460
0.382561 0.527633 0.165350
0.423057 0.530211 0.161640
0.463092 0.532919 0.157357
0.502117 0.535134 0.152879
0.539385 0.535982 0.148978
0.577063 0.536844 0.144538
0.618541 0.540463 0.136272
0.663499 0.547175 0.121731
0.709177 0.554817 0.101023
0.753266 0.561608 0.076653
0.794932 0.566933 0.056899
0.834217 0.570956 0.051034
0.871344 0.573811 0.050794
0.906385 0.575586 0.050794
0.939236 0.576414 0.050794
0.969653 0.575899 0.050794
0.995062 0.573959 0.050794
0.999819 0.571035 0.050794
1.000000 0.567450 0.050794
1.000000 0.564051 0.050794
1.000000 0.560786 0.050794
0.050794 0.560172 0.184048
0.050794 0.560827 0.183288
0.050794 0.562338 0.182378
0.050794 0.563358 0.181106
0.050794 0.564488 0.179605
0.051956 0.565736 0.177316
0.073622 0.567716 0.174823
0.157109 0.570182 0.171783
0.236696 0.573012 0.168093
0.298961 0.575895 0.163956
0.349430 0.578256 0.160105
0.393730 0.580264 0.156519
0.435722 0.582273 0.152419
0.476769 0.584384 0.147746
0.517031 0.586534 0.142365
0.555937 0.588146 0.136597
0.592769 0.588357 0.131507
0.629327 0.587907 0.126848
0.668659 0.589464 0.118511
0.711092 0.593759 0.102479
0.753994 0.598858 0.080483
0.795010 0.603054 0.060798
0.833733 0.606036 0.052095
0.870433 0.607943 0.050794
0.905181 0.608905 0.050794
0.938179 0.609156 0.050794
0.969491 0.608860 0.050794
0.995831 0.607530 0.050794
0.999905 0.605371 0.050794
1.000000 0.601740 0.050794
1.000000 0.597723 0.050794
1.000000 0.593556 0.050794
0.050794 0.612423 0.179810
0.050794 0.613003 0.179046
0.050794 0.615809 0.178022
0.050794 0.616692 0.176725
0.050794 0.617701 0.175014
0.050794 0.618762 0.172801
0.063142 0.620211 0.170048
0.135494 0.622200 0.166805
0.226376 0.624639 0.163023
0.298721 0.627224 0.158330
0.356022 0.629509 0.153476
0.403830 0.631226 0.149198
0.447223 0.632800 0.144838
0.488961 0.634335 0.139855
0.529605 0.635947 0.134032
0.569351 0.637562 0.127179
0.607728 0.638721 0.119658
0.644187 0.638365 0.113583
0.679524 0.636643 0.109445
0.716293 0.635854 0.102574
0.755496 0.637178 0.088697
0.795210 0.639587 0.071039
0.833376 0.641497 0.058353
0.869643 0.642356 0.053394
0.904004 0.642377 0.051217
0.936607 0.641820 0.050794
0.967732 0.640744 0.050794
0.994579 0.639264 0.050794
0.999791 0.637165 0.050794
1.000000 0.634138 0.050794
1.000000 0.630681 0.050794
1.000000 0.626177 0.050794
0.050794 0.662287 0.178124
0.050794 0.662974 0.177502
0.050794 0.664721 0.176478
0.050794 0.665487 0.175184
0.050794 0.666367 0.173498
0.050794 0.667353 0.171240
0.057565 0.668329 0.168400
0.109517 0.669911 0.165214
0.213084 0.671924 0.161579
0.295503 0.674076 0.156904
0.358366 0.676159 0.151558
0.410584 0.677787 0.146553
0.455701 0.679058 0.141951
0.497747 0.680113 0.137001
0.538524 0.681191 0.131288
0.578306 0.682361 0.124632
0.617325 0.683528 0.116753
0.655300 0.684220 0.108281
0.691170 0.683323 0.101919
0.724918 0.680435 0.099764
0.758888 0.677302 0.097453
0.795117 0.676119 0.088935
0.832268 0.676481 0.077083
0.868161 0.676355 0.068069
0.902234 0.675538 0.062269
0.934602 0.674201 0.060344
0.965472 0.672463 0.059795
0.992375 0.670322 0.059974
0.999579 0.667712 0.060523
1.000000 0.664684 0.061639
1.000000 0.661519 0.063358
1.000000 0.657592 0.065540
0.050794 0.707944 0.181315
0.050794 0.708696 0.180800
0.050794 0.709298 0.179930
0.050794 0.709914 0.178786
0.050794 0.710663 0.177218
0.050794 0.711371 0.175155
0.052469 0.712164 0.172461
0.085668 0.713226 0.169482
0.200274 0.714744 0.166416
0.290915 0.716452 0.162354
0.357357 0.718129 0.157407
0.413546 0.719619 0.152121
0.461059 0.720727 0.147484
0.503636 0.721478 0.142982
0.544271 0.722190 0.138086
0.583914 0.722971 0.132533
0.622909 0.723671 0.125975
0.661173 0.724400 0.118226
0.698501 0.724882 0.110109
0.733775 0.723731 0.105103
0.766152 0.719784 0.106206
0.797803 0.714801 0.108967
0.831527 0.711728 0.106442
0.866397 0.710227 0.100334
0.900288 0.708629 0.095221
0.932512 0.706632 0.092594
0.963142 0.704228 0.091842
0.990134 0.701453 0.092980
0.999364 0.698402 0.095393
1.000000 0.694864 0.099140
1.000000 0.691278 0.104535
1.000000 0.687597 0.111214
0.050794 0.749506 0.192060
0.050794 0.749939 0.191395
0.050794 0.750443 0.190786
0.050794 0.750940 0.189893
0.050794 0.751381 0.188511
0.050794 0.751873 0.186817
0.050810 0.752335 0.184527
0.077240 0.753039 0.181937
0.193179 0.754199 0.179571
0.286846 0.755549 0.176434
0.355240 0.756848 0.172344
0.413638 0.758005 0.167648
0.464094 0.758974 0.163271
0.507944 0.759562 0.159443
0.548410 0.759943 0.155730
0.587840 0.760408 0.151604
0.626542 0.760831 0.146737
0.664556 0.761306 0.141255
0.702134 0.761808 0.135046
0.738913 0.762017 0.128721
0.773551 0.760616 0.125795
0.804779 0.756007 0.129402
0.834167 0.749573 0.135808
0.865607 0.744846 0.138073
0.898594 0.741979 0.137522
0.930671 0.739278 0.137453
0.961072 0.736244 0.138733
0.988242 0.732933 0.141636
0.999184 0.729362 0.145829
1.000000 0.725303 0.151395
1.000000 0.721197 0.158368
1.000000 0.717090 0.166734
0.050794 0.787688 0.210721
0.050794 0.787937 0.210304
0.050794 0.788110 0.209784
0.050794 0.788436 0.208996
0.050794 0.788677 0.207875
0.050794 0.788853 0.206455
0.050794 0.789121 0.204546
0.076709 0.789602 0.202515
0.191146 0.790588 0.200884
0.285005 0.791555 0.198640
0.353714 0.792565 0.195611
0.412752 0.793403 0.192034
0.465338 0.794210 0.188336
0.511080 0.794762 0.185170
0.551838 0.794939 0.182405
0.590756 0.795058 0.179526
0.628982 0.795266 0.176351
0.666560 0.795470 0.172784
0.703672 0.795587 0.168882
0.740338 0.795818 0.164526
0.776338 0.795791 0.160333
0.810261 0.794138 0.158809
0.840285 0.788963 0.163018
0.867569 0.781138 0.170745
0.896842 0.775045 0.175506
0.927978 0.771115 0.178404
0.958242 0.767512 0.181793
0.985618 0.763680 0.186113
0.998933 0.759589 0.191460
1.000000 0.755164 0.197765
1.000000 0.750708 0.205262
1.000000 0.746252 0.213722
0.050794 0.821970 0.236055
0.050794 0.822047 0.235801
0.050794 0.822219 0.235460
0.050794 0.822292 0.234842
0.050794 0.822379 0.233824
0.050794 0.822541 0.232664
0.051163 0.822614 0.231065
0.078875 0.822853 0.229571
0.193844 0.823619 0.228587
0.286300 0.824217 0.227147
0.353843 0.824901 0.225061
0.412224 0.825595 0.222578
0.465340 0.826173 0.219658
0.512983 0.826618 0.216867
0.554524 0.826760 0.214760
0.592895 0.826676 0.212955
0.630422 0.826623 0.211024
0.667390 0.826562 0.208794
0.703846 0.826484 0.206411
0.739919 0.826527 0.203942
0.775703 0.826443 0.201255
0.810821 0.826072 0.198597
0.844193 0.824326 0.197904
0.873078 0.818920 0.201961
0.898123 0.809803 0.209418
0.925475 0.802715 0.215423
0.954847 0.797882 0.220299
0.982387 0.793626 0.225535
0.998624 0.789037 0.231743
1.000000 0.784327 0.238763
1.000000 0.779611 0.246867
1.000000 0.774895 0.255945
0.050794 0.853181 0.267265
0.050794 0.853183 0.267194
0.050794 0.853244 0.266927
0.050794 0.853244 0.266393
0.050794 0.853252 0.265548
0.050794 0.853307 0.264519
0.054189 0.853307 0.263381
0.093985 0.853431 0.262367
0.205694 0.853937 0.261735
0.292979 0.854254 0.260806
0.357378 0.854592 0.259465
0.413666 0.855016 0.257714
0.465553 0.855380 0.255635
0.513573 0.855559 0.253362
0.556598 0.855701 0.251424
0.595073 0.855583 0.250087
0.631632 0.855270 0.248822
0.667671 0.854961 0.247497
0.703401 0.854745 0.246228
0.738814 0.854558 0.244848
0.773890 0.854331 0.243469
0.808664 0.854079 0.241970
0.843021 0.853564 0.240563
0.875538 0.851866 0.240308
0.903413 0.846196 0.243696
0.926640 0.836501 0.251496
0.952200 0.828516 0.258141
0.978967 0.823111 0.264257
0.998289 0.818128 0.271082
1.000000 0.813151 0.278865
1.000000 0.808175 0.287682
1.000000 0.803379 0.297719
0.050794 0.881224 0.302304
0.050794 0.881224 0.302296
0.050794 0.881224 0.302041
0.050794 0.881224 0.301708
0.050794 0.881224 0.301140
0.050794 0.881224 0.300491
0.062910 0.881261 0.299751
0.135572 0.881481 0.299396
0.231505 0.881776 0.299219
0.306107 0.882028 0.298728
0.365689 0.882219 0.297879
0.419015 0.882362 0.296798
0.468665 0.882555 0.295403
0.515553 0.882579 0.293869
0.559212 0.882611 0.292260
0.598291 0.882492 0.291076
0.634102 0.882114 0.290332
0.669009 0.881640 0.289687
0.703662 0.881303 0.289069
0.738045 0.880935 0.288417
0.772268 0.880610 0.287778
0.806176 0.880230 0.287251
0.839891 0.879743 0.286771
0.873103 0.879017 0.286051
0.904832 0.877332 0.286171
0.931944 0.871957 0.289480
0.953166 0.861316 0.297004
0.976387 0.852891 0.303949
0.997661 0.846989 0.311474
0.999976 0.841538 0.320031
1.000000 0.836472 0.329811
1.000000 0.831675 0.340699
0.050794 0.907070 0.342038
0.050794 0.907070 0.342030
0.050794 0.907070 0.341778
0.050794 0.907070 0.341521
0.051302 0.907070 0.341195
0.057083 0.907070 0.340715
0.088134 0.907079 0.340460
0.185368 0.907172 0.340625
0.265728 0.907374 0.340765
0.327022 0.907480 0.340632
0.380352 0.907653 0.340282
0.429484 0.907670 0.339829
0.475990 0.907700 0.339102
0.520490 0.907618 0.338146
0.563270 0.907503 0.336951
0.602893 0.907290 0.335901
0.638359 0.906912 0.335373
0.671887 0.906503 0.335180
0.705175 0.906026 0.335082
0.738291 0.905542 0.335106
0.771305 0.905068 0.335084
0.804122 0.904581 0.335152
0.836835 0.903937 0.335307
0.869186 0.903194 0.335245
0.901285 0.902401 0.335324
0.932147 0.900866 0.335898
0.958312 0.895584 0.338901
0.977139 0.884484 0.346054
0.996493 0.875595 0.353336
0.999892 0.869226 0.362007
1.000000 0.863924 0.372774
1.000000 0.859120 0.385041
0.050794 0.930891 0.386356
0.050979 0.930891 0.386355
0.056991 0.930891 0.386301
0.064291 0.930872 0.386049
0.072876 0.930687 0.385845
0.105164 0.930720 0.386047
0.180441 0.930931 0.386617
0.251289 0.931105 0.387080
0.308104 0.931136 0.387533
0.357631 0.931206 0.387885
0.403627 0.931380 0.388056
0.447556 0.931380 0.388213
0.489945 0.931380 0.388169
0.531160 0.931277 0.387819
0.571362 0.931043 0.387335
0.609957 0.930793 0.386747
0.645374 0.930415 0.386348
0.677959 0.929930 0.386455
0.709593 0.929307 0.386878
0.741111 0.928717 0.387325
0.772613 0.928213 0.387895
0.803949 0.927570 0.388417
0.835344 0.926827 0.389026
0.866443 0.926070 0.389520
0.897399 0.925314 0.390132
0.928096 0.924361 0.390641
0.957609 0.922718 0.391541
0.982784 0.918014 0.394400
0.997420 0.906643 0.401162
0.999914 0.897101 0.408306
1.000000 0.890965 0.419150
1.000000 0.886140 0.432731
0.073552 0.952846 0.437221
0.075872 0.952846 0.437228
0.109935 0.952846 0.437459
0.153418 0.952843 0.437845
0.192349 0.952814 0.438040
0.232061 0.952819 0.438268
0.276500 0.952852 0.438401
0.318215 0.952829 0.438685
0.358017 0.952665 0.438970
0.396669 0.952612 0.439184
0.434878 0.952483 0.439285
0.472561 0.952408 0.439461
0.509779 0.952188 0.439469
0.546684 0.951956 0.439259
0.583113 0.951607 0.438773
0.619344 0.951136 0.438269
0.654103 0.950758 0.438000
0.685755 0.950240 0.438253
