gsg/04_Specialty/GSG_LUT_Specialty_FondMemories.cube
# GSG LUTs 1.0
# Copyright (c) 2016-2020 Greyscalegorilla
# See EULA for licensing and distribution information
# Converted by Briz LUT Converter
LUT_3D_SIZE 8
DOMAIN_MIN 0.000000 0.000000 0.000000
DOMAIN_MAX 0.903226 0.903226 0.903226
0.019048 0.015873 0.000000
0.077112 0.041081 0.000158
0.151751 0.064878 0.022514
0.243208 0.084391 0.044192
0.353082 0.097846 0.059758
0.483367 0.103612 0.068431
0.634999 0.101130 0.069408
0.779724 0.106574 0.079594
0.050431 0.074615 0.013021
0.102162 0.097467 0.038347
0.171294 0.120343 0.059474
0.257855 0.139864 0.076741
0.363322 0.153720 0.088794
0.490216 0.160440 0.093823
0.639671 0.158872 0.091180
0.787751 0.161913 0.096407
0.085045 0.153460 0.060097
0.135192 0.172461 0.083596
0.199069 0.194959 0.104880
0.279474 0.214983 0.117365
0.379391 0.230123 0.124541
0.501335 0.238190 0.124540
0.647265 0.238070 0.116175
0.796512 0.240000 0.116127
0.113624 0.241569 0.101178
0.163634 0.256316 0.120686
0.228107 0.275567 0.144851
0.303268 0.296181 0.159568
0.397093 0.312712 0.161272
0.514154 0.322447 0.154801
0.655901 0.324158 0.140074
0.807964 0.327006 0.135153
0.133152 0.337382 0.134428
0.183718 0.348079 0.150781
0.251102 0.363298 0.171530
0.327094 0.380841 0.193049
0.415585 0.398448 0.196569
0.529523 0.411530 0.183917
0.680335 0.421680 0.163507
0.848978 0.432301 0.155473
0.141620 0.440718 0.158061
0.192773 0.447898 0.170877
0.263437 0.459111 0.187780
0.346242 0.473823 0.207224
0.445770 0.496181 0.227399
0.570498 0.520429 0.212621
0.725787 0.538261 0.186888
0.894945 0.553989 0.179728
0.135949 0.552200 0.169633
0.190236 0.557441 0.180141
0.272983 0.573699 0.195437
0.374151 0.596006 0.213917
0.488583 0.620670 0.233917
0.617716 0.647414 0.238653
0.776085 0.670385 0.209391
0.950548 0.688671 0.208630
0.119375 0.684446 0.169861
0.186376 0.701411 0.179791
0.282955 0.722415 0.193436
0.396718 0.745646 0.208736
0.525656 0.770201 0.224336
0.674578 0.792965 0.235393
0.840585 0.816979 0.222661
0.997618 0.840117 0.254251
0.032061 0.030352 0.034802
0.087372 0.054063 0.061137
0.159935 0.075505 0.088763
0.250140 0.092662 0.112502
0.359219 0.103659 0.130608
0.489491 0.107117 0.141448
0.640167 0.103155 0.144960
0.787113 0.106203 0.151202
0.060298 0.086557 0.069995
0.110867 0.106597 0.091559
0.180606 0.126456 0.113489
0.268534 0.142844 0.131978
0.376140 0.153498 0.144826
0.505601 0.156867 0.150284
0.651729 0.155702 0.150714
0.795238 0.160664 0.155923
0.091607 0.162708 0.112119
0.139919 0.180368 0.128972
0.205435 0.200315 0.147975
0.287687 0.217431 0.160924
0.389989 0.229441 0.168154
0.514761 0.234614 0.167957
0.657850 0.234600 0.163077
0.802224 0.238258 0.164431
0.116948 0.248915 0.149407
0.163795 0.263330 0.161045
0.230395 0.280838 0.179740
0.307971 0.298760 0.192337
0.404216 0.312647 0.193887
0.523359 0.319842 0.187665
0.663463 0.321471 0.176563
0.816780 0.326757 0.175190
0.133633 0.343117 0.178629
0.179499 0.354814 0.185416
0.249143 0.368100 0.200872
0.328122 0.383664 0.218144
0.418882 0.398952 0.220683
0.538850 0.411762 0.209263
0.692383 0.422285 0.195834
0.858894 0.433980 0.195334
0.140092 0.444649 0.198302
0.185363 0.453878 0.200392
0.258583 0.463269 0.212772
0.346904 0.478594 0.229785
0.451504 0.500946 0.248895
0.580509 0.523643 0.235639
0.736505 0.540699 0.219242
0.900146 0.558394 0.225539
0.135389 0.553184 0.207317
0.182796 0.565376 0.206656
0.269485 0.582434 0.220326
0.374414 0.603899 0.237506
0.492747 0.627504 0.256214
0.625925 0.652698 0.260353
0.786942 0.673979 0.240103
0.954414 0.694297 0.260060
0.120906 0.689981 0.208761
0.180676 0.711576 0.210363
0.279709 0.732053 0.222742
0.396694 0.754492 0.237303
0.529973 0.777690 0.251710
0.682234 0.799510 0.262448
0.849976 0.822133 0.256247
0.998101 0.846149 0.308238
0.040978 0.039269 0.103502
0.097948 0.062397 0.123644
0.167876 0.085415 0.149734
0.256095 0.101123 0.177637
0.363739 0.110481 0.200459
0.492678 0.112332 0.216055
0.642239 0.107054 0.223673
0.789129 0.109171 0.229518
0.065225 0.095758 0.129938
0.118256 0.113777 0.149671
0.187311 0.134208 0.171559
0.274203 0.148891 0.193584
0.380849 0.157939 0.210210
0.509658 0.159691 0.219465
0.654640 0.157690 0.222935
0.798041 0.161891 0.226712
0.097743 0.171649 0.165354
0.144108 0.187314 0.181471
0.211127 0.204694 0.198978
0.296057 0.218858 0.213445
0.401292 0.227823 0.222424
0.528780 0.229988 0.223970
0.665489 0.232922 0.224796
0.807383 0.237268 0.226141
0.122659 0.255527 0.201851
0.165716 0.269651 0.211432
0.231859 0.285616 0.224259
0.312855 0.300941 0.235597
0.412235 0.311817 0.238612
0.534390 0.316356 0.233900
0.671389 0.319644 0.229591
0.825415 0.328147 0.234447
0.137902 0.347661 0.230911
0.178871 0.359899 0.234107
0.246208 0.373373 0.241755
0.328955 0.386698 0.254796
0.423492 0.399757 0.256991
0.551550 0.411881 0.249715
0.705004 0.423435 0.247783
0.862797 0.439264 0.259939
0.142982 0.447272 0.249904
0.182665 0.457827 0.247169
0.252313 0.468962 0.250298
0.347432 0.485081 0.265853
0.458283 0.506651 0.283820
0.591943 0.526952 0.275038
0.748112 0.543368 0.270003
0.901790 0.565201 0.294601
0.137241 0.554256 0.257694
0.179862 0.571958 0.253664
0.263372 0.593485 0.260000
0.373270 0.613532 0.275479
0.496847 0.635321 0.292962
0.634536 0.658739 0.300465
0.798119 0.677926 0.291224
0.956057 0.701630 0.333038
0.123227 0.696034 0.264543
0.178572 0.720362 0.262640
0.276632 0.742339 0.271180
0.396731 0.764019 0.284874
0.534810 0.785655 0.296933
0.690396 0.806629 0.306291
0.858117 0.827925 0.318540
0.998534 0.853426 0.381700
0.047115 0.045405 0.182110
0.107755 0.065871 0.196845
0.178581 0.089874 0.215540
0.262014 0.109037 0.240745
0.368024 0.117241 0.268630
0.495790 0.117651 0.289643
0.644500 0.110898 0.302393
0.791146 0.112033 0.309031
0.067714 0.102533 0.200609
0.123868 0.118085 0.217753
0.194998 0.138714 0.233985
0.278809 0.155567 0.255320
0.384198 0.163356 0.276754
0.511867 0.163764 0.291138
0.656043 0.160551 0.298136
0.799758 0.163706 0.301717
0.096734 0.179779 0.226308
0.145632 0.192990 0.242612
0.215463 0.209006 0.258514
0.299932 0.223475 0.274335
0.404613 0.230800 0.287267
0.531805 0.231503 0.292965
0.667959 0.233785 0.295108
0.809625 0.237770 0.295972
0.126957 0.262384 0.255526
0.169410 0.275234 0.266688
0.233604 0.289720 0.279174
0.316772 0.302567 0.289471
0.419440 0.310537 0.294230
0.542663 0.313856 0.293247
0.680213 0.319137 0.294388
0.826480 0.334409 0.308632
0.142298 0.352316 0.284865
0.182150 0.363726 0.289494
0.244943 0.377417 0.294462
0.329053 0.389334 0.301811
0.430559 0.401294 0.305563
0.563729 0.412892 0.306495
0.716853 0.425060 0.312621
0.860180 0.448478 0.338675
0.146158 0.450226 0.304815
0.184799 0.460048 0.302957
0.249662 0.475139 0.302698
0.347959 0.492320 0.314480
0.464934 0.512178 0.330794
0.602340 0.530518 0.331096
0.757216 0.547109 0.336655
0.900133 0.574620 0.375419
0.140008 0.558380 0.315490
0.183071 0.577756 0.315220
0.260364 0.602837 0.316955
0.372874 0.622479 0.329883
0.501280 0.642837 0.346075
0.643313 0.664463 0.356071
0.805291 0.683384 0.365113
0.956984 0.710482 0.414703
0.125778 0.702643 0.329241
0.181605 0.727093 0.329965
0.274998 0.751942 0.333697
0.397079 0.773466 0.345943
0.540781 0.793140 0.358331
0.699387 0.812648 0.371556
0.865111 0.833917 0.401077
0.998959 0.861806 0.464429
0.050928 0.049218 0.271306
0.115239 0.067194 0.281066
0.190706 0.088589 0.294370
0.272392 0.111592 0.310012
0.372435 0.123910 0.336100
0.498901 0.122877 0.363162
0.646571 0.114743 0.381491
0.793269 0.114837 0.389929
0.068139 0.107401 0.282247
0.127566 0.120494 0.297046
0.203196 0.138753 0.308203
0.286149 0.158681 0.321620
0.387449 0.168861 0.343654
0.513945 0.167891 0.363818
0.657533 0.163531 0.375212
0.801293 0.165897 0.379479
0.093228 0.186388 0.298536
0.145093 0.197098 0.314556
0.219039 0.210610 0.328550
0.304250 0.226745 0.339016
0.406704 0.234850 0.354649
0.533008 0.234258 0.365690
0.668934 0.235543 0.369803
0.810942 0.239150 0.371028
0.120980 0.270410 0.318196
0.166171 0.281037 0.329318
0.233549 0.292946 0.343184
0.319138 0.304968 0.352737
0.422403 0.311676 0.360527
0.545458 0.314250 0.363278
0.687694 0.320790 0.369334
0.827757 0.342016 0.388393
0.145619 0.357574 0.340795
0.184849 0.367976 0.347139
0.246642 0.380618 0.354909
0.328912 0.391288 0.360202
0.438049 0.402580 0.367575
0.574336 0.414778 0.377187
0.723341 0.429592 0.390618
0.854252 0.460688 0.422862
0.149595 0.453425 0.362325
0.187267 0.462586 0.362221
0.252666 0.479765 0.367738
0.348779 0.499106 0.377338
0.471424 0.517205 0.392313
0.611832 0.534225 0.400949
0.760022 0.554330 0.419976
0.898319 0.585437 0.459559
0.143188 0.563211 0.378378
0.186903 0.583990 0.383258
0.263801 0.609176 0.389416
0.374068 0.630423 0.399004
0.505846 0.649881 0.413825
0.652370 0.669723 0.425007
0.809938 0.690593 0.452774
0.957690 0.720757 0.500392
0.128555 0.709701 0.400692
0.185052 0.733967 0.404613
0.277925 0.759163 0.410149
0.404187 0.779060 0.425384
0.551160 0.797698 0.439823
0.709678 0.817707 0.456579
0.872237 0.840726 0.492538
0.999401 0.871659 0.551805
0.052259 0.050707 0.371539
0.120506 0.066430 0.376513
0.200648 0.085507 0.384747
0.287170 0.106229 0.394923
0.380055 0.126855 0.407804
0.501982 0.128048 0.436684
0.648643 0.118642 0.461393
0.795400 0.117641 0.472103
0.066473 0.110422 0.375169
0.129275 0.121157 0.387799
0.209655 0.137064 0.394030
0.297273 0.155070 0.401999
0.392203 0.172619 0.413352
0.516078 0.172220 0.437565
0.659008 0.166404 0.453984
0.803022 0.167908 0.459801
0.087887 0.191272 0.382423
0.142726 0.199551 0.398324
0.220976 0.210565 0.410332
0.310895 0.224964 0.415597
0.409629 0.238170 0.424692
0.534122 0.237216 0.440532
0.670050 0.237536 0.447570
0.813577 0.241572 0.451222
0.111751 0.277268 0.392893
0.159910 0.285741 0.403960
0.231323 0.294952 0.418613
0.321349 0.304719 0.426037
0.423795 0.314076 0.431735
0.547791 0.316705 0.439813
0.694069 0.324027 0.451665
0.834114 0.347227 0.470146
0.137537 0.365095 0.405462
0.179438 0.373603 0.412133
0.244049 0.384110 0.421771
0.329426 0.393396 0.430461
0.444254 0.405578 0.443523
0.582751 0.417884 0.458206
0.726582 0.436492 0.475820
0.854163 0.471081 0.505010
0.152584 0.457025 0.422184
0.190324 0.466116 0.425213
0.256863 0.484834 0.438719
0.353009 0.504702 0.454244
0.477507 0.522000 0.469068
0.619530 0.538636 0.482661
0.759550 0.564445 0.509499
0.896377 0.598141 0.544351
0.146804 0.568916 0.446110
0.190864 0.590669 0.456919
0.268264 0.615298 0.468582
0.377609 0.637044 0.479772
0.510887 0.656262 0.494189
0.660426 0.675419 0.511876
0.814401 0.699216 0.543485
0.958621 0.732853 0.587093
0.131569 0.717003 0.477837
0.188514 0.741014 0.485357
0.282004 0.766167 0.494201
0.416307 0.783075 0.512770
0.565809 0.801085 0.531777
0.720991 0.823169 0.550777
0.880052 0.848678 0.585743
0.999827 0.882981 0.641048
0.051392 0.049927 0.482792
0.123590 0.063728 0.483162
0.208668 0.080342 0.486688
0.300660 0.098623 0.491838
0.397467 0.118146 0.498370
0.506543 0.131773 0.512707
0.650471 0.122675 0.542165
0.797393 0.120446 0.555863
0.062759 0.111403 0.479599
0.129080 0.119853 0.490221
0.214401 0.133719 0.491909
0.307392 0.149263 0.495040
0.405811 0.166182 0.499551
0.519007 0.175718 0.513414
0.660461 0.169452 0.534618
0.804596 0.169952 0.542671
0.080529 0.194550 0.478220
0.138637 0.200504 0.494085
0.221245 0.208903 0.504422
0.316556 0.220951 0.505080
0.418066 0.234546 0.506917
0.535473 0.240061 0.517649
0.671281 0.239653 0.528195
0.817808 0.245099 0.536646
0.100571 0.282841 0.479862
0.151920 0.289044 0.490973
0.227419 0.295396 0.506548
0.322538 0.302872 0.511435
0.427844 0.312746 0.511419
0.552092 0.319965 0.521801
0.701333 0.327606 0.539160
0.840718 0.353007 0.556042
0.122365 0.372889 0.483597
0.167519 0.379305 0.490261
0.236273 0.387072 0.501130
0.329921 0.395728 0.513989
0.450440 0.409211 0.528423
0.589722 0.422093 0.546007
0.733104 0.441974 0.563224
0.861066 0.478258 0.586750
0.145764 0.463098 0.489433
0.186465 0.473390 0.497743
0.256463 0.491856 0.518199
0.356814 0.510266 0.538984
0.483397 0.526732 0.555923
0.624775 0.545269 0.572836
0.762857 0.574095 0.596656
0.898677 0.610143 0.626057
0.150892 0.576120 0.519360
0.195026 0.597693 0.535257
0.272803 0.621686 0.552951
0.382740 0.643087 0.568474
0.518774 0.662030 0.585508
0.669066 0.682370 0.604545
0.819512 0.709488 0.633149
0.959782 0.746565 0.672722
0.134594 0.724721 0.560096
0.192084 0.748484 0.571585
0.286575 0.773030 0.584177
0.426124 0.788970 0.600890
0.581392 0.805629 0.623161
0.733557 0.829513 0.644550
0.888778 0.858057 0.678295
0.999880 0.895876 0.729614
0.048446 0.046981 0.605057
0.124563 0.058947 0.601429
0.214835 0.073180 0.600613
0.312165 0.088937 0.601058
0.414916 0.105759 0.602793
0.522219 0.123841 0.605568
0.652542 0.126575 0.623958
0.799388 0.123250 0.641422
0.056744 0.110536 0.595607
0.127373 0.117538 0.602236
0.217295 0.128717 0.600873
0.315678 0.141602 0.600422
0.419994 0.155891 0.600483
0.529479 0.171368 0.601610
0.661922 0.172649 0.617255
0.806338 0.171964 0.627983
0.071029 0.195998 0.586558
0.133294 0.200352 0.599266
0.220996 0.207598 0.604070
0.320463 0.217104 0.602807
0.427246 0.227869 0.601980
0.540739 0.238833 0.602648
0.672846 0.241998 0.612051
0.823741 0.249258 0.627068
0.087087 0.286675 0.579852
0.141991 0.290787 0.590789
0.224263 0.296112 0.599957
0.323159 0.302650 0.601063
0.432130 0.310595 0.599844
0.558852 0.322507 0.610445
0.709092 0.331463 0.631690
0.847465 0.359201 0.645623
0.105026 0.379231 0.575089
0.153392 0.383603 0.581999
0.228552 0.389133 0.591511
0.332077 0.398743 0.605717
0.457373 0.411893 0.621663
0.597043 0.426156 0.639068
0.739992 0.447872 0.654483
0.868886 0.485663 0.672066
0.124723 0.471945 0.572192
0.170101 0.483053 0.586706
0.249379 0.499805 0.611293
0.358916 0.515810 0.632316
0.489469 0.532016 0.649126
0.631425 0.551597 0.665268
0.771932 0.581163 0.682786
0.908756 0.618751 0.705681
0.146122 0.586146 0.600790
0.192217 0.606816 0.621564
0.274875 0.629026 0.643585
0.387079 0.649429 0.662773
0.527139 0.668491 0.678521
0.679097 0.690328 0.695096
0.826453 0.720636 0.719721
0.963209 0.761133 0.754789
0.137642 0.732782 0.647167
0.195677 0.756252 0.662866
0.292328 0.779942 0.679136
0.436156 0.795292 0.692791
0.594338 0.812523 0.711587
0.747607 0.837332 0.735941
0.898680 0.869121 0.768322
0.999932 0.910608 0.815255
