gsg/04_Specialty/GSG_LUT_Specialty_MilyCyan.cube
# GSG LUTs 1.0
# Copyright (c) 2016-2020 Greyscalegorilla
# See EULA for licensing and distribution information
# Converted by Briz LUT Converter
LUT_3D_SIZE 5
DOMAIN_MIN 0.000000 0.000000 0.000000
DOMAIN_MAX 0.903226 0.903226 0.903226
0.097192 0.098168 0.098901
0.219489 0.129560 0.127788
0.345843 0.155973 0.165591
0.492142 0.175375 0.207704
0.643798 0.178124 0.249730
0.127410 0.180559 0.137500
0.212464 0.204555 0.157468
0.337788 0.220380 0.186260
0.480564 0.235630 0.226171
0.630081 0.246910 0.268920
0.159542 0.256560 0.181047
0.227270 0.279215 0.198867
0.333323 0.310919 0.227710
0.472342 0.330139 0.262157
0.614730 0.352928 0.306141
0.175107 0.341447 0.222695
0.243184 0.366999 0.245726
0.346398 0.402973 0.275615
0.463261 0.442246 0.315035
0.600930 0.468202 0.354775
0.189673 0.436677 0.274528
0.255249 0.464802 0.296557
0.358418 0.504192 0.327537
0.470605 0.546010 0.365828
0.595111 0.586181 0.404989
0.100059 0.117098 0.209681
0.165605 0.125542 0.182915
0.277854 0.153216 0.173247
0.413934 0.170310 0.186788
0.562380 0.183242 0.229469
0.121828 0.193441 0.182206
0.239033 0.271181 0.307182
0.368403 0.286231 0.299405
0.510047 0.301755 0.303334
0.654906 0.316919 0.321432
0.149719 0.268694 0.210242
0.258634 0.358679 0.335030
0.369639 0.392678 0.342477
0.505173 0.412802 0.349670
0.643185 0.435741 0.370073
0.166555 0.355813 0.248436
0.276198 0.452944 0.372598
0.380134 0.492814 0.383445
0.495095 0.532102 0.400876
0.633737 0.557063 0.417202
0.184352 0.450642 0.293106
0.291638 0.555347 0.416473
0.391562 0.597301 0.431338
0.516293 0.634936 0.440398
0.653674 0.669372 0.448148
0.091717 0.129907 0.304699
0.126180 0.133238 0.277654
0.219229 0.150417 0.252739
0.341499 0.174048 0.236748
0.483253 0.183924 0.240312
0.109746 0.205720 0.267868
0.205028 0.280437 0.396662
0.309802 0.294105 0.387119
0.442610 0.312189 0.376282
0.583815 0.328311 0.377623
0.138032 0.284110 0.250277
0.249826 0.379088 0.388455
0.406768 0.487871 0.532985
0.537399 0.511548 0.536605
0.679481 0.530526 0.531486
0.160217 0.372280 0.281267
0.270999 0.475356 0.420445
0.422923 0.595102 0.573988
0.555497 0.632899 0.568825
0.703125 0.650629 0.556384
0.172252 0.467042 0.320921
0.288214 0.577008 0.460596
0.463467 0.690947 0.593326
0.595464 0.729283 0.586616
0.725010 0.760502 0.578308
0.087424 0.141620 0.399567
0.088813 0.141390 0.370111
0.179069 0.149302 0.345216
0.276305 0.167337 0.321694
0.409785 0.185482 0.305974
0.096394 0.215282 0.360882
0.167543 0.288967 0.485096
0.272691 0.299521 0.477510
0.379249 0.317216 0.457951
0.513235 0.334529 0.448704
0.127303 0.297006 0.332538
0.220206 0.391990 0.470121
0.377239 0.500317 0.620964
0.483266 0.525094 0.619510
0.618701 0.545459 0.608209
0.148503 0.385948 0.324075
0.258475 0.493476 0.465361
0.425049 0.617469 0.622939
0.638438 0.725285 0.732948
0.776506 0.742479 0.717004
0.169768 0.483792 0.359187
0.279772 0.595900 0.501752
0.472254 0.709843 0.638694
0.686635 0.816238 0.749654
0.810814 0.847626 0.740386
0.087424 0.152995 0.491575
0.087424 0.152509 0.463022
0.117265 0.154375 0.436063
0.238780 0.168656 0.413824
0.340924 0.187724 0.391565
0.087779 0.223078 0.453300
0.137882 0.298923 0.574039
0.237414 0.308238 0.563988
0.346670 0.321196 0.545371
0.449504 0.338433 0.529422
0.111250 0.310740 0.421681
0.197399 0.403442 0.556398
0.348909 0.511282 0.710768
0.453598 0.532250 0.708496
0.560966 0.551687 0.687662
0.135757 0.404734 0.403128
0.232819 0.509786 0.542895
0.401668 0.633105 0.700081
0.617799 0.738709 0.821391
0.730793 0.757824 0.803964
0.160491 0.500036 0.401346
0.269478 0.615536 0.545925
0.472382 0.728948 0.677973
0.696416 0.834706 0.801839
0.889593 0.926190 0.917607
