gsg/04_Specialty/GSG_LUT_Specialty_Rich_and_Toasty.cube
# GSG LUTs 1.0
# Copyright (c) 2016-2020 Greyscalegorilla
# See EULA for licensing and distribution information
# Converted by Briz LUT Converter
LUT_3D_SIZE 8
DOMAIN_MIN 0.000000 0.000000 0.000000
DOMAIN_MAX 0.903226 0.903226 0.903226
0.050794 0.068620 0.040781
0.078428 0.071708 0.045918
0.124960 0.078404 0.054906
0.190200 0.088802 0.067257
0.273244 0.102375 0.083217
0.373477 0.119075 0.101808
0.488621 0.138335 0.123085
0.617126 0.159431 0.146197
0.062712 0.106668 0.054197
0.091697 0.107681 0.058569
0.141376 0.112577 0.067037
0.210087 0.120950 0.079081
0.296680 0.132584 0.094277
0.399867 0.147182 0.112083
0.517816 0.164307 0.132553
0.648430 0.183379 0.154629
0.078302 0.157564 0.071283
0.108914 0.157635 0.075221
0.162015 0.161850 0.083453
0.234661 0.169648 0.095222
0.324890 0.180534 0.110017
0.431370 0.194075 0.127471
0.552405 0.210491 0.147180
0.685480 0.228603 0.168561
0.098783 0.226665 0.093206
0.131266 0.226854 0.096995
0.188090 0.231558 0.105219
0.264631 0.239671 0.117051
0.358787 0.250683 0.131559
0.468786 0.264327 0.148694
0.592971 0.280880 0.168104
0.725124 0.300797 0.189365
0.125023 0.319327 0.120997
0.159636 0.320572 0.124881
0.220270 0.326559 0.133349
0.301195 0.335966 0.145307
0.399419 0.348218 0.160014
0.511251 0.363916 0.177276
0.626687 0.386088 0.197999
0.745937 0.411706 0.220592
0.158541 0.440892 0.156012
0.195444 0.444189 0.160054
0.260382 0.452566 0.168987
0.344665 0.464687 0.181557
0.439681 0.480817 0.197928
0.541802 0.499988 0.216448
0.651991 0.521958 0.236803
0.769616 0.545779 0.258773
0.200205 0.596053 0.198929
0.240696 0.602710 0.204003
0.307336 0.612817 0.214857
0.387181 0.625686 0.228731
0.476818 0.640195 0.244520
0.575155 0.656316 0.261783
0.682121 0.674141 0.280708
0.797805 0.695073 0.301590
0.252842 0.782102 0.251889
0.294000 0.784779 0.258057
0.356757 0.791349 0.268043
0.432031 0.800181 0.280342
0.517559 0.810741 0.294589
0.612437 0.822986 0.310434
0.715935 0.836861 0.327806
0.828713 0.852514 0.346914
0.050549 0.067643 0.045279
0.078676 0.070759 0.050632
0.125810 0.077671 0.059679
0.191918 0.088070 0.072275
0.275907 0.101768 0.088235
0.376777 0.118429 0.107102
0.492843 0.137603 0.128543
0.621658 0.158722 0.151735
0.061980 0.104923 0.058482
0.091457 0.105936 0.063095
0.141939 0.110891 0.071767
0.211477 0.119422 0.083878
0.299054 0.131317 0.099192
0.403230 0.146194 0.117397
0.521633 0.163543 0.137879
0.652524 0.182566 0.160196
0.077325 0.155335 0.075545
0.108394 0.155430 0.079696
0.162307 0.159841 0.088164
0.235790 0.167663 0.100005
0.326982 0.178690 0.114979
0.434764 0.192996 0.132885
0.556444 0.209555 0.152811
0.689600 0.227650 0.174375
0.097644 0.224436 0.097479
0.130565 0.224652 0.101524
0.188185 0.229444 0.109835
0.265616 0.237706 0.121749
0.360733 0.248959 0.136625
0.472332 0.263565 0.154325
0.596963 0.280498 0.174022
0.724592 0.302547 0.196153
0.123905 0.317342 0.125527
0.158951 0.318820 0.129429
0.220522 0.324975 0.138099
0.302346 0.334554 0.150232
0.401483 0.346948 0.165095
0.511751 0.365263 0.183795
0.625145 0.388715 0.205401
0.743728 0.414500 0.228557
0.157309 0.439660 0.160700
0.195881 0.443943 0.165274
0.261886 0.452579 0.174497
0.345625 0.465727 0.188076
0.439272 0.482579 0.204955
0.540525 0.501992 0.223892
0.650326 0.524251 0.244908
0.767531 0.548300 0.267562
0.199197 0.596212 0.204002
0.241656 0.603216 0.210423
0.308124 0.613673 0.221961
0.387426 0.626537 0.236311
0.476371 0.641290 0.252370
0.574240 0.657474 0.270109
0.680417 0.675438 0.289303
0.795820 0.696418 0.310897
0.252650 0.780874 0.258443
0.294980 0.783878 0.265382
0.357274 0.790642 0.275889
0.432062 0.799522 0.288550
0.517071 0.810302 0.303114
0.611223 0.822568 0.319312
0.714422 0.836618 0.337154
0.826529 0.852327 0.356609
0.051101 0.067888 0.060176
0.079720 0.070984 0.065887
0.127835 0.077932 0.075403
0.194754 0.088377 0.088557
0.279516 0.102194 0.104935
0.381253 0.118894 0.124194
0.497924 0.138154 0.145843
0.627311 0.159030 0.169443
0.062287 0.104195 0.073867
0.092256 0.105255 0.078790
0.143510 0.110402 0.087841
0.213981 0.118965 0.100437
0.302309 0.130860 0.116199
0.407346 0.145874 0.134867
0.526598 0.163088 0.155802
0.657859 0.182134 0.178292
0.077388 0.154192 0.091292
0.108951 0.154374 0.095873
0.163657 0.158834 0.104699
0.238076 0.166812 0.117108
0.330829 0.178534 0.132830
0.439349 0.193139 0.151112
0.561529 0.209671 0.171558
0.694828 0.227950 0.193465
0.097586 0.223316 0.113838
0.130904 0.223625 0.118152
0.189414 0.228516 0.127111
0.267896 0.236929 0.139502
0.364852 0.249176 0.155118
0.477230 0.264154 0.173359
0.600823 0.282058 0.193849
0.724262 0.306028 0.217211
0.123708 0.316611 0.142416
0.159290 0.318125 0.146824
0.222853 0.325227 0.156424
0.305759 0.335198 0.169110
0.405299 0.348161 0.184666
0.512731 0.368543 0.204810
0.624627 0.392712 0.227264
0.742747 0.418611 0.251306
0.157117 0.439584 0.178236
0.196279 0.444033 0.183372
0.264430 0.454122 0.193928
0.347689 0.468493 0.208933
0.440063 0.485956 0.226805
0.540731 0.505323 0.246383
0.650087 0.527844 0.268266
0.766852 0.552038 0.291805
0.199236 0.597221 0.222679
0.242502 0.603925 0.230405
0.310039 0.615753 0.243743
0.388781 0.628781 0.258710
0.477185 0.643480 0.275458
0.574485 0.659897 0.293837
0.680263 0.678051 0.313785
0.795313 0.699161 0.336290
0.253724 0.780440 0.279003
0.295580 0.783738 0.286786
0.358812 0.791183 0.298654
0.433293 0.800330 0.312160
0.517746 0.811167 0.327346
0.611480 0.823687 0.344370
0.714080 0.837759 0.362812
0.825849 0.853688 0.383195
0.052936 0.069054 0.085864
0.081835 0.072173 0.092347
0.130742 0.079256 0.102707
0.198585 0.089910 0.116662
0.284225 0.103667 0.133737
0.386622 0.120328 0.153773
0.504047 0.139501 0.176005
0.634125 0.160597 0.200235
0.063764 0.104521 0.100508
0.094096 0.105573 0.106368
0.146158 0.110741 0.116194
0.217555 0.119516 0.129608
0.306739 0.131443 0.146149
0.412533 0.146539 0.165513
0.532469 0.163885 0.186948
0.664452 0.182738 0.210286
0.078602 0.154145 0.119241
0.110568 0.154310 0.124460
0.166174 0.158996 0.134259
0.241452 0.167151 0.147428
0.335083 0.179007 0.163866
0.444501 0.193532 0.182914
0.567246 0.210231 0.204011
0.701128 0.228532 0.226707
0.098542 0.223283 0.143007
0.132282 0.223554 0.148010
0.191800 0.228717 0.157872
0.272170 0.238096 0.171421
0.370115 0.250625 0.187995
0.483136 0.265863 0.207079
0.603789 0.285550 0.228807
0.724763 0.310884 0.253233
0.124675 0.316862 0.172854
0.160669 0.318509 0.178061
0.225272 0.325936 0.188544
0.310448 0.337062 0.202619
0.408891 0.351843 0.219729
0.514394 0.373447 0.240969
0.625452 0.398016 0.264196
0.743084 0.424101 0.288894
0.158094 0.440569 0.210138
0.197657 0.445209 0.216059
0.266541 0.456316 0.228186
0.350395 0.472627 0.244993
0.442136 0.490588 0.263631
0.542236 0.510108 0.283775
0.651125 0.532652 0.306282
0.767496 0.557098 0.330495
0.201034 0.599081 0.256720
0.244487 0.606054 0.265560
0.311677 0.617888 0.279508
0.391327 0.632182 0.295845
0.479336 0.647143 0.313262
0.575986 0.663711 0.332303
0.681372 0.681960 0.352851
0.795958 0.703258 0.376071
0.256079 0.781300 0.314555
0.297385 0.784531 0.322861
0.360216 0.792201 0.335383
0.435648 0.802244 0.350251
0.519689 0.813353 0.366186
0.612966 0.825981 0.383739
0.715108 0.840150 0.402951
0.826434 0.856320 0.423937
0.055567 0.071196 0.122872
0.085100 0.074544 0.130411
0.134782 0.081650 0.142047
0.203468 0.092355 0.157218
0.290007 0.106298 0.175535
0.393233 0.123040 0.196615
0.511344 0.142161 0.219993
0.642018 0.163228 0.245015
0.066233 0.105880 0.139352
0.097021 0.107192 0.146354
0.149986 0.112516 0.157367
0.222274 0.121383 0.172091
0.312207 0.133278 0.189758
0.418876 0.148298 0.210146
0.539534 0.165749 0.232557
0.672102 0.184576 0.256784
0.080815 0.155218 0.160023
0.113384 0.155500 0.166495
0.170665 0.160944 0.177541
0.246847 0.169248 0.191979
0.340495 0.180532 0.209414
0.450649 0.195036 0.229503
0.574241 0.211783 0.251591
0.707883 0.230390 0.275361
0.100672 0.224325 0.185909
0.135071 0.224810 0.192223
0.196361 0.230854 0.203313
0.277940 0.240613 0.218153
0.375682 0.252383 0.235647
0.489232 0.267709 0.255787
0.606504 0.289593 0.278737
0.725830 0.315767 0.303665
0.126740 0.318366 0.217978
0.163331 0.320081 0.224280
0.228879 0.327728 0.235905
0.315111 0.339265 0.251266
0.412923 0.357076 0.270418
0.516911 0.379613 0.292223
0.627412 0.404319 0.315721
0.744642 0.430523 0.340630
0.160298 0.442761 0.257453
0.200451 0.447597 0.264487
0.269501 0.459728 0.278103
0.352840 0.476828 0.295610
0.445342 0.496282 0.315217
0.544953 0.516007 0.335745
0.653307 0.538734 0.358616
0.769321 0.563335 0.383001
0.204257 0.602198 0.306616
0.247724 0.609291 0.316035
0.314259 0.621189 0.330119
0.393567 0.635538 0.346775
0.482483 0.652023 0.365297
0.578785 0.668690 0.384690
0.683564 0.687035 0.405662
0.797803 0.708456 0.429178
0.259475 0.783438 0.365103
0.300271 0.786668 0.373569
0.362540 0.794209 0.386183
0.437537 0.804354 0.401403
0.522652 0.816604 0.418496
0.615459 0.829508 0.436543
0.717247 0.843827 0.456023
0.828301 0.859976 0.477321
0.059482 0.074623 0.171476
0.089429 0.077987 0.180716
0.140013 0.085202 0.194053
0.209603 0.096026 0.210997
0.297074 0.109969 0.230984
0.401095 0.126843 0.253786
0.519855 0.146048 0.278510
0.651117 0.166923 0.304841
0.069660 0.108512 0.190946
0.101633 0.110240 0.199160
0.155560 0.115743 0.212034
0.228776 0.124778 0.228408
0.319592 0.136831 0.247844
0.426433 0.151492 0.269861
0.547699 0.168793 0.293802
0.680970 0.187620 0.319355
0.084241 0.157486 0.214510
0.118096 0.158529 0.222452
0.176456 0.164252 0.235048
0.253700 0.172745 0.251266
0.348113 0.184117 0.270424
0.458206 0.197943 0.291986
0.582136 0.214630 0.315554
0.713797 0.234445 0.340376
0.104053 0.226744 0.243442
0.139859 0.228023 0.251285
0.202442 0.234473 0.264138
0.285016 0.244519 0.280608
0.383530 0.256519 0.299755
0.494670 0.272024 0.321131
0.609411 0.295187 0.344310
0.728035 0.321604 0.368962
0.130167 0.321110 0.278635
0.168325 0.323797 0.286693
0.235126 0.331909 0.300056
0.321486 0.344796 0.317032
0.417804 0.364245 0.336855
0.519856 0.385794 0.358031
0.629901 0.410186 0.381123
0.746946 0.436441 0.405772
0.163724 0.446304 0.321359
0.204644 0.451681 0.329975
0.273906 0.464865 0.344226
0.356559 0.482273 0.361598
0.448547 0.501824 0.380838
0.548675 0.522931 0.401737
0.656662 0.545767 0.424357
0.772325 0.570424 0.448627
0.208787 0.606633 0.372882
0.252156 0.613778 0.382135
0.317971 0.625435 0.395778
0.396699 0.639936 0.411966
0.485278 0.656462 0.430269
0.582489 0.674610 0.450250
0.687013 0.693174 0.471192
0.800746 0.714804 0.494578
0.263933 0.786639 0.430793
0.304324 0.789765 0.438822
0.365809 0.797193 0.450941
0.440321 0.807453 0.465800
0.525064 0.819729 0.482632
0.618981 0.833848 0.501382
0.720422 0.848360 0.520919
0.831001 0.864631 0.542303
0.064626 0.079334 0.231581
0.095310 0.082697 0.243138
0.146804 0.090157 0.258750
0.217378 0.101170 0.277847
0.305613 0.115168 0.300015
0.410205 0.131951 0.325089
0.529509 0.151002 0.352110
0.661381 0.171872 0.380391
0.074615 0.112483 0.254883
0.107581 0.114489 0.265163
0.162552 0.120202 0.280293
0.236707 0.129466 0.298940
0.328312 0.141542 0.320601
0.435769 0.156260 0.344788
0.557349 0.173054 0.371147
0.691047 0.191882 0.398464
0.089155 0.161251 0.282637
0.124038 0.162792 0.292460
0.183539 0.168735 0.307112
0.261831 0.177542 0.325607
0.357111 0.188998 0.347081
0.467816 0.202903 0.370907
0.591398 0.218941 0.396453
0.719268 0.240464 0.421734
0.108974 0.230764 0.315714
0.146108 0.232606 0.325631
0.209848 0.239416 0.340522
0.293557 0.249861 0.358955
0.392855 0.262097 0.380366
0.501201 0.279617 0.402739
0.613347 0.302255 0.425380
0.731356 0.328542 0.449069
0.135095 0.325779 0.355267
0.174840 0.329127 0.365391
0.242862 0.337663 0.380733
0.328861 0.352555 0.398852
0.423706 0.373128 0.418082
0.524804 0.394423 0.438584
0.633419 0.417200 0.460541
0.750191 0.443168 0.484225
0.168868 0.451916 0.402312
0.211773 0.458792 0.412261
0.280827 0.472913 0.426213
0.362708 0.490344 0.442519
0.454156 0.510024 0.460855
0.553756 0.531124 0.481004
0.660188 0.552349 0.502323
0.775413 0.576740 0.525627
0.215062 0.612407 0.454972
0.257949 0.619575 0.463250
0.323150 0.631209 0.475858
0.401127 0.645504 0.491032
0.489170 0.661937 0.508293
0.586108 0.680238 0.527500
0.691181 0.700149 0.548316
0.804640 0.721867 0.570995
0.269652 0.790807 0.510883
0.309375 0.794024 0.517943
0.370159 0.801317 0.529032
0.443973 0.811284 0.542830
0.528275 0.823564 0.558776
0.621914 0.837797 0.576777
0.724352 0.853744 0.596401
0.834713 0.870224 0.617283
0.070676 0.085060 0.303651
0.102328 0.088671 0.318056
0.154691 0.096209 0.336352
0.226294 0.107305 0.358225
0.315278 0.121407 0.383221
0.420647 0.138303 0.410926
0.540344 0.157291 0.440789
0.672916 0.178093 0.472367
0.080802 0.117686 0.331881
0.114621 0.119989 0.344546
0.170610 0.125951 0.362500
0.245841 0.135265 0.384075
0.338214 0.147635 0.408432
0.446451 0.162383 0.435473
0.568569 0.179231 0.464470
0.702475 0.197605 0.494847
0.095191 0.166458 0.364774
0.131348 0.168146 0.377178
0.191884 0.174473 0.394216
0.271221 0.183566 0.415527
0.367388 0.195273 0.439870
0.478812 0.209281 0.466416
0.601735 0.225944 0.494006
0.724933 0.248315 0.518720
0.115088 0.236236 0.403125
0.153644 0.238470 0.415530
0.218570 0.245760 0.432901
0.303416 0.256465 0.454002
0.402845 0.269592 0.477484
0.508310 0.289175 0.499332
0.618638 0.312040 0.520718
0.735862 0.336837 0.543095
0.141463 0.331900 0.448016
0.182669 0.335757 0.460814
0.251901 0.345161 0.478401
0.336956 0.362108 0.495593
0.430711 0.383184 0.513227
0.531061 0.404481 0.532577
0.638936 0.426931 0.553444
0.754550 0.451064 0.575690
0.175383 0.459073 0.500572
0.220335 0.467470 0.510147
0.289075 0.482318 0.522339
0.370328 0.499801 0.537069
0.461038 0.519406 0.553907
0.559927 0.540549 0.572601
0.665627 0.561516 0.592621
0.779485 0.583957 0.614311
0.223123 0.620261 0.552013
0.266185 0.627598 0.558587
0.330810 0.639136 0.569594
0.408111 0.653564 0.583100
0.495424 0.669882 0.598928
0.591882 0.688263 0.616612
0.696296 0.708042 0.636054
0.808467 0.728271 0.656958
0.276456 0.796358 0.605152
0.315791 0.799528 0.610383
0.375852 0.806611 0.619877
0.448895 0.816542 0.632022
0.532546 0.828505 0.646222
0.625691 0.842619 0.662702
0.727930 0.858688 0.681027
0.838993 0.876346 0.700988
