gsg/04_Specialty/GSG_LUT_Specialty_PulpSubtle.cube
# GSG LUTs 1.0
# Copyright (c) 2016-2020 Greyscalegorilla
# See EULA for licensing and distribution information
# Converted by Briz LUT Converter
LUT_3D_SIZE 32
0.000000 0.000000 0.000000
0.015983 0.000000 0.000000
0.027516 0.000000 0.000000
0.042759 0.000000 0.000000
0.066422 0.000000 0.000000
0.089826 0.000000 0.000000
0.113065 0.000000 0.000095
0.136618 0.000000 0.000819
0.160692 0.000000 0.001575
0.185001 0.000000 0.000347
0.208476 0.000315 0.000473
0.230131 0.001670 0.002592
0.250865 0.002174 0.005396
0.274796 0.000567 0.006798
0.301910 0.000000 0.007413
0.326401 0.000000 0.008996
0.349340 0.000000 0.009374
0.375415 0.000000 0.008413
0.403001 0.000000 0.009154
0.428682 0.000000 0.011863
0.458175 0.000000 0.013187
0.488211 0.000000 0.015172
0.515735 0.000000 0.018197
0.543070 0.000000 0.019048
0.567899 0.000000 0.021883
0.594801 0.000000 0.021726
0.623144 0.000000 0.019646
0.650140 0.000000 0.020143
0.677522 0.000000 0.020269
0.702942 0.000000 0.021639
0.729568 0.000000 0.021970
0.761661 0.000000 0.019048
0.000150 0.013234 0.000126
0.014219 0.013179 0.000055
0.028577 0.011959 0.000040
0.047038 0.011478 0.000050
0.071115 0.013225 0.000072
0.093585 0.012911 0.000021
0.115798 0.012224 0.000057
0.136640 0.013629 0.000317
0.157363 0.016178 0.001136
0.181690 0.013064 0.002663
0.205829 0.011750 0.002014
0.229767 0.010525 0.003623
0.253391 0.009145 0.006646
0.276995 0.007934 0.006044
0.301623 0.005833 0.004635
0.327318 0.002505 0.005961
0.352794 0.000325 0.009165
0.378293 0.000220 0.010885
0.404643 0.000114 0.011680
0.430504 0.000027 0.013726
0.459270 0.000000 0.014075
0.487707 0.000000 0.014324
0.514244 0.000000 0.016174
0.541725 0.000000 0.018451
0.569167 0.000000 0.019402
0.596197 0.000000 0.019735
0.623148 0.000000 0.021440
0.650116 0.000000 0.026402
0.677515 0.000000 0.026023
0.703642 0.000000 0.024590
0.730804 0.000000 0.024301
0.761645 0.000000 0.027193
0.004876 0.022687 0.004096
0.017534 0.022151 0.001850
0.032008 0.021190 0.001364
0.048839 0.021167 0.001705
0.069013 0.023284 0.002383
0.092654 0.024740 0.000728
0.115343 0.025211 0.000380
0.137848 0.025418 0.000862
0.160242 0.024926 0.001686
0.182891 0.022845 0.003157
0.207617 0.022765 0.003868
0.231214 0.022965 0.004327
0.253527 0.021906 0.005329
0.277242 0.019253 0.006824
0.301531 0.016892 0.007258
0.327639 0.014193 0.007250
0.353571 0.010948 0.008087
0.378841 0.007539 0.010306
0.404956 0.004081 0.012327
0.430590 0.001140 0.012607
0.459270 0.000194 0.013107
0.487729 0.000141 0.013985
0.514443 0.000032 0.015021
0.541794 0.000000 0.017492
0.570082 0.000000 0.018639
0.597188 0.000000 0.019766
0.623512 0.000000 0.022017
0.650368 0.000000 0.025854
0.677298 0.000000 0.026508
0.704067 0.000000 0.026914
0.731749 0.000000 0.027962
0.761109 0.000000 0.029792
0.008185 0.034550 0.006790
0.020879 0.033852 0.004336
0.034949 0.032717 0.003510
0.050344 0.032375 0.004051
0.067633 0.033566 0.004846
0.092761 0.036340 0.001966
0.116140 0.036757 0.001016
0.139376 0.035516 0.001032
0.162624 0.033831 0.001963
0.184579 0.034303 0.003510
0.209541 0.034152 0.004430
0.232177 0.036089 0.004307
0.252852 0.037458 0.004563
0.276866 0.033584 0.007056
0.301866 0.029443 0.009590
0.327358 0.027263 0.009779
0.352708 0.024807 0.008299
0.378339 0.019708 0.009362
0.404608 0.013567 0.012336
0.430594 0.006278 0.012445
0.459359 0.003739 0.013860
0.488053 0.002738 0.015124
0.514883 0.000627 0.015096
0.541853 0.000000 0.016499
0.569937 0.000000 0.017591
0.597080 0.000000 0.019161
0.623688 0.000000 0.020970
0.650597 0.000000 0.022214
0.676865 0.000000 0.024797
0.704012 0.000000 0.027777
0.731924 0.000000 0.030023
0.759983 0.000000 0.029792
0.006767 0.052511 0.006412
0.020629 0.051542 0.006412
0.035800 0.048797 0.006408
0.052785 0.046677 0.006325
0.071932 0.046738 0.005815
0.096746 0.047664 0.003614
0.119881 0.046075 0.001805
0.140604 0.045383 0.000573
0.160518 0.047821 0.001626
0.184125 0.049836 0.004881
0.208072 0.047380 0.003526
0.230946 0.048901 0.003946
0.253183 0.053511 0.006264
0.277340 0.049889 0.005982
0.303197 0.042166 0.007852
0.326992 0.039490 0.010560
0.351431 0.039636 0.010576
0.378200 0.036263 0.010143
0.404640 0.029726 0.012809
0.431629 0.017945 0.015738
0.460439 0.012434 0.017597
0.488489 0.008835 0.017892
0.514988 0.002864 0.017152
0.541581 0.000565 0.016714
0.568754 0.000183 0.016000
0.596119 0.000024 0.017284
0.623524 0.000000 0.019164
0.650538 0.000000 0.019155
0.676631 0.000000 0.023145
0.703907 0.000000 0.026031
0.731616 0.000000 0.027679
0.758533 0.000000 0.029005
0.006137 0.077025 0.006956
0.023392 0.070533 0.006956
0.037688 0.067817 0.006932
0.052884 0.066554 0.006435
0.071541 0.064979 0.004973
0.095107 0.062606 0.004734
0.117579 0.063776 0.005381
0.139321 0.065964 0.005020
0.160998 0.067342 0.003609
0.183906 0.068406 0.004756
0.206633 0.068981 0.005678
0.230330 0.069272 0.005538
0.254773 0.068960 0.005480
0.279072 0.066672 0.007629
0.303951 0.063072 0.009876
0.329254 0.062414 0.009756
0.354604 0.059739 0.009882
0.380208 0.053724 0.012090
0.406397 0.048511 0.013926
0.432994 0.040571 0.015268
0.462288 0.028214 0.016541
0.490617 0.018633 0.017474
0.516909 0.013275 0.018343
0.543598 0.007437 0.019840
0.570064 0.003265 0.021562
0.596723 0.001185 0.022790
0.623656 0.000569 0.022611
0.650416 0.000066 0.020575
0.677840 0.000000 0.019857
0.704864 0.000000 0.021426
0.732584 0.000000 0.023351
0.762228 0.000000 0.024042
0.015385 0.096152 0.008043
0.024324 0.092615 0.008089
0.036837 0.089600 0.008056
0.052854 0.086685 0.008305
0.072704 0.083216 0.008917
0.095223 0.079990 0.009013
0.117262 0.080077 0.009433
0.138794 0.081231 0.008371
0.160642 0.082056 0.005899
0.184271 0.083298 0.006786
0.207420 0.084619 0.008570
0.231041 0.085208 0.008224
0.254937 0.084640 0.007355
0.278581 0.083943 0.009468
0.303216 0.083998 0.010332
0.329063 0.083260 0.010536
0.355299 0.078300 0.010638
0.380966 0.072478 0.011471
0.406775 0.068825 0.013285
0.434086 0.062424 0.015390
0.463382 0.051592 0.018147
0.491527 0.042815 0.018644
0.517903 0.036709 0.017708
0.544606 0.028460 0.019399
0.571389 0.017255 0.021068
0.598306 0.009952 0.022652
0.625318 0.006345 0.024059
0.652086 0.002322 0.024641
0.678500 0.001284 0.022006
0.705372 0.000610 0.020812
0.733240 0.000110 0.022030
0.762448 0.000331 0.026216
0.020276 0.114435 0.011391
0.022323 0.113570 0.011787
0.035959 0.110263 0.011348
0.054737 0.106242 0.010737
0.074159 0.103213 0.010816
0.096254 0.100876 0.010816
0.118080 0.098897 0.010669
0.139161 0.097651 0.009547
0.160214 0.097344 0.007734
0.184182 0.098885 0.008247
0.207970 0.100067 0.010331
0.231710 0.100997 0.010291
0.255055 0.101329 0.009460
0.278514 0.101694 0.010971
0.303130 0.102572 0.011305
0.329204 0.100313 0.012988
0.356050 0.095068 0.012931
0.382092 0.091141 0.011778
0.407601 0.088567 0.013516
0.434714 0.083755 0.015525
0.464431 0.076463 0.017721
0.492678 0.069650 0.018308
0.518935 0.063584 0.017782
0.545696 0.056664 0.019024
0.572081 0.043597 0.020104
0.598651 0.032827 0.021916
0.625682 0.024799 0.024099
0.652512 0.015594 0.025541
0.679374 0.010366 0.023484
0.705954 0.004930 0.022244
0.733182 0.000887 0.022884
0.761661 0.002537 0.025940
0.018512 0.134287 0.017063
0.022501 0.132016 0.018016
0.037748 0.128218 0.017142
0.056715 0.125314 0.014175
0.074730 0.125164 0.009870
0.097734 0.123693 0.009870
0.119645 0.120689 0.009870
0.140294 0.117519 0.009870
0.160484 0.115862 0.009667
0.183237 0.116541 0.009375
0.207188 0.118044 0.010398
0.231426 0.118915 0.010751
0.255763 0.118645 0.010879
0.280474 0.118559 0.012333
0.305073 0.118108 0.013468
0.330905 0.115183 0.015604
0.357329 0.111695 0.015645
0.383216 0.109595 0.014303
0.408998 0.107404 0.015162
0.435044 0.104462 0.016182
0.465069 0.099406 0.015394
0.494003 0.093561 0.016405
0.519874 0.088686 0.019144
0.546452 0.085320 0.020094
0.571861 0.077635 0.021222
0.597639 0.067711 0.022668
0.624337 0.056731 0.023355
0.651345 0.044617 0.022283
0.680289 0.033917 0.022340
0.706735 0.022213 0.023484
0.732902 0.013142 0.023721
0.762102 0.013313 0.020143
0.026531 0.155485 0.020631
0.034937 0.151399 0.022104
0.042517 0.148253 0.021969
0.054572 0.146129 0.019492
0.074974 0.145286 0.014668
0.099745 0.143325 0.014668
0.121901 0.139558 0.014668
0.141918 0.136454 0.014668
0.161106 0.134710 0.014623
0.183415 0.133280 0.014019
0.207246 0.134970 0.012416
0.231491 0.136160 0.011848
0.256536 0.134648 0.012991
0.282317 0.133459 0.014029
0.306842 0.134742 0.014504
0.331544 0.134275 0.015007
0.356569 0.131811 0.015816
0.382015 0.130103 0.016003
0.408560 0.128527 0.016060
0.435780 0.124964 0.018171
0.464508 0.121590 0.019089
0.492947 0.117843 0.019114
0.519883 0.112799 0.019546
0.545948 0.107254 0.019493
0.572735 0.102824 0.020298
0.599732 0.097736 0.021251
0.626850 0.091389 0.022027
0.654125 0.084612 0.022754
0.680753 0.075023 0.023215
0.707390 0.066379 0.022274
0.734814 0.058300 0.020994
0.763724 0.048761 0.019638
0.030486 0.178518 0.023971
0.041398 0.172655 0.026810
0.047542 0.169591 0.026490
0.059031 0.167090 0.023521
0.082056 0.164188 0.018502
0.101522 0.162869 0.018408
0.122974 0.159950 0.018230
0.142863 0.157665 0.017968
0.161222 0.156441 0.017724
0.184779 0.153634 0.017436
0.209596 0.152604 0.016206
0.233442 0.152488 0.014478
0.257359 0.152243 0.013439
0.283101 0.151781 0.014368
0.307771 0.152018 0.015995
0.331818 0.152321 0.015605
0.356396 0.150630 0.016032
0.382217 0.148702 0.018369
0.409177 0.148296 0.019282
0.437349 0.146428 0.018950
0.465371 0.143328 0.020372
0.493296 0.140244 0.022405
0.520896 0.136798 0.022515
0.547313 0.132017 0.019771
0.574564 0.127746 0.021259
0.601559 0.125484 0.021573
0.628434 0.122546 0.020610
0.655888 0.114484 0.021437
0.681468 0.109992 0.020346
0.707679 0.107523 0.018924
0.735158 0.103398 0.018355
0.764827 0.093710 0.019371
0.036260 0.199992 0.028957
0.048122 0.193380 0.030976
0.055630 0.190056 0.029923
0.067812 0.187241 0.027265
0.089411 0.183554 0.024197
0.104057 0.182431 0.023582
0.123720 0.179927 0.022371
0.143750 0.178085 0.020676
0.162822 0.177225 0.019048
0.186209 0.173831 0.019048
0.210823 0.170730 0.018631
0.234677 0.168603 0.016523
0.258460 0.168451 0.014846
0.283984 0.168862 0.016720
0.308701 0.168332 0.018616
0.332427 0.169417 0.018277
0.357005 0.169213 0.018277
0.383237 0.167536 0.020448
0.410121 0.167109 0.021652
0.438068 0.166245 0.020063
0.466581 0.163587 0.020569
0.494357 0.160790 0.023619
0.521667 0.158470 0.025275
0.549123 0.155319 0.022562
0.575228 0.153890 0.023481
0.601443 0.152972 0.022728
0.628244 0.149652 0.020713
0.655617 0.140809 0.021238
0.681042 0.141032 0.020083
0.707415 0.142329 0.017536
0.735402 0.141074 0.016447
0.765324 0.135019 0.020056
0.044326 0.219150 0.034157
0.054739 0.213352 0.034784
0.063138 0.209880 0.033648
0.073868 0.207227 0.031678
0.089511 0.204415 0.029818
0.105249 0.202630 0.029138
0.124995 0.199882 0.026922
0.145945 0.197321 0.024052
0.165993 0.195502 0.021325
0.187297 0.193008 0.019828
0.211157 0.189884 0.019202
0.235509 0.186506 0.018048
0.259736 0.184345 0.018513
0.284690 0.184080 0.021423
0.309333 0.184268 0.021172
0.333581 0.185588 0.020483
0.358500 0.186605 0.020824
0.384738 0.186042 0.021437
0.411391 0.185032 0.021671
0.438154 0.184528 0.021675
0.467631 0.182272 0.022202
0.495788 0.179966 0.023827
0.521835 0.178819 0.025264
0.548801 0.177806 0.024565
0.574661 0.179377 0.025086
0.601143 0.177911 0.024224
0.628209 0.173342 0.022284
0.655123 0.168102 0.021660
0.680589 0.168432 0.021786
0.707858 0.168972 0.018540
0.736516 0.167912 0.015533
0.765324 0.164890 0.018354
0.046493 0.239025 0.037087
0.054386 0.234998 0.038806
0.062263 0.231708 0.038975
0.071239 0.228813 0.036606
0.082988 0.225819 0.031932
0.103981 0.223279 0.031953
0.126022 0.221026 0.030344
0.147520 0.218139 0.028134
0.167763 0.214895 0.025652
0.189362 0.212899 0.022118
0.213696 0.209996 0.021138
0.237586 0.206756 0.020997
0.260531 0.203575 0.022487
0.284636 0.201480 0.024605
0.309189 0.201415 0.022639
0.334659 0.201464 0.021542
0.360278 0.202464 0.022265
0.386165 0.203262 0.022560
0.412852 0.202575 0.022431
0.439393 0.202869 0.022705
0.469018 0.200879 0.025070
0.497247 0.199433 0.025343
0.522357 0.200228 0.023259
0.547106 0.201261 0.023134
0.574950 0.201027 0.024960
0.603005 0.198857 0.024547
0.630139 0.196083 0.022371
0.656809 0.194670 0.021116
0.681973 0.193003 0.020687
0.709021 0.191579 0.018562
0.737468 0.189853 0.015345
0.766040 0.187113 0.012320
0.039970 0.260609 0.040947
0.048314 0.257918 0.041911
0.056967 0.254993 0.042660
0.066326 0.251773 0.041150
0.078575 0.247679 0.036113
0.104675 0.243387 0.035247
0.125781 0.241410 0.033844
0.145638 0.239900 0.031468
0.167483 0.237274 0.028254
0.191602 0.233644 0.025576
0.215554 0.230533 0.024412
0.238401 0.227492 0.024365
0.261204 0.224226 0.024922
0.285383 0.221111 0.025135
0.309822 0.219303 0.024490
0.336061 0.218685 0.025998
0.361899 0.220255 0.026673
0.386886 0.221640 0.025465
0.413393 0.220937 0.025255
0.441034 0.220023 0.024468
0.470494 0.219398 0.026207
0.498212 0.219693 0.025874
0.523320 0.220554 0.023111
0.548305 0.220765 0.024343
0.575824 0.221792 0.024619
0.603698 0.220876 0.022560
0.630816 0.218536 0.020808
0.657075 0.216715 0.022467
0.682576 0.216816 0.020929
0.709092 0.214691 0.019009
0.737225 0.211409 0.015711
0.767584 0.208949 0.008775
0.023900 0.283398 0.045587
0.037317 0.280519 0.043956
0.048673 0.277616 0.044741
0.059285 0.274522 0.045646
0.072915 0.270643 0.044520
0.102958 0.265751 0.041621
0.124872 0.263285 0.038655
0.145536 0.261336 0.036763
0.168532 0.258492 0.035653
0.190536 0.255474 0.031591
0.214405 0.252972 0.028093
0.239377 0.250311 0.026521
0.263434 0.247112 0.025858
0.286205 0.243830 0.024175
0.311039 0.240674 0.024083
0.337471 0.237994 0.027471
0.363126 0.238351 0.029451
0.387983 0.240425 0.027932
0.414363 0.240734 0.027129
0.442151 0.239154 0.027376
0.471257 0.238515 0.028449
0.498721 0.239316 0.027488
0.524193 0.240230 0.025166
0.549726 0.240457 0.025093
0.576853 0.241524 0.022954
0.604452 0.241240 0.021526
0.631343 0.239742 0.021724
0.656493 0.237869 0.022311
0.683173 0.238648 0.021349
0.709788 0.237357 0.020081
0.737461 0.234966 0.016349
0.767663 0.234117 0.007334
0.017094 0.306589 0.051132
0.024226 0.303072 0.047058
0.036484 0.299917 0.046404
0.054219 0.296657 0.048065
0.077461 0.292452 0.050842
0.102210 0.288479 0.048565
0.123123 0.286103 0.043453
0.145589 0.283133 0.041398
0.169951 0.279021 0.043150
0.189223 0.277624 0.037913
0.213717 0.275781 0.030780
0.239629 0.273510 0.026513
0.264126 0.270799 0.025655
0.287697 0.267798 0.024101
0.312450 0.264097 0.023742
0.338056 0.260323 0.025617
0.363776 0.258339 0.026816
0.389727 0.258620 0.026493
0.416359 0.259343 0.026958
0.443114 0.259036 0.027628
0.471635 0.258039 0.028620
0.499270 0.258177 0.028553
0.525181 0.259188 0.027036
0.551702 0.259582 0.024959
0.578439 0.259706 0.023145
0.605228 0.260154 0.021827
0.631867 0.260274 0.021025
0.657985 0.259324 0.020770
0.684584 0.259062 0.022101
0.711057 0.258828 0.020146
0.738111 0.258592 0.015129
0.766529 0.258821 0.007964
0.016204 0.330450 0.053299
0.012693 0.326782 0.051568
0.024874 0.323066 0.050443
0.049491 0.318896 0.050408
0.081676 0.314068 0.051827
0.101809 0.310727 0.052396
0.122558 0.308276 0.048733
0.144867 0.305441 0.045476
0.168115 0.301808 0.044767
0.189481 0.299974 0.041450
0.214896 0.297759 0.034833
0.239339 0.295522 0.029252
0.263546 0.293288 0.027150
0.289903 0.290491 0.026410
0.313786 0.287075 0.025591
0.338457 0.283850 0.025136
0.364352 0.280398 0.024367
0.390849 0.277683 0.024793
0.418051 0.277093 0.026721
0.444547 0.278035 0.026615
0.472717 0.277459 0.026417
0.500118 0.277357 0.026685
0.525998 0.278484 0.026251
0.552937 0.278880 0.024545
0.579181 0.278874 0.023896
0.605444 0.279618 0.022076
0.632213 0.280525 0.019751
0.659318 0.280514 0.019784
0.685473 0.280292 0.020476
0.711693 0.280020 0.018621
0.738489 0.279980 0.015409
0.766056 0.280783 0.012139
0.005223 0.354618 0.053314
0.004982 0.350957 0.054914
0.019271 0.346472 0.055373
0.042814 0.341847 0.054796
0.071409 0.337868 0.053509
0.097780 0.334347 0.054755
0.123419 0.330455 0.054511
0.145596 0.327572 0.051297
0.165413 0.325504 0.046107
0.189716 0.322492 0.043881
0.215263 0.319917 0.040468
0.239653 0.317565 0.035191
0.264768 0.314956 0.030808
0.291677 0.312121 0.030024
0.314954 0.309617 0.028682
0.339695 0.306433 0.027863
0.365533 0.302453 0.027347
0.391509 0.298882 0.027249
0.418953 0.296887 0.027861
0.445721 0.297451 0.028345
0.473945 0.296929 0.026027
0.501123 0.296947 0.024688
0.526438 0.298504 0.025090
0.552335 0.299795 0.023461
0.578588 0.299768 0.022349
0.605550 0.299846 0.022708
0.632438 0.300586 0.022346
0.658345 0.301517 0.019180
0.685106 0.302019 0.016014
0.711881 0.301205 0.017293
0.738741 0.300498 0.018926
0.766623 0.302793 0.016031
0.000000 0.377518 0.061956
0.003570 0.374258 0.056063
0.019116 0.369768 0.055935
0.040267 0.365266 0.058072
0.063795 0.361911 0.059140
0.093605 0.357557 0.058205
0.120990 0.353100 0.056678
0.145055 0.349753 0.054789
0.167571 0.347275 0.052730
0.193026 0.344304 0.048628
0.215644 0.342721 0.042739
0.238989 0.340921 0.036361
0.265688 0.337520 0.032790
0.292819 0.333650 0.033421
0.316222 0.330953 0.033670
0.341690 0.327937 0.033739
0.368145 0.324522 0.033178
0.393533 0.320928 0.031892
0.419589 0.317908 0.030657
0.445516 0.317288 0.030783
0.473800 0.316791 0.027130
0.501489 0.316754 0.025938
0.527417 0.317674 0.027327
0.553994 0.318401 0.022414
0.580003 0.319096 0.022906
0.605883 0.320343 0.024316
0.632204 0.321469 0.023189
0.659294 0.321917 0.018912
0.685436 0.322214 0.014800
0.711476 0.321380 0.017342
0.738680 0.320809 0.018824
0.768230 0.323124 0.009815
0.000000 0.401434 0.061483
0.002253 0.398380 0.057631
0.013178 0.394373 0.059206
0.033892 0.389617 0.061544
0.063502 0.384542 0.061043
0.091031 0.381067 0.061157
0.117123 0.377688 0.060641
0.144066 0.374240 0.061397
0.171542 0.370583 0.061322
0.194926 0.368320 0.053386
0.217891 0.366913 0.047680
0.242143 0.364874 0.040244
0.267919 0.361908 0.034062
0.293249 0.359050 0.034396
0.317770 0.356146 0.034305
0.343505 0.351928 0.035715
0.370107 0.348009 0.036178
0.396108 0.344677 0.034668
0.421438 0.341353 0.032803
0.446053 0.340516 0.029730
0.474023 0.339006 0.026146
0.501665 0.338028 0.027005
0.527578 0.338575 0.028701
0.555095 0.339042 0.021742
0.581177 0.339770 0.023380
0.606477 0.341350 0.022884
0.632254 0.342707 0.019693
0.659235 0.342280 0.020482
0.685686 0.342330 0.019156
0.711966 0.342986 0.016281
0.739825 0.343404 0.012739
0.770720 0.342377 0.009154
0.000000 0.425728 0.059687
0.000514 0.422690 0.059248
0.007739 0.419166 0.061089
0.029594 0.414227 0.062906
0.066564 0.408231 0.062817
0.090252 0.404999 0.062899
0.115257 0.402008 0.062868
0.144320 0.398370 0.064386
0.174292 0.394015 0.064929
0.195471 0.392183 0.057785
0.221278 0.390108 0.052514
0.246130 0.387750 0.045563
0.269080 0.385731 0.038341
0.293986 0.384269 0.034893
0.319725 0.381374 0.031972
0.345533 0.376816 0.032144
0.371574 0.372405 0.033449
0.397680 0.368809 0.033239
0.423098 0.365464 0.031700
0.447578 0.364007 0.027559
0.474430 0.361586 0.025404
0.501504 0.359619 0.026745
0.527698 0.359380 0.027589
0.555524 0.359540 0.023111
0.581996 0.360215 0.022871
0.607798 0.361182 0.020772
0.633526 0.362116 0.017796
0.659156 0.362417 0.019362
0.686407 0.362362 0.019150
0.713199 0.363879 0.013848
0.740857 0.365174 0.008447
0.771507 0.362858 0.009248
0.000000 0.449502 0.065863
0.000254 0.446463 0.060781
0.009235 0.442946 0.060446
0.032865 0.438373 0.063079
0.071056 0.432664 0.065818
0.091374 0.428677 0.063955
0.115979 0.425068 0.062834
0.145278 0.420914 0.063917
0.174750 0.416466 0.065704
0.196052 0.414512 0.061421
0.224188 0.411886 0.054823
0.248510 0.409603 0.048502
0.269283 0.408397 0.042801
0.295348 0.407104 0.036542
0.321266 0.404151 0.031271
0.347105 0.400796 0.027232
0.373033 0.396743 0.027008
0.398802 0.392375 0.028280
0.424152 0.389119 0.027777
0.448974 0.386621 0.027418
0.474954 0.383903 0.027273
0.501900 0.381295 0.027019
0.528905 0.379509 0.026564
0.556331 0.378700 0.025723
0.583238 0.379322 0.021861
0.609638 0.379854 0.019559
0.635464 0.380688 0.018084
0.660449 0.382378 0.013941
0.687661 0.382073 0.013858
0.714297 0.382966 0.012615
0.741212 0.384282 0.009239
0.770562 0.384206 0.003970
0.000000 0.472835 0.074111
0.000424 0.469975 0.064212
0.014705 0.466375 0.064957
0.040923 0.461522 0.067083
0.075924 0.455235 0.063527
0.094606 0.451975 0.064322
0.119023 0.448112 0.067062
0.145756 0.443943 0.070538
0.171208 0.440280 0.070186
0.195392 0.437297 0.061755
0.225770 0.433822 0.057854
0.251490 0.431768 0.050297
0.271891 0.431095 0.041505
0.296177 0.429328 0.039511
0.320920 0.426693 0.034687
0.346902 0.424415 0.025232
0.373801 0.420695 0.019861
0.400322 0.416098 0.020838
0.425675 0.413177 0.022753
0.449765 0.411000 0.029769
0.477021 0.407456 0.031449
0.505014 0.403859 0.028977
0.531210 0.401232 0.027534
0.556669 0.399478 0.027041
0.584219 0.398876 0.019491
0.610791 0.399300 0.017103
0.636119 0.400540 0.016843
0.661366 0.402513 0.006587
0.688402 0.402275 0.010537
0.715117 0.401890 0.014402
0.742008 0.402172 0.012555
0.770026 0.404364 0.000567
0.000000 0.498105 0.067116
0.004175 0.493010 0.067381
0.011243 0.488512 0.070432
0.027540 0.484083 0.070319
0.056085 0.479487 0.064601
0.085803 0.475673 0.069623
0.119702 0.471443 0.074079
0.151180 0.466957 0.074884
0.175965 0.462969 0.070906
0.199452 0.460465 0.065514
0.227784 0.457808 0.058641
0.252779 0.455476 0.051130
0.274376 0.453738 0.045843
0.299202 0.451620 0.042861
0.323803 0.448819 0.036459
0.349826 0.446472 0.028507
0.376562 0.443890 0.024795
0.401887 0.440706 0.025237
0.425935 0.438033 0.026050
0.449808 0.435521 0.029069
0.477982 0.432025 0.028717
0.506528 0.428093 0.026652
0.532830 0.424348 0.025168
0.558682 0.421199 0.022994
0.584946 0.419167 0.018452
0.611005 0.418159 0.017002
0.636625 0.418444 0.016136
0.661768 0.420065 0.009555
0.689919 0.420022 0.013440
0.716284 0.421076 0.012463
0.742655 0.422249 0.006993
0.771476 0.422892 0.000000
0.003151 0.521115 0.065060
0.004670 0.516143 0.071265
0.009331 0.511576 0.072027
0.021236 0.507352 0.070217
0.044244 0.503624 0.069151
0.085479 0.499177 0.071894
0.122830 0.494679 0.074081
0.155926 0.490086 0.074538
0.182864 0.485927 0.073560
0.204872 0.483544 0.072067
0.230473 0.480853 0.063165
0.254037 0.478496 0.054467
0.276451 0.476492 0.049009
0.302260 0.473835 0.043778
0.327276 0.471041 0.038682
0.352818 0.468429 0.032491
0.378498 0.466262 0.026568
0.403333 0.464086 0.024133
0.427836 0.461519 0.024239
0.452382 0.458645 0.023681
0.479560 0.455420 0.021720
0.507464 0.451746 0.019946
0.534460 0.447777 0.018169
0.561272 0.443702 0.015456
0.586652 0.440405 0.017236
0.611589 0.438280 0.017424
0.636827 0.437639 0.014780
0.662524 0.438386 0.011292
0.690577 0.438640 0.012370
0.716951 0.440622 0.008229
0.743546 0.442557 0.002314
0.773099 0.442026 0.001575
0.005546 0.542684 0.070322
0.003704 0.538946 0.072794
0.014517 0.535019 0.070774
0.027751 0.530785 0.070108
0.043121 0.526945 0.073760
0.094594 0.522374 0.071126
0.129649 0.517665 0.071348
0.159035 0.513165 0.074540
0.187242 0.509217 0.078759
0.210018 0.506265 0.078285
0.233878 0.502779 0.070130
0.256573 0.500452 0.059082
0.279023 0.498916 0.049579
0.304484 0.496104 0.044047
0.330216 0.493450 0.040364
0.355089 0.490795 0.034148
0.379703 0.488547 0.024614
0.405186 0.486528 0.018293
0.430827 0.484187 0.016863
0.455749 0.481350 0.015024
0.482051 0.478036 0.012797
0.509219 0.474355 0.012974
0.536216 0.470546 0.013863
0.563341 0.466087 0.012047
0.589140 0.462294 0.017503
0.613322 0.459955 0.017883
0.637761 0.458652 0.012958
0.664400 0.457507 0.009524
0.691001 0.458139 0.008548
0.717056 0.460086 0.004873
0.744326 0.461709 0.001171
0.773997 0.462050 0.002773
0.002458 0.565387 0.074497
0.006776 0.560772 0.066083
0.026368 0.556589 0.069049
0.037927 0.553010 0.074872
0.037357 0.549738 0.075680
0.104450 0.545381 0.070924
0.138675 0.540817 0.074746
0.161689 0.536094 0.080745
0.187578 0.531254 0.083426
0.215406 0.528067 0.081063
0.238844 0.525034 0.074793
0.260940 0.522319 0.062037
0.282936 0.520458 0.050758
0.306353 0.518585 0.047267
0.333057 0.515171 0.038308
0.357275 0.512990 0.031585
0.381617 0.511160 0.026332
0.407906 0.509082 0.018665
