gsg/04_Specialty/GSG_LUT_Specialty_OldPoster.cube
# GSG LUTs 1.0
# Copyright (c) 2016-2020 Greyscalegorilla
# See EULA for licensing and distribution information
# Converted by Briz LUT Converter
LUT_3D_SIZE 8
DOMAIN_MIN 0.000000 0.000000 0.000000
DOMAIN_MAX 0.903226 0.903226 0.903226
0.083028 0.079121 0.061294
0.168876 0.102367 0.066659
0.236331 0.114979 0.078105
0.301099 0.125826 0.088771
0.365205 0.129694 0.101052
0.429588 0.135279 0.116161
0.487487 0.138855 0.133641
0.548080 0.126787 0.144094
0.136571 0.178203 0.093009
0.161439 0.162621 0.081738
0.221489 0.155179 0.085699
0.287616 0.149254 0.094450
0.350536 0.145941 0.103203
0.412249 0.142199 0.116611
0.474648 0.140626 0.126203
0.533842 0.134903 0.137824
0.179274 0.266036 0.134672
0.170133 0.239378 0.120435
0.219766 0.221647 0.116411
0.276221 0.214679 0.116428
0.336424 0.208601 0.124136
0.398570 0.199574 0.131319
0.460713 0.192887 0.141246
0.519135 0.183905 0.154399
0.220450 0.355556 0.193288
0.207580 0.329638 0.180205
0.218145 0.305737 0.161710
0.273235 0.289279 0.156608
0.326598 0.283327 0.156099
0.385834 0.275367 0.163227
0.446290 0.269212 0.167031
0.504594 0.258309 0.177826
0.255898 0.449911 0.251329
0.244055 0.422089 0.232956
0.238009 0.395049 0.215993
0.264328 0.372528 0.201687
0.322683 0.357749 0.196116
0.376423 0.351426 0.201871
0.433096 0.345985 0.203638
0.489687 0.339173 0.212073
0.287983 0.545520 0.309859
0.280222 0.517076 0.293213
0.270655 0.489607 0.275113
0.274458 0.462293 0.259411
0.311311 0.444326 0.246157
0.372274 0.429043 0.245076
0.425158 0.424396 0.247332
0.478948 0.417233 0.251787
0.307401 0.649454 0.365095
0.306181 0.617284 0.350220
0.299805 0.587834 0.331624
0.295407 0.557029 0.316632
0.312719 0.533675 0.303552
0.359716 0.516140 0.291686
0.421109 0.501212 0.288536
0.473132 0.496107 0.294658
0.303060 0.761865 0.402308
0.305315 0.728950 0.397137
0.311456 0.694346 0.384765
0.308927 0.659106 0.370937
0.320448 0.629667 0.355732
0.351038 0.607799 0.341222
0.403979 0.589793 0.333414
0.467144 0.574861 0.330355
0.124385 0.093245 0.128481
0.170559 0.101894 0.127849
0.232289 0.113543 0.116212
0.296148 0.122155 0.110257
0.357022 0.127605 0.107459
0.421051 0.133450 0.115382
0.483027 0.128476 0.125237
0.539920 0.138950 0.144748
0.134989 0.157736 0.111635
0.197763 0.194043 0.178672
0.258354 0.182876 0.170402
0.321431 0.174387 0.157969
0.380933 0.170925 0.150166
0.443867 0.157389 0.146653
0.504689 0.149224 0.143534
0.561529 0.138506 0.151711
0.168816 0.239348 0.121648
0.197982 0.267749 0.172610
0.249956 0.255001 0.184653
0.311849 0.244501 0.176599
0.370136 0.238120 0.169400
0.430329 0.228442 0.161267
0.490550 0.219384 0.157573
0.549045 0.209403 0.168491
0.207580 0.329638 0.180205
0.219059 0.355506 0.197781
0.242099 0.335834 0.194164
0.304177 0.320927 0.202607
0.359380 0.314971 0.197510
0.417843 0.307150 0.193145
0.475505 0.300216 0.192828
0.533081 0.292490 0.198001
0.246652 0.422310 0.233390
0.255209 0.448213 0.250459
0.256295 0.424941 0.234924
0.290476 0.404444 0.226755
0.353581 0.389851 0.231858
0.407450 0.384973 0.228942
0.464083 0.377798 0.229646
0.519429 0.372214 0.233528
0.280222 0.517076 0.293213
0.287954 0.544096 0.309090
0.281142 0.517291 0.293356
0.293668 0.493929 0.277699
0.339540 0.475675 0.267681
0.401648 0.461805 0.267560
0.455583 0.454401 0.270391
0.508406 0.451096 0.273752
0.306181 0.617284 0.350220
0.307399 0.647393 0.364120
0.305752 0.617673 0.349508
0.307831 0.588583 0.332506
0.334733 0.565661 0.320638
0.386640 0.548646 0.310178
0.450225 0.535045 0.311598
0.502879 0.529028 0.314005
0.304021 0.728991 0.396904
0.303416 0.759908 0.402264
0.304501 0.728924 0.396966
0.309025 0.693233 0.384731
0.329208 0.665356 0.371627
0.370754 0.642480 0.360364
0.429344 0.624759 0.352231
0.497924 0.609760 0.351153
0.135799 0.105857 0.190846
0.146260 0.106083 0.186505
0.224423 0.117970 0.185580
0.291400 0.130286 0.178158
0.350994 0.133088 0.172352
0.414689 0.139612 0.166448
0.474920 0.141531 0.163554
0.535177 0.131147 0.161827
0.137923 0.150531 0.170788
0.172958 0.181772 0.228786
0.254611 0.190562 0.236183
0.315906 0.183880 0.227002
0.378396 0.175529 0.218024
0.438589 0.166196 0.210029
0.498291 0.162229 0.203234
0.557810 0.147102 0.197552
0.170432 0.217792 0.166894
0.224049 0.252551 0.230601
0.287126 0.288854 0.291556
0.346111 0.281651 0.283584
0.403914 0.271564 0.274878
0.463017 0.261326 0.266164
0.519268 0.254809 0.259779
0.577097 0.239612 0.256038
0.197752 0.303359 0.176240
0.226868 0.335380 0.228143
0.275430 0.369218 0.287438
0.339739 0.360168 0.303724
0.395405 0.351829 0.297001
0.451830 0.344227 0.287871
0.508881 0.336183 0.281274
0.564332 0.327359 0.275443
0.235030 0.394006 0.216027
0.248288 0.422638 0.251349
0.279145 0.453745 0.297629
0.324453 0.439406 0.307059
0.387944 0.426917 0.319703
0.440761 0.422695 0.312581
0.495864 0.414888 0.305717
0.551233 0.408206 0.300050
0.270655 0.489607 0.275113
0.280394 0.517109 0.295848
0.296346 0.545625 0.325825
0.321108 0.525830 0.326634
0.368493 0.510674 0.330086
0.433608 0.498260 0.339676
0.487144 0.491878 0.335102
0.541600 0.486182 0.330833
0.299805 0.587834 0.331624
0.305752 0.617673 0.349511
0.308626 0.646399 0.367600
0.324602 0.621584 0.359974
0.357660 0.600243 0.354747
0.414411 0.583579 0.357091
0.482002 0.570427 0.365035
0.534780 0.564645 0.362693
0.311456 0.694346 0.384765
0.304501 0.728924 0.396966
0.303413 0.758424 0.402206
0.311589 0.729268 0.398111
0.345929 0.702252 0.391675
0.394989 0.679729 0.383962
0.461207 0.661140 0.381939
0.538199 0.645105 0.385012
0.157517 0.119934 0.254063
0.150275 0.121415 0.248184
0.192586 0.123609 0.245475
0.282296 0.136705 0.247605
0.345085 0.145063 0.242467
0.406444 0.147357 0.235906
0.468507 0.150010 0.228633
0.527529 0.144195 0.224104
0.148569 0.145824 0.230900
0.168237 0.173343 0.285625
0.219801 0.179217 0.288466
0.311021 0.191556 0.292536
0.371173 0.184629 0.285384
0.432156 0.179593 0.277392
0.491898 0.168610 0.270031
0.550523 0.151854 0.261911
0.162478 0.209441 0.218261
0.198145 0.240191 0.279054
0.256296 0.276760 0.338323
0.341480 0.290076 0.349084
0.400737 0.281335 0.342366
0.457933 0.272494 0.334641
0.514889 0.262051 0.326418
0.571357 0.254790 0.319645
0.199749 0.280961 0.219523
0.245275 0.317988 0.282559
0.305177 0.358623 0.345660
0.374417 0.396580 0.407142
0.428721 0.390113 0.402156
0.483932 0.382699 0.395156
0.539272 0.374880 0.387514
0.596485 0.365557 0.381949
0.228190 0.367868 0.232253
0.254739 0.400222 0.285127
0.299509 0.437689 0.345452
0.357590 0.476495 0.405882
0.422277 0.469645 0.422596
0.477554 0.462627 0.416773
0.532290 0.454719 0.409023
0.588208 0.448363 0.402732
0.260059 0.459214 0.265257
0.275614 0.489826 0.306566
0.306987 0.524652 0.356016
0.351224 0.559670 0.410863
0.401816 0.550474 0.423781
0.467581 0.539647 0.437204
0.523743 0.532900 0.432106
0.579442 0.526890 0.424357
0.293678 0.555972 0.316931
0.300384 0.587271 0.343176
0.315040 0.620367 0.378630
0.344738 0.656137 0.424426
0.388559 0.639836 0.432349
0.446862 0.625802 0.441893
0.518846 0.612300 0.452864
0.579617 0.603744 0.444717
0.308900 0.659106 0.370928
0.307413 0.692985 0.385546
0.306988 0.729167 0.405453
0.328463 0.761711 0.431226
0.374889 0.739563 0.439007
0.436831 0.717632 0.442963
0.510914 0.699523 0.447419
0.593146 0.682812 0.455468
0.171870 0.133113 0.312907
0.165597 0.131726 0.306900
0.176439 0.131506 0.300308
0.246432 0.141215 0.302052
0.337797 0.154089 0.306040
0.400454 0.160108 0.301353
0.462134 0.155108 0.294478
0.519248 0.156546 0.287480
0.164229 0.140848 0.288143
0.178716 0.168224 0.340223
0.198009 0.174563 0.338580
0.274447 0.183569 0.343399
0.364013 0.194632 0.348525
0.425617 0.191858 0.341673
0.484333 0.183309 0.334184
0.542011 0.173154 0.326598
0.168576 0.201198 0.273771
0.188330 0.230191 0.329846
0.234376 0.263341 0.384690
0.307623 0.275727 0.392267
0.393334 0.288357 0.400516
0.452140 0.282175 0.394830
0.508205 0.273558 0.387993
0.566286 0.261258 0.380092
0.191427 0.273633 0.266515
0.224364 0.306175 0.324787
0.278229 0.344757 0.386843
0.345645 0.383432 0.447614
0.425918 0.399150 0.460853
0.482077 0.391834 0.454517
0.536777 0.383999 0.447807
0.593936 0.375427 0.442279
0.229969 0.346900 0.273873
0.269349 0.383766 0.333427
0.325604 0.423973 0.396144
0.387692 0.468182 0.459709
0.454752 0.505492 0.513478
0.511235 0.500134 0.509970
0.566235 0.491398 0.503631
0.624531 0.483686 0.498534
0.256065 0.433793 0.286526
0.281169 0.468746 0.340931
0.324838 0.505589 0.398587
0.379107 0.547445 0.459785
0.438197 0.588315 0.513770
0.505988 0.581526 0.529412
0.565415 0.573326 0.523815
0.628195 0.564177 0.515530
0.286642 0.526858 0.316288
0.299453 0.560106 0.359765
0.328456 0.596015 0.408980
0.369227 0.637908 0.464578
0.427443 0.675077 0.511069
0.494500 0.664373 0.523118
0.574782 0.649739 0.533117
0.640532 0.640205 0.525528
0.305656 0.627251 0.357852
0.310193 0.660505 0.390151
0.318747 0.699094 0.426949
0.356761 0.738925 0.464082
0.413158 0.775271 0.501752
0.484206 0.757912 0.515454
0.564329 0.740599 0.523120
0.654409 0.724044 0.531438
0.186750 0.148009 0.368931
0.186300 0.144305 0.364128
0.182105 0.141471 0.355420
0.218983 0.147761 0.353943
0.302816 0.158358 0.358564
0.393444 0.166443 0.362884
0.455036 0.173762 0.358994
0.513629 0.170191 0.351413
0.179583 0.145000 0.345790
0.198980 0.166288 0.393947
0.198318 0.169736 0.390484
0.246201 0.178784 0.390238
0.328128 0.188826 0.395409
0.418119 0.200480 0.402011
0.478851 0.196881 0.396409
0.536256 0.188078 0.389555
0.180545 0.193570 0.327841
0.198807 0.224390 0.382210
0.227857 0.252424 0.429904
0.279188 0.264388 0.434276
0.358590 0.277376 0.442997
0.445102 0.289520 0.450422
0.504030 0.282230 0.444759
0.559741 0.274105 0.439455
0.195700 0.264467 0.318268
0.216929 0.295739 0.372850
0.257083 0.330644 0.430349
0.317428 0.368704 0.483860
0.394282 0.383671 0.496833
0.475720 0.398525 0.506989
0.532434 0.392771 0.502549
0.588456 0.384038 0.497217
0.221647 0.335332 0.317920
0.251098 0.370922 0.375241
0.301809 0.409633 0.434703
0.363310 0.451502 0.494942
0.429436 0.489673 0.547286
0.508890 0.507043 0.561620
0.567543 0.501316 0.557393
0.625760 0.492144 0.552774
0.253327 0.416262 0.328156
0.294735 0.452364 0.387355
0.348495 0.491402 0.446157
0.406956 0.534301 0.506697
0.471046 0.579145 0.562687
0.555651 0.612825 0.605378
0.623512 0.605271 0.600020
0.691963 0.594131 0.592997
0.280881 0.503073 0.342563
0.307639 0.537130 0.395304
0.348829 0.575414 0.450705
0.399824 0.619416 0.509182
0.468959 0.660658 0.557266
0.553486 0.698959 0.596776
0.641286 0.689881 0.608715
0.714033 0.678631 0.601620
0.305993 0.597966 0.369829
0.318561 0.632528 0.411458
0.340454 0.672344 0.459010
0.391144 0.713937 0.504965
0.458111 0.756025 0.546516
0.541177 0.795589 0.585089
0.627398 0.784133 0.597083
0.728232 0.768032 0.605183
0.208972 0.158021 0.422592
0.207386 0.159219 0.415923
0.201408 0.158527 0.410918
0.210139 0.159865 0.404744
0.268867 0.164167 0.406631
0.358112 0.175176 0.411859
0.449129 0.182021 0.416749
0.507792 0.181780 0.413313
0.199846 0.154738 0.400315
0.214611 0.170268 0.443422
0.217296 0.170924 0.440484
0.234626 0.174730 0.436167
0.296722 0.182250 0.439651
0.384665 0.196252 0.446463
0.472761 0.207010 0.453154
0.530963 0.202583 0.447531
0.197544 0.186670 0.380919
0.214937 0.218040 0.431318
0.235334 0.246656 0.474168
0.262318 0.255007 0.475607
0.328549 0.265582 0.481657
0.412747 0.276822 0.489486
0.498391 0.290348 0.498068
0.555290 0.284358 0.493842
0.201335 0.253304 0.368737
0.223025 0.285377 0.421564
0.251216 0.318877 0.471841
0.301470 0.354459 0.520375
0.364909 0.369377 0.530710
0.444896 0.384091 0.541466
0.527752 0.399749 0.551093
0.585915 0.392181 0.547164
0.221783 0.327009 0.364087
0.240632 0.359861 0.418751
0.282483 0.396752 0.472338
0.338798 0.436969 0.528723
0.400887 0.475072 0.579587
0.477881 0.492193 0.595421
0.563651 0.506880 0.605716
0.624433 0.499290 0.601220
0.246624 0.402642 0.368105
0.278977 0.439235 0.424371
0.326895 0.478329 0.481709
0.384960 0.519895 0.538507
0.447633 0.560546 0.592813
0.525400 0.599737 0.644209
0.630643 0.612277 0.651364
0.701367 0.601837 0.643751
0.280651 0.484424 0.382767
0.321132 0.520389 0.437949
0.371398 0.560498 0.495756
0.429858 0.604231 0.552428
0.505649 0.644147 0.599496
0.599602 0.687467 0.644345
0.710516 0.725159 0.690474
0.790381 0.715527 0.682154
0.304605 0.572166 0.397310
0.327585 0.607877 0.446823
0.364256 0.649886 0.499684
0.429005 0.691710 0.548245
0.504059 0.734050 0.590025
0.596223 0.780698 0.631504
0.701648 0.825253 0.674599
0.807672 0.814325 0.690256
0.230431 0.173682 0.470936
0.227132 0.173365 0.464107
0.224746 0.171690 0.458532
0.224153 0.169176 0.454000
0.254302 0.172725 0.452262
0.327121 0.177387 0.455489
0.414376 0.187671 0.460526
0.500511 0.199950 0.467593
0.219614 0.169993 0.451054
0.241149 0.177896 0.490756
0.238785 0.180150 0.486885
0.237478 0.179942 0.482020
0.278304 0.183031 0.481763
0.352280 0.189994 0.484607
0.440290 0.202663 0.492161
0.525499 0.213961 0.498944
0.212621 0.186221 0.431168
0.235094 0.212448 0.475434
0.256865 0.241459 0.518418
0.264248 0.248411 0.517420
0.307744 0.255907 0.517989
0.383002 0.265274 0.523756
0.466429 0.280952 0.533091
0.549949 0.293670 0.541569
0.213123 0.247336 0.417776
0.235312 0.277680 0.466060
0.260601 0.309816 0.513060
0.295921 0.343958 0.559312
0.343879 0.357012 0.566145
0.413495 0.369092 0.574291
0.496685 0.384532 0.584806
0.582226 0.399696 0.595304
0.227486 0.316639 0.410690
0.247901 0.350274 0.462466
0.276987 0.384127 0.511486
0.325710 0.422722 0.563522
0.378343 0.460644 0.617281
0.447029 0.477474 0.629604
0.530180 0.492799 0.640467
0.621155 0.505822 0.650704
0.246875 0.393369 0.410429
0.272072 0.427583 0.463837
0.310797 0.464733 0.515966
0.364429 0.505260 0.570316
0.420900 0.544819 0.627052
0.487985 0.584791 0.687531
0.586598 0.598247 0.697782
0.702504 0.607259 0.700311
0.272093 0.471136 0.418880
0.304032 0.508485 0.472377
0.352183 0.546301 0.526760
0.407896 0.589140 0.580942
0.477377 0.629462 0.632086
0.566863 0.668172 0.686283
0.668699 0.710333 0.750984
0.797267 0.724433 0.757116
0.307567 0.551696 0.433915
0.343309 0.589488 0.486833
0.391951 0.631941 0.541915
0.462953 0.672893 0.588306
0.546623 0.714084 0.632618
0.643149 0.761796 0.681996
0.759152 0.813310 0.744165
0.875331 0.855512 0.815032
