gsg/04_Specialty/GSG_LUT_Specialty_BeachHaze.cube
# GSG LUTs 1.0
# Copyright (c) 2016-2020 Greyscalegorilla
# See EULA for licensing and distribution information
# Converted by Briz LUT Converter
LUT_3D_SIZE 5
DOMAIN_MIN 0.000000 0.000000 0.000000
DOMAIN_MAX 0.903226 0.903226 0.903226
0.050794 0.122589 0.201709
0.204553 0.139312 0.202198
0.520249 0.152420 0.197519
0.827847 0.206790 0.178400
0.998960 0.274875 0.156107
0.050794 0.262893 0.274583
0.236474 0.294202 0.249591
0.590594 0.325735 0.229806
0.837684 0.345879 0.206073
0.999235 0.370371 0.188171
0.196235 0.525716 0.384726
0.341186 0.535198 0.370826
0.621124 0.578259 0.309500
0.849435 0.564863 0.293595
0.998484 0.543800 0.291194
0.460940 0.706779 0.520162
0.519869 0.705020 0.523537
0.650819 0.721297 0.489310
0.840435 0.725427 0.430120
0.973414 0.697680 0.454180
0.699303 0.804057 0.712253
0.721494 0.802458 0.714887
0.772561 0.800725 0.710711
0.859689 0.805112 0.692298
0.959025 0.800291 0.673393
0.050794 0.131088 0.281216
0.176616 0.145768 0.293319
0.519241 0.160776 0.279962
0.803775 0.223238 0.268372
0.991952 0.279956 0.245303
0.050794 0.283047 0.341975
0.250313 0.302952 0.331925
0.577579 0.327855 0.316353
0.817755 0.348335 0.290776
0.992302 0.369486 0.267415
0.234837 0.531331 0.432995
0.362462 0.539456 0.424765
0.615292 0.571286 0.372887
0.838049 0.561968 0.360912
0.991332 0.544179 0.351603
0.474458 0.707450 0.549886
0.529296 0.704956 0.552731
0.653380 0.719959 0.523848
0.837089 0.723718 0.472162
0.969566 0.699033 0.493803
0.698925 0.803928 0.722300
0.720757 0.802343 0.724370
0.777888 0.801145 0.728315
0.861375 0.805665 0.711376
0.957687 0.801239 0.694057
0.050794 0.155918 0.431644
0.162056 0.165586 0.445644
0.539499 0.163812 0.458361
0.800234 0.162606 0.403880
0.985232 0.265889 0.385293
0.050794 0.310623 0.487202
0.282570 0.326005 0.497011
0.583433 0.322700 0.473018
0.813251 0.342978 0.434440
0.985196 0.370640 0.409442
0.248088 0.572558 0.548218
0.420154 0.571134 0.558868
0.641246 0.588020 0.526795
0.837515 0.575983 0.509779
0.981595 0.545774 0.474338
0.507827 0.718556 0.628588
0.554922 0.715277 0.629328
0.665607 0.723180 0.614604
0.835338 0.725047 0.573983
0.962637 0.703529 0.586696
0.690038 0.805412 0.749157
0.713171 0.803971 0.751237
0.775157 0.800331 0.758718
0.856349 0.804671 0.746985
0.952057 0.801091 0.730521
0.050794 0.191421 0.619804
0.239526 0.193873 0.629119
0.560023 0.200674 0.639340
0.812563 0.259383 0.617983
0.969838 0.293429 0.560244
0.152530 0.333526 0.651148
0.332835 0.339772 0.656446
0.602306 0.362643 0.660936
0.813325 0.384464 0.625436
0.960118 0.400886 0.579320
0.339639 0.580412 0.690527
0.461157 0.594347 0.697960
0.654879 0.610869 0.703507
0.814232 0.582170 0.659271
0.954879 0.563207 0.629332
0.511017 0.735964 0.717458
0.576220 0.737108 0.727277
0.694442 0.733346 0.738749
0.835662 0.733259 0.716089
0.952792 0.709570 0.706312
0.682192 0.809996 0.790059
0.716944 0.808208 0.799291
0.774603 0.804853 0.807669
0.849433 0.803661 0.805942
0.943914 0.802701 0.792269
0.235630 0.239182 0.807168
0.372065 0.239495 0.809204
0.608816 0.240976 0.814920
0.855241 0.302496 0.805678
0.974276 0.444279 0.759767
0.290996 0.355002 0.810737
0.403254 0.358185 0.812000
0.619060 0.370674 0.817217
0.850723 0.417380 0.807660
0.964877 0.506947 0.766243
0.355386 0.557872 0.816292
0.452328 0.569027 0.818275
0.631704 0.582685 0.823821
0.839127 0.604203 0.820911
0.944497 0.620534 0.785681
0.487635 0.737319 0.833661
0.543669 0.737714 0.835125
0.680576 0.741178 0.841323
0.836398 0.747920 0.851012
0.923755 0.727747 0.821327
0.659247 0.815093 0.842861
0.688565 0.813774 0.845302
0.767594 0.811020 0.855112
0.866092 0.808610 0.875470
0.933452 0.808938 0.878688
