gsg/04_Specialty/GSG_LUT_Specialty_SailorsDelight.cube
# GSG LUTs 1.0
# Copyright (c) 2016-2020 Greyscalegorilla
# See EULA for licensing and distribution information
# Converted by Briz LUT Converter
LUT_3D_SIZE 5
DOMAIN_MIN 0.000000 0.000000 0.000000
DOMAIN_MAX 0.903226 0.903226 0.903226
0.050794 0.061538 0.077167
0.134121 0.096538 0.125574
0.594383 0.158163 0.197227
0.873284 0.351444 0.351357
0.929725 0.526764 0.544212
0.052172 0.263571 0.265351
0.346133 0.350050 0.275951
0.716899 0.431276 0.354715
0.868558 0.509012 0.480191
0.909008 0.605748 0.623520
0.552026 0.665217 0.606144
0.621647 0.680406 0.612610
0.763872 0.694886 0.642715
0.838355 0.696881 0.699906
0.878262 0.715140 0.750819
0.751995 0.754075 0.782000
0.764069 0.756131 0.783891
0.798665 0.761019 0.789176
0.841215 0.762812 0.798088
0.895821 0.770656 0.817433
0.849573 0.797267 0.846886
0.855575 0.798598 0.847669
0.874896 0.803393 0.849326
0.915176 0.811982 0.853196
0.957967 0.816511 0.859616
0.050794 0.072835 0.141817
0.131277 0.100543 0.200561
0.625548 0.209879 0.300397
0.860540 0.426637 0.452722
0.913036 0.567813 0.600326
0.072491 0.299358 0.343277
0.378587 0.368905 0.363779
0.714571 0.466731 0.446106
0.853456 0.549086 0.550740
0.896341 0.628273 0.658997
0.580679 0.671815 0.641109
0.640526 0.685319 0.647244
0.761967 0.696987 0.671098
0.832953 0.703073 0.719797
0.874613 0.719849 0.761468
0.757419 0.754660 0.788357
0.768472 0.756605 0.789983
0.800575 0.761438 0.794670
0.841124 0.763354 0.802872
0.896501 0.771494 0.820500
0.849570 0.797737 0.848186
0.855738 0.798787 0.849195
0.875836 0.803831 0.851309
0.915791 0.812429 0.855165
0.958602 0.816992 0.861822
0.050794 0.098641 0.291284
0.133042 0.130549 0.357458
0.646102 0.243859 0.467302
0.843259 0.478459 0.565966
0.890202 0.615025 0.674721
0.223042 0.374020 0.502277
0.441778 0.421681 0.532999
0.708874 0.505333 0.578455
0.832964 0.594926 0.645389
0.878271 0.660555 0.714839
0.627020 0.687736 0.710959
0.673073 0.698017 0.716108
0.764790 0.707736 0.731973
0.825687 0.716820 0.759298
0.869586 0.726806 0.780781
0.769140 0.756729 0.803667
0.777898 0.758280 0.804850
0.805002 0.762826 0.808285
0.842434 0.765312 0.814517
0.899859 0.773236 0.828079
0.847564 0.799441 0.851904
0.854042 0.799982 0.853162
0.874133 0.804081 0.856061
0.914601 0.812935 0.859963
0.959066 0.817816 0.866848
0.050794 0.155839 0.546922
0.292423 0.195228 0.590394
0.673789 0.377952 0.658436
0.822039 0.562493 0.693613
0.863476 0.664446 0.747655
0.378635 0.442405 0.666531
0.516366 0.482710 0.686971
0.712756 0.579068 0.714374
0.812630 0.641462 0.732461
0.859071 0.692416 0.768574
0.673694 0.708901 0.773489
0.712835 0.716034 0.781755
0.770786 0.721599 0.786987
0.819509 0.726794 0.793153
0.863844 0.735446 0.805036
0.785423 0.762179 0.823889
0.792123 0.762429 0.825108
0.811653 0.765996 0.827319
0.847671 0.769215 0.831191
0.905242 0.773327 0.837907
0.851754 0.804041 0.862791
0.856737 0.804406 0.863728
0.872496 0.805856 0.866348
0.910553 0.813819 0.870524
0.960502 0.819770 0.877774
0.332357 0.307700 0.775777
0.479957 0.363210 0.784652
0.710740 0.516451 0.800909
0.826334 0.658081 0.801734
0.862276 0.709550 0.809945
0.501077 0.526460 0.793525
0.582593 0.558462 0.798503
0.735522 0.631529 0.809869
0.822877 0.697423 0.812869
0.862359 0.724334 0.818867
0.685558 0.709292 0.817528
0.716186 0.717029 0.820897
0.778446 0.731034 0.829383
0.828975 0.744021 0.833561
0.873656 0.747891 0.835375
0.790829 0.771262 0.847208
0.798452 0.772050 0.848713
0.821362 0.774610 0.853741
0.858901 0.774571 0.856417
0.912430 0.775303 0.858641
0.852618 0.812315 0.879790
0.859901 0.813102 0.881679
0.882988 0.815685 0.888607
0.916926 0.818684 0.898043
0.961586 0.825869 0.906422
