gsg/04_Specialty/GSG_LUT_Specialty_SailorsDelight.cube
# GSG LUTs 1.0
# Copyright (c) 2016-2020 Greyscalegorilla
# See EULA for licensing and distribution information
# Converted by Briz LUT Converter
LUT_3D_SIZE 32
0.050794 0.061538 0.077167
0.051613 0.064083 0.081973
0.054543 0.067439 0.087392
0.060097 0.072071 0.094773
0.068668 0.077679 0.102745
0.081949 0.083729 0.110056
0.103265 0.089874 0.117508
0.134121 0.096538 0.125574
0.176281 0.103533 0.133767
0.229926 0.110197 0.142479
0.293702 0.116499 0.151711
0.365016 0.122888 0.161377
0.441553 0.130387 0.171681
0.519942 0.141510 0.183489
0.594383 0.158163 0.197227
0.659987 0.180559 0.213045
0.715318 0.207279 0.231069
0.761180 0.236181 0.251432
0.798771 0.265816 0.274134
0.829312 0.295411 0.298877
0.853826 0.323959 0.324810
0.873284 0.351444 0.351357
0.888928 0.378321 0.378424
0.901193 0.404498 0.405829
0.910835 0.430084 0.433495
0.918335 0.454953 0.461223
0.923754 0.479452 0.489157
0.927520 0.503478 0.516925
0.929725 0.526764 0.544212
0.931057 0.549269 0.570980
0.931372 0.570995 0.597227
0.931868 0.591941 0.622466
0.050794 0.072401 0.096057
0.051061 0.074969 0.098394
0.052363 0.078325 0.103421
0.058862 0.082880 0.109392
0.069963 0.087810 0.115014
0.085863 0.093686 0.121324
0.110945 0.100086 0.127901
0.145677 0.107018 0.134902
0.190453 0.114410 0.142751
0.245631 0.122004 0.150943
0.310014 0.129767 0.159660
0.381225 0.138053 0.169081
0.456788 0.147734 0.179640
0.533315 0.160973 0.191708
0.604684 0.178750 0.205597
0.667133 0.200800 0.221423
0.720236 0.226227 0.239568
0.764403 0.253563 0.260042
0.800576 0.281621 0.282607
0.830120 0.309354 0.306942
0.853856 0.336470 0.332512
0.872866 0.362571 0.358625
0.887904 0.388064 0.385004
0.899945 0.413118 0.411996
0.909577 0.437478 0.439019
0.916877 0.461647 0.466364
0.922243 0.485404 0.493823
0.926007 0.508443 0.521077
0.928434 0.531138 0.548059
0.929560 0.553122 0.574564
0.930103 0.574328 0.600308
0.930608 0.594746 0.625019
0.050794 0.084233 0.114680
0.050801 0.087561 0.116449
0.051434 0.090996 0.119044
0.058505 0.095441 0.123981
0.071179 0.100859 0.129032
0.092218 0.106770 0.134342
0.122008 0.113307 0.140138
0.160580 0.120764 0.146305
0.208410 0.128761 0.153251
0.265223 0.137369 0.160916
0.329889 0.146529 0.169276
0.400801 0.156335 0.178676
0.475333 0.168234 0.189338
0.548961 0.183108 0.201663
0.616691 0.201546 0.215786
0.675934 0.223326 0.231864
0.726248 0.247664 0.249904
0.768294 0.273263 0.270139
0.802898 0.299245 0.292809
0.831272 0.325312 0.316931
0.854266 0.350903 0.341976
0.872585 0.375576 0.367552
0.887351 0.399578 0.393562
0.899027 0.423259 0.419922
0.908342 0.446684 0.446547
0.915573 0.469861 0.473247
0.920737 0.492591 0.500143
0.924463 0.515003 0.527069
0.926875 0.536932 0.553359
0.928015 0.558340 0.579515
0.928773 0.579008 0.604736
0.929316 0.598653 0.628690
0.050794 0.100201 0.136894
0.050794 0.104307 0.138374
0.050996 0.109214 0.139727
0.055508 0.114863 0.142977
0.073888 0.121373 0.147585
0.104076 0.128055 0.152039
0.141227 0.135352 0.157063
0.184556 0.143430 0.162493
0.235446 0.152338 0.168677
0.293742 0.162121 0.175700
0.358707 0.172640 0.183725
0.428659 0.184405 0.192832
0.500644 0.198049 0.203653
0.570027 0.214114 0.216153
0.632880 0.232554 0.230181
0.687642 0.253411 0.246382
0.734301 0.275927 0.264658
0.773366 0.299407 0.284766
0.805783 0.323328 0.306921
0.832606 0.346988 0.330627
0.854428 0.370164 0.355069
0.872007 0.392813 0.379865
0.886075 0.415124 0.405094
0.897486 0.437382 0.430843
0.906587 0.459475 0.456923
0.913558 0.481512 0.483243
0.918654 0.503343 0.509614
0.922355 0.524723 0.535792
0.924579 0.545586 0.561693
0.925913 0.565952 0.586874
0.926487 0.585754 0.611276
0.927504 0.604593 0.634653
0.050794 0.122982 0.162354
0.050794 0.127680 0.163542
0.050821 0.133487 0.164545
0.053308 0.141797 0.166117
0.078205 0.150677 0.169411
0.121742 0.160150 0.174145
0.167616 0.168879 0.178719
0.217075 0.177965 0.183827
0.271689 0.187808 0.189539
0.331338 0.198407 0.196009
0.395869 0.210152 0.203816
0.463711 0.223322 0.213018
0.531000 0.237803 0.223672
0.594326 0.253955 0.236126
0.651434 0.271695 0.250510
0.701385 0.291155 0.266832
0.744157 0.311719 0.285091
0.780052 0.332538 0.305271
0.809995 0.353511 0.326948
0.834845 0.374560 0.349794
0.855138 0.395439 0.373435
0.871640 0.415962 0.397610
0.885167 0.436594 0.422564
0.895870 0.457051 0.447660
0.904491 0.477420 0.472870
0.911129 0.497798 0.498134
0.915927 0.517997 0.523372
0.919335 0.537943 0.548605
0.921694 0.557408 0.573396
0.923045 0.576581 0.597438
0.923864 0.594877 0.620732
0.925172 0.612596 0.643003
0.050794 0.155808 0.192130
0.050794 0.161500 0.192885
0.050796 0.168167 0.193601
0.053961 0.178092 0.194403
0.089820 0.190157 0.196183
0.143842 0.202266 0.199338
0.201160 0.215102 0.204653
0.256900 0.225708 0.209833
0.315270 0.236586 0.215901
0.377837 0.248721 0.222914
0.441840 0.261258 0.231087
0.505378 0.274274 0.240168
0.566600 0.288240 0.250936
0.623138 0.303391 0.263609
0.673636 0.319541 0.277971
0.717920 0.336651 0.294255
0.755886 0.354231 0.312323
0.788049 0.372079 0.332063
0.815086 0.390187 0.353156
0.837602 0.408211 0.375247
0.856098 0.426007 0.397888
0.871692 0.444926 0.422118
0.885250 0.466166 0.449160
0.895217 0.485195 0.474091
0.902834 0.503249 0.497896
0.908684 0.521366 0.521658
0.912986 0.539450 0.545197
0.915990 0.557348 0.568655
0.918071 0.574807 0.591665
0.919435 0.591980 0.613927
0.920538 0.608855 0.635683
0.922321 0.625058 0.656434
0.050794 0.203450 0.226775
0.050794 0.209787 0.227431
0.051236 0.217384 0.227984
0.062657 0.228105 0.228579
0.116641 0.241672 0.229607
0.175664 0.255893 0.231062
0.238803 0.271510 0.234787
0.304604 0.286988 0.241526
0.366768 0.299078 0.248432
0.428923 0.310883 0.256140
0.491460 0.323616 0.265436
0.551520 0.336725 0.275959
0.606269 0.349398 0.287439
0.655293 0.362199 0.300095
0.698631 0.375520 0.314279
0.736459 0.389252 0.330170
0.769132 0.403165 0.347596
0.797050 0.417367 0.366505
0.820861 0.431984 0.386558
0.840902 0.446896 0.407375
0.857448 0.461794 0.428648
0.871162 0.477232 0.450600
0.882640 0.493502 0.473647
0.891781 0.509606 0.496327
0.898967 0.525778 0.519063
0.904384 0.542024 0.541557
0.908566 0.558106 0.563747
0.911741 0.574108 0.585676
0.913749 0.589925 0.607082
0.915294 0.605488 0.627778
0.916898 0.620646 0.648172
0.918996 0.635488 0.667573
0.052172 0.263571 0.265351
0.058649 0.269916 0.265617
0.066651 0.277799 0.266324
0.105155 0.288718 0.267150
0.161631 0.302929 0.268077
0.220467 0.319056 0.268994
0.280112 0.333751 0.271166
0.346133 0.350050 0.275951
0.412430 0.364943 0.284243
0.473343 0.376572 0.293042
0.530984 0.387417 0.302881
0.585469 0.398816 0.314230
0.635224 0.410164 0.326917
0.679065 0.421021 0.340562
0.716899 0.431276 0.354715
0.749583 0.441214 0.369720
0.777873 0.451383 0.385918
0.802291 0.461963 0.403253
0.823360 0.473159 0.421706
0.841275 0.484805 0.440810
0.856177 0.496666 0.460297
0.868558 0.509012 0.480191
0.878830 0.522071 0.500652
0.887263 0.535588 0.521437
0.894124 0.549528 0.542374
0.899440 0.563668 0.563104
0.903493 0.577787 0.583654
0.906645 0.591779 0.603917
0.909008 0.605748 0.623520
0.910694 0.619490 0.642630
0.912793 0.633261 0.661409
0.915412 0.646548 0.679247
0.079586 0.334405 0.309528
0.107373 0.340541 0.309849
0.134688 0.347744 0.310319
0.173745 0.357533 0.311245
0.220788 0.370402 0.312001
0.273777 0.385867 0.312787
0.330857 0.401716 0.313942
0.389121 0.415295 0.316729
0.451205 0.428936 0.323134
0.511456 0.441569 0.333102
0.564872 0.451097 0.344112
0.612942 0.459569 0.355872
0.656891 0.468161 0.368883
0.696107 0.476730 0.383119
0.730200 0.484798 0.398077
0.759345 0.492116 0.413087
0.784252 0.499162 0.428309
0.805755 0.506532 0.444136
0.824422 0.514524 0.460642
0.840344 0.523007 0.477600
0.853685 0.531974 0.494817
0.864955 0.541608 0.512625
0.874386 0.552044 0.530867
0.882226 0.563146 0.549637
0.888761 0.574597 0.568492
0.893867 0.586505 0.586974
0.897990 0.598372 0.605511
0.901217 0.610471 0.623768
0.903645 0.622619 0.641582
0.905809 0.634598 0.659054
0.908490 0.646735 0.676024
0.911694 0.658395 0.692229
0.173311 0.408240 0.357415
0.195833 0.413514 0.357913
0.219427 0.419583 0.358261
0.249721 0.427854 0.358958
0.287201 0.438500 0.359787
0.331766 0.451673 0.360639
0.382931 0.466405 0.361729
0.436500 0.480138 0.363637
0.489066 0.490545 0.367546
0.542200 0.500663 0.375420
0.592021 0.509577 0.387226
0.635703 0.516268 0.399801
0.674212 0.521853 0.412726
0.708550 0.527273 0.426631
0.738975 0.532935 0.441583
0.765550 0.538563 0.457106
0.788319 0.544121 0.472609
0.807738 0.549492 0.487573
0.824315 0.554864 0.502262
0.838516 0.560584 0.516923
0.850475 0.566906 0.531726
0.860724 0.573912 0.547119
0.869402 0.581834 0.562946
0.876721 0.590509 0.579085
0.882895 0.599655 0.595504
0.887928 0.609295 0.611847
0.891958 0.619163 0.628151
0.895325 0.629361 0.644455
0.898068 0.639679 0.660538
0.900802 0.650006 0.676133
0.904182 0.660402 0.691276
0.908236 0.670385 0.705660
0.270708 0.478034 0.407279
0.285345 0.482259 0.407783
0.302161 0.487004 0.408292
0.325423 0.493594 0.408917
0.355253 0.502240 0.409936
0.391481 0.512673 0.411117
0.434137 0.524635 0.412839
0.480817 0.537302 0.414914
0.527382 0.547574 0.417770
0.571346 0.554629 0.422583
0.614188 0.560893 0.431912
0.654247 0.566500 0.445191
0.689519 0.570869 0.459511
0.719722 0.573951 0.473245
0.746278 0.576969 0.487104
0.769891 0.580507 0.501510
0.790504 0.584520 0.516484
0.808300 0.588736 0.531353
0.823358 0.592710 0.545318
0.835988 0.596601 0.558222
0.846766 0.600673 0.570605
0.856061 0.605473 0.583343
0.864081 0.611258 0.596542
0.871008 0.617630 0.610208
0.876768 0.624686 0.624265
0.881705 0.632262 0.638342
0.885880 0.640273 0.652402
0.889412 0.648502 0.666461
0.892631 0.656976 0.680371
0.896121 0.665481 0.693877
0.900191 0.674223 0.707030
0.905274 0.682815 0.719587
0.357793 0.540982 0.459916
0.368624 0.544159 0.460420
0.381524 0.547597 0.460940
0.399216 0.552723 0.461720
0.422268 0.559134 0.462759
0.450720 0.566856 0.464110
0.484214 0.575875 0.466029
0.521738 0.585735 0.468427
0.561989 0.595359 0.471415
0.600469 0.602199 0.475132
0.635836 0.606042 0.481000
0.670482 0.609872 0.492062
0.703211 0.614077 0.507631
0.730651 0.616249 0.521974
0.753801 0.617434 0.534674
0.774278 0.618946 0.547400
0.792379 0.621011 0.560549
0.808199 0.623725 0.573860
0.821722 0.626677 0.586806
0.833225 0.629649 0.598878
0.843001 0.632510 0.609870
0.851429 0.635769 0.620554
0.858847 0.639555 0.631326
0.865318 0.644074 0.642479
0.870842 0.649331 0.654085
0.875741 0.654952 0.665737
0.879989 0.660905 0.677301
0.883899 0.667348 0.688999
0.887706 0.674090 0.700568
0.891960 0.680945 0.712048
0.896971 0.688044 0.723133
0.903092 0.695159 0.733861
0.436346 0.594549 0.513545
0.444424 0.596777 0.513955
0.453806 0.599087 0.514475
0.466847 0.602694 0.515245
0.484134 0.607044 0.516200
0.505453 0.612538 0.517500
0.530812 0.618859 0.519117
0.559849 0.625940 0.521378
0.592212 0.633482 0.524455
0.625686 0.640103 0.528197
0.656473 0.643900 0.532754
0.685096 0.645826 0.539531
0.712605 0.647702 0.550583
0.737223 0.648911 0.563456
0.758253 0.649416 0.575718
0.776473 0.649798 0.587240
0.792476 0.650465 0.598453
0.806582 0.651685 0.609566
0.818836 0.653410 0.620688
0.829453 0.655496 0.631611
0.838672 0.657943 0.642140
0.846634 0.660750 0.652330
0.853610 0.663504 0.661759
0.859775 0.666693 0.671042
0.865233 0.670389 0.680355
0.870209 0.674460 0.689931
0.874686 0.678937 0.699378
0.878939 0.683916 0.709204
0.883473 0.689195 0.718752
0.888508 0.694821 0.728478
0.894299 0.700626 0.737991
0.901359 0.706629 0.747095
0.500288 0.635110 0.562614
0.506267 0.636663 0.562973
0.513007 0.638266 0.563387
0.522566 0.640663 0.564047
0.535241 0.643630 0.564853
0.551176 0.647466 0.566048
0.570307 0.651829 0.567541
0.592591 0.656745 0.569563
0.617888 0.662118 0.572313
0.645374 0.667545 0.575814
0.672763 0.671867 0.579927
0.697649 0.673780 0.584560
0.720363 0.674165 0.590723
0.741766 0.674352 0.599891
0.760997 0.674457 0.610882
0.777682 0.674408 0.621619
0.792152 0.674375 0.631405
0.804753 0.674572 0.640720
0.815844 0.675248 0.649940
0.825618 0.676428 0.659153
0.834316 0.678151 0.668507
0.842083 0.680502 0.678026
0.848919 0.683036 0.687077
0.854929 0.685662 0.695567
0.860349 0.688439 0.703627
0.865446 0.691481 0.711486
0.870249 0.694792 0.719284
0.875087 0.698576 0.727321
0.880291 0.702751 0.735368
0.886096 0.707333 0.743543
0.892767 0.712051 0.751594
0.900508 0.717161 0.759494
0.552026 0.665217 0.606144
0.556270 0.666364 0.606644
0.561374 0.667535 0.607019
0.568583 0.669108 0.607536
0.577963 0.671130 0.608224
0.589967 0.673856 0.609272
0.604479 0.676906 0.610653
0.621647 0.680406 0.612610
0.641386 0.684214 0.614926
0.663088 0.688303 0.617865
0.686319 0.692229 0.621332
0.708883 0.694953 0.625279
0.728717 0.695643 0.629572
0.746902 0.695320 0.634938
0.763872 0.694886 0.642715
0.779072 0.694647 0.652022
0.792298 0.694338 0.660881
0.803697 0.693972 0.668848
0.813766 0.693904 0.676406
0.822780 0.694284 0.683985
0.830974 0.695214 0.691778
0.838355 0.696881 0.699906
0.845075 0.698981 0.708160
0.851085 0.701324 0.716197
0.856505 0.703817 0.723960
0.861690 0.706337 0.730873
0.866938 0.708878 0.737585
0.872420 0.711849 0.744110
0.878262 0.715140 0.750819
0.884834 0.718797 0.757560
0.892423 0.722832 0.764408
0.900807 0.727024 0.771263
0.595234 0.688211 0.644618
0.598535 0.689094 0.645000
0.602428 0.689882 0.645397
0.607900 0.691044 0.646012
0.615097 0.692498 0.646579
0.624250 0.694439 0.647627
0.635410 0.696659 0.648936
0.648731 0.699223 0.650539
0.663949 0.701977 0.652529
0.680862 0.704982 0.654947
0.699468 0.707972 0.657769
0.718971 0.710825 0.660898
0.737080 0.712421 0.664392
0.752949 0.712350 0.667858
0.767421 0.711524 0.672201
0.780785 0.710894 0.678498
0.792840 0.710394 0.686028
0.803392 0.709890 0.693188
0.812664 0.709459 0.699598
0.820973 0.709384 0.705867
0.828687 0.709830 0.712419
0.835676 0.710800 0.719282
0.842186 0.712204 0.726318
0.848163 0.714087 0.733486
0.853674 0.716301 0.740593
0.859185 0.718768 0.747356
0.864927 0.721183 0.753629
0.871032 0.723690 0.759383
0.877637 0.726326 0.764960
0.884880 0.729323 0.770522
0.893127 0.732715 0.776320
0.902288 0.736248 0.782134
0.631785 0.705983 0.677640
0.634452 0.706491 0.678038
0.638141 0.707385 0.678932
0.642288 0.708287 0.679664
0.647875 0.709432 0.680199
0.654995 0.710743 0.681007
0.663586 0.712394 0.682162
0.673801 0.714205 0.683475
0.685474 0.716244 0.685043
0.698670 0.718411 0.686941
0.713250 0.720710 0.689201
0.728997 0.723050 0.691591
0.745008 0.724988 0.694271
0.759625 0.725775 0.697034
0.772194 0.725332 0.699743
0.783521 0.724389 0.703063
0.794210 0.723563 0.708121
0.803928 0.722998 0.714212
0.812623 0.722494 0.719955
0.820335 0.722212 0.725366
0.827479 0.722316 0.730926
0.834033 0.722810 0.736748
0.840243 0.723783 0.742654
0.846146 0.725182 0.748745
0.851950 0.726876 0.754811
0.857851 0.729026 0.761041
0.864195 0.731392 0.766924
0.871061 0.733790 0.772508
0.878446 0.736295 0.777499
0.886352 0.738927 0.782292
0.895128 0.741684 0.787188
0.904935 0.744693 0.791965
0.663287 0.720005 0.705747
0.665473 0.720288 0.706291
0.669328 0.721509 0.708007
0.672673 0.722150 0.708614
0.677032 0.723020 0.709118
0.682449 0.723930 0.709679
0.689115 0.725099 0.710597
0.696855 0.726498 0.711719
0.705889 0.727986 0.712904
0.716166 0.729545 0.714342
0.727521 0.731285 0.716031
0.739821 0.733026 0.717948
0.752929 0.734723 0.719940
0.766070 0.736062 0.722081
0.777859 0.736490 0.724290
0.787683 0.735856 0.726349
0.796742 0.734848 0.728967
0.805428 0.734087 0.733000
0.813410 0.733522 0.737936
0.820628 0.733168 0.742803
0.827304 0.732987 0.747482
0.833428 0.733180 0.752349
0.839434 0.733892 0.757263
0.845303 0.734844 0.762405
0.851394 0.736121 0.767565
0.857690 0.737889 0.772785
0.864518 0.739972 0.777937
0.872005 0.742315 0.783185
0.880153 0.744819 0.788034
0.888965 0.747339 0.792470
0.898415 0.749860 0.796869
0.908614 0.752491 0.800890
0.690653 0.731191 0.729836
0.692405 0.731461 0.730218
0.695014 0.732262 0.731317
0.697670 0.732776 0.731821
0.701107 0.733404 0.732325
0.705357 0.734177 0.732846
0.710564 0.735059 0.733503
0.716598 0.736058 0.734365
0.723640 0.737172 0.735326
0.731681 0.738357 0.736546
0.740577 0.739678 0.737771
0.750290 0.740948 0.739293
0.760757 0.742314 0.740912
0.771744 0.743637 0.742573
0.782615 0.744648 0.744361
0.792073 0.744817 0.746250
0.800099 0.744102 0.747941
0.807629 0.743227 0.750074
0.814767 0.742613 0.753462
0.821426 0.742172 0.757485
0.827716 0.741865 0.761608
0.833637 0.741943 0.765721
0.839507 0.742441 0.769920
0.845545 0.743156 0.774240
0.851794 0.744181 0.778700
0.858522 0.745689 0.783083
0.865778 0.747512 0.787552
0.873767 0.749595 0.792138
0.882536 0.751938 0.796648
0.892085 0.754445 0.800821
0.902451 0.757103 0.805097
0.913073 0.759628 0.808894
0.713821 0.740076 0.749876
0.715182 0.740336 0.750131
0.716679 0.740831 0.750490
0.718835 0.741195 0.750980
0.721491 0.741711 0.751349
0.724902 0.742313 0.751853
0.728964 0.742944 0.752405
0.733771 0.743721 0.753127
0.739262 0.744575 0.753855
0.745606 0.745500 0.754890
0.752681 0.746575 0.755871
0.760430 0.747617 0.757111
0.768865 0.748723 0.758373
0.777756 0.749829 0.759731
0.787058 0.750892 0.761199
0.796156 0.751645 0.762855
0.803970 0.751604 0.764493
0.810618 0.750947 0.765920
0.816881 0.750333 0.767724
0.823068 0.749829 0.770494
0.828961 0.749482 0.773912
0.834739 0.749459 0.777417
0.840643 0.749837 0.781063
0.846847 0.750522 0.784787
0.853381 0.751467 0.788585
0.860582 0.752749 0.792330
0.868234 0.754437 0.796259
0.876719 0.756284 0.800236
0.886008 0.758502 0.804212
0.895937 0.760859 0.807960
0.906868 0.763461 0.811920
0.918311 0.765985 0.815708
0.733830 0.747513 0.766860
0.734932 0.747768 0.767112
0.736220 0.748104 0.767369
0.737935 0.748364 0.767718
0.739952 0.748726 0.768123
0.742568 0.749230 0.768490
0.745751 0.749751 0.769011
0.749623 0.750345 0.769585
0.753911 0.750979 0.770134
0.758856 0.751760 0.770884
0.764502 0.752606 0.771807
0.770699 0.753452 0.772768
0.777475 0.754358 0.773749
0.784734 0.755300 0.774816
0.792428 0.756217 0.776044
0.800357 0.757107 0.777308
0.807927 0.757603 0.778784
0.814478 0.757571 0.780243
0.820215 0.757170 0.781494
0.825873 0.756666 0.783043
0.831486 0.756421 0.785359
0.837197 0.756391 0.788199
0.843168 0.756625 0.791212
0.849516 0.757265 0.794370
0.856359 0.758210 0.797574
0.863918 0.759415 0.800905
0.872113 0.760953 0.804212
0.880991 0.762830 0.807780
0.890638 0.764771 0.811256
0.900984 0.767009 0.814631
0.912185 0.769362 0.818081
0.924014 0.771878 0.821537
0.751995 0.754075 0.782000
0.752675 0.754161 0.782087
0.753770 0.754413 0.782339
0.754980 0.754665 0.782583
0.756616 0.754928 0.782756
0.758622 0.755288 0.783048
0.761131 0.755760 0.783520
0.764069 0.756131 0.783891
0.767507 0.756655 0.784395
0.771567 0.757289 0.784993
0.776030 0.757991 0.785752
0.780954 0.758636 0.786424
0.786446 0.759422 0.787295
0.792351 0.760227 0.788218
0.798665 0.761019 0.789176
0.805320 0.761898 0.790223
0.812244 0.762699 0.791353
0.818906 0.763197 0.792615
0.824680 0.763255 0.793865
0.829921 0.762991 0.794890
0.835445 0.762759 0.796118
0.841215 0.762812 0.798088
0.847186 0.763039 0.800349
0.853475 0.763531 0.802791
0.860365 0.764305 0.805431
0.868147 0.765473 0.808312
0.876747 0.766938 0.811181
0.885914 0.768732 0.814317
0.895821 0.770656 0.817433
0.906508 0.772739 0.820539
0.917975 0.774997 0.823645
0.929647 0.777345 0.826752
0.767734 0.759683 0.794888
0.768248 0.759691 0.794895
0.769078 0.759932 0.795136
0.769954 0.760022 0.795219
0.771297 0.760274 0.795407
0.772811 0.760538 0.795671
0.774914 0.760883 0.795983
0.777187 0.761291 0.796251
0.779954 0.761661 0.796621
0.783141 0.762185 0.797145
0.786772 0.762796 0.797700
0.790837 0.763442 0.798291
0.795324 0.764087 0.799007
0.800213 0.764843 0.799701
0.805484 0.765599 0.800489
0.811234 0.766390 0.801318
0.817467 0.767272 0.802237
0.823971 0.768073 0.803284
0.830118 0.768674 0.804366
0.835586 0.768849 0.805360
0.840944 0.768887 0.806230
0.846619 0.768972 0.807251
0.852713 0.769291 0.808742
0.859123 0.769774 0.810582
0.865768 0.770333 0.812548
0.873396 0.771305 0.814869
0.882043 0.772591 0.817429
0.891442 0.774288 0.820085
0.901610 0.776117 0.822909
0.912557 0.778117 0.825592
0.923949 0.780202 0.828427
0.935539 0.782465 0.831447
0.781701 0.764615 0.806081
0.782207 0.764622 0.806083
0.782788 0.764870 0.806156
0.783556 0.765046 0.806332
0.784489 0.765135 0.806420
0.785809 0.765387 0.806672
0.787487 0.765651 0.806889
0.789386 0.765995 0.806995
0.791643 0.766450 0.807310
0.794318 0.766954 0.807762
0.797320 0.767479 0.808137
0.800691 0.768026 0.808664
0.804539 0.768624 0.809209
0.808805 0.769380 0.809739
0.813441 0.770137 0.810309
0.818509 0.770981 0.810965
0.824091 0.771956 0.811661
0.830153 0.772930 0.812394
0.836470 0.773873 0.813321
0.842667 0.774590 0.814329
0.848241 0.774958 0.815180
0.853866 0.775167 0.815813
0.860010 0.775572 0.816645
0.866493 0.776076 0.817912
0.873188 0.776580 0.819443
0.880475 0.777332 0.821122
0.888583 0.778358 0.823035
0.897956 0.779857 0.825310
0.908196 0.781598 0.827864
0.919047 0.783422 0.830391
0.930364 0.785602 0.832973
0.941951 0.787688 0.835984
0.794368 0.769404 0.815597
0.794872 0.769595 0.815603
0.795380 0.769664 0.815790
0.795959 0.769892 0.815842
0.796778 0.769924 0.815873
0.798047 0.770207 0.816125
0.799412 0.770617 0.816330
0.801079 0.770924 0.816385
0.803124 0.771429 0.816651
0.805381 0.771933 0.816999
0.808098 0.772437 0.817403
0.811229 0.773008 0.817779
0.814679 0.773729 0.818210
0.818504 0.774485 0.818599
0.822814 0.775241 0.819103
0.827527 0.776116 0.819634
0.832654 0.777124 0.820166
0.838402 0.778236 0.820701
0.844626 0.779330 0.821403
0.851299 0.780420 0.822217
0.857678 0.781251 0.822994
0.863443 0.781766 0.823713
0.869392 0.782118 0.824317
0.875961 0.782567 0.824960
0.882752 0.783218 0.826117
0.889952 0.783809 0.827434
0.897401 0.784416 0.828798
0.905829 0.785460 0.830433
0.915606 0.787144 0.832678
0.926362 0.788909 0.835004
0.937491 0.790963 0.837695
0.948694 0.793170 0.840711
0.806916 0.774784 0.824081
0.807224 0.775029 0.824089
0.807728 0.775044 0.824325
0.808256 0.775273 0.824325
0.809049 0.775304 0.824332
0.810138 0.775596 0.824412
0.811446 0.776053 0.824655
0.813024 0.776360 0.824869
0.814888 0.776864 0.825070
0.817047 0.777368 0.825190
0.819662 0.777936 0.825539
0.822570 0.778660 0.825941
0.825814 0.779416 0.826224
0.829548 0.780255 0.826578
0.833713 0.781126 0.826994
0.838165 0.782000 0.827390
0.843105 0.783110 0.827894
0.848693 0.784240 0.828398
0.854795 0.785384 0.828930
0.861546 0.786624 0.829483
0.868640 0.787951 0.830036
0.875392 0.788884 0.830722
0.881323 0.789279 0.831445
0.887510 0.789712 0.832006
0.894214 0.790253 0.832620
0.901255 0.790768 0.833588
0.908362 0.791272 0.834645
0.915805 0.791858 0.835915
0.924100 0.792944 0.837530
0.933975 0.794651 0.839926
0.944619 0.796652 0.842680
0.955303 0.798913 0.845894
0.819725 0.781149 0.831785
0.820190 0.781195 0.831787
0.820694 0.781396 0.831825
0.821222 0.781453 0.831845
0.822010 0.781669 0.832030
0.823057 0.781961 0.832069
0.824365 0.782457 0.832281
0.825932 0.782930 0.832368
0.827813 0.783434 0.832610
0.830064 0.783997 0.832833
0.832584 0.784726 0.833098
0.835582 0.785482 0.833449
0.838796 0.786238 0.833834
0.842530 0.787097 0.834102
0.846674 0.788087 0.834470
0.851176 0.789074 0.834853
0.856092 0.790208 0.835251
0.861554 0.791335 0.835643
0.867636 0.792485 0.836055
0.874261 0.793871 0.836559
0.881530 0.795236 0.837195
0.888998 0.796596 0.837799
0.896008 0.797494 0.838489
0.901998 0.797894 0.839216
0.908202 0.798346 0.839773
0.914783 0.798685 0.840341
0.921590 0.799149 0.841270
0.928471 0.799475 0.842491
0.935280 0.800024 0.843787
0.942719 0.800911 0.845427
0.952321 0.802860 0.848329
0.962062 0.805325 0.852007
0.834070 0.788979 0.839135
0.834567 0.788980 0.839348
0.834879 0.789011 0.839348
0.835606 0.789035 0.839351
0.836366 0.789287 0.839407
0.837229 0.789578 0.839597
0.838536 0.790041 0.839665
0.840104 0.790374 0.839843
0.841940 0.790878 0.839931
0.844112 0.791453 0.840183
0.846700 0.792209 0.840435
0.849581 0.792965 0.840698
0.852795 0.793722 0.840970
0.856439 0.794580 0.841223
0.860363 0.795589 0.841585
0.864768 0.796597 0.841971
0.869793 0.797622 0.842349
0.875223 0.798762 0.842836
