gsg/04_Specialty/GSG_LUT_Specialty_BeachHaze.cube
# GSG LUTs 1.0
# Copyright (c) 2016-2020 Greyscalegorilla
# See EULA for licensing and distribution information
# Converted by Briz LUT Converter
LUT_3D_SIZE 8
DOMAIN_MIN 0.000000 0.000000 0.000000
DOMAIN_MAX 0.903226 0.903226 0.903226
0.050794 0.122589 0.201709
0.094316 0.130324 0.201985
0.242743 0.142022 0.202198
0.421757 0.149679 0.200354
0.624877 0.159549 0.192871
0.794880 0.195786 0.181260
0.914979 0.238387 0.168971
0.998960 0.274875 0.156107
0.050794 0.181315 0.234661
0.086629 0.194553 0.224608
0.263661 0.203530 0.218299
0.440622 0.213660 0.212926
0.632451 0.229886 0.204372
0.784940 0.254423 0.192784
0.906645 0.284007 0.179905
0.998401 0.310466 0.167331
0.050794 0.295033 0.288763
0.086245 0.305502 0.282170
0.295273 0.336464 0.257942
0.501110 0.355129 0.245446
0.677902 0.366549 0.231210
0.808942 0.373082 0.217315
0.921883 0.383503 0.205521
0.999065 0.391637 0.197227
0.098066 0.454630 0.352704
0.201619 0.456081 0.350885
0.343657 0.481079 0.326262
0.534762 0.513346 0.290820
0.702726 0.519031 0.276501
0.831902 0.513537 0.267200
0.931831 0.503728 0.258985
0.999067 0.492603 0.253526
0.277900 0.585789 0.417606
0.331195 0.586622 0.421028
0.418110 0.598736 0.406344
0.551183 0.621830 0.374765
0.692695 0.630499 0.334680
0.814455 0.618751 0.325422
0.917344 0.606225 0.327991
0.994441 0.593953 0.336261
0.425247 0.685100 0.496246
0.455275 0.686041 0.499944
0.508848 0.687642 0.496446
0.589254 0.699094 0.475505
0.700861 0.711408 0.441246
0.814022 0.709670 0.406314
0.905463 0.693497 0.409673
0.977658 0.679160 0.429865
0.558139 0.757706 0.594273
0.573979 0.757100 0.595959
0.608262 0.754612 0.597750
0.656754 0.758161 0.587427
0.726313 0.763635 0.565908
0.818864 0.768746 0.536724
0.902317 0.761908 0.511257
0.960762 0.745394 0.525380
0.699303 0.804057 0.712253
0.707438 0.803293 0.713046
0.728064 0.802017 0.715883
0.760902 0.800995 0.719841
0.791652 0.801741 0.704535
0.844386 0.804530 0.694957
0.908377 0.806394 0.681894
0.959025 0.800291 0.673393
0.050794 0.126441 0.237906
0.064457 0.131014 0.242342
0.234584 0.144897 0.239433
0.414365 0.166084 0.241825
0.612721 0.182083 0.236804
0.772127 0.209064 0.225376
0.893422 0.243609 0.211966
0.992702 0.275543 0.197366
0.050794 0.188776 0.267796
0.075663 0.198645 0.265607
0.257502 0.212476 0.262400
0.438725 0.226627 0.255957
0.624199 0.241373 0.245759
0.773433 0.262495 0.232943
0.891465 0.286926 0.219199
0.989164 0.310158 0.205209
0.050794 0.300794 0.316721
0.107506 0.311060 0.312075
0.296879 0.336377 0.291288
0.491781 0.352991 0.282084
0.663247 0.364019 0.268613
0.792996 0.370461 0.253921
0.903678 0.379436 0.240399
0.993863 0.388170 0.229266
0.114053 0.449733 0.371144
0.209427 0.450680 0.369941
0.342920 0.475722 0.348509
0.519285 0.499942 0.316098
0.681978 0.505090 0.303751
0.811814 0.503211 0.294564
0.914703 0.495982 0.284001
0.993273 0.487681 0.275874
0.288573 0.585143 0.433314
0.335688 0.583718 0.435039
0.418078 0.594249 0.421564
0.545226 0.615281 0.391227
0.682663 0.622773 0.353964
0.804782 0.613115 0.345689
0.909602 0.602838 0.347363
0.989251 0.591694 0.353473
0.425642 0.681793 0.504831
0.452078 0.680933 0.506445
0.504836 0.682035 0.503849
0.584034 0.693945 0.484105
0.694890 0.706985 0.452178
0.807829 0.705860 0.419798
0.900472 0.690996 0.422829
0.974361 0.677828 0.441886
0.553833 0.754981 0.596835
0.567868 0.753711 0.597214
0.602018 0.751170 0.598909
0.651879 0.754999 0.590445
0.722500 0.761508 0.570888
0.815830 0.767069 0.543838
0.898855 0.760090 0.518209
0.958199 0.743992 0.531584
0.693686 0.802851 0.711696
0.702643 0.802328 0.712907
0.723283 0.801023 0.715469
0.757007 0.799754 0.720093
0.794992 0.802308 0.713236
0.845233 0.804720 0.701783
0.907498 0.806114 0.686614
0.957956 0.800036 0.677800
0.050794 0.133231 0.298673
0.050981 0.138359 0.304124
0.221034 0.151100 0.313504
0.422756 0.146685 0.300422
0.618455 0.163833 0.293810
0.773357 0.205588 0.285792
0.893789 0.251803 0.277753
0.992159 0.281291 0.264089
0.050794 0.199345 0.328543
0.058145 0.207844 0.332556
0.258960 0.214038 0.328047
0.449786 0.223313 0.317891
0.631621 0.239823 0.307292
0.776847 0.268839 0.297129
0.893546 0.295989 0.284942
0.990345 0.315972 0.270714
0.050794 0.322735 0.369403
0.121644 0.326528 0.373047
0.315745 0.346590 0.357450
0.506915 0.360968 0.349890
0.668367 0.369666 0.335461
0.794527 0.377472 0.320087
0.902733 0.385809 0.305559
0.992076 0.392332 0.292295
0.144153 0.469318 0.420021
0.242402 0.468534 0.422414
0.367374 0.489931 0.405326
0.533797 0.507427 0.377593
0.689830 0.511497 0.368919
0.814073 0.509622 0.360305
0.913103 0.501049 0.346855
0.991923 0.492226 0.335157
0.322062 0.595971 0.475588
0.364304 0.594561 0.477061
0.440566 0.602624 0.467836
0.559977 0.622873 0.441853
0.690660 0.627296 0.409503
0.808433 0.617474 0.403138
0.909795 0.607593 0.403706
0.987144 0.595993 0.405508
0.445558 0.686648 0.537256
0.470109 0.685916 0.538681
0.520405 0.685524 0.538116
0.594018 0.696633 0.520449
0.700498 0.709209 0.491893
0.809404 0.706989 0.463460
0.899965 0.692927 0.466870
0.972164 0.680758 0.482888
0.564180 0.757107 0.619920
0.578173 0.756194 0.620412
0.611139 0.753626 0.621955
0.659120 0.755758 0.615961
0.726571 0.762167 0.597868
0.816970 0.767621 0.572436
0.898212 0.760709 0.549440
0.957131 0.746257 0.564519
0.696357 0.803568 0.723367
0.704409 0.802861 0.724007
0.724635 0.801570 0.726386
0.758923 0.799987 0.731752
0.796641 0.801998 0.726952
0.845978 0.804757 0.716952
0.907005 0.806475 0.703357
0.956666 0.800746 0.695467
0.050794 0.146756 0.381480
0.050794 0.151948 0.388294
0.208368 0.163843 0.396269
0.428183 0.161307 0.406321
0.625673 0.115438 0.379356
0.769689 0.165073 0.361048
0.888597 0.225178 0.349718
0.987156 0.269687 0.340304
0.050794 0.214317 0.410969
0.057440 0.218260 0.415323
0.258628 0.228351 0.419787
0.461168 0.223740 0.415254
0.637877 0.216992 0.390175
0.776121 0.246833 0.372799
0.890679 0.283426 0.360168
0.986409 0.311004 0.348839
0.050794 0.337765 0.450266
0.140997 0.349999 0.456554
0.336157 0.360689 0.455339
0.511784 0.359820 0.439385
0.668521 0.364664 0.419937
0.791786 0.376767 0.402205
0.899349 0.389258 0.387938
0.988221 0.393323 0.371684
0.114147 0.497402 0.489276
0.261643 0.498404 0.497298
0.394201 0.507473 0.490306
0.554108 0.519098 0.468924
0.696774 0.520770 0.460656
0.809450 0.515672 0.446219
0.905889 0.504960 0.427175
0.986596 0.494009 0.409596
0.348781 0.614181 0.536964
0.392498 0.612464 0.538322
0.469534 0.613610 0.536092
0.578844 0.632487 0.515361
0.700341 0.633450 0.489469
0.811894 0.624182 0.484416
0.908563 0.614625 0.481750
0.982142 0.599572 0.472997
0.470426 0.695341 0.585965
0.494164 0.694803 0.587814
0.541641 0.692070 0.588870
0.608302 0.700881 0.575660
0.708375 0.712766 0.551573
0.810755 0.708621 0.526174
0.898462 0.695967 0.529896
0.968673 0.684828 0.541174
0.573018 0.760487 0.652538
0.586860 0.759606 0.653214
0.619336 0.757346 0.654669
0.668107 0.756746 0.654092
0.731237 0.763136 0.638711
0.817652 0.768553 0.616225
0.895759 0.761321 0.594593
0.954074 0.748135 0.608045
0.696929 0.804908 0.741272
0.704907 0.804372 0.741927
0.725098 0.802968 0.743716
0.758582 0.800981 0.748199
0.797577 0.801484 0.747400
0.845081 0.804535 0.738496
0.904983 0.806657 0.726521
0.954278 0.801349 0.719427
0.050794 0.165513 0.482650
0.050794 0.169206 0.488416
0.230818 0.173779 0.498747
0.434289 0.182867 0.506867
0.632203 0.174848 0.505566
0.774301 0.144695 0.466680
0.881535 0.205980 0.441684
0.980011 0.266516 0.433120
0.050794 0.227658 0.504943
0.067176 0.230781 0.509003
0.280122 0.236715 0.518131
0.466055 0.249676 0.521432
0.642863 0.243874 0.509035
0.775073 0.231843 0.470662
0.883012 0.274442 0.452012
0.979368 0.311313 0.441646
0.071525 0.354271 0.542677
0.205477 0.362929 0.547373
0.357192 0.371762 0.553214
0.517824 0.380400 0.547539
0.663308 0.367145 0.519751
0.782342 0.372715 0.494221
0.889621 0.387006 0.477128
0.979168 0.396494 0.462608
0.182236 0.509692 0.575753
0.284232 0.516881 0.579407
0.434245 0.531628 0.589369
0.575465 0.536722 0.578066
0.697418 0.528992 0.559535
0.801852 0.519163 0.536263
0.896909 0.508660 0.515134
0.978836 0.494229 0.493182
0.351532 0.632713 0.602366
0.413874 0.634456 0.610938
0.500861 0.631274 0.615980
0.597872 0.643640 0.601872
0.709224 0.641188 0.582450
0.813784 0.632147 0.575591
0.903007 0.616591 0.561479
0.975339 0.595089 0.539608
0.494915 0.707073 0.645658
0.517014 0.706313 0.646816
0.561180 0.702742 0.647148
0.621368 0.704761 0.641643
0.711516 0.715814 0.621093
0.811724 0.711205 0.600542
0.896531 0.699550 0.602670
0.964639 0.688307 0.606806
0.586877 0.765650 0.696254
0.597917 0.764784 0.695952
0.624274 0.762649 0.695260
0.671170 0.759481 0.696278
0.732053 0.763490 0.687223
0.815183 0.769368 0.668259
0.892382 0.762401 0.648843
0.950463 0.750525 0.660238
0.688350 0.806913 0.762163
0.695937 0.806285 0.762377
0.715788 0.804860 0.763325
0.752084 0.802842 0.767860
0.795136 0.800627 0.771734
0.841245 0.803821 0.764728
0.900552 0.806391 0.754138
0.950279 0.801600 0.746844
0.050794 0.186372 0.592619
0.056612 0.188242 0.596613
0.274165 0.189830 0.605646
0.464247 0.191904 0.613740
0.641257 0.212927 0.613552
0.781805 0.239058 0.596846
0.886463 0.244129 0.558789
0.971200 0.282954 0.533434
0.050794 0.243427 0.605711
0.134395 0.245474 0.608668
0.310422 0.248979 0.615585
0.484959 0.256513 0.620758
0.649944 0.280590 0.618429
0.781472 0.295367 0.598015
0.883091 0.295280 0.560488
0.965033 0.330979 0.540895
0.175198 0.367175 0.634006
0.252697 0.370217 0.636442
0.380289 0.376937 0.641918
0.533737 0.389153 0.644803
0.672091 0.408020 0.636037
0.785297 0.400350 0.605938
0.878645 0.397212 0.573076
0.962110 0.419459 0.562361
0.286992 0.513071 0.659863
0.348954 0.520860 0.663586
0.460109 0.537837 0.672302
0.585767 0.550805 0.677517
0.694877 0.544162 0.658625
0.791710 0.528216 0.629262
0.881177 0.521709 0.608016
0.962085 0.515698 0.592856
0.373234 0.643288 0.682143
0.421358 0.647199 0.685657
0.514936 0.654463 0.693285
0.621625 0.660912 0.699962
0.719181 0.654941 0.685868
0.808915 0.640426 0.667349
0.888185 0.621922 0.645825
0.960926 0.601922 0.624998
0.484800 0.718706 0.695418
0.515185 0.719712 0.700019
0.581086 0.719966 0.711442
0.647015 0.716321 0.715384
0.723024 0.723442 0.703884
0.814699 0.718158 0.689767
0.893534 0.706361 0.687041
0.957590 0.688626 0.674062
0.589466 0.772146 0.735442
0.611129 0.771677 0.740786
0.650461 0.769925 0.748076
0.691641 0.766911 0.749199
0.740404 0.764919 0.745948
0.812430 0.771110 0.730636
0.888867 0.764862 0.714909
0.946253 0.754628 0.722270
0.688364 0.809154 0.786891
0.701233 0.808379 0.790274
0.727321 0.806781 0.796277
0.752845 0.805290 0.797298
0.788996 0.802736 0.798242
0.836911 0.802662 0.797818
0.894586 0.806286 0.788981
0.945182 0.802275 0.781931
0.061381 0.208988 0.706676
0.181559 0.210106 0.709890
0.336417 0.210028 0.714071
0.502348 0.207443 0.721540
0.665619 0.224657 0.720394
0.800481 0.280531 0.707854
0.897375 0.333230 0.682714
0.965404 0.354710 0.646689
0.121244 0.260228 0.708958
0.222047 0.262015 0.711649
0.356102 0.264097 0.715498
0.511877 0.266900 0.722095
0.668715 0.286268 0.720681
0.796846 0.332430 0.707377
0.890827 0.366891 0.681196
0.959292 0.380029 0.646042
0.239319 0.374172 0.725344
0.297573 0.376268 0.726610
0.405693 0.381192 0.729427
0.544106 0.390232 0.735155
0.686501 0.409342 0.732604
0.800556 0.441328 0.717939
0.887419 0.449708 0.689566
0.953697 0.453624 0.658911
0.332168 0.514438 0.740932
0.379613 0.520660 0.742663
0.465693 0.528753 0.746284
0.580840 0.539279 0.752747
0.706395 0.552481 0.752023
0.804483 0.561754 0.736327
0.881198 0.547106 0.705298
0.943719 0.541628 0.680396
0.402818 0.634585 0.754345
0.439701 0.637580 0.756162
0.515330 0.644781 0.760340
0.614654 0.656695 0.769365
0.719430 0.661566 0.771931
0.802181 0.648383 0.750886
0.872290 0.632003 0.725409
0.936909 0.625517 0.711529
0.473591 0.728094 0.767824
0.500115 0.729055 0.769498
0.558871 0.731160 0.773424
0.646792 0.734916 0.781840
0.742540 0.737247 0.792021
0.818444 0.729797 0.781804
0.881933 0.715149 0.764914
0.938558 0.698901 0.748596
0.574673 0.776590 0.775370
0.592943 0.776548 0.777438
0.634652 0.776359 0.782617
0.699175 0.776079 0.793712
0.764967 0.773019 0.803972
0.819242 0.774574 0.798623
0.885383 0.769915 0.788620
0.939670 0.760672 0.789147
0.675996 0.810445 0.807948
0.687010 0.810172 0.809771
0.714173 0.809595 0.815015
0.756961 0.808256 0.824708
0.806771 0.805771 0.836365
0.841297 0.803394 0.837131
0.888424 0.806594 0.831398
0.939669 0.804401 0.826538
0.235630 0.239182 0.807168
0.296199 0.239986 0.808782
0.402054 0.239261 0.809568
0.536730 0.239668 0.812865
0.682577 0.247760 0.815585
0.825009 0.286306 0.809544
0.919004 0.369173 0.785477
0.974276 0.444279 0.759767
0.257226 0.284737 0.806950
0.311271 0.285827 0.808197
0.411786 0.287063 0.809319
0.541020 0.290269 0.812270
0.682946 0.300413 0.814785
0.822444 0.334123 0.808797
0.914160 0.404175 0.785318
0.969798 0.466277 0.760719
0.300307 0.382001 0.810786
0.345555 0.383695 0.811582
0.434922 0.386908 0.812579
0.555375 0.395189 0.816055
0.689045 0.406587 0.818388
0.821871 0.432489 0.812427
0.907365 0.483121 0.790741
0.962197 0.521389 0.767996
0.348015 0.506072 0.814612
0.386102 0.508558 0.815514
0.461992 0.512322 0.816767
0.569266 0.521013 0.820313
0.694237 0.532466 0.824412
0.819743 0.549599 0.820479
0.898564 0.579155 0.802632
0.951327 0.589262 0.779748
0.386441 0.612736 0.817760
0.419254 0.615667 0.819214
0.485280 0.620920 0.821496
0.583960 0.631796 0.825765
0.695208 0.639529 0.830531
0.813733 0.649826 0.831432
0.888033 0.662707 0.818079
0.937605 0.652672 0.793722
0.462604 0.715210 0.829526
0.486389 0.715755 0.830221
0.540248 0.716911 0.831701
0.622140 0.720130 0.835271
0.718125 0.726713 0.841710
0.814459 0.731946 0.847478
0.879824 0.727344 0.834828
0.925733 0.713537 0.814741
0.551070 0.786452 0.841095
0.568228 0.786014 0.841468
0.608938 0.784878 0.842627
0.672627 0.783656 0.845558
0.749209 0.782882 0.851033
0.828660 0.783949 0.860651
0.883319 0.777922 0.857510
0.925293 0.768080 0.846336
0.659247 0.815093 0.842861
0.669986 0.814581 0.843632
0.697044 0.813360 0.846241
0.741341 0.811775 0.851436
0.795199 0.810049 0.859587
0.852237 0.808902 0.871870
0.893745 0.808129 0.878423
0.933452 0.808938 0.878688
