gsg/04_Specialty/GSG_LUT_Specialty_MilyCyan.cube
# GSG LUTs 1.0
# Copyright (c) 2016-2020 Greyscalegorilla
# See EULA for licensing and distribution information
# Converted by Briz LUT Converter
LUT_3D_SIZE 32
0.097192 0.098168 0.098901
0.120729 0.105172 0.104841
0.139210 0.110355 0.107346
0.155091 0.113624 0.109874
0.171255 0.114947 0.114790
0.188932 0.120399 0.118862
0.204010 0.126322 0.123195
0.219489 0.129560 0.127788
0.236567 0.130946 0.132262
0.252795 0.138146 0.136004
0.271433 0.145157 0.140762
0.289724 0.149915 0.147079
0.307306 0.152688 0.153350
0.326464 0.154744 0.158707
0.345843 0.155973 0.165591
0.366214 0.158903 0.172075
0.386128 0.163315 0.177242
0.406255 0.165457 0.182032
0.427398 0.166277 0.187246
0.446524 0.170830 0.193391
0.468518 0.176376 0.201363
0.492142 0.175375 0.207704
0.514640 0.171169 0.212226
0.535736 0.173043 0.217598
0.556406 0.175060 0.223963
0.577471 0.177305 0.231305
0.599669 0.178802 0.239072
0.623380 0.177085 0.245823
0.643798 0.178124 0.249730
0.664626 0.176439 0.256229
0.686258 0.176785 0.263271
0.708913 0.185348 0.267888
0.106330 0.115499 0.107645
0.126518 0.120469 0.112065
0.141769 0.124454 0.114309
0.155760 0.127957 0.116165
0.171166 0.131321 0.118973
0.187060 0.133851 0.122442
0.204215 0.136655 0.126902
0.221194 0.139501 0.130744
0.236837 0.142638 0.133859
0.253176 0.148038 0.139160
0.271467 0.152491 0.144181
0.289428 0.156936 0.150249
0.306274 0.160852 0.156269
0.324545 0.162773 0.160950
0.344905 0.163806 0.166340
0.365809 0.165296 0.172362
0.385576 0.169707 0.178424
0.404623 0.173848 0.184241
0.424447 0.175738 0.190415
0.444354 0.180206 0.196567
0.467647 0.181138 0.202923
0.490438 0.180447 0.209148
0.510987 0.181726 0.215561
0.532601 0.184329 0.222845
0.554808 0.184477 0.227553
0.576623 0.185877 0.232891
0.598491 0.187311 0.239499
0.621001 0.186314 0.246317
0.640628 0.190889 0.253801
0.661868 0.191641 0.260238
0.684935 0.189378 0.266548
0.708811 0.186002 0.272906
0.109685 0.130655 0.113852
0.127541 0.134428 0.116784
0.141767 0.137908 0.119292
0.155241 0.140597 0.121108
0.170523 0.142700 0.122998
0.187344 0.144330 0.126362
0.203438 0.146640 0.129890
0.219524 0.149066 0.133665
0.235610 0.151715 0.137649
0.251985 0.155798 0.141898
0.269750 0.160117 0.146712
0.287749 0.164080 0.152848
0.305284 0.167232 0.158925
0.323670 0.169644 0.163173
0.344128 0.171451 0.168152
0.364418 0.173271 0.174288
0.383560 0.177690 0.180724
0.402339 0.182182 0.186613
0.421814 0.183580 0.192222
0.442961 0.185079 0.198383
0.466455 0.185651 0.204482
0.488595 0.187759 0.210776
0.508868 0.191056 0.217666
0.530380 0.191482 0.225035
0.553290 0.190415 0.229239
0.575887 0.191532 0.234067
0.597311 0.193937 0.240374
0.618008 0.195537 0.247536
0.638549 0.197237 0.255447
0.660577 0.198042 0.262380
0.683187 0.198520 0.269012
0.705534 0.199299 0.277081
0.114979 0.142054 0.118547
0.129756 0.145970 0.120332
0.142568 0.149472 0.123460
0.155054 0.151732 0.126075
0.169051 0.153008 0.126960
0.186434 0.154698 0.131116
0.202256 0.156764 0.133956
0.217813 0.158441 0.137637
0.233964 0.160187 0.142717
0.250324 0.164098 0.145359
0.267463 0.168792 0.149491
0.285787 0.171694 0.155295
0.304582 0.173487 0.161310
0.323248 0.176663 0.165771
0.342998 0.178927 0.170780
0.362659 0.181564 0.176858
0.381651 0.186174 0.183314
0.400339 0.190327 0.188793
0.419802 0.191512 0.193773
0.441334 0.191011 0.200123
0.464694 0.192050 0.206574
0.486991 0.195863 0.212935
0.507913 0.199377 0.219578
0.528963 0.197918 0.226081
0.551248 0.197111 0.231178
0.573710 0.198526 0.236566
0.595420 0.201264 0.242616
0.615500 0.204771 0.249156
0.637344 0.203430 0.256073
0.659544 0.203171 0.263122
0.681515 0.206361 0.270653
0.702470 0.214841 0.279365
0.126070 0.149616 0.122707
0.135920 0.154490 0.124077
0.146359 0.158419 0.128069
0.156845 0.161749 0.131207
0.167528 0.164899 0.131576
0.183066 0.167349 0.136508
0.201133 0.168224 0.139551
0.218016 0.168518 0.143230
0.232785 0.170126 0.148018
0.249269 0.174996 0.150306
0.266048 0.178505 0.153399
0.284303 0.179953 0.158276
0.303895 0.181860 0.164108
0.322966 0.185519 0.169149
0.341395 0.186533 0.174490
0.360769 0.189258 0.179993
0.380573 0.194308 0.185441
0.399689 0.198075 0.190722
0.418992 0.200037 0.196208
0.439263 0.201913 0.202249
0.462867 0.202542 0.209345
0.485945 0.204523 0.216265
0.506954 0.207346 0.222203
0.528056 0.206567 0.227548
0.548511 0.207589 0.234759
0.570306 0.209637 0.241283
0.592857 0.211784 0.246565
0.614066 0.214044 0.251647
0.635824 0.214272 0.257377
0.658118 0.213669 0.264142
0.680219 0.215694 0.271539
0.701335 0.224325 0.279523
0.126378 0.160510 0.129158
0.136404 0.162859 0.129103
0.147495 0.166445 0.131432
0.159179 0.170164 0.134605
0.171034 0.173039 0.137298
0.184379 0.176770 0.140804
0.199222 0.179619 0.143874
0.214964 0.181757 0.147767
0.231140 0.183554 0.152156
0.247730 0.186103 0.155264
0.266129 0.188693 0.159068
0.284324 0.191039 0.163880
0.302384 0.193810 0.168604
0.320938 0.197151 0.172741
0.338972 0.199069 0.178306
0.358333 0.201515 0.183707
0.378146 0.204694 0.188517
0.398090 0.207147 0.193716
0.418914 0.209146 0.199644
0.438922 0.211389 0.205833
0.461432 0.213412 0.211920
0.484036 0.215438 0.218422
0.504675 0.217440 0.224813
0.525023 0.218580 0.230064
0.546484 0.219538 0.236197
0.569074 0.219960 0.242948
0.591440 0.221039 0.249926
0.611228 0.224709 0.256875
0.633972 0.224854 0.261705
0.655759 0.224924 0.267192
0.677123 0.226815 0.273647
0.699200 0.232368 0.281295
0.125858 0.170341 0.133554
0.137022 0.173092 0.134493
0.147666 0.176929 0.136848
0.158451 0.180727 0.139738
0.170908 0.183262 0.142492
0.185348 0.186404 0.146528
0.198912 0.190408 0.149038
0.213007 0.193899 0.152286
0.228894 0.195745 0.156875
0.246676 0.197402 0.159630
0.264408 0.200480 0.163598
0.282462 0.202749 0.168917
0.300768 0.204755 0.173309
0.319328 0.207948 0.176281
0.338352 0.210501 0.181315
0.357244 0.212865 0.187158
0.376480 0.214784 0.192098
0.396913 0.216413 0.197288
0.417713 0.218390 0.203683
0.437673 0.220248 0.208933
0.459864 0.222970 0.215174
0.482272 0.225105 0.221938
0.503045 0.226584 0.227874
0.523447 0.228878 0.233387
0.544286 0.231563 0.239699
0.567152 0.231330 0.246347
0.589972 0.230973 0.252967
0.609510 0.234689 0.259194
0.632349 0.235286 0.265335
0.653960 0.236153 0.271209
0.674914 0.239468 0.277528
0.696522 0.245870 0.285880
0.127410 0.180559 0.137500
0.139982 0.183817 0.140567
0.149820 0.187484 0.142903
0.160017 0.190684 0.144958
0.172949 0.193079 0.146868
0.187603 0.196764 0.151889
0.200227 0.200503 0.154385
0.212464 0.204555 0.157468
0.227204 0.207934 0.162020
0.246138 0.209122 0.164811
0.262872 0.212671 0.168362
0.280984 0.214475 0.173355
0.300311 0.215233 0.177947
0.318535 0.218177 0.181224
0.337788 0.220380 0.186260
0.356826 0.222605 0.191998
0.376057 0.224345 0.196726
0.396160 0.226162 0.201474
0.416503 0.228780 0.207395
0.436690 0.230897 0.212571
0.458410 0.233541 0.219409
0.480564 0.235630 0.226171
0.502106 0.237047 0.231722
0.522678 0.239526 0.237657
0.543164 0.243657 0.244047
0.565425 0.244020 0.250143
0.587751 0.243189 0.256069
0.607437 0.246221 0.262009
0.630081 0.246910 0.268920
0.651771 0.248533 0.275012
0.672946 0.252340 0.281531
0.694529 0.258773 0.290007
0.132388 0.191713 0.142668
0.144773 0.193863 0.146981
0.154697 0.196396 0.148825
0.165321 0.199059 0.149924
0.178668 0.201731 0.151639
0.191307 0.207514 0.156233
0.202667 0.210241 0.159522
0.213712 0.213862 0.163181
0.227281 0.219127 0.167765
0.246038 0.220969 0.171344
0.262744 0.224417 0.174009
0.281073 0.225784 0.177602
0.300685 0.226135 0.182592
0.318653 0.228630 0.187813
0.336999 0.229870 0.193280
0.356728 0.231893 0.198009
0.376415 0.234349 0.201859
0.395631 0.236969 0.205928
0.415784 0.240420 0.211146
0.436074 0.243358 0.217553
0.457233 0.245865 0.224213
0.479265 0.247857 0.230308
0.501177 0.249649 0.236176
0.521672 0.251975 0.242491
0.543068 0.255569 0.248035
0.564191 0.257431 0.253810
0.584748 0.258100 0.260095
0.604709 0.260412 0.267093
0.627150 0.260508 0.272557
0.649163 0.261964 0.278420
0.670911 0.264910 0.285178
0.692702 0.269424 0.292906
0.135571 0.201757 0.149584
0.147657 0.203332 0.151811
0.157815 0.205900 0.154014
0.168227 0.209127 0.156344
0.180762 0.212155 0.158907
0.192945 0.216944 0.161790
0.204256 0.220286 0.165229
0.215873 0.223506 0.169214
0.229607 0.227529 0.173550
0.246245 0.231563 0.177005
0.262789 0.235377 0.180099
0.280918 0.237413 0.183774
0.300205 0.238485 0.188291
0.318527 0.241083 0.192914
0.336719 0.243177 0.197259
0.356080 0.245172 0.201982
0.375185 0.247367 0.206320
0.394069 0.249690 0.210908
0.414294 0.252092 0.216979
0.434374 0.254172 0.223124
0.456259 0.257654 0.228683
0.478230 0.260824 0.234487
0.499164 0.263038 0.240906
0.520036 0.265596 0.247341
0.541361 0.267872 0.252716
0.561867 0.270617 0.258628
0.582080 0.273477 0.264988
0.603351 0.275280 0.271457
0.625152 0.274706 0.276999
0.646810 0.275964 0.283217
0.668014 0.279464 0.290632
0.688913 0.285746 0.299137
0.137209 0.212501 0.155981
0.151601 0.213321 0.157664
0.161884 0.215894 0.159662
0.171602 0.219252 0.162715
0.183223 0.222831 0.166383
0.194046 0.227757 0.167455
0.206072 0.231603 0.171255
0.218132 0.235504 0.175710
0.230853 0.239470 0.179391
0.246303 0.242469 0.182668
0.263163 0.245976 0.186543
0.281558 0.248862 0.190965
0.300347 0.251201 0.195135
0.317733 0.254187 0.198658
0.335362 0.256729 0.202745
0.353540 0.259232 0.207314
0.372865 0.261330 0.211433
0.392670 0.263511 0.216436
0.412443 0.266043 0.223011
0.433003 0.267253 0.228640
0.454745 0.270830 0.234505
0.476323 0.274747 0.240588
0.497405 0.277333 0.246419
0.518292 0.280584 0.252763
0.539011 0.282808 0.258305
0.559677 0.285754 0.263909
0.580749 0.288628 0.269830
0.602773 0.288582 0.276012
0.623056 0.290610 0.282588
0.643598 0.293104 0.288847
0.664737 0.296104 0.295936
0.686628 0.300382 0.304951
0.142314 0.223940 0.161944
0.155956 0.223745 0.164643
0.165694 0.226435 0.166353
0.174768 0.230289 0.168779
0.186078 0.233982 0.172580
0.196364 0.238688 0.173657
0.208584 0.242679 0.177236
0.220737 0.247060 0.181330
0.232648 0.251506 0.184715
0.247461 0.254293 0.187971
0.264409 0.257588 0.192185
0.282133 0.261358 0.196821
0.299731 0.265097 0.201190
0.316947 0.267945 0.204908
0.334499 0.270047 0.208604
0.352158 0.273149 0.212649
0.371255 0.275999 0.217084
0.391232 0.278506 0.222615
0.410743 0.281308 0.228800
0.431254 0.282252 0.234028
0.453123 0.284974 0.239997
0.474793 0.288519 0.246141
0.495833 0.291344 0.251720
0.516634 0.295183 0.257584
0.537150 0.297309 0.263583
0.557953 0.300247 0.269716
0.579124 0.302940 0.275875
0.600856 0.302149 0.281715
0.621052 0.305929 0.288599
0.640889 0.309876 0.294823
0.661728 0.312901 0.301420
0.684864 0.314758 0.309898
0.150254 0.235661 0.168215
0.159228 0.235469 0.171422
0.167898 0.238224 0.173211
0.177427 0.242100 0.174880
0.188798 0.245387 0.177617
0.198722 0.249613 0.180046
0.210983 0.253307 0.182896
0.223558 0.257289 0.186130
0.235761 0.261995 0.189450
0.249931 0.266079 0.192784
0.266464 0.269728 0.197183
0.282857 0.274075 0.201836
0.299007 0.278685 0.206884
0.316514 0.281495 0.212014
0.334107 0.283596 0.215322
0.351855 0.286607 0.218457
0.370578 0.290026 0.223429
0.390098 0.293055 0.229405
0.409682 0.295734 0.234779
0.429840 0.297367 0.239850
0.452225 0.299097 0.245281
0.473957 0.301763 0.251184
0.494356 0.305038 0.257182
0.515432 0.308868 0.262912
0.536257 0.310434 0.268838
0.556721 0.313204 0.275486
0.577140 0.316287 0.282216
0.598031 0.316780 0.287978
0.618975 0.320483 0.294496
0.639111 0.324637 0.301096
0.659781 0.327984 0.307417
0.682910 0.329536 0.314183
0.155587 0.246445 0.174966
0.160875 0.248158 0.176580
0.168908 0.250809 0.178847
0.179150 0.253787 0.181045
0.190463 0.256591 0.183098
0.199221 0.261167 0.186088
0.212167 0.264544 0.188822
0.225861 0.267967 0.192018
0.238581 0.272283 0.195370
0.252212 0.276587 0.198018
0.268296 0.281016 0.202759
0.284293 0.285806 0.208309
0.299909 0.290346 0.213839
0.316501 0.294004 0.218887
0.333234 0.297630 0.222494
0.350874 0.300301 0.225888
0.369800 0.302842 0.230815
0.389231 0.305914 0.236495
0.408773 0.308697 0.241482
0.429461 0.311135 0.246211
0.452010 0.312896 0.251424
0.473244 0.315469 0.256970
0.493165 0.319015 0.262962
0.514528 0.322520 0.269568
0.534987 0.324657 0.274772
0.555303 0.327229 0.280606
0.575808 0.330042 0.287257
0.596277 0.332170 0.293686
0.616665 0.336482 0.300160
0.637020 0.339637 0.307069
0.658044 0.342088 0.313610
0.680641 0.345591 0.319595
0.159542 0.256560 0.181047
0.163449 0.259069 0.182095
0.170691 0.261971 0.184386
0.180437 0.265084 0.186961
0.191061 0.268187 0.189176
0.200473 0.272740 0.192778
0.213544 0.275970 0.195486
0.227270 0.279215 0.198867
0.240006 0.283369 0.202670
0.253582 0.287991 0.204711
0.269578 0.292938 0.209224
0.285682 0.298027 0.214873
0.301379 0.302630 0.219951
0.317353 0.306627 0.223744
0.333323 0.310919 0.227710
0.351081 0.314196 0.232693
0.369519 0.316876 0.238271
0.388003 0.319921 0.243507
0.407792 0.322864 0.248137
0.428917 0.325053 0.251727
0.451235 0.327340 0.256569
0.472342 0.330139 0.262157
0.492197 0.333067 0.267935
0.512900 0.336330 0.274596
0.532838 0.340129 0.279991
0.553066 0.342960 0.286071
0.573689 0.345295 0.293101
0.593838 0.348686 0.300253
0.614730 0.352928 0.306141
0.634747 0.355184 0.312638
0.655287 0.357652 0.319536
0.678152 0.363520 0.326764
0.162716 0.266627 0.186963
0.166931 0.269526 0.188601
0.173612 0.272567 0.190894
0.182252 0.275844 0.193532
0.192477 0.279371 0.196005
0.202420 0.284317 0.198367
0.215221 0.287447 0.201675
0.228619 0.290906 0.205147
0.241225 0.295921 0.208322
0.254685 0.300888 0.211483
0.270629 0.305610 0.216002
0.287003 0.310122 0.221183
0.302882 0.314309 0.225526
0.318609 0.318748 0.228659
0.334438 0.324087 0.233285
0.351315 0.328818 0.239005
0.368850 0.332209 0.244746
0.387360 0.334670 0.249699
0.407128 0.337027 0.253823
0.426982 0.339410 0.257361
0.449090 0.342116 0.262791
0.470982 0.344777 0.268477
0.491071 0.347468 0.273828
0.510663 0.351308 0.279984
0.530294 0.355788 0.285839
0.550546 0.358849 0.291912
0.571070 0.361479 0.298714
0.590877 0.365711 0.306386
0.612511 0.367878 0.312207
0.632834 0.370312 0.318548
0.652999 0.373982 0.325452
0.675025 0.379393 0.332892
0.163094 0.278097 0.191878
0.170248 0.280988 0.194899
0.178092 0.283792 0.197062
0.185578 0.287297 0.199704
0.193119 0.291800 0.203104
0.205778 0.296376 0.204140
0.218807 0.299295 0.208050
0.231050 0.302811 0.211315
0.242843 0.308086 0.213254
0.257149 0.313167 0.218131
0.272361 0.317588 0.223064
0.288361 0.321754 0.227273
0.304452 0.326023 0.230657
0.320081 0.330900 0.234701
0.336259 0.336483 0.240066
0.352473 0.341849 0.245941
0.369033 0.346671 0.251552
0.387360 0.349839 0.256022
0.406982 0.351440 0.259527
0.426190 0.353554 0.263757
0.447468 0.356521 0.269723
0.469091 0.359869 0.275665
0.489359 0.363471 0.281138
0.509211 0.367660 0.287108
0.528908 0.371198 0.292995
0.549057 0.373974 0.298791
0.569240 0.377132 0.305097
0.588437 0.381685 0.312249
0.610104 0.382860 0.318346
0.630911 0.385774 0.324488
0.651353 0.390095 0.331254
0.672252 0.394517 0.339194
0.164693 0.290567 0.197133
0.172664 0.293198 0.200993
0.181372 0.295790 0.203032
0.188820 0.299673 0.205679
0.194781 0.305306 0.210261
0.208967 0.308602 0.210997
0.222496 0.311725 0.214508
0.234737 0.315193 0.217530
0.246312 0.319297 0.219561
0.260632 0.324676 0.225107
0.275383 0.329135 0.229880
0.291173 0.333649 0.233244
0.307055 0.338635 0.236566
0.322123 0.343508 0.241934
0.338338 0.348195 0.247653
0.354601 0.353284 0.253618
0.370457 0.359359 0.258944
0.387489 0.364141 0.262927
0.406415 0.366467 0.266420
0.426504 0.368446 0.271022
0.446731 0.371531 0.276782
0.466848 0.375852 0.282823
0.487101 0.380354 0.288890
0.507949 0.383919 0.295028
0.527772 0.386409 0.300729
0.547665 0.389301 0.306687
0.567712 0.392877 0.312834
0.586935 0.396912 0.318977
0.607319 0.399715 0.324917
0.628334 0.402702 0.330726
0.649418 0.406024 0.337339
0.670235 0.410501 0.345803
0.169625 0.302777 0.204112
0.174337 0.305449 0.207936
0.182274 0.308313 0.209831
0.190942 0.312157 0.212393
0.198893 0.317597 0.217154
0.210820 0.320316 0.217782
0.223845 0.324365 0.220371
0.237464 0.328204 0.223367
0.250462 0.331540 0.226594
0.262962 0.337059 0.232358
0.278474 0.341609 0.235967
0.294874 0.346433 0.239167
0.310088 0.351578 0.243704
0.324419 0.356225 0.249529
0.340209 0.360685 0.255116
0.356212 0.365959 0.260553
0.371840 0.371969 0.265448
0.387968 0.377213 0.269633
0.405622 0.381347 0.273743
0.425594 0.384688 0.278751
0.445453 0.387835 0.284454
0.465011 0.391899 0.290417
0.485125 0.396222 0.296540
0.505836 0.399199 0.302619
0.525504 0.401880 0.308291
0.545161 0.405353 0.314542
0.565372 0.409200 0.320666
0.585417 0.412538 0.326133
0.604608 0.416799 0.331876
0.625586 0.419821 0.337939
0.647134 0.422463 0.344464
0.668219 0.426413 0.351774
0.170475 0.314428 0.210375
0.174753 0.317961 0.213813
0.184347 0.321143 0.216188
0.193888 0.324480 0.218625
0.200412 0.328786 0.222489
0.212931 0.332312 0.225045
0.224311 0.337593 0.227820
0.236827 0.342252 0.230413
0.250951 0.345441 0.233731
0.263858 0.349794 0.239458
0.279796 0.354873 0.242238
0.296355 0.359768 0.245457
0.311734 0.364487 0.250638
0.326174 0.369781 0.255923
0.341208 0.374770 0.260567
0.357284 0.380169 0.265631
0.373530 0.385504 0.271348
0.389664 0.390410 0.276731
0.406664 0.395329 0.281516
0.424793 0.400075 0.286164
0.444806 0.403984 0.292099
0.464676 0.408097 0.298178
0.484057 0.412045 0.303707
0.504257 0.414501 0.309916
0.523754 0.418491 0.315820
0.543185 0.421863 0.322066
0.563182 0.424621 0.328181
0.583682 0.427725 0.333250
0.603522 0.432534 0.339205
0.624282 0.435799 0.345488
0.645330 0.438935 0.352316
0.666052 0.443743 0.360172
0.172555 0.327819 0.216393
0.178245 0.330909 0.220894
0.186654 0.334963 0.223005
0.194982 0.338379 0.225196
0.202088 0.341022 0.229410
0.215094 0.344991 0.231430
0.226525 0.349989 0.235277
0.238599 0.354800 0.238217
0.252276 0.358908 0.240428
0.265891 0.363740 0.245882
0.281398 0.369011 0.249646
0.297872 0.373985 0.252842
0.314000 0.379009 0.257239
0.328830 0.384390 0.262724
0.343621 0.389034 0.267447
0.359276 0.394100 0.272853
0.375181 0.399955 0.279155
0.391743 0.405561 0.285092
0.409111 0.410452 0.289990
0.425063 0.415318 0.294102
0.444303 0.420764 0.301037
0.464252 0.425712 0.307159
0.482962 0.429556 0.311321
0.503097 0.432284 0.317194
0.522895 0.435706 0.323203
0.542321 0.438751 0.329268
0.561877 0.442112 0.335598
0.582378 0.446793 0.341459
0.602970 0.450395 0.346982
0.622748 0.454127 0.353503
0.642138 0.458738 0.361296
0.662050 0.464256 0.370633
0.175107 0.341447 0.222695
0.182016 0.343849 0.228529
0.189106 0.347870 0.229963
0.196812 0.351665 0.231952
0.206125 0.354215 0.237052
0.217201 0.358637 0.237859
0.229875 0.362817 0.242161
0.243184 0.366999 0.245726
0.256310 0.371813 0.247534
0.269424 0.377630 0.252477
0.284583 0.383133 0.256627
0.300311 0.388228 0.260269
0.315735 0.393318 0.264570
0.331002 0.398368 0.270328
0.346398 0.402973 0.275615
0.361289 0.408282 0.281269
0.376621 0.414242 0.286802
0.393465 0.420064 0.291779
0.410663 0.425370 0.296605
0.426532 0.429961 0.301915
0.444661 0.436246 0.308957
0.463261 0.442246 0.315035
0.481382 0.446773 0.319833
0.501671 0.450564 0.325482
0.521562 0.453551 0.331084
0.540990 0.456521 0.336604
0.560539 0.460153 0.342551
0.580751 0.465058 0.348957
0.600930 0.468202 0.354775
0.619872 0.472590 0.361170
0.638536 0.478157 0.368892
0.658663 0.483706 0.378164
0.175927 0.354382 0.229170
0.183782 0.356854 0.235320
0.191968 0.360126 0.236764
0.201090 0.363777 0.238735
0.211212 0.367453 0.244364
0.220280 0.372728 0.245157
0.233213 0.376681 0.249311
0.246990 0.380409 0.253077
0.259766 0.385057 0.255441
0.272931 0.391136 0.259662
0.287570 0.397078 0.263271
0.302101 0.402193 0.267382
0.316464 0.406814 0.272259
0.332002 0.411733 0.277577
0.347819 0.416927 0.282981
0.362928 0.422810 0.288729
0.378537 0.428161 0.293538
0.395050 0.433432 0.297371
0.411457 0.439327 0.302159
0.428621 0.443984 0.309200
0.446187 0.450201 0.315554
0.463047 0.456935 0.321592
0.480312 0.462626 0.328351
0.499842 0.467438 0.334460
0.519603 0.471331 0.339745
0.539052 0.474497 0.344581
0.558667 0.477495 0.349602
0.578453 0.480947 0.355473
0.597884 0.484819 0.362458
0.616443 0.489689 0.368675
0.635589 0.495267 0.375309
0.656662 0.500642 0.383962
0.176793 0.367600 0.235905
0.185097 0.370686 0.242245
0.195029 0.373918 0.243944
0.205737 0.377453 0.246134
0.216211 0.381136 0.252251
0.225072 0.385483 0.253105
0.236627 0.390053 0.256391
0.247963 0.394382 0.260320
0.259228 0.398873 0.263792
0.275016 0.405210 0.267578
0.288107 0.411147 0.271141
0.301967 0.416645 0.275098
0.317790 0.421470 0.279181
0.333027 0.425806 0.283472
0.348113 0.431015 0.289016
0.364870 0.436325 0.295447
0.381654 0.442053 0.301046
0.397306 0.448210 0.305613
0.413576 0.453839 0.310691
0.430679 0.458460 0.316663
0.448369 0.464511 0.323181
0.465329 0.471651 0.329424
0.481674 0.478246 0.335873
0.498412 0.483208 0.343248
0.517950 0.487477 0.349087
0.537433 0.491494 0.353921
0.556557 0.495250 0.358243
0.575658 0.498539 0.362533
0.594972 0.502690 0.370670
0.613632 0.507322 0.376966
0.633166 0.512287 0.383428
0.655260 0.516484 0.392296
0.179125 0.381527 0.243468
0.185555 0.384804 0.248006
0.194022 0.388085 0.250551
0.203834 0.391437 0.253281
0.214853 0.394998 0.257666
0.227885 0.398967 0.260995
0.237574 0.403988 0.263821
0.247821 0.408862 0.267165
0.261086 0.413093 0.271093
0.275386 0.418913 0.274016
0.288957 0.425196 0.277941
0.303923 0.430615 0.282461
0.320315 0.435147 0.286626
0.335280 0.440224 0.290583
0.350114 0.445705 0.296200
0.366362 0.450305 0.302296
0.382333 0.455936 0.308220
0.398076 0.462434 0.313808
0.415139 0.467746 0.319162
0.431502 0.472918 0.324142
0.449859 0.479058 0.330497
0.467876 0.485891 0.336943
0.483981 0.492426 0.343014
0.499667 0.497715 0.350430
0.517335 0.503318 0.357115
0.535854 0.508097 0.362990
0.554380 0.512531 0.368299
0.572401 0.517305 0.372632
0.592651 0.520976 0.379899
0.612016 0.524532 0.385927
0.632017 0.528330 0.391706
0.656079 0.532301 0.397842
0.182685 0.395250 0.249510
0.187333 0.398533 0.253916
0.194263 0.402014 0.257274
0.203359 0.405460 0.260249
0.214869 0.408640 0.263509
0.230193 0.412542 0.268320
0.238825 0.418164 0.270521
0.248590 0.423286 0.273585
0.263037 0.427394 0.278114
0.276002 0.432782 0.280281
0.290917 0.438835 0.284692
0.307097 0.444268 0.290076
0.323253 0.449213 0.294311
0.338497 0.454721 0.297527
0.353274 0.460095 0.302808
0.368438 0.464739 0.308645
0.383559 0.470590 0.314670
0.399280 0.476973 0.320751
0.416042 0.482260 0.326472
0.432111 0.488408 0.331844
0.450207 0.494660 0.338216
0.468195 0.500636 0.344763
0.484716 0.506702 0.350876
0.501100 0.512771 0.357318
0.517988 0.518707 0.363882
0.535455 0.524018 0.370519
0.553044 0.529165 0.376769
0.570680 0.534951 0.382375
0.590837 0.538556 0.388393
0.611456 0.541465 0.393481
0.633367 0.544571 0.397467
0.657395 0.548970 0.401536
0.186467 0.408657 0.255875
0.190400 0.411949 0.260394
0.196699 0.415676 0.264301
0.205731 0.419118 0.267434
0.217406 0.421889 0.270025
0.232282 0.426129 0.275165
0.240797 0.431880 0.276978
0.250443 0.437132 0.279919
0.264366 0.441546 0.285481
0.277413 0.446752 0.287825
0.293365 0.452366 0.292265
0.310166 0.457824 0.297672
0.326109 0.463320 0.302053
0.341093 0.469031 0.305173
0.355737 0.474329 0.309672
0.370712 0.479624 0.314924
0.386027 0.485654 0.321079
0.401343 0.491727 0.327331
0.416949 0.497351 0.333247
0.433272 0.503864 0.339459
0.450603 0.510002 0.345988
0.467943 0.515727 0.352543
0.484855 0.521698 0.358738
0.501844 0.527929 0.364361
0.519252 0.533536 0.370482
0.536013 0.539508 0.377352
0.552560 0.545819 0.384304
0.570034 0.551738 0.390814
0.590846 0.554965 0.394472
0.612758 0.557745 0.398351
0.635165 0.561151 0.402105
0.659065 0.565450 0.404656
0.188759 0.421805 0.266682
0.193256 0.425290 0.266950
0.199657 0.428410 0.270977
0.208357 0.431550 0.274568
0.220376 0.435302 0.275686
0.233619 0.440030 0.282033
0.243199 0.444943 0.284155
0.253239 0.449939 0.286885
0.266217 0.455291 0.292839
0.279721 0.460756 0.297643
0.295534 0.466466 0.301151
0.312354 0.471109 0.304857
0.328101 0.476220 0.310147
0.341841 0.483101 0.315402
0.356283 0.489081 0.318408
0.371903 0.494623 0.322193
0.388378 0.499685 0.328149
0.404005 0.505697 0.334523
