gsg/04_Specialty/GSG_LUT_Specialty_Antiqued.cube
# GSG LUTs 1.0
# Copyright (c) 2016-2020 Greyscalegorilla
# See EULA for licensing and distribution information
# Converted by Briz LUT Converter
LUT_3D_SIZE 5
DOMAIN_MIN 0.000000 0.000000 0.000000
DOMAIN_MAX 0.903226 0.903226 0.903226
0.215873 0.157265 0.199756
0.359195 0.157753 0.205238
0.485423 0.158242 0.206593
0.673370 0.159219 0.202923
0.846177 0.161369 0.194525
0.226673 0.302651 0.206538
0.364512 0.303872 0.204150
0.488976 0.305228 0.199307
0.676600 0.308220 0.187808
0.849877 0.313002 0.173403
0.225554 0.433715 0.200095
0.363156 0.436213 0.192326
0.488781 0.438857 0.183116
0.678286 0.444491 0.166733
0.846626 0.453685 0.158959
0.222797 0.633014 0.174146
0.362740 0.637827 0.163321
0.488073 0.643066 0.158777
0.676387 0.650691 0.160087
0.845847 0.658781 0.171200
0.225499 0.817023 0.158021
0.369294 0.820332 0.160923
0.498594 0.823506 0.169039
0.687960 0.829722 0.191988
0.853968 0.837953 0.225181
0.219591 0.157509 0.339115
0.361191 0.157998 0.343768
0.486833 0.158382 0.344677
0.674402 0.159683 0.340596
0.847136 0.162401 0.331803
0.226862 0.303096 0.344622
0.364490 0.304382 0.341904
0.488976 0.305887 0.336688
0.676981 0.309507 0.324479
0.850373 0.314866 0.309014
0.224792 0.434607 0.337579
0.362693 0.437234 0.329342
0.488905 0.440158 0.319514
0.677251 0.447229 0.303718
0.845979 0.456670 0.297021
0.223488 0.634351 0.309811
0.362234 0.640145 0.300841
0.488535 0.645153 0.296827
0.677422 0.652944 0.298617
0.846556 0.661749 0.309637
0.227705 0.818318 0.296331
0.372253 0.821619 0.299500
0.501850 0.825045 0.307611
0.690923 0.831967 0.330089
0.855975 0.841006 0.362328
0.221954 0.157753 0.462980
0.362669 0.158053 0.467590
0.487755 0.158657 0.468486
0.675190 0.160318 0.464363
0.847874 0.163433 0.455197
0.226862 0.303469 0.468541
0.364317 0.304905 0.465811
0.488962 0.306661 0.460420
0.677281 0.310749 0.447343
0.849816 0.317523 0.431909
0.224029 0.435475 0.461389
0.362559 0.438198 0.452677
0.489206 0.441459 0.442065
0.676356 0.449833 0.427504
0.845455 0.459377 0.421295
0.223317 0.636216 0.432667
0.362291 0.642051 0.424794
0.489309 0.647071 0.421147
0.678526 0.655197 0.422984
0.847509 0.664595 0.433770
0.230265 0.819355 0.420733
0.375445 0.822908 0.423903
0.505165 0.826563 0.431720
0.693757 0.834235 0.453431
0.857864 0.844134 0.484613
0.224751 0.157919 0.646500
0.363908 0.158425 0.651867
0.488653 0.159085 0.653185
0.675978 0.161424 0.648960
0.848769 0.165418 0.638851
0.226379 0.304116 0.653204
0.363772 0.305857 0.650474
0.488731 0.308011 0.644743
0.677920 0.312976 0.630037
0.848092 0.322141 0.616102
0.223223 0.436847 0.645733
0.362480 0.440048 0.636102
0.489782 0.443843 0.624278
0.675551 0.453747 0.611952
0.845047 0.463721 0.606011
0.222789 0.639293 0.616677
0.363259 0.644884 0.609437
0.491199 0.649968 0.605853
0.680835 0.658819 0.607208
0.848974 0.669261 0.616933
0.235117 0.821143 0.605247
0.380939 0.824916 0.607935
0.510674 0.829138 0.615130
0.698478 0.837948 0.635197
0.861122 0.849391 0.664527
0.226129 0.157998 0.814258
0.364457 0.158730 0.820376
0.488976 0.159794 0.821926
0.676521 0.162700 0.817331
0.849551 0.167669 0.805900
0.225604 0.304898 0.821975
0.363236 0.306890 0.819019
0.488756 0.309420 0.812491
0.678502 0.315471 0.795967
0.846849 0.326286 0.783920
0.222600 0.438198 0.813654
0.362857 0.441837 0.802640
0.488975 0.447091 0.791416
0.675403 0.457434 0.779744
0.845004 0.467997 0.773339
0.223041 0.641940 0.784505
0.365082 0.647537 0.777175
0.493658 0.652823 0.773133
0.683293 0.662531 0.773407
0.850690 0.674064 0.781780
0.240356 0.822908 0.772279
0.386685 0.826947 0.773997
0.516342 0.831884 0.780131
0.703251 0.841876 0.798376
0.864420 0.854664 0.825625
