gsg/04_Specialty/GSG_LUT_Specialty_BattleWarmth.cube
# GSG LUTs 1.0
# Copyright (c) 2016-2020 Greyscalegorilla
# See EULA for licensing and distribution information
# Converted by Briz LUT Converter
LUT_3D_SIZE 5
DOMAIN_MIN 0.000000 0.000000 0.000000
DOMAIN_MAX 0.903226 0.903226 0.903226
0.055189 0.061783 0.068376
0.153815 0.059561 0.070290
0.254149 0.066730 0.110048
0.355217 0.075962 0.166229
0.457237 0.086770 0.235858
0.111600 0.219457 0.304368
0.191110 0.224073 0.109778
0.289937 0.233928 0.145914
0.394131 0.243387 0.198180
0.503987 0.252508 0.264866
0.188570 0.385151 0.335358
0.262618 0.386979 0.177463
0.352638 0.400565 0.214583
0.449998 0.415818 0.257505
0.554920 0.429900 0.315893
0.296625 0.539013 0.398243
0.354650 0.548054 0.259603
0.437776 0.564957 0.292678
0.523651 0.584907 0.338822
0.611068 0.608649 0.395951
0.372130 0.712734 0.473780
0.432161 0.723156 0.340644
0.501243 0.745780 0.369609
0.574115 0.771602 0.414053
0.650967 0.799222 0.473163
0.264595 0.447950 0.486872
0.214597 0.071180 0.172634
0.313925 0.078892 0.211848
0.414101 0.088613 0.267053
0.515389 0.100154 0.335723
0.166508 0.229501 0.402773
0.247374 0.236340 0.200241
0.348893 0.243294 0.236314
0.452699 0.251629 0.290480
0.556451 0.262607 0.359674
0.223049 0.397976 0.426995
0.308354 0.398848 0.261926
0.397530 0.412354 0.291420
0.496716 0.424832 0.334732
0.604035 0.435899 0.395567
0.316068 0.559211 0.467141
0.390058 0.558538 0.337019
0.469919 0.576373 0.366518
0.550583 0.599356 0.413347
0.636441 0.624400 0.472347
0.377037 0.739838 0.539480
0.453666 0.738091 0.410661
0.522083 0.761549 0.440504
0.594630 0.787483 0.486754
0.671940 0.814838 0.549648
0.321714 0.461420 0.583221
0.285487 0.086574 0.275765
0.385474 0.095293 0.313942
0.486609 0.105948 0.368475
0.589113 0.118461 0.436662
0.246407 0.246012 0.503218
0.327224 0.251117 0.298814
0.427872 0.258529 0.336075
0.530149 0.268091 0.390195
0.634170 0.279654 0.458957
0.304639 0.413586 0.525755
0.381748 0.420695 0.349364
0.477489 0.430910 0.375830
0.582163 0.439745 0.423023
0.688722 0.450661 0.490427
0.373631 0.591614 0.557666
0.455508 0.587437 0.421137
0.529797 0.607951 0.453031
0.609745 0.630934 0.498486
0.697536 0.653456 0.562726
0.412181 0.776943 0.629005
0.502893 0.768453 0.490514
0.570977 0.791755 0.520869
0.644381 0.817018 0.569246
0.723259 0.842605 0.636367
0.409343 0.480129 0.684564
0.376370 0.108330 0.380960
0.478428 0.118161 0.418276
0.581835 0.130056 0.472204
0.686983 0.143999 0.540297
0.357547 0.270779 0.607113
0.432122 0.273901 0.405630
0.533961 0.282032 0.441696
0.637794 0.292578 0.495268
0.743435 0.305264 0.564500
0.416484 0.442341 0.630458
0.497801 0.447789 0.443154
0.597744 0.455266 0.474717
0.692215 0.468374 0.528932
0.780885 0.486758 0.607338
0.447202 0.631770 0.673884
0.536006 0.629210 0.515530
0.610627 0.649027 0.545670
0.694519 0.668721 0.593587
0.787070 0.686253 0.666379
0.470346 0.819016 0.736587
0.571226 0.807909 0.575608
0.641021 0.830155 0.607176
0.717059 0.853007 0.658585
0.800213 0.875373 0.731531
0.527796 0.501186 0.794612
0.496887 0.138997 0.489937
0.602040 0.150215 0.526764
0.708984 0.163441 0.580448
0.817771 0.178510 0.649462
0.506377 0.305983 0.716959
0.572604 0.306315 0.519177
0.676505 0.315625 0.554671
0.782714 0.327327 0.609004
0.884083 0.342396 0.682019
0.544322 0.478550 0.741341
0.632957 0.483954 0.553824
0.716610 0.496294 0.591469
0.802114 0.511339 0.651613
0.889863 0.528555 0.732347
0.549585 0.670424 0.798472
0.632971 0.675936 0.613253
0.714543 0.691540 0.644104
0.804897 0.705505 0.700956
0.896523 0.720470 0.785311
0.551890 0.863765 0.860162
0.657347 0.851637 0.664456
0.731915 0.871077 0.698156
0.813949 0.890142 0.754025
0.904596 0.907377 0.833772
