gsg/04_Specialty/GSG_LUT_Specialty_Painterly.cube
# GSG LUTs 1.0
# Copyright (c) 2016-2020 Greyscalegorilla
# See EULA for licensing and distribution information
# Converted by Briz LUT Converter
LUT_3D_SIZE 8
DOMAIN_MIN 0.000000 0.000000 0.000000
DOMAIN_MAX 0.903226 0.903226 0.903226
0.103297 0.107204 0.148474
0.141754 0.108212 0.148962
0.205089 0.110016 0.149821
0.297263 0.110922 0.150427
0.439970 0.101642 0.148458
0.624546 0.081397 0.138627
0.814116 0.107157 0.111064
0.969341 0.165930 0.056292
0.103966 0.140588 0.156942
0.147107 0.141239 0.155993
0.215253 0.142212 0.154799
0.314133 0.146103 0.154799
0.460420 0.150627 0.151781
0.643482 0.158465 0.138605
0.824565 0.187701 0.105302
0.973081 0.227366 0.051707
0.095829 0.209721 0.178313
0.150486 0.212218 0.176990
0.224171 0.215465 0.175847
0.344182 0.231977 0.169954
0.517771 0.260206 0.154160
0.695710 0.284845 0.127882
0.856519 0.312271 0.077317
0.988474 0.335028 0.050794
0.050794 0.350128 0.195006
0.093115 0.354268 0.192594
0.248120 0.363576 0.187317
0.377762 0.374070 0.181134
0.557032 0.408813 0.154486
0.751410 0.452625 0.084098
0.895439 0.465786 0.050794
0.998534 0.465775 0.050794
0.050794 0.560172 0.184048
0.050794 0.564488 0.179605
0.236696 0.573012 0.168093
0.435722 0.582273 0.152419
0.592769 0.588357 0.131507
0.753994 0.598858 0.080483
0.905181 0.608905 0.050794
0.999905 0.605371 0.050794
0.050794 0.749506 0.192060
0.050794 0.751381 0.188511
0.193179 0.754199 0.179571
0.464094 0.758974 0.163271
0.626542 0.760831 0.146737
0.773551 0.760616 0.125795
0.898594 0.741979 0.137522
0.999184 0.729362 0.145829
0.050794 0.881224 0.302304
0.050794 0.881224 0.301140
0.231505 0.881776 0.299219
0.468665 0.882555 0.295403
0.634102 0.882114 0.290332
0.772268 0.880610 0.287778
0.904832 0.877332 0.286171
0.997661 0.846989 0.311474
0.241467 0.972098 0.491355
0.305704 0.972070 0.491701
0.412364 0.971576 0.492465
0.536904 0.970745 0.493552
0.664691 0.968337 0.489661
0.779287 0.966064 0.493656
0.891478 0.962716 0.499529
0.997409 0.958247 0.505763
0.099074 0.109740 0.189161
0.136023 0.107913 0.192122
0.202829 0.108172 0.189805
0.289692 0.111365 0.192516
0.431430 0.093470 0.192392
0.615146 0.053500 0.184581
0.803844 0.052468 0.166697
0.962556 0.111928 0.136734
0.094296 0.140372 0.200808
0.136500 0.143397 0.202832
0.205158 0.144588 0.201918
0.305955 0.145702 0.200316
0.452838 0.141792 0.195952
0.635885 0.134869 0.185487
0.816210 0.153763 0.165001
0.967790 0.195955 0.132778
0.067608 0.210926 0.218230
0.132344 0.213828 0.219531
0.219263 0.217763 0.217755
0.343872 0.231582 0.212733
0.509930 0.249205 0.201633
0.686251 0.267364 0.183927
0.848037 0.292086 0.156789
0.983205 0.316230 0.120076
0.050794 0.351008 0.235136
0.060094 0.355002 0.233669
0.235317 0.364793 0.229029
0.374020 0.373507 0.224235
0.554380 0.403756 0.206475
0.746100 0.442097 0.171826
0.887711 0.452280 0.138079
0.998051 0.454422 0.101040
0.050794 0.560329 0.236286
0.050794 0.563630 0.233235
0.192433 0.571516 0.225569
0.426524 0.580915 0.215251
0.588516 0.586115 0.203834
0.752558 0.596363 0.181844
0.903921 0.605660 0.151354
0.999761 0.600839 0.128665
0.050794 0.748438 0.254165
0.050794 0.749515 0.251778
0.147648 0.752240 0.246088
0.451340 0.757405 0.237375
0.621182 0.759688 0.228828
0.770557 0.759530 0.219884
0.897011 0.741180 0.226335
0.999051 0.728874 0.232071
0.050794 0.879948 0.349196
0.050794 0.879742 0.347892
0.203908 0.880124 0.346328
0.459696 0.881273 0.344612
0.631011 0.881299 0.341262
0.769811 0.880134 0.340327
0.902439 0.876823 0.339114
0.997277 0.847020 0.358978
0.254638 0.971067 0.520626
0.316584 0.970872 0.521399
0.418245 0.970402 0.522154
0.539475 0.969820 0.523158
0.667322 0.968251 0.523484
0.780720 0.965852 0.525684
0.891003 0.962455 0.529958
0.996167 0.958162 0.535346
0.082737 0.113073 0.259026
0.122952 0.113230 0.263736
0.197548 0.112302 0.270807
0.309437 0.089923 0.276370
0.439871 0.051525 0.264280
0.601756 0.050794 0.251108
0.792165 0.050794 0.245648
0.957245 0.050794 0.230804
0.083852 0.142737 0.268320
0.128424 0.148326 0.273543
0.201751 0.147087 0.280093
0.313919 0.132002 0.278411
0.446692 0.095666 0.264984
0.620800 0.058289 0.258640
0.805854 0.054673 0.248355
0.963462 0.074271 0.231427
0.052863 0.209987 0.291164
0.098032 0.213873 0.293569
0.204314 0.222640 0.297973
0.335050 0.223191 0.291964
0.494844 0.222829 0.283219
0.672719 0.225287 0.271085
0.839310 0.241706 0.254843
0.979076 0.268592 0.236375
0.050794 0.353058 0.322730
0.050794 0.359024 0.318796
0.175393 0.371029 0.317709
0.371591 0.381133 0.314347
0.563449 0.403439 0.304509
0.741450 0.422310 0.287132
0.881050 0.427515 0.267696
0.996935 0.432187 0.249233
0.050794 0.563920 0.327571
0.050794 0.567850 0.329805
0.081248 0.575278 0.332370
0.408019 0.586952 0.326811
0.587597 0.591208 0.321056
0.756756 0.597985 0.311339
0.906044 0.603306 0.300788
0.999551 0.593520 0.289131
0.050794 0.750484 0.364600
0.050794 0.751461 0.366805
0.069505 0.753763 0.363723
0.420118 0.759305 0.361075
0.613192 0.762106 0.356666
0.767262 0.761410 0.353359
0.896152 0.743405 0.357328
0.998912 0.731220 0.361215
0.050794 0.879674 0.449811
0.050794 0.879627 0.448991
0.176387 0.880173 0.448210
0.448051 0.881419 0.448566
0.627959 0.881946 0.447022
0.766831 0.880792 0.446505
0.898292 0.877588 0.446444
0.994345 0.850310 0.460393
0.309364 0.969473 0.588753
0.354721 0.969253 0.588945
0.441264 0.968985 0.589718
0.551998 0.968532 0.591136
0.672502 0.967334 0.591748
0.784941 0.965303 0.593274
0.890503 0.962330 0.596487
0.992404 0.958344 0.600524
0.051991 0.118083 0.367789
0.104480 0.118106 0.373721
0.201998 0.114583 0.387846
0.321918 0.088457 0.396035
0.490720 0.050794 0.409536
0.653005 0.050794 0.394746
0.803140 0.050794 0.359385
0.945139 0.050794 0.332413
0.052527 0.153073 0.378365
0.104176 0.153406 0.383564
0.204993 0.151466 0.396231
0.331072 0.133996 0.405260
0.499865 0.055248 0.411437
0.656840 0.050794 0.390419
0.804757 0.050794 0.355250
0.950207 0.050794 0.337348
0.050794 0.210272 0.391497
0.057178 0.213184 0.396131
0.199187 0.228772 0.411324
0.347945 0.227573 0.424636
0.516077 0.191577 0.414576
0.665618 0.139805 0.386136
0.819310 0.124900 0.365653
0.966849 0.154327 0.353536
0.050794 0.348950 0.432246
0.050794 0.354002 0.434908
0.118634 0.367339 0.441403
0.356488 0.389392 0.450993
0.546930 0.386547 0.437123
0.712665 0.383967 0.418589
0.861463 0.386879 0.399572
0.988091 0.394353 0.381424
0.050794 0.560703 0.478646
0.050794 0.565544 0.477138
0.050794 0.576828 0.471814
0.350561 0.592588 0.475287
0.582276 0.599689 0.472882
0.757468 0.602962 0.467609
0.897526 0.598328 0.455463
0.998463 0.582703 0.434820
0.050794 0.750114 0.495939
0.050794 0.752281 0.493379
0.050794 0.755662 0.496239
0.370870 0.760418 0.512267
0.601698 0.765404 0.510954
0.758880 0.763906 0.509158
0.890452 0.749642 0.510908
0.998264 0.740299 0.511905
0.050794 0.880443 0.537714
0.050794 0.879875 0.547751
0.170916 0.878769 0.572519
0.445813 0.880339 0.578581
0.623686 0.881913 0.578676
0.763817 0.881618 0.578092
0.890017 0.878500 0.577477
0.986832 0.856319 0.585168
0.332169 0.967578 0.664605
0.393552 0.966989 0.671041
0.474798 0.966489 0.675010
0.570415 0.966330 0.676042
0.679896 0.965780 0.676839
0.790829 0.964260 0.677566
0.889656 0.962031 0.679152
0.986515 0.958639 0.681307
0.050794 0.118784 0.515136
0.080103 0.116018 0.520942
0.223304 0.103441 0.534885
0.368600 0.058538 0.558812
0.523271 0.050794 0.561605
0.707217 0.050794 0.570217
0.856155 0.050794 0.547568
0.976012 0.050794 0.507412
0.050794 0.156849 0.522801
0.067650 0.155198 0.528197
0.221801 0.148522 0.541375
0.371674 0.124235 0.564622
0.532559 0.055640 0.569064
0.712992 0.050794 0.571627
0.857115 0.050794 0.544597
0.975757 0.050794 0.503876
0.050794 0.217873 0.532674
0.051178 0.228172 0.539923
0.206861 0.236326 0.554325
0.375608 0.238074 0.577950
0.551487 0.214331 0.586263
0.724752 0.117826 0.575343
0.857995 0.065784 0.538906
0.973776 0.052528 0.496939
0.050794 0.345124 0.555926
0.050794 0.346920 0.558602
0.108187 0.355753 0.567673
0.368968 0.394568 0.593428
0.567359 0.404332 0.609720
0.728866 0.370689 0.581662
0.851149 0.344807 0.539709
0.968341 0.339531 0.509141
0.050794 0.543682 0.602123
0.050794 0.548340 0.604759
0.050794 0.559982 0.610759
0.328675 0.580727 0.621578
0.566796 0.607354 0.634421
0.730099 0.595556 0.615222
0.862860 0.578140 0.588168
0.982965 0.565125 0.563313
0.050794 0.743710 0.643199
0.050794 0.745748 0.643450
0.050794 0.749786 0.643585
0.302385 0.757737 0.646832
0.578562 0.766186 0.660486
0.747043 0.768830 0.660796
0.879200 0.762381 0.659737
0.989475 0.752362 0.650471
0.050794 0.876910 0.658950
0.050794 0.877077 0.659438
0.053419 0.877484 0.661865
0.393599 0.879038 0.679435
0.616339 0.880251 0.700902
0.761355 0.882159 0.701251
0.879203 0.879725 0.700239
0.976972 0.865476 0.703259
0.059360 0.970538 0.693369
0.098281 0.969802 0.698449
0.355077 0.968174 0.714914
0.563614 0.964751 0.748762
0.683500 0.963821 0.757995
0.791683 0.963344 0.759111
0.887980 0.961650 0.759696
0.978870 0.958954 0.760473
0.050794 0.106164 0.682792
0.130923 0.098525 0.687073
0.272486 0.071706 0.696781
0.418717 0.050794 0.714286
0.582234 0.050794 0.736896
0.737259 0.050794 0.731476
0.884778 0.050794 0.715243
0.998392 0.050794 0.682841
0.050794 0.155255 0.686217
0.109846 0.151697 0.690031
0.266962 0.140250 0.699822
0.417250 0.108043 0.716819
0.582494 0.055881 0.738925
0.739972 0.050794 0.734298
0.885993 0.050794 0.715605
0.998305 0.050794 0.681229
0.050794 0.243044 0.694253
0.056338 0.244550 0.698171
0.248096 0.245308 0.707767
0.413134 0.245506 0.723719
0.584409 0.247656 0.745752
0.746946 0.207004 0.743201
0.888411 0.115033 0.717933
0.997595 0.071600 0.679547
0.050794 0.337131 0.696391
0.050794 0.342187 0.700650
0.153145 0.371117 0.712863
0.402972 0.406537 0.731039
0.581590 0.433938 0.752921
0.748700 0.432529 0.755524
0.884784 0.395798 0.724999
0.990411 0.372659 0.683263
0.050794 0.525661 0.722098
0.050794 0.527901 0.723543
0.056248 0.533678 0.726351
0.354077 0.552549 0.734031
0.573739 0.606095 0.754833
0.738303 0.624006 0.766686
0.863462 0.590784 0.732868
0.966548 0.562088 0.692032
0.050794 0.716394 0.754293
0.050794 0.718695 0.755247
0.050794 0.724207 0.757613
0.343970 0.736693 0.764258
0.567978 0.753281 0.772687
0.734740 0.773967 0.784288
0.851760 0.759542 0.766353
0.960991 0.740724 0.742441
0.050794 0.870069 0.779070
0.050794 0.870459 0.779534
0.080637 0.871196 0.780764
0.402782 0.873978 0.785618
0.588628 0.877631 0.791462
0.750510 0.882326 0.803955
0.870093 0.883046 0.804329
0.967083 0.876785 0.804450
0.062398 0.966734 0.791388
0.140572 0.966480 0.792551
0.337047 0.966026 0.796011
0.491114 0.965436 0.801213
0.643791 0.963893 0.815094
0.786964 0.961892 0.835375
0.886856 0.961621 0.836485
0.970279 0.959489 0.836573
0.177092 0.107881 0.831116
0.238205 0.100636 0.833037
0.340359 0.078656 0.837714
0.465070 0.053989 0.845724
0.602550 0.050794 0.857089
0.749636 0.050794 0.869269
0.897190 0.050794 0.861798
0.999273 0.050794 0.829878
0.163713 0.169776 0.832234
0.230135 0.167135 0.833943
0.336555 0.159864 0.838581
0.463285 0.146445 0.846488
0.601994 0.133070 0.857701
0.749462 0.136521 0.870167
0.896751 0.069121 0.862630
0.999156 0.051979 0.830222
0.114388 0.270845 0.833708
0.203881 0.271712 0.835574
0.325060 0.274011 0.840017
0.458712 0.279637 0.847920
0.600264 0.294411 0.859042
0.748111 0.324064 0.871675
0.894526 0.293694 0.865503
0.998722 0.254406 0.832284
0.054502 0.374194 0.833300
0.094349 0.389084 0.835158
0.304663 0.416604 0.839975
0.453212 0.435034 0.847823
0.597641 0.462394 0.858693
0.743818 0.502669 0.871899
0.885243 0.491122 0.868091
0.995303 0.461112 0.836414
0.050794 0.508473 0.833267
0.050794 0.510747 0.833781
0.145611 0.520983 0.836146
0.416326 0.564001 0.843785
0.598691 0.617631 0.855407
0.739624 0.654484 0.870152
0.871018 0.654853 0.870738
0.979609 0.625051 0.843123
0.050794 0.686715 0.849104
0.050794 0.688362 0.849159
0.129307 0.693113 0.849685
0.399053 0.704142 0.850965
0.575190 0.723686 0.853331
0.736707 0.769412 0.867652
0.860745 0.783974 0.877040
0.959551 0.755355 0.850623
0.050794 0.841065 0.867214
0.051573 0.842055 0.867333
0.234390 0.845518 0.868631
0.443982 0.851518 0.871043
0.600594 0.860109 0.874707
0.739293 0.871333 0.880351
0.862229 0.886265 0.889768
0.948539 0.872732 0.874367
0.205903 0.961414 0.886066
0.280665 0.961388 0.886464
0.398127 0.961174 0.887296
0.524248 0.960919 0.888732
0.647587 0.960544 0.890906
0.764254 0.960779 0.894761
0.880954 0.961533 0.905886
0.962422 0.961575 0.906949
0.328717 0.206491 0.947016
0.360398 0.207107 0.947563
0.427703 0.208950 0.949173
0.521384 0.215195 0.951870
0.631198 0.231901 0.955667
0.750967 0.268825 0.960541
0.877910 0.314142 0.963709
0.998192 0.283432 0.958680
0.331197 0.257236 0.946767
0.362215 0.258485 0.947342
0.429185 0.262031 0.948924
0.522712 0.270914 0.951429
0.632041 0.290232 0.955173
0.751204 0.327164 0.959892
0.876712 0.372525 0.963230
0.997791 0.348104 0.958409
0.335488 0.356483 0.945746
0.366675 0.358836 0.946307
0.433259 0.365242 0.947802
0.526107 0.378294 0.950236
0.634575 0.401585 0.953761
0.751955 0.439634 0.958071
0.873979 0.483165 0.961636
0.996765 0.462067 0.957219
0.344238 0.484602 0.942818
0.380468 0.491084 0.943181
0.446384 0.500172 0.944541
0.536546 0.515069 0.946961
0.641885 0.538403 0.950290
0.755031 0.571604 0.954513
0.870738 0.610953 0.959186
0.988587 0.590768 0.955435
0.197295 0.551918 0.940942
0.266520 0.560026 0.941241
0.395471 0.587235 0.941712
0.544006 0.636450 0.942220
0.652677 0.662597 0.945581
0.759331 0.688431 0.950406
0.868095 0.718990 0.956326
0.976697 0.706654 0.954109
0.209264 0.689957 0.941927
0.270766 0.692120 0.941686
0.375849 0.697553 0.940992
0.494990 0.708996 0.940111
0.629925 0.741477 0.941415
0.762833 0.783581 0.946217
0.866868 0.809429 0.953878
0.964808 0.807876 0.954141
0.297750 0.825853 0.947993
0.341020 0.827019 0.947921
0.423314 0.830227 0.947492
0.525863 0.835222 0.946882
0.635029 0.842272 0.945850
0.744954 0.852235 0.944738
0.865357 0.883545 0.950996
0.955996 0.894797 0.956823
0.407427 0.938290 0.955773
0.435283 0.938834 0.955796
0.495577 0.940116 0.955798
0.579790 0.942212 0.955843
0.676266 0.945209 0.956136
0.776466 0.949471 0.956960
0.874462 0.955111 0.959097
0.956962 0.964583 0.965400
