gsg/04_Specialty/GSG_LUT_Specialty_RoseGlasses.cube
# GSG LUTs 1.0
# Copyright (c) 2016-2020 Greyscalegorilla
# See EULA for licensing and distribution information
# Converted by Briz LUT Converter
LUT_3D_SIZE 5
DOMAIN_MIN 0.000000 0.000000 0.000000
DOMAIN_MAX 0.903226 0.903226 0.903226
0.000000 0.000000 0.000000
0.235149 0.005593 0.030297
0.487298 0.011674 0.062901
0.727796 0.017590 0.093978
0.905069 0.021687 0.116736
0.109268 0.185931 0.102942
0.273078 0.220001 0.085083
0.517710 0.225264 0.108779
0.756028 0.228634 0.135594
0.932698 0.230966 0.156186
0.226681 0.385332 0.213541
0.345546 0.434654 0.193534
0.565891 0.456208 0.176307
0.796416 0.462086 0.196896
0.955718 0.475001 0.205026
0.338367 0.575430 0.318902
0.440699 0.626907 0.304309
0.606755 0.676726 0.262093
0.800512 0.708708 0.235299
0.948899 0.727685 0.234811
0.411154 0.718516 0.391083
0.494897 0.775677 0.374430
0.633942 0.836417 0.339698
0.804766 0.883248 0.291906
0.949819 0.908740 0.263187
0.024270 0.017401 0.123873
0.242087 0.008254 0.235261
0.494411 0.013329 0.259908
0.734420 0.018866 0.284092
0.911395 0.023207 0.302625
0.134991 0.196762 0.211477
0.284287 0.221291 0.268384
0.530764 0.224073 0.291778
0.768096 0.227358 0.315438
0.943638 0.230066 0.333713
0.254077 0.391877 0.322321
0.369506 0.431725 0.353412
0.576050 0.457884 0.342216
0.807456 0.462868 0.361493
0.961656 0.479018 0.366077
0.367387 0.579355 0.427419
0.473402 0.620020 0.452678
0.611121 0.681924 0.419110
0.802257 0.715321 0.391361
0.951286 0.733782 0.391432
0.436084 0.722911 0.496286
0.532135 0.766572 0.517311
0.648016 0.837183 0.492018
0.807768 0.888792 0.448537
0.951339 0.915310 0.418317
0.050494 0.035890 0.256733
0.224439 0.041825 0.384513
0.503064 0.016305 0.489131
0.743566 0.020875 0.511970
0.920039 0.024971 0.528555
0.157155 0.215062 0.333507
0.288183 0.243338 0.409696
0.539846 0.225795 0.518081
0.777172 0.228618 0.540016
0.952293 0.231185 0.556484
0.279727 0.407728 0.438439
0.397432 0.443074 0.479740
0.590411 0.457877 0.557889
0.814317 0.467285 0.572835
0.967204 0.484507 0.575315
0.394454 0.592832 0.544247
0.501982 0.629295 0.579879
0.628933 0.683911 0.611457
0.804743 0.724077 0.588564
0.955431 0.741334 0.589913
0.456397 0.738359 0.610989
0.558577 0.776818 0.642532
0.684954 0.830872 0.674730
0.814154 0.895253 0.644900
0.953103 0.924188 0.613986
0.075245 0.053748 0.383402
0.232449 0.064666 0.513324
0.473008 0.052960 0.639702
0.752672 0.023364 0.731960
0.929339 0.026980 0.748033
0.179891 0.232431 0.451914
0.306684 0.260294 0.532684
0.517250 0.257683 0.667363
0.786717 0.229927 0.758754
0.961577 0.232449 0.774178
0.300138 0.425452 0.553618
0.417622 0.459731 0.595234
0.581889 0.482486 0.703533
0.813323 0.475687 0.783234
0.966276 0.492914 0.785561
0.416191 0.609535 0.653862
0.519201 0.647714 0.687615
0.650473 0.697787 0.730873
0.807863 0.731676 0.788682
0.961314 0.747103 0.791477
0.477159 0.754492 0.718847
0.579143 0.792650 0.751983
0.709578 0.842633 0.794454
0.836653 0.895312 0.830652
0.954875 0.933341 0.806828
0.093584 0.066769 0.476663
0.243371 0.079194 0.607722
0.465598 0.075119 0.739467
0.725212 0.051888 0.848682
0.936723 0.028503 0.910909
0.197185 0.245209 0.539535
0.321633 0.272493 0.622950
0.516118 0.276236 0.764012
0.762205 0.255920 0.876182
0.968041 0.234088 0.935623
0.315979 0.438240 0.640004
0.433269 0.471934 0.681390
0.588616 0.497954 0.793435
0.785420 0.505239 0.893249
0.965539 0.499408 0.942319
0.426547 0.624601 0.735988
0.529255 0.662744 0.769678
0.661133 0.712340 0.813447
0.798728 0.753317 0.886396
0.960532 0.753229 0.947880
0.489818 0.768485 0.797976
0.592297 0.806349 0.831184
0.723451 0.855964 0.874003
0.853304 0.905905 0.916877
0.956680 0.939995 0.952088
