gsg/04_Specialty/GSG_LUT_Specialty_YourMajesty.cube
# GSG LUTs 1.0
# Copyright (c) 2016-2020 Greyscalegorilla
# See EULA for licensing and distribution information
# Converted by Briz LUT Converter
LUT_3D_SIZE 5
DOMAIN_MIN 0.000000 0.000000 0.000000
DOMAIN_MAX 0.903226 0.903226 0.903226
0.109158 0.096459 0.112088
0.193367 0.108567 0.122675
0.282524 0.122006 0.134594
0.383394 0.139060 0.150293
0.502060 0.161794 0.171586
0.124495 0.178416 0.126693
0.198752 0.183398 0.132762
0.285620 0.192288 0.142983
0.390120 0.206784 0.158683
0.517715 0.228579 0.181821
0.140651 0.265808 0.142983
0.208082 0.266785 0.146867
0.295104 0.274174 0.157052
0.405896 0.288916 0.174737
0.553486 0.318040 0.201056
0.164063 0.368750 0.167569
0.227803 0.369321 0.171019
0.326956 0.387900 0.184828
0.464886 0.423175 0.205347
0.626941 0.461664 0.226224
0.203663 0.509953 0.206712
0.282122 0.538259 0.212389
0.398023 0.575932 0.224194
0.542109 0.619087 0.238016
0.708126 0.665038 0.251296
0.113230 0.100776 0.186853
0.195620 0.112297 0.195230
0.284447 0.125590 0.205695
0.386191 0.142871 0.220253
0.506647 0.166093 0.240978
0.127047 0.180425 0.197238
0.199772 0.184908 0.201699
0.286628 0.193772 0.210654
0.392294 0.208557 0.225639
0.521985 0.230926 0.248592
0.142306 0.266485 0.210586
0.208626 0.267218 0.213112
0.295917 0.274607 0.222347
0.409148 0.290733 0.239949
0.564457 0.323510 0.267142
0.165621 0.369294 0.233138
0.229495 0.371111 0.236029
0.335639 0.396355 0.251737
0.475213 0.431758 0.272813
0.638261 0.469918 0.294962
0.207515 0.520548 0.272906
0.288762 0.550014 0.279909
0.406623 0.588288 0.293294
0.552247 0.631911 0.309200
0.719501 0.677903 0.325025
0.118524 0.106314 0.271559
0.199204 0.117445 0.279893
0.288167 0.130933 0.290756
0.391047 0.148702 0.306365
0.513774 0.172713 0.328434
0.131175 0.184283 0.281902
0.202867 0.188509 0.286573
0.290102 0.197650 0.296270
0.397195 0.213077 0.312524
0.529405 0.236512 0.337117
0.146305 0.269631 0.296081
0.211879 0.270391 0.299098
0.299880 0.278168 0.309449
0.420116 0.298547 0.330003
0.578661 0.332066 0.358680
0.170251 0.372910 0.320399
0.236762 0.378925 0.325542
0.347523 0.408084 0.344043
0.488182 0.443194 0.367011
0.652099 0.480945 0.391584
0.214507 0.534539 0.364197
0.298053 0.564604 0.373904
0.417598 0.603480 0.390485
0.564702 0.647092 0.410171
0.732840 0.693130 0.431094
0.124715 0.113238 0.367183
0.204530 0.124290 0.377368
0.293840 0.138162 0.390614
0.398393 0.156770 0.409100
0.523707 0.182032 0.434527
0.137311 0.189956 0.381039
0.208309 0.194450 0.387925
0.296185 0.204147 0.400362
0.405118 0.220531 0.419835
0.540669 0.245398 0.448129
0.152999 0.275261 0.399886
0.218134 0.276441 0.405510
0.307151 0.285173 0.418969
0.435570 0.310361 0.444899
0.595471 0.343251 0.476832
0.178197 0.380363 0.430141
0.249498 0.393255 0.440687
0.362035 0.422555 0.462816
0.503695 0.457125 0.490318
0.668038 0.494153 0.520301
0.223995 0.551294 0.482185
0.309621 0.582000 0.496973
0.430971 0.620917 0.519465
0.579596 0.664460 0.546702
0.746394 0.712120 0.583153
0.132727 0.121494 0.474654
0.211758 0.132918 0.488534
0.301808 0.147615 0.506274
0.408311 0.167332 0.529450
0.536626 0.194060 0.560124
0.145617 0.197779 0.495834
0.216259 0.202752 0.506840
0.305156 0.213417 0.524039
0.416230 0.231187 0.548728
0.556772 0.257923 0.582822
0.162343 0.283860 0.523045
0.227506 0.285612 0.533325
0.320424 0.297213 0.552895
0.454327 0.324928 0.586082
0.614459 0.356445 0.624637
0.189704 0.392059 0.563377
0.264877 0.410370 0.581866
0.378660 0.439328 0.611154
0.521126 0.473108 0.646668
0.685629 0.509691 0.685282
0.235580 0.570554 0.629338
0.323250 0.601573 0.653007
0.445930 0.640516 0.685322
0.600350 0.684659 0.718552
0.764698 0.737079 0.759251
