gsg/04_Specialty/GSG_LUT_Specialty_Antiqued.cube
# GSG LUTs 1.0
# Copyright (c) 2016-2020 Greyscalegorilla
# See EULA for licensing and distribution information
# Converted by Briz LUT Converter
LUT_3D_SIZE 8
DOMAIN_MIN 0.000000 0.000000 0.000000
DOMAIN_MAX 0.903226 0.903226 0.903226
0.215873 0.157265 0.199756
0.304289 0.157541 0.203726
0.375643 0.157753 0.205680
0.442199 0.157998 0.206444
0.538288 0.158368 0.206223
0.647068 0.159132 0.203679
0.750096 0.160085 0.199732
0.846177 0.161369 0.194525
0.224546 0.246690 0.205924
0.310123 0.247178 0.206589
0.380015 0.247509 0.206034
0.445799 0.247923 0.204813
0.541124 0.248801 0.201623
0.649541 0.249998 0.196340
0.752522 0.251802 0.189814
0.848679 0.254042 0.182665
0.226862 0.319603 0.206286
0.311277 0.320344 0.204813
0.380645 0.320950 0.202536
0.446256 0.321714 0.199827
0.541581 0.323156 0.194619
0.650422 0.325172 0.187300
0.753767 0.327685 0.179095
0.850205 0.330767 0.170397
0.226523 0.388515 0.203435
0.310449 0.389767 0.200189
0.379881 0.390870 0.196588
0.445710 0.391915 0.192477
0.541707 0.393840 0.185693
0.651227 0.396597 0.176649
0.754822 0.400052 0.167286
0.848298 0.405325 0.161826
0.224042 0.489472 0.194572
0.308599 0.491229 0.188900
0.378818 0.492742 0.183623
0.445549 0.494427 0.178140
0.542814 0.497131 0.169361
0.650481 0.502162 0.162254
0.751511 0.507409 0.158823
0.845484 0.512206 0.158111
0.222466 0.604947 0.178849
0.308902 0.607208 0.171125
0.379525 0.609673 0.165326
0.445209 0.612602 0.161818
0.540848 0.616713 0.158746
0.649525 0.621333 0.158257
0.751621 0.625866 0.160991
0.845421 0.630627 0.166719
0.222821 0.715412 0.162700
0.308323 0.718547 0.159479
0.379385 0.720832 0.158149
0.446692 0.723114 0.158144
0.544188 0.726393 0.160584
0.653732 0.730238 0.166997
0.755548 0.734661 0.176905
0.848488 0.739446 0.189584
0.225499 0.817023 0.158021
0.313411 0.819063 0.158963
0.386057 0.820779 0.161661
0.454362 0.822388 0.165612
0.552468 0.825031 0.174224
0.661972 0.828713 0.188004
0.762771 0.832985 0.205265
0.853968 0.837953 0.225181
0.218134 0.157509 0.285423
0.305999 0.157753 0.288932
0.376896 0.157998 0.290583
0.443208 0.158242 0.291252
0.539139 0.158612 0.290756
0.647821 0.159376 0.288180
0.750616 0.160409 0.283958
0.846889 0.161910 0.278643
0.225491 0.246906 0.290827
0.310610 0.247261 0.291248
0.380258 0.247685 0.290630
0.446044 0.248198 0.289228
0.541354 0.249063 0.286006
0.649806 0.250500 0.280497
0.752817 0.252487 0.273706
0.849122 0.254853 0.266120
0.226862 0.319847 0.290882
0.311211 0.320619 0.289283
0.380464 0.321438 0.286904
0.446193 0.322211 0.284124
0.541581 0.323676 0.278659
0.650644 0.325908 0.271066
0.754013 0.328694 0.262452
0.850440 0.332117 0.253485
0.226185 0.389003 0.287849
0.310193 0.390154 0.284376
0.379637 0.391362 0.280625
0.445661 0.392536 0.276403
0.541713 0.394637 0.269416
0.651532 0.397605 0.259883
0.754336 0.401655 0.250957
0.847622 0.407172 0.246083
0.223554 0.489992 0.278608
0.308355 0.491888 0.272700
0.378822 0.493576 0.267175
0.445793 0.495233 0.261420
0.542675 0.498395 0.252787
0.649941 0.503827 0.246550
0.751273 0.508937 0.243375
0.845225 0.513962 0.242896
0.222624 0.605848 0.262098
0.309293 0.608170 0.254182
0.379071 0.611170 0.249345
0.444886 0.614038 0.246091
0.540888 0.618134 0.243362
0.649845 0.622725 0.243032
0.751983 0.627389 0.245854
0.845683 0.632389 0.251700
0.222711 0.716720 0.247060
0.308589 0.719604 0.243919
0.380077 0.722084 0.242759
0.447611 0.724220 0.242928
0.545168 0.727402 0.245562
0.654929 0.731621 0.251924
0.756727 0.736206 0.261680
0.849202 0.741262 0.274250
0.226757 0.817787 0.242680
0.315101 0.819827 0.243877
0.387806 0.821522 0.246573
0.456251 0.823160 0.250534
0.554345 0.826039 0.259028
0.663724 0.829966 0.272681
0.764258 0.834507 0.289735
0.855026 0.839744 0.309325
0.219843 0.157509 0.355311
0.307007 0.157753 0.358549
0.377660 0.157998 0.360149
0.443947 0.158242 0.360684
0.539660 0.158730 0.360187
0.648289 0.159620 0.357525
0.751122 0.160832 0.353145
0.847211 0.162590 0.347639
0.225956 0.246934 0.360258
0.310828 0.247433 0.360680
0.380495 0.247919 0.360055
0.446195 0.248434 0.358647
0.541395 0.249349 0.355208
0.650021 0.250983 0.349667
0.753058 0.253072 0.342682
0.849370 0.255638 0.334814
0.226862 0.320091 0.360314
0.311010 0.320919 0.358659
0.380401 0.321683 0.356307
0.446012 0.322557 0.353334
0.541581 0.324173 0.347812
0.650707 0.326497 0.339949
0.754272 0.329494 0.330953
0.850073 0.333477 0.322239
0.225877 0.389272 0.357256
0.309866 0.390602 0.353663
0.379456 0.391853 0.349813
0.445552 0.393083 0.345539
0.541802 0.395284 0.338191
0.651737 0.398369 0.328323
0.753722 0.403262 0.320169
0.847127 0.408796 0.315522
0.223279 0.490605 0.347686
0.308252 0.492486 0.341716
0.378874 0.494175 0.335909
0.445997 0.495961 0.329814
0.542383 0.499610 0.321617
0.649620 0.505116 0.315982
0.751058 0.510402 0.313020
0.845122 0.515471 0.312572
0.222822 0.606475 0.330608
0.309030 0.609234 0.322996
0.378789 0.612382 0.318650
0.444886 0.615154 0.315576
0.541128 0.619142 0.312996
0.650253 0.623838 0.312722
0.752343 0.628774 0.315711
0.846009 0.633865 0.321376
0.222759 0.717539 0.316477
0.309184 0.720540 0.313528
0.380805 0.722848 0.312428
0.448448 0.725101 0.312697
0.546150 0.728410 0.315261
0.655902 0.732723 0.321631
0.757506 0.737502 0.331337
0.849965 0.742779 0.343693
0.228014 0.818494 0.312356
0.316602 0.820514 0.313620
0.389492 0.822143 0.316314
0.457981 0.823923 0.320339
0.556101 0.826938 0.328689
0.665288 0.831116 0.342196
0.765557 0.835929 0.358944
0.856227 0.841425 0.378261
0.221190 0.157509 0.420615
0.307984 0.157867 0.423853
0.378424 0.158061 0.425468
0.444583 0.158336 0.426137
0.540116 0.158856 0.425491
0.648627 0.159865 0.422882
0.751528 0.161190 0.418449
0.847628 0.163078 0.412848
0.226417 0.247178 0.425693
0.311064 0.247668 0.426103
0.380611 0.248066 0.425491
0.446256 0.248588 0.424038
0.541581 0.249721 0.420584
0.650175 0.251391 0.414876
0.753273 0.253630 0.407641
0.849636 0.256607 0.399502
0.226799 0.320336 0.425656
0.310957 0.321163 0.423997
0.380202 0.322003 0.421615
0.445964 0.322974 0.418614
0.541614 0.324681 0.412997
0.650937 0.327197 0.404782
0.754554 0.330285 0.395383
0.849380 0.335109 0.387458
0.225452 0.389644 0.422548
0.309622 0.391083 0.418938
0.379323 0.392253 0.415022
0.445466 0.393627 0.410611
0.541928 0.395909 0.402938
0.651986 0.399255 0.392733
0.753119 0.404684 0.385451
0.846679 0.410154 0.381003
0.222947 0.491109 0.412895
0.308140 0.493080 0.406653
0.378976 0.494870 0.400624
0.446316 0.496678 0.394253
0.541939 0.500893 0.386829
0.649426 0.506430 0.381395
0.751031 0.511690 0.378577
0.845004 0.516904 0.378262
0.223183 0.607206 0.395087
0.308843 0.610247 0.387950
0.378597 0.613431 0.383969
0.444926 0.616239 0.381046
0.541447 0.620239 0.378544
0.650689 0.625034 0.378473
0.752830 0.630023 0.381281
0.846324 0.635354 0.386929
0.223089 0.718547 0.381774
0.309742 0.721383 0.379085
0.381575 0.723668 0.378126
0.449402 0.725929 0.378374
0.547347 0.729418 0.380882
0.656977 0.733887 0.387179
0.758462 0.738885 0.396795
0.850609 0.744430 0.408962
0.229416 0.819095 0.378039
0.318169 0.821100 0.379313
0.391083 0.822886 0.381966
0.459632 0.824689 0.385898
0.557856 0.827856 0.394147
0.666860 0.832170 0.407414
0.766897 0.837274 0.423911
0.857223 0.843018 0.442841
0.222963 0.157753 0.514711
0.308992 0.157998 0.518090
0.379188 0.158242 0.519784
0.445161 0.158535 0.520454
0.540604 0.159100 0.519957
0.649147 0.160235 0.517337
0.752023 0.161921 0.512789
0.848120 0.163937 0.506932
0.226759 0.247319 0.519902
0.311277 0.247825 0.520436
0.380692 0.248343 0.519938
0.446256 0.248983 0.518486
0.541581 0.250240 0.514962
0.650345 0.252109 0.508980
0.753536 0.254639 0.501410
0.850016 0.257771 0.492811
0.226555 0.320643 0.520114
0.310595 0.321640 0.518456
0.379966 0.322541 0.516065
0.445802 0.323593 0.512935
0.541707 0.325434 0.507031
0.651153 0.328205 0.498415
0.754873 0.331732 0.488555
0.848517 0.337383 0.481800
0.225036 0.390200 0.517002
0.309195 0.391697 0.513271
0.379091 0.393008 0.509154
0.445374 0.394391 0.504538
0.542172 0.396938 0.496473
0.651760 0.400928 0.486227
0.752427 0.406841 0.479865
0.846154 0.412403 0.475615
0.222642 0.491922 0.506960
0.308150 0.493938 0.500279
0.379362 0.495837 0.493978
0.446360 0.498107 0.487746
0.541380 0.502775 0.481153
0.649246 0.508236 0.475996
0.751037 0.513627 0.473271
0.845004 0.519046 0.472943
0.223590 0.608242 0.488316
0.308337 0.611958 0.482245
0.378551 0.614984 0.478427
0.445232 0.617764 0.475669
0.542098 0.621793 0.473255
0.651456 0.626657 0.473180
0.753559 0.632006 0.475907
0.846854 0.637583 0.481355
0.223620 0.719800 0.476450
0.310823 0.722621 0.473792
0.382926 0.724920 0.472805
0.450969 0.727230 0.473079
0.548915 0.730811 0.475519
0.658562 0.735531 0.481539
0.759862 0.740886 0.490804
0.851705 0.746785 0.502693
0.231620 0.819859 0.472835
0.320547 0.821899 0.474023
0.393711 0.823888 0.476515
0.462309 0.825867 0.480299
0.560463 0.829190 0.488345
0.669234 0.833943 0.501177
0.768918 0.839378 0.517178
0.858734 0.845613 0.535605
0.224333 0.157753 0.620867
0.310000 0.158166 0.624593
0.379911 0.158422 0.626483
0.445768 0.158791 0.627277
0.541093 0.159502 0.626923
0.649510 0.160811 0.624246
0.752452 0.162685 0.619469
0.848611 0.165166 0.613218
0.226862 0.247591 0.626567
0.311245 0.248176 0.627352
0.380539 0.248718 0.626830
0.446225 0.249447 0.625417
0.541581 0.250836 0.621710
0.650595 0.253069 0.615522
0.753985 0.255978 0.607321
0.850438 0.259597 0.598079
0.226131 0.321109 0.627026
0.310196 0.322140 0.625369
0.379674 0.323124 0.622852
0.445633 0.324305 0.619585
0.541707 0.326433 0.613398
0.651466 0.329498 0.603993
0.754311 0.334038 0.594605
0.847630 0.339989 0.588554
0.224414 0.390965 0.623910
0.308818 0.392389 0.619973
0.378857 0.393846 0.615693
0.445448 0.395474 0.610669
0.542592 0.398224 0.602001
0.650951 0.403327 0.592690
0.751814 0.409256 0.586646
0.845695 0.414906 0.582472
0.222508 0.492930 0.613234
0.308378 0.495073 0.606194
0.379754 0.497110 0.599296
0.445961 0.499957 0.593840
0.540987 0.504910 0.587908
0.649189 0.510410 0.582843
0.751187 0.515937 0.580138
0.845130 0.521617 0.579711
0.223301 0.609988 0.594328
0.308160 0.613724 0.588978
0.378847 0.616741 0.585227
0.445821 0.619536 0.582510
0.543023 0.623632 0.580094
0.652546 0.628775 0.579857
0.754551 0.634369 0.582416
0.847626 0.640300 0.587548
0.224755 0.721108 0.583213
0.312360 0.723941 0.580567
0.384841 0.726353 0.579694
0.453005 0.728705 0.579860
0.551121 0.732520 0.582012
0.660562 0.737548 0.587774
0.761605 0.743374 0.596571
0.853082 0.749651 0.607880
0.234377 0.820891 0.579597
0.323754 0.823152 0.580563
0.396949 0.825090 0.583034
0.465572 0.827249 0.586505
0.563549 0.830849 0.594123
0.672035 0.835987 0.606406
0.771348 0.841945 0.621847
0.860633 0.848635 0.639626
0.225586 0.157998 0.720958
0.310568 0.158242 0.724953
0.380269 0.158549 0.727071
0.446012 0.159048 0.727985
0.541337 0.159931 0.727732
0.649876 0.161432 0.724912
0.752783 0.163638 0.719970
0.849084 0.166419 0.713088
0.226862 0.247862 0.727315
0.311001 0.248455 0.728197
0.380432 0.249136 0.727606
0.446012 0.249967 0.726177
0.541594 0.251609 0.722365
0.650675 0.254071 0.715581
0.754293 0.257273 0.706825
0.849863 0.261854 0.697844
0.225759 0.321564 0.727859
0.309748 0.322677 0.726178
0.379428 0.323888 0.723510
0.445485 0.325079 0.720059
0.541842 0.327441 0.713333
0.651890 0.330890 0.703306
0.753351 0.336450 0.694888
0.846886 0.342444 0.688902
0.223798 0.391540 0.724487
0.308527 0.393137 0.720424
0.378818 0.394822 0.715734
0.445634 0.396502 0.710447
0.542875 0.399622 0.701155
0.650222 0.405546 0.693072
0.751359 0.411553 0.687079
0.845398 0.417351 0.682897
0.222466 0.493938 0.713199
0.308775 0.496081 0.705511
0.379660 0.498697 0.698939
0.445354 0.501973 0.694113
0.540835 0.506865 0.688306
0.649454 0.512469 0.683273
0.751403 0.518210 0.680395
0.845359 0.524218 0.679802
0.222884 0.611816 0.694576
0.308307 0.615419 0.689346
0.379322 0.618324 0.685692
0.446690 0.621124 0.682961
0.544144 0.625405 0.680385
0.653763 0.630792 0.679904
0.755709 0.636654 0.682110
0.848487 0.643038 0.686793
0.226122 0.722403 0.683737
0.314208 0.725196 0.680939
0.386829 0.727680 0.679827
0.455200 0.730226 0.679761
0.553326 0.734236 0.681820
0.662712 0.739686 0.687033
0.763383 0.745750 0.695306
0.854416 0.752626 0.706040
0.237355 0.821899 0.679712
0.326957 0.824160 0.680477
0.400328 0.826200 0.682616
0.468901 0.828554 0.685853
0.566721 0.832510 0.693091
0.674855 0.838174 0.704757
0.773728 0.844603 0.719379
0.862426 0.851660 0.736547
0.226129 0.157998 0.814258
0.311032 0.158486 0.818480
0.380464 0.158787 0.820710
0.446256 0.159313 0.821805
0.541569 0.160310 0.821541
0.650140 0.162196 0.818488
0.753198 0.164646 0.813124
0.849551 0.167669 0.805900
0.226802 0.248134 0.820922
0.310757 0.248731 0.821997
0.380188 0.249502 0.821403
0.445981 0.250508 0.819898
0.541696 0.252278 0.815666
0.650920 0.255079 0.808448
0.754721 0.258634 0.798968
0.849055 0.264361 0.790902
0.225271 0.322084 0.821679
0.309299 0.323195 0.819772
0.379196 0.324447 0.817071
0.445374 0.325936 0.813268
0.542125 0.328479 0.805955
0.652005 0.332468 0.795465
0.752710 0.338714 0.787992
0.846349 0.344922 0.782018
0.223363 0.392258 0.818213
0.308283 0.393967 0.813631
0.378842 0.395714 0.808657
0.445893 0.397544 0.802852
0.542597 0.401370 0.793723
0.649721 0.407562 0.786136
0.751096 0.413612 0.780109
0.845153 0.419662 0.775776
0.222592 0.494828 0.805771
0.309218 0.497251 0.797616
0.379203 0.500427 0.791802
0.444925 0.503871 0.787263
0.540856 0.508649 0.781453
0.649831 0.514443 0.776267
0.751883 0.520367 0.773110
0.845723 0.526543 0.772268
0.222711 0.613353 0.787853
0.308724 0.616963 0.782448
0.380139 0.619831 0.778780
0.447765 0.622753 0.775840
0.545354 0.627139 0.773125
0.655073 0.632809 0.772357
0.756743 0.639023 0.774056
0.849271 0.645807 0.778440
0.227613 0.723662 0.776654
0.316126 0.726448 0.773768
0.388979 0.729017 0.772420
0.457447 0.731639 0.772263
0.555532 0.735916 0.773810
0.664796 0.741683 0.778510
0.765160 0.748216 0.786266
0.855848 0.755440 0.796438
0.240356 0.822908 0.772279
0.330227 0.825190 0.772750
0.403614 0.827453 0.774541
0.472203 0.830037 0.777565
0.569842 0.834272 0.784105
0.677632 0.840206 0.795125
0.776000 0.847139 0.809206
0.864420 0.854664 0.825625
