gsg/04_Specialty/GSG_LUT_Specialty_Rich_and_Toasty.cube
# GSG LUTs 1.0
# Copyright (c) 2016-2020 Greyscalegorilla
# See EULA for licensing and distribution information
# Converted by Briz LUT Converter
LUT_3D_SIZE 5
DOMAIN_MIN 0.000000 0.000000 0.000000
DOMAIN_MAX 0.903226 0.903226 0.903226
0.050794 0.068620 0.040781
0.111536 0.076387 0.052322
0.229446 0.095207 0.074914
0.400859 0.123613 0.107015
0.617126 0.159431 0.146197
0.073953 0.143448 0.066682
0.141597 0.146453 0.076501
0.270479 0.160827 0.097744
0.451816 0.184287 0.127890
0.675610 0.215135 0.164465
0.111048 0.269644 0.106274
0.186649 0.273859 0.116050
0.327990 0.289614 0.137172
0.520316 0.313809 0.166560
0.736330 0.352299 0.203841
0.168112 0.476490 0.166001
0.253210 0.486941 0.176602
0.400985 0.510512 0.200492
0.576187 0.542574 0.232102
0.776257 0.581922 0.269187
0.252842 0.782102 0.251889
0.339712 0.789497 0.265264
0.473680 0.805281 0.287261
0.637567 0.826295 0.314570
0.828713 0.852514 0.346914
0.050849 0.067699 0.055449
0.113466 0.075710 0.067820
0.234013 0.094743 0.091268
0.407814 0.123307 0.124046
0.625754 0.158948 0.163961
0.073166 0.140407 0.081650
0.142452 0.143659 0.092268
0.274266 0.158476 0.114428
0.458808 0.183347 0.145832
0.683686 0.214157 0.183117
0.109717 0.266769 0.122029
0.187394 0.271338 0.132527
0.331680 0.287628 0.154728
0.526131 0.314936 0.186106
0.733029 0.358055 0.226484
0.166812 0.475600 0.182825
0.256324 0.488490 0.195731
0.401768 0.514438 0.222726
0.574866 0.546790 0.255747
0.773792 0.586801 0.295081
0.253391 0.780422 0.272512
0.341457 0.788883 0.288647
0.473912 0.805168 0.312247
0.636201 0.826655 0.341174
0.825851 0.853200 0.375192
0.054055 0.070062 0.102871
0.118492 0.078214 0.117807
0.241745 0.097552 0.143771
0.417964 0.126106 0.178967
0.637985 0.161729 0.220757
0.075425 0.140573 0.132687
0.146836 0.144292 0.145949
0.281374 0.159352 0.170689
0.468306 0.184331 0.204326
0.695152 0.215290 0.243931
0.111647 0.267179 0.177171
0.191495 0.272163 0.190477
0.340713 0.290780 0.216140
0.530562 0.322642 0.251432
0.733570 0.367626 0.294003
0.168742 0.478014 0.242633
0.259956 0.492554 0.259360
0.406078 0.522124 0.290177
0.577552 0.554953 0.325048
0.775111 0.595494 0.366324
0.257592 0.782173 0.337821
0.344208 0.790868 0.355500
0.478003 0.809088 0.382420
0.638726 0.830978 0.413171
0.827282 0.857961 0.449120
0.060656 0.075631 0.185498
0.127157 0.084168 0.205362
0.253098 0.103848 0.236354
0.431581 0.132552 0.276460
0.653630 0.168080 0.322218
0.081319 0.144377 0.223804
0.156277 0.149569 0.241471
0.293514 0.165241 0.271481
0.481451 0.189064 0.309661
0.708435 0.220786 0.353330
0.117291 0.271259 0.277340
0.201352 0.278460 0.295470
0.353833 0.298309 0.326120
0.535797 0.332522 0.363118
0.737141 0.377707 0.404931
0.174668 0.484415 0.352223
0.267135 0.501344 0.371787
0.411671 0.531124 0.401727
0.583871 0.566749 0.437384
0.780069 0.607493 0.478042
0.265359 0.787569 0.449518
0.350096 0.796013 0.466013
0.482172 0.814190 0.491988
0.644586 0.838664 0.524202
0.831902 0.865979 0.560193
0.070676 0.085060 0.303651
0.139761 0.094054 0.331443
0.268699 0.113968 0.370399
0.449289 0.142912 0.418228
0.672916 0.178093 0.472367
0.091095 0.152549 0.356120
0.169397 0.158544 0.380969
0.309810 0.174999 0.419016
0.499892 0.199171 0.465088
0.722548 0.231449 0.513552
0.127389 0.280555 0.424772
0.215559 0.288952 0.450112
0.368393 0.312692 0.485357
0.545458 0.349277 0.520218
0.744352 0.391154 0.558435
0.186017 0.496593 0.513861
0.280870 0.516289 0.530474
0.423172 0.546186 0.556281
0.593443 0.581887 0.588170
0.786400 0.619185 0.624593
0.276456 0.796358 0.605152
0.359498 0.804564 0.617155
0.489527 0.822258 0.638769
0.650411 0.846489 0.667026
0.838993 0.876346 0.700988
