gsg/04_Specialty/GSG_LUT_Specialty_YourMajesty.cube
# GSG LUTs 1.0
# Copyright (c) 2016-2020 Greyscalegorilla
# See EULA for licensing and distribution information
# Converted by Briz LUT Converter
LUT_3D_SIZE 32
0.109158 0.096459 0.112088
0.121249 0.098216 0.113600
0.133113 0.099744 0.115113
0.145189 0.101509 0.116625
0.157068 0.103273 0.118138
0.169128 0.105038 0.119650
0.181071 0.106802 0.121163
0.193367 0.108567 0.122675
0.205530 0.110331 0.124188
0.217953 0.112096 0.125771
0.230557 0.113939 0.127457
0.243247 0.115956 0.129056
0.256103 0.117972 0.130820
0.269164 0.119989 0.132687
0.282524 0.122006 0.134594
0.296120 0.124140 0.136476
0.309985 0.126409 0.138619
0.323983 0.128812 0.140754
0.338241 0.131191 0.142912
0.353058 0.133759 0.145331
0.368026 0.136374 0.147694
0.383394 0.139060 0.150293
0.399023 0.142006 0.152893
0.415196 0.145031 0.155595
0.431770 0.148056 0.158557
0.448604 0.151278 0.161582
0.465903 0.154555 0.164812
0.483721 0.158045 0.168089
0.502060 0.161794 0.171586
0.520462 0.165576 0.175115
0.540045 0.169593 0.178881
0.559463 0.173626 0.182662
0.111670 0.108055 0.114349
0.123258 0.109567 0.115617
0.134845 0.111072 0.117106
0.146456 0.112606 0.118389
0.158296 0.114325 0.119863
0.170137 0.115836 0.121163
0.182030 0.117342 0.122674
0.194122 0.118908 0.124126
0.206215 0.120664 0.125456
0.218455 0.122423 0.127037
0.230977 0.124185 0.128717
0.243504 0.125944 0.130313
0.256355 0.127709 0.132073
0.269416 0.129576 0.133837
0.282776 0.131589 0.135602
0.296372 0.133719 0.137485
0.310237 0.135984 0.139501
0.324369 0.138249 0.141652
0.338737 0.140518 0.143916
0.353410 0.142936 0.146186
0.368448 0.145457 0.148616
0.384067 0.148138 0.151136
0.399950 0.150908 0.153830
0.416021 0.153862 0.156603
0.432723 0.156887 0.159565
0.449815 0.160102 0.162590
0.467368 0.163384 0.165820
0.485233 0.166869 0.169097
0.503800 0.170617 0.172602
0.522462 0.174391 0.176131
0.542305 0.178179 0.180133
0.561984 0.182205 0.183922
0.113923 0.119666 0.116365
0.125251 0.121139 0.117625
0.136579 0.122414 0.118870
0.147944 0.123888 0.120131
0.159524 0.125178 0.121391
0.171142 0.126638 0.122688
0.182977 0.127942 0.124140
0.194825 0.129442 0.125452
0.206735 0.130954 0.126953
0.218901 0.132533 0.128465
0.231316 0.134208 0.129978
0.243914 0.135801 0.131490
0.256623 0.137556 0.133091
0.269677 0.139416 0.134852
0.283028 0.141313 0.136626
0.296625 0.143306 0.138509
0.310489 0.145441 0.140517
0.324630 0.147591 0.142660
0.339014 0.149860 0.144796
0.353838 0.152279 0.147109
0.369120 0.154789 0.149624
0.384673 0.157315 0.152145
0.400654 0.160014 0.154839
0.416980 0.162957 0.157623
0.433759 0.165977 0.160577
0.451046 0.169002 0.163611
0.468657 0.172437 0.166844
0.486744 0.175753 0.170121
0.505558 0.179471 0.173839
0.524493 0.183024 0.177407
0.544582 0.187026 0.181394
0.564520 0.191059 0.185198
0.115964 0.131490 0.118406
0.127031 0.132505 0.119634
0.138112 0.133741 0.120657
0.149409 0.134980 0.121893
0.160731 0.136237 0.123132
0.172114 0.137477 0.124389
0.183752 0.138737 0.125629
0.195575 0.140047 0.126895
0.207468 0.141536 0.128231
0.219568 0.143030 0.129725
0.231746 0.144535 0.131230
0.244271 0.146040 0.132735
0.257118 0.147653 0.134263
0.270072 0.149403 0.135970
0.283304 0.151168 0.137863
0.296900 0.153039 0.139746
0.310765 0.155044 0.141648
0.325031 0.157194 0.143679
0.339651 0.159449 0.145937
0.354585 0.161857 0.148220
0.369877 0.164221 0.150641
0.385584 0.166820 0.153169
0.401655 0.169576 0.155871
0.418175 0.172360 0.158807
0.435196 0.175310 0.161655
0.452554 0.178348 0.164827
0.470381 0.181768 0.168104
0.488708 0.185080 0.171402
0.507593 0.188798 0.175102
0.526960 0.192373 0.178881
0.547102 0.196354 0.182685
0.567293 0.200386 0.186734
0.118201 0.143086 0.120643
0.129008 0.144093 0.121620
0.139816 0.145071 0.122628
0.150676 0.146100 0.123636
0.161771 0.147300 0.124672
0.173144 0.148343 0.125871
0.184686 0.149577 0.126947
0.196282 0.150830 0.128230
0.207995 0.152066 0.129655
0.220072 0.153388 0.130986
0.232250 0.154809 0.132430
0.244764 0.156253 0.133874
0.257517 0.157903 0.135523
0.270448 0.159505 0.137138
0.283808 0.161251 0.138903
0.297404 0.163031 0.140785
0.311285 0.164921 0.142802
0.325566 0.167039 0.144819
0.340187 0.169170 0.146977
0.355256 0.171480 0.149395
0.370653 0.173852 0.151779
0.386393 0.176441 0.154368
0.402631 0.179030 0.157131
0.419378 0.181913 0.159927
0.436481 0.184749 0.162897
0.454049 0.187916 0.166119
0.472136 0.191193 0.169396
0.490531 0.194470 0.172886
0.509848 0.198188 0.176443
0.529290 0.201969 0.180204
0.549678 0.205781 0.184222
0.570129 0.209807 0.188499
0.120257 0.154721 0.122659
0.130764 0.155682 0.123422
0.141329 0.156451 0.124392
0.152164 0.157419 0.125397
0.163026 0.158391 0.126370
0.174296 0.159400 0.127417
0.185474 0.160448 0.128631
0.197038 0.161621 0.129694
0.208697 0.162682 0.130954
0.220615 0.163914 0.132274
0.232781 0.165240 0.133759
0.245207 0.166726 0.135271
0.257915 0.168238 0.136784
0.270952 0.169751 0.138399
0.284312 0.171373 0.140163
0.297928 0.173237 0.142046
0.311918 0.175107 0.144062
0.326305 0.177027 0.146101
0.340966 0.179181 0.148254
0.356052 0.181433 0.150656
0.371586 0.183834 0.153177
0.387572 0.186367 0.155724
0.403891 0.188901 0.158431
0.420668 0.191755 0.161356
0.437976 0.194611 0.164401
0.455772 0.197755 0.167632
0.474112 0.201024 0.170909
0.492767 0.204335 0.174398
0.512344 0.208023 0.178184
0.532047 0.211800 0.181969
0.552695 0.215818 0.186024
0.573406 0.219851 0.190263
0.122478 0.166568 0.124676
0.132568 0.167277 0.125431
0.142883 0.168030 0.126157
0.153610 0.168742 0.127142
0.164254 0.169524 0.127929
0.175304 0.170491 0.128969
0.186443 0.171490 0.130143
0.197831 0.172461 0.131206
0.209453 0.173481 0.132467
0.221371 0.174582 0.133727
0.233471 0.175808 0.135066
0.245814 0.177139 0.136579
0.258563 0.178621 0.138091
0.271503 0.180133 0.139706
0.284864 0.181735 0.141471
0.298578 0.183496 0.143353
0.312593 0.185285 0.145346
0.327016 0.187291 0.147473
0.341888 0.189397 0.149628
0.357089 0.191563 0.151963
0.372642 0.193832 0.154484
0.388767 0.196432 0.157170
0.405219 0.199031 0.159943
0.422175 0.201733 0.162751
0.439731 0.204695 0.165914
0.457622 0.207720 0.169191
0.476183 0.210989 0.172508
0.495098 0.214445 0.176005
0.514892 0.218011 0.179933
0.534851 0.221773 0.183777
0.555759 0.225791 0.188034
0.576777 0.229824 0.192123
0.124495 0.178416 0.126693
0.134521 0.178926 0.127388
0.144567 0.179613 0.127973
0.154920 0.180136 0.128906
0.165489 0.180842 0.129694
0.176359 0.181629 0.130702
0.187441 0.182554 0.131711
0.198752 0.183398 0.132762
0.210250 0.184412 0.133979
0.222128 0.185577 0.135240
0.234227 0.186685 0.136579
0.246500 0.187908 0.138091
0.259199 0.189263 0.139604
0.272260 0.190776 0.141219
0.285620 0.192288 0.142983
0.299334 0.194010 0.144866
0.313451 0.195872 0.146756
0.327999 0.197771 0.148789
0.342897 0.199787 0.151058
0.358252 0.201954 0.153476
0.373938 0.204222 0.155997
0.390120 0.206784 0.158683
0.406869 0.209405 0.161495
0.423980 0.212123 0.164465
0.441703 0.215085 0.167679
0.459842 0.218110 0.170956
0.478663 0.221545 0.174438
0.497838 0.224861 0.178015
0.517715 0.228579 0.181821
0.537914 0.232360 0.185785
0.559083 0.236378 0.190104
0.580559 0.240466 0.194391
0.126575 0.190327 0.128709
0.136340 0.190768 0.129282
0.146138 0.191268 0.129978
0.156414 0.191713 0.130734
0.166804 0.192249 0.131513
0.177579 0.193005 0.132467
0.188412 0.193796 0.133475
0.199600 0.194698 0.134483
0.211163 0.195518 0.135555
0.222929 0.196579 0.136815
0.234984 0.197716 0.138134
0.247279 0.198811 0.139604
0.259994 0.200141 0.141116
0.273042 0.201615 0.142731
0.286439 0.203127 0.144496
0.300154 0.204758 0.146378
0.314302 0.206523 0.148301
0.328985 0.208421 0.150364
0.343968 0.210438 0.152633
0.359439 0.212604 0.155051
0.375361 0.214873 0.157613
0.391760 0.217349 0.160321
0.408615 0.220019 0.163223
0.425932 0.222774 0.166276
0.443769 0.225736 0.169506
0.462125 0.228811 0.172783
0.481206 0.232205 0.176318
0.500587 0.235566 0.180070
0.520772 0.239293 0.184072
0.541238 0.243074 0.187936
0.562667 0.247091 0.192369
0.584403 0.251369 0.196723
0.128772 0.202426 0.130797
0.138349 0.202684 0.131474
0.147886 0.203108 0.131990
0.157920 0.203443 0.132680
0.168222 0.203906 0.133436
0.178810 0.204600 0.134231
0.189492 0.205343 0.135240
0.200638 0.206058 0.136248
0.212089 0.206914 0.137319
0.223884 0.207870 0.138580
0.235811 0.208878 0.139840
0.248170 0.209973 0.141187
0.260959 0.211233 0.142700
0.273987 0.212596 0.144314
0.287479 0.214108 0.146079
0.301233 0.215739 0.147962
0.315475 0.217504 0.149978
0.330245 0.219402 0.152168
0.345311 0.221419 0.154468
0.360841 0.223585 0.156887
0.376880 0.225854 0.159519
0.393392 0.228405 0.162315
0.410449 0.231032 0.165161
0.427973 0.233755 0.168264
0.446051 0.236717 0.171523
0.464668 0.239939 0.174857
0.483950 0.243216 0.178558
0.503483 0.246705 0.182339
0.524078 0.250455 0.186341
0.544822 0.254236 0.190440
0.566511 0.258322 0.194783
0.588507 0.262602 0.199315
0.130868 0.214605 0.133066
0.140357 0.214854 0.133567
0.149640 0.215041 0.134000
0.159487 0.215455 0.134594
0.169562 0.215800 0.135279
0.180149 0.216262 0.136075
0.190815 0.216920 0.137068
0.201881 0.217580 0.138030
0.213226 0.218465 0.139142
0.224916 0.219292 0.140344
0.236898 0.220300 0.141605
0.249230 0.221395 0.142952
0.262035 0.222655 0.144495
0.275129 0.223985 0.146158
0.288645 0.225452 0.147922
0.302531 0.227083 0.149805
0.316814 0.228847 0.151822
0.331585 0.230746 0.154063
0.346851 0.232762 0.156452
0.362575 0.234929 0.158903
0.378695 0.237197 0.161475
0.395406 0.239685 0.164301
0.412667 0.242348 0.167301
0.430300 0.245157 0.170384
0.448594 0.248139 0.173679
0.467471 0.251361 0.177171
0.486867 0.254638 0.180905
0.506784 0.258196 0.184686
0.527662 0.261956 0.188759
0.548813 0.265811 0.193028
0.570925 0.270146 0.197550
0.593265 0.274434 0.202088
0.133223 0.227043 0.135334
0.142369 0.227201 0.135830
0.151485 0.227217 0.136108
0.161235 0.227484 0.136768
0.171150 0.227889 0.137382
0.181647 0.228256 0.138164
0.192226 0.228791 0.139069
0.203190 0.229477 0.139986
0.214408 0.230234 0.141116
0.226120 0.231036 0.142195
0.238158 0.231982 0.143484
0.250462 0.233077 0.144890
0.263216 0.234338 0.146463
0.276380 0.235634 0.148174
0.289992 0.237016 0.149939
0.303958 0.238599 0.151864
0.318372 0.240364 0.153925
0.333231 0.242262 0.156075
0.348537 0.244279 0.158486
0.364416 0.246498 0.161060
0.380740 0.248801 0.163716
0.397621 0.251342 0.166517
0.414997 0.253975 0.169552
0.432907 0.256883 0.172783
0.451416 0.259908 0.176182
0.470533 0.263130 0.179762
0.490190 0.266479 0.183513
0.510443 0.270196 0.187369
0.531827 0.274133 0.191603
0.553816 0.278322 0.195888
0.576798 0.282923 0.200326
0.599929 0.287479 0.204860
0.135649 0.239647 0.137697
0.144477 0.239647 0.138102
0.153492 0.239663 0.138462
0.163085 0.239906 0.138980
0.172882 0.240104 0.139651
0.183150 0.240593 0.140407
0.193688 0.241018 0.141192
0.204703 0.241577 0.142125
0.215896 0.242333 0.143157
0.227520 0.243117 0.144307
0.239513 0.243989 0.145615
0.251839 0.245019 0.147064
0.264671 0.246280 0.148613
0.277892 0.247643 0.150286
0.291504 0.249045 0.152050
0.305517 0.250542 0.154051
0.320060 0.252306 0.156194
0.335082 0.254205 0.158396
0.350514 0.256221 0.160794
0.366529 0.258537 0.163425
0.383036 0.260900 0.166101
0.400048 0.263399 0.168987
0.417567 0.266123 0.172185
0.435826 0.269077 0.175462
0.454587 0.272175 0.178812
0.473951 0.275418 0.182504
0.493947 0.278980 0.186365
0.514777 0.282819 0.190374
0.537149 0.287224 0.194628
0.560090 0.291845 0.198913
0.584107 0.296807 0.203107
0.608437 0.301942 0.207539
0.138020 0.252558 0.140321
0.146840 0.252452 0.140577
0.155604 0.252369 0.140982
0.165087 0.252598 0.141486
0.174729 0.252661 0.142009
0.184875 0.253125 0.142692
0.195423 0.253425 0.143535
0.206318 0.253961 0.144346
0.217472 0.254638 0.145417
0.228999 0.255465 0.146678
0.241059 0.256428 0.147938
0.253437 0.257390 0.149285
0.266257 0.258584 0.150892
0.279507 0.259947 0.152657
0.293165 0.261396 0.154467
0.307306 0.262949 0.156475
0.321980 0.264713 0.158618
0.337108 0.266612 0.160952
0.352672 0.268628 0.163390
0.368813 0.270944 0.166001
0.385553 0.273373 0.168774
0.402842 0.275940 0.171712
0.420515 0.278680 0.174910
0.439066 0.281786 0.178263
0.458548 0.285211 0.181835
0.478545 0.288782 0.185584
0.499416 0.292786 0.189570
0.521141 0.297008 0.193604
0.544350 0.301822 0.197765
0.567981 0.306717 0.201944
0.592718 0.311986 0.206086
0.617669 0.317279 0.210264
0.140651 0.265808 0.142983
0.149246 0.265556 0.143235
0.157864 0.265328 0.143503
0.167203 0.265464 0.144007
0.176746 0.265613 0.144511
0.186851 0.265981 0.145077
0.197188 0.266281 0.145966
0.208082 0.266785 0.146867
0.219237 0.267352 0.147938
0.230754 0.268179 0.149198
0.242802 0.269152 0.150459
0.255252 0.270125 0.151806
0.268151 0.271299 0.153413
0.281382 0.272661 0.155177
0.295104 0.274174 0.157052
0.309376 0.275804 0.159122
0.324180 0.277569 0.161322
0.339454 0.279467 0.163724
0.355147 0.281548 0.166245
0.371488 0.283843 0.168916
0.388397 0.286321 0.171760
0.405896 0.288916 0.174737
0.423829 0.291724 0.178014
0.442910 0.295154 0.181504
0.463354 0.299072 0.185222
0.484578 0.303367 0.189092
0.506863 0.308151 0.193007
0.529692 0.312934 0.197022
0.553486 0.318040 0.201056
0.577534 0.323196 0.205089
0.602434 0.328374 0.209252
0.627390 0.333664 0.213179
0.143424 0.279271 0.145740
0.151747 0.279018 0.145992
0.160251 0.278782 0.146253
0.169577 0.278794 0.146646
0.178984 0.278940 0.147166
0.188964 0.279192 0.147812
0.199189 0.279491 0.148616
0.210083 0.279995 0.149624
0.221238 0.280562 0.150665
0.232759 0.281355 0.151837
0.244813 0.282239 0.153136
0.257253 0.283249 0.154563
0.270204 0.284509 0.156170
0.283566 0.285872 0.157984
0.297357 0.287384 0.159874
0.311751 0.289015 0.161944
0.326685 0.290779 0.164213
0.342024 0.292743 0.166680
0.357916 0.294955 0.169254
0.374663 0.297368 0.171997
0.392076 0.300114 0.175050
0.410319 0.303247 0.178197
0.429206 0.306681 0.181606
0.449127 0.310562 0.185135
0.470352 0.314965 0.188853
0.492490 0.319793 0.192736
0.515614 0.324916 0.196641
0.539037 0.330080 0.200551
0.563142 0.335358 0.204462
0.587452 0.340541 0.208373
0.612368 0.345705 0.212285
0.637323 0.350995 0.216070
0.146323 0.293009 0.148765
0.154516 0.292757 0.149013
0.162889 0.292520 0.149151
0.172086 0.292520 0.149545
0.181362 0.292552 0.150064
0.191232 0.292804 0.150711
0.201457 0.293103 0.151514
0.212323 0.293607 0.152523
0.223413 0.294175 0.153564
0.234992 0.294931 0.154736
0.246997 0.295766 0.156075
0.259522 0.296861 0.157588
0.272472 0.298121 0.159195
0.285940 0.299484 0.161062
0.299878 0.300996 0.163025
0.314333 0.302627 0.165095
0.329397 0.304457 0.167364
0.344935 0.306550 0.169900
0.361015 0.308746 0.172531
0.378277 0.311570 0.175429
0.396633 0.315016 0.178660
0.416174 0.318969 0.182022
0.436670 0.323403 0.185603
0.457815 0.328045 0.189262
0.479789 0.333001 0.192915
0.502272 0.338044 0.196668
0.525550 0.343191 0.200548
0.549103 0.348466 0.204348
0.573225 0.353646 0.208016
0.597653 0.358817 0.211785
0.622577 0.364103 0.215444
0.647658 0.369396 0.219095
0.149482 0.307157 0.152058
0.157552 0.306905 0.152302
0.165780 0.306660 0.152334
0.174729 0.306534 0.152825
0.183899 0.306566 0.153225
0.193769 0.306818 0.153886
0.203968 0.307117 0.154663
0.214730 0.307621 0.155594
0.225862 0.308189 0.156734
0.237528 0.308984 0.157934
0.249533 0.309914 0.159325
0.262106 0.311009 0.160794
0.275143 0.312269 0.162488
0.288660 0.313632 0.164355
0.302727 0.315205 0.166371
0.317450 0.317103 0.168571
0.333058 0.319339 0.170978
0.349345 0.321913 0.173653
0.366247 0.324749 0.176500
0.384392 0.328232 0.179582
0.403733 0.332324 0.182859
0.424117 0.336835 0.186301
0.445350 0.341762 0.189909
0.467239 0.346903 0.193551
0.489582 0.352065 0.197109
0.512322 0.357239 0.200727
0.535649 0.362511 0.204370
0.559305 0.367805 0.208130
0.583563 0.372999 0.211569
0.608003 0.378282 0.215188
0.633057 0.383705 0.218725
0.658128 0.389003 0.222254
0.152759 0.321919 0.155587
0.160684 0.321520 0.155694
0.168798 0.321140 0.155854
0.177644 0.321045 0.156215
0.186795 0.321076 0.156640
0.196542 0.321328 0.157273
0.206719 0.321627 0.158057
0.217417 0.322132 0.159005
0.228634 0.322699 0.160130
0.240301 0.323526 0.161385
0.252306 0.324534 0.162819
0.264918 0.325629 0.164252
0.278081 0.326890 0.166017
0.291685 0.328252 0.167943
0.305866 0.329875 0.170042
0.321161 0.332269 0.172364
0.337681 0.335302 0.175031
0.355156 0.338819 0.177966
0.373651 0.342887 0.181055
0.393021 0.347214 0.184316
0.413094 0.351910 0.187648
0.433963 0.356810 0.190995
0.455323 0.361818 0.194478
0.477293 0.367041 0.197902
0.499775 0.372255 0.201394
0.522636 0.377526 0.204923
0.546103 0.382819 0.208334
0.569782 0.388113 0.211929
0.594139 0.393535 0.215251
0.618591 0.398842 0.218624
0.643751 0.404235 0.222006
0.668857 0.409673 0.225389
0.156335 0.337091 0.159266
0.164153 0.336592 0.159419
0.172112 0.336254 0.159526
0.180818 0.336114 0.159801
0.189956 0.336146 0.160325
0.199614 0.336398 0.160999
0.209792 0.336697 0.161802
0.220489 0.337235 0.162811
0.231707 0.337918 0.163882
0.243373 0.338702 0.165170
0.255427 0.339652 0.166594
0.268299 0.341008 0.168230
0.281907 0.342732 0.170053
0.296072 0.344683 0.172114
0.311071 0.347011 0.174408
0.327249 0.350076 0.176943
0.344601 0.353865 0.179716
0.362943 0.358111 0.182756
0.382355 0.362890 0.185892
0.402368 0.367794 0.189124
0.422943 0.372799 0.192438
0.444028 0.377942 0.195715
0.465619 0.383032 0.199059
0.487676 0.388255 0.202363
0.510237 0.393548 0.205713
0.533241 0.398963 0.209088
0.556698 0.404285 0.212383
0.580500 0.409709 0.215743
0.604876 0.415108 0.218897
0.629468 0.420550 0.222159
0.654638 0.425999 0.225291
0.679846 0.431392 0.228564
0.160117 0.352625 0.163205
0.167773 0.352129 0.163296
0.175635 0.351877 0.163464
0.184253 0.351648 0.163740
0.193391 0.351680 0.164276
0.203023 0.351932 0.165032
0.213099 0.352231 0.165805
0.223888 0.352791 0.166722
0.234984 0.353547 0.167915
0.246696 0.354349 0.169221
0.258942 0.355425 0.170700
0.272254 0.357220 0.172470
0.286667 0.359724 0.174593
0.301929 0.362734 0.176875
0.318320 0.366412 0.179417
0.335555 0.370436 0.182142
0.353688 0.374876 0.184996
0.372586 0.379550 0.188027
0.392209 0.384552 0.191091
0.412417 0.389594 0.194169
0.433110 0.394737 0.197283
0.454355 0.400000 0.200504
0.476039 0.405232 0.203669
0.498222 0.410501 0.206901
0.520824 0.415916 0.210056
0.543905 0.421315 0.213170
0.567433 0.426758 0.216417
0.591327 0.432290 0.219556
0.615858 0.437757 0.222592
0.640406 0.443294 0.225698
0.665724 0.448840 0.228729
0.690937 0.454299 0.231683
0.164063 0.368750 0.167569
0.171793 0.368254 0.167571
0.179495 0.368002 0.167674
0.188097 0.367773 0.168088
0.197085 0.367805 0.168475
0.206730 0.368084 0.169231
0.216889 0.368554 0.170019
0.227803 0.369321 0.171019
0.239173 0.370462 0.172322
0.251348 0.371849 0.173824
0.264314 0.373698 0.175507
0.278289 0.376209 0.177392
0.293516 0.379452 0.179660
0.309651 0.383383 0.182101
0.326956 0.387900 0.184828
0.344907 0.392549 0.187601
0.363479 0.397383 0.190414
0.382630 0.402359 0.193359
0.402388 0.407476 0.196288
0.422719 0.412619 0.199244
0.443496 0.417882 0.202269
0.464886 0.423175 0.205347
0.486682 0.428469 0.208280
0.508953 0.433885 0.211315
0.531705 0.439411 0.214361
0.554823 0.444893 0.217385
0.578424 0.450423 0.220338
0.602332 0.455969 0.223349
0.626941 0.461664 0.226224
0.651571 0.467226 0.229233
0.676818 0.472772 0.232098
0.702194 0.478483 0.234873
0.168443 0.385482 0.172106
0.176071 0.384980 0.172106
0.183528 0.384571 0.172138
0.192123 0.384505 0.172635
0.201040 0.384537 0.173106
0.210698 0.384828 0.173863
0.220956 0.385447 0.174666
0.232124 0.386671 0.175769
0.244103 0.388486 0.177271
0.257253 0.391085 0.179033
0.271413 0.394277 0.180977
0.286341 0.397891 0.183032
0.302238 0.401938 0.185368
0.318975 0.406341 0.187875
0.336579 0.411099 0.190469
0.354781 0.415968 0.193147
0.373524 0.420973 0.195919
0.392808 0.426114 0.198731
0.412691 0.431366 0.201536
0.433160 0.436630 0.204352
0.454055 0.442035 0.207198
0.475474 0.447391 0.210044
0.497449 0.452807 0.212963
0.519792 0.458332 0.215839
0.542605 0.464012 0.218685
0.565881 0.469597 0.221531
0.589515 0.475288 0.224318
0.613574 0.480862 0.227152
0.638206 0.486628 0.229934
0.662909 0.492360 0.232773
0.688253 0.498084 0.235383
0.713711 0.503706 0.238150
0.173162 0.402733 0.177006
0.180535 0.402235 0.177006
0.187936 0.401950 0.177037
0.196699 0.402154 0.177541
0.205663 0.402583 0.178077
0.215695 0.403406 0.178863
0.226341 0.404496 0.179853
0.238013 0.406615 0.181159
0.250737 0.409333 0.182874
0.264708 0.412880 0.184710
0.279666 0.417049 0.186785
0.295382 0.421436 0.189011
0.311756 0.425978 0.191304
0.328764 0.430766 0.193714
0.346492 0.435661 0.196235
0.364827 0.440656 0.198786
0.383701 0.445791 0.201372
0.403211 0.451066 0.203958
0.423207 0.456442 0.206649
0.443720 0.461846 0.209421
0.464759 0.467368 0.212077
0.486365 0.472871 0.214786
0.508320 0.478396 0.217604
0.530766 0.484076 0.220260
0.553766 0.489858 0.222986
0.576994 0.495605 0.225759
0.600759 0.501390 0.228380
0.624908 0.507133 0.230966
0.649549 0.512923 0.233552
0.674253 0.518721 0.236307
0.699665 0.524694 0.238668
0.725306 0.530434 0.241246
0.178140 0.420694 0.182236
0.185450 0.420198 0.182236
0.192867 0.420014 0.182268
0.201885 0.420857 0.182790
0.211109 0.421887 0.183521
0.221887 0.423963 0.184512
0.233444 0.426622 0.185763
0.245998 0.429739 0.187243
0.259405 0.433287 0.188910
0.273748 0.437449 0.190886
0.288991 0.441874 0.192920
0.304947 0.446607 0.194994
0.321549 0.451361 0.197140
0.338675 0.456253 0.199512
0.356540 0.461355 0.201947
0.375002 0.466588 0.204364
0.394103 0.471853 0.206787
0.413770 0.477254 0.209217
0.433904 0.482658 0.211769
0.454496 0.488217 0.214347
0.475576 0.493836 0.217011
0.497247 0.499510 0.219636
0.519312 0.505251 0.222214
0.541841 0.511032 0.224751
0.564906 0.516830 0.227314
0.588250 0.522780 0.229892
0.612092 0.528615 0.232423
0.636252 0.534577 0.234780
0.661063 0.540570 0.237276
0.685785 0.546563 0.239671
0.711381 0.552426 0.241947
0.736902 0.558415 0.244271
0.183576 0.439631 0.187727
0.190892 0.439739 0.187924
0.198516 0.439985 0.187968
0.207832 0.441622 0.188680
0.217712 0.443601 0.189468
0.229076 0.446801 0.190547
0.241305 0.450648 0.192020
0.254596 0.454590 0.193533
0.268399 0.458816 0.195120
0.283148 0.463305 0.196991
0.298570 0.467888 0.199007
0.314616 0.472747 0.201024
0.331456 0.477740 0.203059
0.348808 0.482835 0.205227
0.366820 0.488101 0.207523
0.385309 0.493395 0.209815
0.404568 0.498790 0.212108
0.424357 0.504313 0.214510
0.444523 0.509946 0.216917
0.465259 0.515704 0.219355
0.486542 0.521471 0.221906
0.508283 0.527252 0.224310
0.530527 0.533190 0.226767
0.553129 0.539191 0.229142
0.576194 0.545192 0.231612
0.599741 0.551231 0.233974
0.623632 0.557241 0.236292
0.647792 0.563283 0.238568
0.672654 0.569333 0.240879
0.697565 0.575567 0.243153
0.723036 0.581584 0.245231
0.748694 0.587632 0.247493
0.189531 0.460223 0.193887
0.197477 0.461948 0.194138
0.205585 0.463537 0.194383
0.215554 0.466171 0.195140
0.225812 0.469138 0.195927
0.237664 0.472890 0.196981
0.250171 0.476963 0.198322
0.263633 0.481263 0.199835
0.277709 0.485822 0.201410
0.292694 0.490571 0.203186
0.308215 0.495399 0.204991
0.324416 0.500414 0.206869
0.341385 0.505534 0.208886
0.358911 0.510804 0.211005
0.377136 0.516190 0.213181
0.395849 0.521695 0.215337
0.415133 0.527220 0.217500
0.435057 0.532991 0.219692
0.455434 0.538863 0.221978
0.476285 0.544661 0.224271
0.497617 0.550591 0.226580
0.519513 0.556600 0.228863
0.541857 0.562637 0.231160
0.564473 0.568839 0.233440
0.587696 0.574942 0.235739
0.611328 0.581157 0.238016
0.635228 0.587418 0.240113
0.659566 0.593501 0.242349
0.684454 0.599921 0.244433
0.709410 0.606239 0.246490
0.734838 0.612503 0.248509
0.760542 0.618764 0.250360
0.196006 0.482634 0.200189
0.204512 0.485741 0.200441
0.213143 0.488652 0.200725
0.223666 0.492306 0.201502
0.234381 0.496030 0.202481
0.246527 0.500070 0.203529
0.259246 0.504370 0.204796
0.272813 0.508930 0.206137
0.287258 0.513695 0.207657
0.302334 0.518546 0.209264
0.318088 0.523565 0.211028
0.334460 0.528758 0.212804
0.351526 0.534168 0.214684
0.369207 0.539551 0.216713
0.387467 0.545079 0.218748
0.406326 0.550830 0.220780
0.425720 0.556705 0.222813
0.445782 0.562622 0.224964
