gsg/04_Specialty/GSG_LUT_Specialty_InstantPhoto.cube
# GSG LUTs 1.0
# Copyright (c) 2016-2020 Greyscalegorilla
# See EULA for licensing and distribution information
# Converted by Briz LUT Converter
LUT_3D_SIZE 8
DOMAIN_MIN 0.000000 0.000000 0.000000
DOMAIN_MAX 0.903226 0.903226 0.903226
0.000000 0.033211 0.048352
0.019646 0.038891 0.052535
0.068794 0.039931 0.052566
0.138848 0.043696 0.054984
0.223900 0.049596 0.059112
0.305991 0.056938 0.064280
0.385033 0.065871 0.070487
0.468077 0.076175 0.077711
0.000000 0.102572 0.060696
0.044397 0.104856 0.063047
0.091133 0.102493 0.061515
0.154326 0.102013 0.061711
0.232076 0.103516 0.063657
0.308365 0.106341 0.066914
0.384204 0.110268 0.071149
0.465375 0.115596 0.076781
0.010981 0.173831 0.072795
0.071897 0.173335 0.073583
0.114939 0.168364 0.070708
0.170687 0.164630 0.068991
0.240527 0.162819 0.069243
0.311164 0.162471 0.070897
0.383899 0.163000 0.073731
0.463382 0.164999 0.077914
0.039710 0.252479 0.084407
0.101008 0.249809 0.083879
0.139822 0.242199 0.079964
0.187142 0.235341 0.076758
0.249113 0.230524 0.075582
0.313794 0.227146 0.075877
0.383310 0.224969 0.077813
0.460265 0.225796 0.083190
0.071188 0.346552 0.096262
0.131773 0.341526 0.094789
0.165912 0.331276 0.089928
0.204218 0.320956 0.085588
0.257761 0.312781 0.083239
0.317765 0.307611 0.084598
0.386839 0.309211 0.094567
0.458755 0.315353 0.108319
0.104990 0.456300 0.109008
0.163578 0.449627 0.106684
0.193303 0.437298 0.101390
0.225377 0.425151 0.098397
0.280245 0.418774 0.104728
0.340054 0.416740 0.115799
0.402868 0.417413 0.128434
0.466807 0.420962 0.142637
0.140628 0.579133 0.123471
0.199020 0.571460 0.122979
0.238335 0.559518 0.127572
0.277426 0.548789 0.136193
0.323480 0.540522 0.146563
0.374556 0.534810 0.158395
0.429232 0.531986 0.172252
0.485121 0.532068 0.189014
0.192146 0.705589 0.153374
0.262009 0.696015 0.167605
0.303761 0.684263 0.179757
0.336172 0.671765 0.191099
0.375278 0.660574 0.203616
0.418645 0.651352 0.217464
0.465317 0.645051 0.233156
0.513367 0.641939 0.250342
0.000000 0.037764 0.103565
0.025944 0.043141 0.106495
0.075214 0.043901 0.105676
0.144201 0.047146 0.106640
0.227823 0.052621 0.109252
0.308370 0.059719 0.112679
0.386696 0.068219 0.117169
0.469384 0.078215 0.122620
0.000000 0.105778 0.113128
0.050171 0.107357 0.114191
0.096269 0.104646 0.111391
0.157994 0.103625 0.110093
0.234081 0.104623 0.110447
0.309184 0.106921 0.111760
0.384417 0.110484 0.113943
0.465127 0.115292 0.117283
0.015960 0.175627 0.122415
0.076642 0.174624 0.121674
0.118789 0.169252 0.117200
0.172685 0.164950 0.113716
0.241051 0.162566 0.111930
0.310519 0.161426 0.111374
0.382558 0.161572 0.111885
0.461515 0.162898 0.113261
0.043925 0.253413 0.131246
0.104690 0.249989 0.128883
0.142312 0.241971 0.122860
0.187642 0.234313 0.117466
0.247988 0.228760 0.113788
0.311706 0.224555 0.111225
0.380492 0.221765 0.110216
0.456956 0.224507 0.115804
0.074363 0.346441 0.140045
0.134040 0.340636 0.136118
0.166874 0.329606 0.128512
0.203222 0.318414 0.121260
0.255210 0.309345 0.115743
0.316734 0.305634 0.117574
0.385674 0.308803 0.128449
0.456583 0.315658 0.143033
0.106881 0.455059 0.149088
0.164426 0.447546 0.143707
0.192821 0.434342 0.134875
0.227579 0.422804 0.132283
0.283191 0.417664 0.139871
0.342016 0.416409 0.151969
0.403758 0.417654 0.166287
0.466689 0.421854 0.183551
0.140801 0.576879 0.159186
0.202543 0.568738 0.159377
0.244882 0.557816 0.165969
0.283332 0.547677 0.176021
0.328317 0.540136 0.188398
0.378577 0.535000 0.203066
0.432042 0.532769 0.220404
0.487003 0.533768 0.239702
0.198976 0.702107 0.196682
0.268852 0.693524 0.213547
0.310867 0.682862 0.227890
0.343471 0.671231 0.240493
0.382058 0.660853 0.253567
0.424535 0.652269 0.267469
0.470156 0.646745 0.283001
0.517358 0.644229 0.300291
0.000000 0.042806 0.163504
0.032849 0.047667 0.166560
0.082098 0.048178 0.165348
0.150200 0.051069 0.165929
0.232352 0.056198 0.168341
0.311417 0.063115 0.171830
0.389239 0.071488 0.176360
0.471464 0.081027 0.182167
0.000206 0.109071 0.174083
0.056528 0.110351 0.174816
0.102223 0.107408 0.170861
0.162563 0.105886 0.168414
0.237149 0.106455 0.167883
0.310796 0.108354 0.168388
0.385321 0.111446 0.169984
0.465832 0.115825 0.172634
0.021553 0.178046 0.184246
0.082404 0.176605 0.182432
0.123583 0.170731 0.176052
0.175867 0.165913 0.170816
0.242734 0.163022 0.167511
0.310997 0.161432 0.165439
0.382299 0.161063 0.164545
0.460774 0.161901 0.164920
0.049140 0.255008 0.193674
0.109557 0.251117 0.189464
0.146156 0.242422 0.180791
0.189618 0.234211 0.172727
0.248306 0.227998 0.166856
0.311017 0.223256 0.162417
0.379256 0.220636 0.160437
0.455277 0.225835 0.169212
0.078822 0.347213 0.202412
0.137734 0.340890 0.195993
0.169582 0.329189 0.185030
0.203961 0.317212 0.174428
0.254809 0.307715 0.166696
0.318359 0.306473 0.171821
0.386703 0.310876 0.184574
0.456378 0.318126 0.201087
0.110142 0.454984 0.210988
0.166894 0.446681 0.202440
0.194982 0.433094 0.190171
0.233260 0.423173 0.190223
0.288661 0.419209 0.200008
0.345885 0.418262 0.213065
0.406326 0.419902 0.228453
0.467946 0.424607 0.245732
0.143048 0.576013 0.219963
0.208891 0.567994 0.223582
0.254046 0.558291 0.232631
0.291244 0.548900 0.242058
0.335012 0.541736 0.253071
0.383968 0.537079 0.265561
0.436235 0.535282 0.279893
0.489900 0.536808 0.296210
0.208579 0.700869 0.264337
0.277662 0.693153 0.278421
0.319552 0.683452 0.289952
0.352311 0.672450 0.300135
0.390061 0.662526 0.310693
0.431514 0.654483 0.322179
0.475999 0.649313 0.335533
0.521944 0.647532 0.350873
0.000000 0.047847 0.241073
0.040490 0.052519 0.244830
0.089629 0.052795 0.243546
0.156771 0.055457 0.244287
0.237418 0.060349 0.246918
0.314845 0.066927 0.250589
0.392075 0.075096 0.255226
0.474001 0.084161 0.260861
0.002769 0.112824 0.252885
0.063593 0.113801 0.253685
0.108760 0.110402 0.249496
0.167764 0.108534 0.246658
0.240727 0.108684 0.245759
0.313058 0.110221 0.245925
0.387072 0.113032 0.247193
0.467062 0.117118 0.249692
0.027697 0.180802 0.263185
0.088786 0.178950 0.261286
0.129257 0.172696 0.254588
0.179864 0.167356 0.248596
0.245084 0.164032 0.244456
0.312064 0.161989 0.241561
0.382809 0.161169 0.239880
0.460884 0.161819 0.239650
0.054984 0.257025 0.271921
0.115148 0.252664 0.267604
0.150811 0.243523 0.258568
0.192471 0.234774 0.249668
0.249611 0.228006 0.242538
0.311145 0.222797 0.236851
0.379492 0.221624 0.236205
0.454915 0.228748 0.246454
0.084030 0.348679 0.279428
0.142533 0.341777 0.272882
0.173286 0.329421 0.261797
0.205826 0.316754 0.250065
0.258219 0.308843 0.244117
0.321834 0.309256 0.250001
0.389037 0.314220 0.261169
0.457357 0.321927 0.274388
0.114514 0.455782 0.285990
0.170557 0.446798 0.277608
0.201924 0.434111 0.268817
0.241913 0.425625 0.269634
0.295347 0.422245 0.276810
0.351089 0.421458 0.286039
0.410067 0.423455 0.297221
0.470306 0.428634 0.310398
0.150253 0.576352 0.295786
0.218803 0.569191 0.299977
0.264522 0.560400 0.306279
0.300320 0.551575 0.312430
0.342842 0.544739 0.319873
0.390451 0.540374 0.328935
0.441371 0.538933 0.339867
0.493628 0.540879 0.352845
0.219718 0.701044 0.334297
0.287348 0.694049 0.344770
0.329444 0.685123 0.353436
0.362095 0.674848 0.360928
0.399143 0.665372 0.368751
0.439269 0.657607 0.377661
0.482558 0.652865 0.388406
0.527211 0.651327 0.401238
0.000000 0.053133 0.316641
0.048573 0.057560 0.320706
0.097696 0.057773 0.320400
0.163677 0.060105 0.321478
0.242883 0.064813 0.324235
0.318721 0.071330 0.327906
0.395344 0.079157 0.332275
0.477025 0.087959 0.337402
0.009556 0.116594 0.328206
0.071226 0.117395 0.329410
0.115887 0.113733 0.326322
0.173575 0.111587 0.324152
0.244898 0.111394 0.323605
0.315715 0.112616 0.324082
0.389098 0.115136 0.325385
0.468873 0.119070 0.327559
0.034511 0.183788 0.338091
0.095918 0.181647 0.336858
0.135602 0.175075 0.331389
0.184598 0.169325 0.326279
0.248122 0.165552 0.322809
0.313776 0.163146 0.320378
0.383820 0.161888 0.318878
0.461478 0.162503 0.318749
0.061477 0.259484 0.346411
0.121560 0.254728 0.342978
0.156306 0.245121 0.335237
0.196261 0.235859 0.327453
0.251627 0.228554 0.321210
0.312121 0.223039 0.316284
0.381324 0.224637 0.317646
0.455565 0.233219 0.325062
0.089942 0.350638 0.353482
0.147983 0.343080 0.347861
0.177941 0.330377 0.338194
0.208774 0.317175 0.327821
0.263821 0.311724 0.324932
0.326724 0.313477 0.328941
0.392408 0.318820 0.335779
0.459149 0.326807 0.344746
0.119642 0.457132 0.359389
0.175265 0.447629 0.352097
0.211075 0.436616 0.346772
0.252186 0.429487 0.346897
0.303116 0.426389 0.350446
0.357201 0.425849 0.355832
0.414714 0.428103 0.363144
0.473389 0.433514 0.372564
0.159302 0.577675 0.370444
0.230240 0.571610 0.374097
0.275641 0.563630 0.377397
0.310101 0.555226 0.380364
0.351548 0.548746 0.384546
0.397731 0.544547 0.390382
0.447249 0.543461 0.398148
0.498070 0.545578 0.407999
0.231916 0.702178 0.402931
0.297689 0.695986 0.410277
0.339951 0.687770 0.416149
0.372578 0.678046 0.420919
0.408758 0.668963 0.426104
0.447600 0.661436 0.432235
0.489532 0.656920 0.440475
0.532880 0.655849 0.450846
0.000000 0.058577 0.386537
0.057056 0.062846 0.391240
0.106282 0.062855 0.391864
0.171226 0.065052 0.393730
0.248664 0.069676 0.397156
0.323054 0.076026 0.401229
0.399035 0.083461 0.405940
0.480310 0.091993 0.411217
0.016913 0.120840 0.398763
0.079427 0.121352 0.400780
0.123589 0.117460 0.398818
0.179889 0.114888 0.397584
0.249522 0.114466 0.397810
0.318932 0.115389 0.398890
0.391737 0.117633 0.400646
0.471036 0.121437 0.403204
0.041930 0.187174 0.409461
0.103620 0.184749 0.409091
0.142541 0.177889 0.404750
0.189973 0.171658 0.400843
0.251750 0.167506 0.398208
0.316046 0.164689 0.396480
0.385466 0.163265 0.395620
0.462482 0.164842 0.396289
0.068612 0.262342 0.418536
0.128631 0.257188 0.415905
0.162476 0.247249 0.409476
0.200696 0.237374 0.402921
0.254460 0.229714 0.397660
0.314559 0.224943 0.394008
0.384115 0.229116 0.395036
0.457043 0.238511 0.399166
0.096695 0.353032 0.426145
0.154271 0.345133 0.421673
0.183317 0.331875 0.413157
0.214349 0.319243 0.404684
0.271157 0.316176 0.402230
0.332651 0.318839 0.403317
0.396591 0.324311 0.406425
0.461728 0.332495 0.411553
0.125661 0.459073 0.432715
0.182290 0.449662 0.426909
0.222227 0.440479 0.422506
0.263389 0.434508 0.420552
0.311652 0.431572 0.420729
0.364112 0.431187 0.422685
0.419929 0.433613 0.426572
0.477179 0.439190 0.432661
0.170125 0.580039 0.444425
0.242526 0.574985 0.446245
0.287170 0.567744 0.446679
0.320680 0.559799 0.446664
0.360863 0.553528 0.447739
0.405574 0.549521 0.450456
0.453506 0.548560 0.455095
0.502971 0.551013 0.462029
0.244697 0.704218 0.471282
0.308477 0.698659 0.475912
0.351034 0.691068 0.479065
0.383607 0.681978 0.481201
0.418900 0.673197 0.483474
0.456417 0.665835 0.486786
0.496866 0.661608 0.492361
0.538916 0.660772 0.500281
0.002245 0.064193 0.454370
0.066163 0.068376 0.460098
0.115253 0.068345 0.462096
0.179164 0.070338 0.465062
0.254906 0.074933 0.469495
0.327638 0.081011 0.474607
0.403104 0.088184 0.480271
0.484021 0.096464 0.486455
0.024735 0.125250 0.468369
0.088082 0.125406 0.471659
0.131772 0.121462 0.470905
0.186688 0.118593 0.470875
0.254697 0.117870 0.472024
0.322544 0.118589 0.474017
0.394721 0.120645 0.476702
0.473610 0.124199 0.480105
0.049793 0.190711 0.481210
0.111866 0.188004 0.481936
0.150026 0.180907 0.478823
0.195886 0.174317 0.475756
0.256009 0.169874 0.474135
0.318845 0.166732 0.473369
0.387686 0.165210 0.473292
0.464002 0.168960 0.473906
0.076348 0.265611 0.492271
0.136290 0.259956 0.490698
0.169282 0.249683 0.485299
0.205888 0.239414 0.479633
0.257958 0.231415 0.475321
0.318746 0.228950 0.472096
0.387860 0.234703 0.470743
0.459235 0.244678 0.471327
0.103969 0.355986 0.501839
0.161271 0.347583 0.498165
0.189527 0.333996 0.490652
0.223380 0.323510 0.483053
0.279798 0.322004 0.478562
0.339205 0.324923 0.476160
0.401374 0.330436 0.475679
0.464921 0.338877 0.477315
0.132388 0.461401 0.510347
0.192924 0.453467 0.505347
0.235404 0.445879 0.499295
0.274991 0.440464 0.494053
0.320816 0.437502 0.490666
0.371555 0.437170 0.489039
0.425728 0.439773 0.489526
0.481352 0.445484 0.492281
0.183848 0.583741 0.521965
0.255239 0.579236 0.520449
0.298741 0.572596 0.517608
0.331677 0.565128 0.514255
0.370772 0.559080 0.511989
0.413900 0.555118 0.511166
0.460315 0.554265 0.512641
0.508191 0.556824 0.516470
0.257846 0.706936 0.543309
0.319779 0.702057 0.544903
0.362559 0.695131 0.545133
0.394923 0.686491 0.544004
0.429314 0.677936 0.543154
0.465537 0.670739 0.543167
0.504620 0.666612 0.545709
0.545003 0.665854 0.550921
0.010532 0.070188 0.524771
0.075946 0.074127 0.532692
0.124613 0.074095 0.536343
0.187380 0.076088 0.541060
0.261425 0.080479 0.547430
0.332537 0.086297 0.554351
0.407381 0.093269 0.561873
0.487831 0.101280 0.570113
0.033266 0.129799 0.542791
0.097322 0.129875 0.547820
0.140504 0.125702 0.548636
0.193969 0.122710 0.549900
0.260192 0.121792 0.552629
0.326554 0.122298 0.556165
0.398040 0.124120 0.560480
0.476750 0.127436 0.565568
0.058342 0.194730 0.559441
0.120635 0.191689 0.561709
0.158215 0.184327 0.559885
0.202410 0.177502 0.558030
0.260741 0.172641 0.557623
0.322015 0.169241 0.558041
0.390371 0.167852 0.558853
0.466159 0.174947 0.556901
0.084794 0.269115 0.574435
0.144554 0.263322 0.574251
0.176888 0.252605 0.569675
0.211660 0.241909 0.564800
0.262139 0.233640 0.561067
0.324349 0.234368 0.555543
0.392425 0.241412 0.550203
0.462028 0.251457 0.546629
0.111883 0.359258 0.587975
0.168885 0.350467 0.585216
0.196568 0.336616 0.578048
0.234232 0.329077 0.568177
0.289137 0.328778 0.559393
0.346383 0.331761 0.552511
0.406832 0.337364 0.547906
0.468701 0.345895 0.545631
0.139753 0.464390 0.600316
0.204752 0.458242 0.593241
0.249243 0.452217 0.582841
0.286737 0.447038 0.572837
0.330481 0.444135 0.564898
0.379548 0.443751 0.559036
0.432028 0.446390 0.555380
0.485926 0.452243 0.554395
0.198246 0.588123 0.608723
0.268282 0.584284 0.602634
0.310561 0.578185 0.595217
0.343126 0.571019 0.587249
0.381053 0.565108 0.580594
0.422632 0.561218 0.575637
0.467457 0.560398 0.573025
0.513729 0.563128 0.573332
0.271228 0.710229 0.625040
0.331561 0.705912 0.622722
0.374261 0.699518 0.618644
0.406550 0.691378 0.613107
0.440031 0.683211 0.607847
0.474923 0.675936 0.603598
0.512542 0.671965 0.602192
0.551520 0.671346 0.603661
