gsg/04_Specialty/GSG_LUT_Specialty_SummerAfternoon.cube
# GSG LUTs 1.0
# Copyright (c) 2016-2020 Greyscalegorilla
# See EULA for licensing and distribution information
# Converted by Briz LUT Converter
LUT_3D_SIZE 5
DOMAIN_MIN 0.000000 0.000000 0.000000
DOMAIN_MAX 0.903226 0.903226 0.903226
0.000000 0.000000 0.000000
0.045878 0.000000 0.000000
0.173343 0.000000 0.000000
0.356028 0.017968 0.000000
0.588759 0.063075 0.035630
0.023065 0.070787 0.000000
0.089023 0.074670 0.000000
0.227382 0.097318 0.000000
0.424174 0.133436 0.033180
0.671931 0.180524 0.089099
0.082162 0.243326 0.014802
0.145386 0.241483 0.024176
0.291483 0.260107 0.054885
0.499480 0.292812 0.100272
0.737648 0.341400 0.159720
0.131931 0.437252 0.086148
0.200209 0.433865 0.097568
0.354232 0.453704 0.133810
0.551198 0.493314 0.190319
0.766104 0.547646 0.260514
0.181386 0.642073 0.163464
0.281151 0.644114 0.193076
0.432434 0.665461 0.240787
0.619631 0.705432 0.306109
0.823837 0.761172 0.386012
0.000740 0.000000 0.088306
0.064836 0.000000 0.079392
0.192264 0.000100 0.087966
0.375383 0.030344 0.110853
0.608657 0.073685 0.146087
0.038371 0.084029 0.093307
0.101877 0.085934 0.086105
0.240288 0.106785 0.099029
0.437581 0.141329 0.127135
0.686591 0.186692 0.170363
0.088888 0.248941 0.122846
0.151026 0.245645 0.116291
0.297525 0.263058 0.134304
0.505638 0.295534 0.171312
0.733732 0.348245 0.232532
0.130909 0.436658 0.163173
0.201407 0.433370 0.166791
0.357801 0.456488 0.205777
0.552828 0.498330 0.263770
0.765600 0.554868 0.335166
0.188853 0.640521 0.235296
0.290230 0.644846 0.266391
0.439532 0.668050 0.314783
0.624921 0.710328 0.380695
0.827292 0.768372 0.460566
0.014203 0.000000 0.213628
0.078067 0.000000 0.200953
0.206924 0.008127 0.204923
0.391827 0.040167 0.222553
0.627190 0.082941 0.251600
0.049445 0.093253 0.209696
0.111954 0.094504 0.196886
0.251669 0.114954 0.203614
0.450610 0.148910 0.224548
0.700786 0.192673 0.256422
0.093770 0.253275 0.225032
0.156422 0.249533 0.211473
0.303606 0.266127 0.218736
0.507853 0.300768 0.248570
0.730023 0.356105 0.305964
0.129521 0.436016 0.245000
0.204997 0.434306 0.241689
0.362081 0.460116 0.278795
0.554758 0.503557 0.333174
0.765075 0.561897 0.401689
0.197030 0.639655 0.308034
0.299621 0.645908 0.335825
0.446369 0.670571 0.380818
0.629726 0.714573 0.444211
0.829772 0.774497 0.522617
0.025413 0.000000 0.325109
0.089172 0.000000 0.311024
0.219764 0.016814 0.313451
0.406932 0.048799 0.328995
0.644562 0.091371 0.355295
0.058451 0.100896 0.317240
0.120629 0.101979 0.302184
0.261811 0.122310 0.306321
0.462968 0.156090 0.323930
0.713499 0.199511 0.352377
0.097432 0.256619 0.325275
0.161106 0.253086 0.308590
0.309613 0.269609 0.312169
0.510546 0.308995 0.344905
0.729235 0.366565 0.398867
0.129044 0.436206 0.336244
0.214081 0.439068 0.338369
0.369132 0.466588 0.371190
0.559595 0.511678 0.421139
0.767458 0.571838 0.485657
0.207633 0.641719 0.400363
0.311878 0.650066 0.423824
0.456177 0.675934 0.464210
0.637434 0.721629 0.523641
0.835203 0.783569 0.598204
0.035756 0.003813 0.431305
0.099277 0.005908 0.417519
0.231738 0.025113 0.420599
0.421458 0.057245 0.436417
0.661932 0.099857 0.462358
0.066210 0.108021 0.423467
0.128652 0.109011 0.408350
0.271644 0.129607 0.412412
0.475180 0.163064 0.429253
0.722520 0.208398 0.458266
0.100705 0.260136 0.428571
0.165891 0.256883 0.411556
0.315977 0.275523 0.416705
0.513967 0.319221 0.449714
0.729976 0.378478 0.498484
0.130709 0.437630 0.437481
0.224993 0.445634 0.443066
0.377711 0.474505 0.470381
0.565847 0.521218 0.515178
0.771389 0.583190 0.574832
0.219709 0.645272 0.499466
0.325742 0.655681 0.518176
0.467363 0.682928 0.552932
0.646618 0.730355 0.607413
0.842212 0.794145 0.677677
