gsg/04_Specialty/GSG_LUT_Specialty_Milky_Spring.cube
# GSG LUTs 1.0
# Copyright (c) 2016-2020 Greyscalegorilla
# See EULA for licensing and distribution information
# Converted by Briz LUT Converter
LUT_3D_SIZE 32
0.086691 0.111355 0.079609
0.091985 0.111859 0.080358
0.097467 0.112395 0.080909
0.105810 0.113403 0.082169
0.114790 0.114506 0.083493
0.126834 0.116310 0.085336
0.140462 0.118421 0.087605
0.156729 0.120942 0.089984
0.175005 0.123589 0.092820
0.195880 0.126614 0.095986
0.218961 0.129796 0.099437
0.243688 0.133239 0.102887
0.269810 0.136610 0.106668
0.297719 0.140139 0.110552
0.328473 0.143669 0.114475
0.362180 0.147079 0.118256
0.398858 0.150230 0.122037
0.438907 0.152988 0.125417
0.482264 0.155366 0.128583
0.529363 0.157037 0.131262
0.579810 0.158139 0.133373
0.629076 0.161629 0.137374
0.676608 0.167805 0.143456
0.725196 0.175155 0.150553
0.775675 0.183095 0.158242
0.822262 0.191555 0.166647
0.863130 0.200740 0.175832
0.899980 0.210067 0.185584
0.936721 0.220497 0.196298
0.974209 0.231084 0.207822
0.999244 0.242617 0.220363
1.000000 0.254212 0.232479
0.095766 0.127496 0.086163
0.101044 0.127740 0.086659
0.106274 0.128031 0.087187
0.114387 0.129001 0.088188
0.123359 0.129852 0.089258
0.135358 0.131402 0.090841
0.148781 0.133300 0.092897
0.165046 0.135815 0.095270
0.183188 0.138399 0.098040
0.203475 0.141242 0.100878
0.225773 0.144343 0.103979
0.249627 0.147699 0.107332
0.274908 0.151128 0.110848
0.302195 0.154508 0.114369
0.332283 0.158033 0.117894
0.365347 0.161322 0.121415
0.401374 0.164351 0.124932
0.440761 0.167107 0.128051
0.483191 0.169483 0.130816
0.529399 0.171153 0.133281
0.578905 0.172256 0.135227
0.627303 0.175580 0.138974
0.674407 0.181493 0.144971
0.722358 0.188580 0.152060
0.772062 0.196260 0.159752
0.818684 0.204460 0.167963
0.859396 0.213180 0.177094
0.896200 0.222420 0.186845
0.932484 0.232394 0.197558
0.969217 0.242696 0.209075
0.999081 0.253740 0.221379
1.000000 0.265304 0.233479
0.104872 0.144023 0.092733
0.109913 0.144022 0.092969
0.115128 0.144039 0.093252
0.123203 0.144565 0.094016
0.131931 0.145397 0.095039
0.143721 0.146880 0.096362
0.157128 0.148518 0.098161
0.173327 0.150826 0.100339
0.191216 0.153397 0.103037
0.211095 0.156241 0.105699
0.232558 0.159266 0.108719
0.255466 0.162377 0.111733
0.280054 0.165654 0.114847
0.306814 0.169027 0.118108
0.336265 0.172437 0.121471
0.368672 0.175596 0.124739
0.404040 0.178739 0.127866
0.442637 0.181481 0.130726
0.484152 0.183757 0.133238
0.529332 0.185427 0.135433
0.577950 0.186530 0.137112
0.625562 0.189854 0.140770
0.672053 0.195431 0.146599
0.719304 0.202194 0.153456
0.768402 0.209614 0.161262
0.815106 0.217554 0.169522
0.855867 0.226014 0.178468
0.892452 0.234994 0.188170
0.928248 0.244507 0.198881
0.964239 0.254529 0.210178
0.998919 0.265525 0.222451
1.000000 0.276616 0.234314
0.114475 0.162748 0.099539
0.119485 0.162715 0.099523
0.124462 0.162486 0.099768
0.132299 0.162966 0.100293
0.141003 0.163509 0.101060
0.152735 0.164536 0.102143
0.165902 0.165933 0.103725
0.181892 0.167981 0.105828
0.199639 0.170351 0.108330
0.219081 0.173170 0.110993
0.240105 0.176179 0.113939
0.262160 0.179290 0.116790
0.285923 0.182567 0.119782
0.312052 0.185844 0.122768
0.340840 0.189121 0.125768
0.372592 0.192280 0.128662
0.407179 0.195305 0.131423
0.444870 0.198062 0.134024
0.485634 0.200441 0.136368
0.529975 0.202111 0.138163
0.577551 0.203229 0.139494
0.624293 0.206546 0.143046
0.670004 0.212115 0.148884
0.716644 0.218691 0.155918
0.764862 0.225851 0.163606
0.811533 0.233550 0.171815
0.852338 0.241754 0.180952
0.888703 0.250474 0.190492
0.924032 0.259934 0.201174
0.959483 0.269717 0.212470
0.998261 0.280255 0.224500
1.000000 0.291284 0.236354
0.124274 0.182473 0.106345
0.129064 0.182180 0.106100
0.134025 0.181691 0.106099
0.141602 0.181910 0.106571
0.150049 0.182197 0.107109
0.161585 0.183022 0.108152
0.174676 0.184318 0.109474
0.190406 0.186105 0.111324
0.207893 0.188215 0.113656
0.227001 0.190774 0.116309
0.247433 0.193604 0.119233
0.268818 0.196704 0.122006
0.291976 0.199961 0.124696
0.317450 0.203238 0.127312
0.345603 0.206515 0.130034
0.376574 0.209673 0.132759
0.410381 0.212698 0.135357
0.447291 0.215456 0.137578
0.487256 0.217834 0.139562
0.530649 0.219524 0.141097
0.577184 0.220796 0.142167
0.623056 0.224042 0.145502
0.667964 0.229518 0.151413
0.713837 0.235921 0.158502
0.761453 0.242853 0.166190
0.808003 0.250451 0.174424
0.848809 0.258458 0.183568
0.884954 0.266950 0.193107
0.919995 0.276154 0.203789
0.954740 0.285677 0.215056
0.992710 0.296169 0.226870
1.000000 0.306723 0.238686
0.133893 0.204600 0.113151
0.138643 0.204048 0.112899
0.143587 0.203298 0.112676
0.150904 0.203257 0.112888
0.159119 0.203306 0.113194
0.170579 0.203994 0.114161
0.183418 0.204877 0.115231
0.198920 0.206372 0.116900
0.216146 0.208212 0.119191
0.234921 0.210493 0.121754
0.254833 0.213158 0.124526
0.275712 0.216171 0.127313
0.298374 0.219300 0.130111
0.323311 0.222553 0.132663
0.350825 0.225830 0.135001
0.381018 0.228989 0.137363
0.414024 0.232034 0.139591
0.450154 0.234789 0.141530
0.489191 0.237173 0.143236
0.531567 0.239009 0.144511
0.577052 0.240364 0.145321
0.622040 0.243609 0.148710
0.666016 0.248935 0.154567
0.711205 0.255247 0.161605
0.758095 0.262169 0.169294
0.804443 0.269392 0.177699
0.845240 0.277309 0.186884
0.881201 0.285732 0.196458
0.915759 0.294734 0.207145
0.949983 0.304000 0.218176
0.986944 0.314194 0.229897
1.000000 0.324487 0.241459
0.143629 0.228264 0.119957
0.148174 0.227406 0.119657
0.153106 0.226438 0.119375
0.160207 0.226093 0.119370
0.168161 0.225855 0.119416
0.179361 0.226130 0.120131
0.191980 0.226845 0.121029
0.207386 0.227915 0.122641
0.224340 0.229442 0.124672
0.242747 0.231370 0.127047
0.262153 0.233921 0.129820
0.282633 0.236818 0.132680
0.304975 0.239970 0.135610
0.329343 0.243097 0.138095
0.356190 0.246374 0.140250
0.385642 0.249533 0.142355
0.417761 0.252660 0.144298
0.453059 0.255404 0.145864
0.491154 0.257836 0.147217
0.532606 0.259787 0.148232
0.576978 0.261191 0.148812
0.621023 0.264453 0.152097
0.664219 0.269745 0.158118
0.708627 0.275856 0.165229
0.754773 0.282676 0.172917
0.800758 0.289724 0.181323
0.841506 0.297522 0.190508
0.877425 0.305532 0.200260
0.911565 0.314389 0.210931
0.945230 0.323411 0.221765
0.981179 0.333192 0.233077
1.000000 0.343172 0.244374
0.152956 0.254472 0.126764
0.157500 0.253161 0.126204
0.162374 0.252058 0.125728
0.169399 0.251264 0.125653
0.177100 0.250716 0.125488
0.188088 0.250698 0.125975
0.200446 0.250977 0.126816
0.215593 0.251730 0.128327
0.232222 0.252954 0.130111
0.250124 0.254606 0.132325
0.269130 0.256857 0.135058
0.289369 0.259494 0.137918
0.311562 0.262462 0.140870
0.335603 0.265579 0.143495
0.361791 0.268888 0.145795
0.390569 0.272047 0.147710
0.421908 0.275072 0.149291
0.456209 0.277829 0.150570
0.493314 0.280350 0.151664
0.533653 0.282422 0.152452
0.576852 0.284064 0.152956
0.619970 0.287416 0.156107
0.662445 0.292529 0.162165
0.706104 0.298421 0.169358
0.751580 0.304952 0.177061
0.797222 0.311886 0.185466
0.837922 0.319297 0.194651
0.873622 0.327015 0.204403
0.907501 0.335434 0.214846
0.940434 0.344176 0.225605
0.975412 0.353781 0.236860
1.000000 0.363307 0.247903
0.162157 0.283020 0.133507
0.166694 0.281443 0.132756
0.171369 0.279897 0.132203
0.178134 0.278817 0.131886
0.185600 0.277781 0.131640
0.196492 0.277494 0.131931
0.208590 0.277423 0.132565
0.223462 0.277706 0.133830
0.239749 0.278458 0.135452
0.257280 0.279749 0.137545
0.276001 0.281585 0.140100
0.296090 0.283897 0.142960
0.318169 0.286564 0.145984
0.341883 0.289579 0.148831
0.367493 0.292933 0.151335
0.395560 0.296088 0.153288
0.426118 0.299145 0.154642
0.459604 0.301902 0.155600
0.495753 0.304423 0.156396
0.534936 0.306534 0.157052
0.576858 0.308323 0.157556
0.618845 0.311699 0.160707
0.660727 0.316612 0.166631
0.703716 0.322384 0.173910
0.748313 0.328558 0.181661
0.793502 0.335138 0.190067
0.834141 0.342277 0.199252
0.869621 0.349734 0.208949
0.903183 0.357893 0.219213
0.935496 0.366316 0.229718
0.969641 0.375291 0.240713
1.000000 0.384544 0.251558
0.170838 0.314049 0.139919
0.175375 0.312209 0.139163
0.180034 0.310330 0.138422
0.186538 0.308906 0.137911
0.193744 0.307438 0.137428
0.204388 0.306787 0.137647
0.216271 0.306231 0.138186
0.230785 0.306156 0.139304
0.246700 0.306443 0.140862
0.263999 0.307265 0.142715
0.282414 0.308710 0.145119
0.302438 0.310527 0.147905
0.324373 0.312789 0.150884
0.347891 0.315471 0.153866
0.373177 0.318555 0.156785
0.400740 0.321664 0.158927
0.430518 0.324778 0.160224
0.463084 0.327536 0.161078
0.498234 0.330015 0.161509
0.536362 0.332250 0.161940
0.577053 0.334183 0.162417
0.617958 0.337413 0.165616
0.659001 0.342066 0.171562
0.701209 0.347526 0.178789
0.745111 0.353421 0.186577
0.789805 0.359595 0.194998
0.830300 0.366438 0.204183
0.865611 0.373574 0.213722
0.898758 0.381399 0.223899
0.930661 0.389386 0.234161
0.963873 0.398088 0.244896
0.998369 0.407011 0.255662
0.178999 0.347623 0.145969
0.183539 0.345517 0.145212
0.188258 0.343194 0.144467
0.194502 0.341266 0.143858
0.201437 0.339434 0.143125
0.211780 0.338263 0.143164
0.223515 0.337186 0.143543
0.237628 0.336630 0.144580
0.253219 0.336530 0.146032
0.270093 0.336832 0.147734
0.288385 0.337757 0.150000
0.308409 0.339115 0.152554
0.330277 0.340969 0.155422
0.353656 0.343163 0.158582
0.378782 0.345894 0.161940
0.405841 0.348789 0.164391
0.434879 0.351773 0.165941
0.466565 0.354492 0.166816
0.500820 0.356917 0.166941
0.537858 0.359170 0.167176
0.577248 0.361302 0.167616
0.617194 0.364451 0.170932
0.657456 0.368844 0.176935
0.698883 0.373915 0.184091
0.741871 0.379444 0.191928
0.786024 0.385340 0.200370
0.826361 0.391857 0.209555
0.861588 0.398569 0.219026
0.894569 0.406026 0.228894
0.925968 0.413743 0.238814
0.958644 0.422262 0.249207
0.992965 0.430832 0.259632
0.186467 0.383450 0.151845
0.191099 0.380997 0.151002
0.195961 0.378397 0.150241
0.201945 0.375949 0.149388
0.208599 0.373585 0.148573
0.218537 0.371832 0.148523
0.230012 0.370308 0.148797
0.243866 0.369211 0.149644
0.259153 0.368524 0.150900
0.275718 0.368306 0.152554
0.294009 0.368710 0.154622
0.314003 0.369517 0.157005
0.335781 0.370794 0.159839
0.359037 0.372538 0.162979
0.383993 0.374769 0.166419
0.410679 0.377213 0.169283
0.439156 0.380023 0.171576
0.470093 0.382614 0.172689
0.503392 0.385046 0.172547
0.539320 0.387284 0.172744
0.577443 0.389436 0.173304
0.616371 0.392501 0.176651
0.655886 0.396600 0.182715
0.696558 0.401321 0.189955
0.738764 0.406440 0.197751
0.782137 0.411968 0.206106
0.822466 0.418069 0.215202
0.857652 0.424494 0.224439
0.890778 0.432076 0.233741
0.922438 0.439817 0.242970
0.955466 0.448587 0.252580
0.989988 0.457426 0.262216
0.193084 0.421734 0.157296
0.197968 0.418766 0.156293
0.202820 0.415798 0.155430
0.208623 0.412830 0.154436
0.214943 0.409925 0.153657
0.224704 0.407524 0.153444
0.235919 0.405533 0.153586
0.249491 0.403880 0.154398
0.264469 0.402551 0.155508
0.280917 0.401812 0.157064
0.299178 0.401665 0.159014
0.319052 0.401831 0.161257
0.340667 0.402487 0.163932
0.363827 0.403670 0.166852
0.388740 0.405369 0.170129
0.415252 0.407345 0.173425
0.443387 0.409748 0.176743
0.473659 0.412115 0.178350
0.505952 0.414384 0.178305
0.540756 0.416653 0.178600
0.577638 0.418764 0.179359
0.615500 0.421645 0.182796
0.654295 0.425393 0.188972
0.694232 0.429691 0.196140
0.735731 0.434509 0.203944
0.778421 0.439650 0.212186
0.818702 0.445460 0.220961
0.854121 0.451790 0.229758
0.887822 0.459733 0.238320
0.920158 0.467986 0.246621
0.954204 0.477429 0.255044
0.990082 0.486951 0.263476
0.198874 0.462035 0.162180
0.203914 0.458550 0.161172
0.208951 0.455160 0.160164
0.214534 0.451662 0.159156
0.220571 0.448144 0.158242
0.230201 0.445199 0.158013
0.241155 0.442542 0.158068
0.254434 0.440286 0.158857
0.269101 0.438436 0.159875
0.285519 0.437118 0.161324
0.303659 0.436257 0.163061
0.323431 0.435801 0.165182
0.345007 0.435897 0.167663
0.368104 0.436434 0.170385
0.392950 0.437501 0.173556
0.419258 0.438926 0.176964
0.447133 0.440731 0.180692
0.476842 0.442670 0.182936
0.508393 0.444787 0.183740
0.542212 0.446950 0.184678
0.577899 0.449021 0.185776
0.614838 0.451630 0.189372
0.652780 0.454997 0.195581
0.692134 0.459081 0.202673
0.733365 0.463903 0.210097
0.776017 0.469266 0.217906
0.816854 0.475345 0.226006
0.852779 0.482114 0.233942
0.887036 0.490252 0.241709
0.919801 0.498799 0.249326
0.954354 0.508353 0.256929
0.990744 0.518075 0.264532
0.203915 0.504132 0.166576
0.209075 0.500241 0.165457
0.214368 0.496468 0.164449
0.219675 0.492436 0.163441
0.225580 0.488270 0.162513
0.234950 0.484787 0.162183
0.245644 0.481489 0.162191
0.258662 0.478598 0.162858
0.273106 0.476200 0.163775
0.289401 0.474196 0.165205
0.307440 0.472578 0.166797
0.327173 0.471528 0.168743
0.348623 0.471005 0.171027
0.371587 0.470821 0.173556
0.396369 0.471175 0.176517
0.422555 0.471871 0.179725
0.450283 0.473042 0.183267
0.479701 0.474468 0.186286
0.510667 0.476196 0.188798
0.543611 0.478120 0.190871
0.578328 0.480066 0.192525
0.614361 0.482465 0.196384
0.651386 0.485471 0.202639
0.690480 0.489522 0.209463
0.731906 0.494763 0.216293
0.775313 0.500875 0.223143
0.817283 0.507952 0.230110
0.854052 0.515543 0.236986
0.888534 0.523778 0.243941
0.921446 0.532325 0.251013
0.955871 0.541498 0.258202
0.992115 0.550845 0.265398
0.209429 0.547056 0.171232
0.214963 0.542897 0.170097
0.220363 0.538604 0.169081
0.225524 0.534062 0.167963
0.231031 0.529467 0.167017
0.239916 0.525358 0.166573
0.250205 0.521527 0.166545
0.262745 0.518089 0.166983
0.276837 0.515044 0.167743
0.292911 0.512421 0.168952
0.310829 0.510239 0.170422
0.330434 0.508535 0.172193
0.351798 0.507365 0.174258
0.374656 0.506472 0.176659
0.399238 0.506106 0.179489
0.425294 0.506095 0.182624
0.452962 0.506485 0.186088
0.482176 0.507277 0.189613
0.512665 0.508493 0.193276
0.545063 0.510278 0.196368
0.579314 0.512411 0.198995
0.615081 0.515118 0.203126
0.652098 0.518557 0.209007
0.691388 0.523104 0.215144
0.733070 0.528769 0.221302
0.776966 0.535280 0.227388
0.819191 0.542683 0.233446
0.856031 0.550466 0.239607
0.890413 0.558616 0.246008
0.923203 0.567041 0.252558
0.957505 0.575848 0.259471
0.993745 0.584678 0.266289
0.215605 0.590665 0.176021
0.221399 0.586116 0.175017
0.227027 0.581425 0.174115
0.231903 0.576375 0.172866
0.236873 0.571373 0.171807
0.245108 0.566764 0.171322
0.254747 0.562518 0.171034
0.266693 0.558560 0.171211
0.280395 0.554994 0.171679
0.296115 0.551814 0.172534
0.313772 0.549023 0.173784
0.333163 0.546664 0.175425
0.354445 0.544729 0.177360
0.377250 0.543211 0.179684
0.401702 0.542064 0.182457
0.427628 0.541333 0.185584
0.455101 0.541008 0.189113
0.484054 0.541088 0.192984
0.514283 0.541580 0.197224
0.546575 0.543279 0.201300
0.580826 0.545966 0.205146
0.617021 0.549665 0.209509
0.655046 0.554364 0.214504
0.695039 0.559838 0.219657
0.737144 0.565894 0.225002
0.781024 0.572563 0.230511
0.822485 0.579567 0.236154
0.858633 0.586940 0.241925
0.892592 0.594699 0.248049
0.925110 0.602734 0.254221
0.959274 0.611029 0.260743
0.995510 0.619465 0.267171
0.226192 0.632550 0.183891
0.231990 0.627756 0.182886
0.237690 0.622797 0.181969
0.241906 0.617365 0.180708
0.246338 0.611979 0.179508
0.253874 0.606952 0.178770
0.262642 0.602211 0.178335
0.273957 0.597868 0.178282
0.287092 0.593873 0.178562
0.302188 0.590177 0.179109
0.319351 0.586876 0.180232
0.338295 0.583961 0.181740
0.359087 0.581440 0.183599
0.381477 0.579351 0.185867
0.405514 0.577623 0.188562
0.431163 0.576639 0.191560
0.458444 0.576285 0.194812
0.487358 0.576562 0.198527
0.517742 0.577441 0.202572
0.550096 0.579588 0.206721
0.584348 0.582795 0.210824
0.620793 0.587073 0.214998
0.659166 0.592287 0.219354
0.699330 0.598057 0.223835
0.741540 0.604158 0.228641
0.785240 0.610500 0.233633
0.825806 0.617228 0.238968
0.861352 0.624226 0.244258
0.894791 0.631480 0.250090
0.927024 0.638995 0.255876
0.961172 0.646899 0.262015
0.997274 0.654803 0.268045
0.240703 0.672567 0.194903
0.246354 0.667623 0.193895
0.251870 0.662404 0.192862
0.255345 0.656712 0.191455
0.259078 0.651051 0.190098
0.265692 0.645650 0.189123
0.273615 0.640530 0.188428
0.284263 0.635787 0.188254
0.296617 0.631418 0.188397
0.310974 0.627339 0.188861
0.327447 0.623642 0.189903
0.345640 0.620341 0.191240
0.365742 0.617370 0.193044
0.387352 0.614821 0.195179
0.410672 0.612768 0.197746
0.435847 0.611890 0.200422
0.462925 0.612130 0.203227
0.491984 0.613410 0.206197
0.522824 0.615737 0.209187
0.555564 0.618828 0.212516
0.589925 0.622555 0.216045
0.626348 0.627012 0.219698
0.664455 0.631947 0.223612
0.704326 0.637310 0.227710
0.746276 0.643114 0.232117
0.789487 0.649017 0.236728
0.829104 0.655297 0.241662
0.864049 0.661788 0.246574
0.897095 0.668650 0.252003
0.929190 0.675657 0.257412
0.963193 0.683148 0.263147
0.999181 0.690425 0.268943
0.255323 0.711844 0.206995
0.260714 0.706645 0.205982
0.265964 0.701310 0.204797
0.269034 0.695358 0.203270
0.271993 0.689437 0.201647
0.277867 0.683776 0.200378
0.285029 0.678375 0.199483
0.294979 0.673255 0.199131
0.306591 0.668511 0.199078
0.320264 0.664142 0.199500
0.335939 0.660112 0.200353
0.353419 0.656674 0.201414
0.372922 0.653858 0.202870
0.394061 0.651730 0.204507
0.417023 0.650276 0.206477
0.441987 0.649914 0.208607
0.468882 0.650805 0.210790
0.497842 0.652731 0.213057
0.528780 0.655733 0.215337
0.561548 0.659178 0.217998
0.595872 0.662962 0.220966
0.632024 0.667236 0.224200
0.669822 0.671823 0.227642
0.709432 0.676820 0.231407
0.751123 0.682105 0.235358
0.793667 0.687560 0.239652
0.832417 0.693380 0.244240
0.866784 0.699357 0.248875
0.899538 0.705791 0.253816
0.931328 0.712288 0.258941
0.965213 0.719258 0.264316
1.000000 0.726015 0.269652
0.269629 0.750128 0.219599
0.275080 0.744677 0.218430
0.280211 0.739326 0.217297
0.282840 0.733113 0.215598
0.285173 0.726953 0.213743
0.290374 0.721143 0.212421
0.296857 0.715381 0.211345
0.305935 0.710107 0.210733
0.316913 0.704988 0.210444
0.329848 0.700242 0.210675
0.344706 0.696002 0.211269
0.361581 0.692735 0.211924
0.380580 0.690639 0.212697
0.401397 0.689569 0.213572
0.424396 0.689536 0.214564
0.449360 0.690220 0.215786
0.476125 0.691761 0.217270
0.504825 0.693891 0.218977
0.535466 0.696694 0.220870
0.567890 0.699892 0.223077
0.601978 0.703416 0.225626
0.637839 0.707258 0.228460
0.675346 0.711503 0.231524
0.714697 0.716007 0.234884
0.756005 0.720804 0.238584
0.797846 0.725753 0.242505
0.835816 0.731131 0.246669
0.869622 0.736741 0.251019
0.901941 0.742533 0.255614
0.933515 0.748494 0.260322
0.967235 0.754791 0.265427
1.000000 0.761180 0.270314
0.284241 0.786616 0.232368
0.289614 0.781404 0.231116
0.294723 0.775887 0.230050
0.297002 0.769585 0.228107
0.298932 0.763325 0.226163
0.303366 0.757344 0.224732
0.309124 0.751404 0.223395
0.317335 0.746051 0.222486
0.327513 0.741205 0.221767
0.339839 0.736913 0.221519
0.354086 0.733413 0.221457
0.370413 0.730804 0.221337
0.388978 0.729382 0.221393
0.409502 0.729062 0.221589
0.432306 0.729812 0.221797
0.457008 0.731008 0.222314
0.483643 0.732687 0.223233
0.512163 0.734763 0.224420
0.542397 0.737255 0.225939
0.574455 0.740055 0.227832
0.608176 0.743148 0.230087
0.643718 0.746613 0.232603
0.680848 0.750453 0.235261
0.719890 0.754519 0.238248
0.760999 0.758884 0.241605
0.802058 0.763332 0.245178
0.839215 0.768189 0.248993
0.872316 0.773354 0.252924
0.904392 0.778558 0.257238
0.935639 0.783836 0.261604
0.969254 0.789518 0.266283
1.000000 0.794974 0.270905
0.298940 0.819119 0.245224
0.304413 0.814425 0.243972
0.309652 0.809368 0.242900
0.311346 0.803586 0.240884
0.312950 0.797651 0.238908
0.316604 0.791780 0.237217
0.321582 0.786037 0.235586
0.328994 0.781015 0.234220
0.338351 0.776843 0.232891
0.350078 0.773786 0.231691
0.363984 0.771740 0.230522
0.379969 0.770290 0.229512
0.398224 0.769530 0.228862
0.418414 0.769528 0.228365
0.440743 0.770216 0.228186
0.465047 0.771282 0.228362
0.491373 0.772741 0.228939
0.519492 0.774595 0.229784
0.549342 0.776726 0.230907
0.581000 0.779145 0.232467
0.614343 0.781784 0.234350
0.649480 0.784782 0.236544
0.686360 0.788127 0.238886
0.725170 0.791603 0.241590
0.765945 0.795289 0.244491
0.806253 0.799177 0.247747
0.842469 0.803223 0.251157
0.875063 0.807510 0.254731
0.906773 0.811836 0.258775
0.937839 0.816162 0.262719
0.971277 0.820793 0.267050
1.000000 0.825302 0.271409
0.313923 0.847044 0.258261
0.319469 0.842692 0.257009
0.324751 0.838241 0.255914
0.326018 0.833232 0.253524
0.326993 0.828042 0.251164
0.329995 0.823180 0.248997
0.334040 0.818494 0.246718
0.340711 0.814699 0.244645
0.349475 0.811617 0.242571
0.360649 0.809642 0.240498
0.374108 0.808538 0.238483
0.389647 0.807825 0.236856
0.407524 0.807491 0.235701
0.427348 0.807547 0.234737
0.449239 0.807997 0.234193
0.473156 0.808704 0.234108
0.498998 0.809809 0.234332
0.526696 0.811216 0.234829
0.556149 0.812858 0.235650
0.587427 0.814689 0.236921
0.620483 0.816766 0.238498
0.655311 0.819121 0.240284
0.691959 0.821758 0.242307
0.730394 0.824608 0.244751
0.770948 0.827560 0.247337
0.810321 0.830579 0.250171
0.845779 0.833916 0.253225
0.877734 0.837378 0.256528
0.909073 0.840850 0.260148
0.939938 0.844322 0.263748
0.973296 0.848206 0.267639
1.000000 0.851936 0.271732
0.329237 0.871874 0.271369
0.334972 0.867783 0.270117
0.340225 0.863674 0.268990
0.341006 0.859270 0.266079
0.341184 0.854925 0.263126
0.343286 0.851425 0.259842
0.346534 0.848333 0.256429
0.352592 0.845737 0.253423
0.360689 0.843794 0.250617
0.371342 0.842341 0.248013
0.384281 0.841412 0.245628
0.399366 0.840762 0.243609
0.416869 0.840388 0.242032
0.436212 0.840284 0.240860
0.457610 0.840458 0.240044
0.481133 0.840974 0.239504
0.506649 0.841689 0.239434
0.533953 0.842679 0.239732
0.563024 0.843996 0.240294
0.594015 0.845463 0.241188
0.626689 0.847068 0.242310
0.661190 0.848860 0.243854
0.697443 0.850911 0.245523
0.735657 0.853223 0.247512
0.775886 0.855605 0.249789
0.814310 0.858140 0.252311
0.848979 0.860811 0.255094
0.880492 0.863667 0.257972
0.911555 0.866724 0.261250
0.942160 0.869629 0.264583
0.975318 0.872806 0.268154
1.000000 0.876135 0.271795
0.344417 0.895088 0.284084
0.350003 0.891462 0.282425
0.355034 0.887832 0.280884
0.355308 0.884157 0.277414
0.355054 0.880607 0.273538
0.356327 0.877987 0.269360
0.358805 0.875706 0.265102
0.364216 0.873872 0.261429
0.371902 0.872373 0.257959
0.382035 0.871149 0.255053
0.394453 0.870219 0.252408
0.409037 0.869550 0.250109
0.426056 0.869064 0.248236
0.444961 0.868794 0.246745
0.466042 0.868815 0.245561
0.489084 0.869100 0.244799
0.514137 0.869629 0.244470
0.541150 0.870426 0.244331
0.569821 0.871369 0.244543
0.600470 0.872493 0.245143
0.632721 0.873930 0.245948
0.666872 0.875474 0.247116
0.702826 0.877209 0.248580
0.740805 0.879057 0.250309
0.780745 0.881072 0.252159
0.818127 0.883175 0.254377
0.852094 0.885455 0.256734
0.883126 0.887985 0.259272
0.913903 0.890597 0.262104
0.944248 0.893171 0.265159
0.977337 0.895977 0.268469
1.000000 0.898846 0.271598
0.359337 0.917823 0.296278
0.364042 0.915139 0.293458
0.368611 0.912443 0.290590
0.368601 0.909528 0.286399
0.368233 0.906521 0.281938
0.368936 0.904251 0.277402
0.370845 0.902249 0.272755
0.375708 0.900493 0.268644
0.382911 0.898885 0.264946
0.392524 0.897696 0.261629
0.404487 0.896700 0.258723
0.418690 0.895892 0.256164
0.435187 0.895388 0.254031
0.453678 0.895088 0.252260
0.474406 0.894996 0.250880
0.497030 0.895120 0.249894
0.521668 0.895518 0.249199
0.548210 0.896079 0.248751
0.576501 0.896853 0.248682
0.606744 0.897783 0.248896
0.638757 0.898857 0.249362
0.672704 0.900225 0.250237
0.708252 0.901765 0.251314
0.745911 0.903318 0.252737
0.785274 0.905060 0.254290
0.821821 0.907031 0.256072
0.855028 0.909080 0.258090
0.885686 0.911172 0.260360
0.916196 0.913640 0.262890
0.946281 0.915969 0.265488
0.979353 0.918713 0.268524
1.000000 0.921281 0.271346
0.373146 0.941148 0.307314
0.377465 0.939279 0.303418
0.381543 0.937181 0.299656
0.381475 0.934824 0.294709
0.380905 0.932278 0.289732
0.381459 0.930048 0.284750
0.382847 0.928038 0.279877
0.387190 0.926150 0.275606
0.393872 0.924621 0.271559
0.402964 0.923212 0.268110
0.414420 0.922053 0.264944
0.428129 0.921218 0.262125
0.444189 0.920714 0.259731
0.462305 0.920325 0.257700
0.482537 0.920091 0.255982
0.504761 0.920091 0.254622
0.529010 0.920359 0.253646
0.555147 0.920762 0.252938
