gsg/04_Specialty/GSG_LUT_Specialty_MilyCyan.cube
# GSG LUTs 1.0
# Copyright (c) 2016-2020 Greyscalegorilla
# See EULA for licensing and distribution information
# Converted by Briz LUT Converter
LUT_3D_SIZE 8
DOMAIN_MIN 0.000000 0.000000 0.000000
DOMAIN_MAX 0.903226 0.903226 0.903226
0.097192 0.098168 0.098901
0.171255 0.114947 0.114790
0.236567 0.130946 0.132262
0.307306 0.152688 0.153350
0.386128 0.163315 0.177242
0.468518 0.176376 0.201363
0.556406 0.175060 0.223963
0.643798 0.178124 0.249730
0.126070 0.149616 0.122707
0.167528 0.164899 0.131576
0.232785 0.170126 0.148018
0.303895 0.181860 0.164108
0.380573 0.194308 0.185441
0.462867 0.202542 0.209345
0.548511 0.207589 0.234759
0.635824 0.214272 0.257377
0.132388 0.191713 0.142668
0.178668 0.201731 0.151639
0.227281 0.219127 0.167765
0.300685 0.226135 0.182592
0.376415 0.234349 0.201859
0.457233 0.245865 0.224213
0.543068 0.255569 0.248035
0.627150 0.260508 0.272557
0.150254 0.235661 0.168215
0.188798 0.245387 0.177617
0.235761 0.261995 0.189450
0.299007 0.278685 0.206884
0.370578 0.290026 0.223429
0.452225 0.299097 0.245281
0.536257 0.310434 0.268838
0.618975 0.320483 0.294496
0.163094 0.278097 0.191878
0.193119 0.291800 0.203104
0.242843 0.308086 0.213254
0.304452 0.326023 0.230657
0.369033 0.346671 0.251552
0.447468 0.356521 0.269723
0.528908 0.371198 0.292995
0.610104 0.382860 0.318346
0.172555 0.327819 0.216393
0.202088 0.341022 0.229410
0.252276 0.358908 0.240428
0.314000 0.379009 0.257239
0.375181 0.399955 0.279155
0.444303 0.420764 0.301037
0.522895 0.435706 0.323203
0.602970 0.450395 0.346982
0.179125 0.381527 0.243468
0.214853 0.394998 0.257666
0.261086 0.413093 0.271093
0.320315 0.435147 0.286626
0.382333 0.455936 0.308220
0.449859 0.479058 0.330497
0.517335 0.503318 0.357115
0.592651 0.520976 0.379899
0.189673 0.436677 0.274528
0.220315 0.451293 0.283615
0.268788 0.470342 0.300040
0.329285 0.492156 0.317086
0.389860 0.515011 0.334996
0.453810 0.540052 0.359691
0.520861 0.565326 0.385301
0.595111 0.586181 0.404989
0.101193 0.110182 0.168467
0.143518 0.117788 0.157218
0.201597 0.130584 0.146813
0.270941 0.146698 0.143235
0.344157 0.161132 0.164088
0.424542 0.170662 0.189141
0.511700 0.176013 0.212514
0.595997 0.182801 0.237283
0.106172 0.162404 0.156150
0.185361 0.199262 0.227164
0.247484 0.208890 0.216170
0.321346 0.216747 0.213133
0.397484 0.222753 0.218772
0.480519 0.231323 0.228596
0.564923 0.240010 0.248569
0.650975 0.248796 0.273881
0.131038 0.197382 0.168703
0.194391 0.243146 0.235820
0.247850 0.257285 0.234757
0.318846 0.264249 0.233291
0.394439 0.272764 0.238844
0.477574 0.280825 0.249223
0.560857 0.291893 0.268487
0.645586 0.300317 0.293941
0.144382 0.240489 0.186762
0.203404 0.288978 0.252190
0.256184 0.304185 0.253308
0.318363 0.319694 0.256395
0.390501 0.330324 0.262338
0.471407 0.341531 0.273396
0.553613 0.353103 0.293166
0.635300 0.365516 0.316778
0.161294 0.285586 0.208035
0.214863 0.335364 0.272223
0.263945 0.352349 0.274708
0.323860 0.371504 0.278889
0.388751 0.390765 0.289675
0.466309 0.402765 0.301915
0.546819 0.416654 0.319466
0.625368 0.431044 0.343838
0.170359 0.336376 0.230021
0.220524 0.387608 0.295080
0.270251 0.406398 0.298778
0.331726 0.427501 0.304617
0.394590 0.448076 0.317490
0.462566 0.468988 0.332960
0.539975 0.484037 0.352038
0.616281 0.499855 0.376254
0.175467 0.389514 0.254594
0.230429 0.443571 0.317874
0.281958 0.462451 0.325656
0.340321 0.483651 0.332227
0.400860 0.506482 0.344697
0.466747 0.529794 0.363504
0.533444 0.555214 0.385738
0.615409 0.569212 0.402015
0.186305 0.443925 0.285270
0.242747 0.501712 0.345050
0.290255 0.521742 0.355503
0.346489 0.543845 0.361951
0.407667 0.567070 0.374716
0.472900 0.591393 0.396092
0.547319 0.613328 0.407537
0.627216 0.634215 0.420539
0.098484 0.120753 0.223483
0.119518 0.119992 0.207761
0.169234 0.130421 0.193370
0.236328 0.146417 0.181850
0.305046 0.158906 0.181412
0.382247 0.169228 0.183017
0.464831 0.179193 0.201540
0.550987 0.183631 0.226249
0.104460 0.166782 0.203631
0.163631 0.205466 0.275233
0.217736 0.209552 0.267262
0.286198 0.218209 0.255872
0.358021 0.227801 0.251817
0.438747 0.236358 0.253763
0.524534 0.242538 0.262375
0.608331 0.249454 0.273371
0.124869 0.205565 0.193428
0.185624 0.251184 0.264176
0.265934 0.298736 0.342371
0.337785 0.308850 0.335145
0.413275 0.317927 0.332776
0.494331 0.326912 0.334795
0.577418 0.336857 0.339953
0.659088 0.346361 0.349849
0.140753 0.249557 0.206357
0.197728 0.299282 0.279327
0.275127 0.353134 0.355926
0.340247 0.370401 0.358629
0.412788 0.381278 0.357468
0.491688 0.390734 0.359296
0.572844 0.403537 0.366178
0.651444 0.416793 0.376208
0.157744 0.293936 0.225263
0.208460 0.346931 0.296267
0.284751 0.403717 0.374366
0.345660 0.425445 0.379692
0.409653 0.443827 0.381894
0.486812 0.456679 0.386107
0.565287 0.469844 0.394160
0.641869 0.483321 0.405403
0.166487 0.343780 0.245937
0.220425 0.399085 0.316948
0.293266 0.459209 0.396107
0.353732 0.481407 0.402453
0.414315 0.502517 0.406082
0.481606 0.524567 0.414165
0.557259 0.539806 0.423204
0.641025 0.552888 0.428387
0.170813 0.399398 0.270828
0.226548 0.454509 0.340499
0.303772 0.516311 0.420482
0.360134 0.540172 0.427807
0.421307 0.563292 0.432529
0.486338 0.586234 0.441487
0.563141 0.606659 0.444144
0.649800 0.618848 0.445484
0.181489 0.451835 0.297221
0.237048 0.512661 0.365675
0.313748 0.575511 0.446156
0.367940 0.600527 0.454801
0.429706 0.623674 0.458194
0.504896 0.642651 0.457619
0.583487 0.663345 0.459107
0.663229 0.682303 0.461360
0.099122 0.127654 0.276466
0.101397 0.128285 0.261535
0.151539 0.133359 0.246114
0.202350 0.144904 0.233568
0.268886 0.156304 0.221458
0.340349 0.170139 0.218469
0.420154 0.179468 0.220040
0.504986 0.184362 0.226447
0.105321 0.170963 0.255638
0.135463 0.209533 0.328453
0.192207 0.212997 0.320912
0.250400 0.222130 0.307237
0.321387 0.228840 0.295468
0.397574 0.239673 0.291460
0.479673 0.245513 0.291675
0.562757 0.253534 0.297590
0.121837 0.213851 0.238970
0.165130 0.257974 0.314365
0.242725 0.304624 0.392495
0.304437 0.313893 0.388770
0.378375 0.324928 0.379948
0.454730 0.333642 0.377675
0.537176 0.342607 0.379092
0.618374 0.353746 0.382891
0.134068 0.256285 0.232212
0.189576 0.307600 0.305634
0.269600 0.364346 0.388472
0.360171 0.423287 0.470959
0.433573 0.434936 0.469448
0.511220 0.446441 0.468626
0.589485 0.458968 0.472411
0.665276 0.470825 0.477029
0.150412 0.303999 0.245930
0.200575 0.356393 0.319997
0.279360 0.416778 0.403468
0.369735 0.481702 0.489644
0.433858 0.504934 0.497536
0.507770 0.517688 0.497757
0.585995 0.529561 0.499921
0.671064 0.540892 0.496779
0.158825 0.354226 0.264385
0.213588 0.408643 0.340338
0.292537 0.471478 0.424984
0.378549 0.538990 0.511804
0.439106 0.564958 0.520041
0.507020 0.586474 0.521633
0.593939 0.595576 0.514210
0.679314 0.607067 0.508451
0.166289 0.407442 0.287292
0.224090 0.465389 0.361369
0.301029 0.529404 0.447690
0.385905 0.599228 0.536285
0.452347 0.623539 0.538322
0.527340 0.642573 0.532581
0.606030 0.661270 0.527782
0.689613 0.671475 0.522747
0.177567 0.463420 0.312856
0.228810 0.523708 0.385466
0.310206 0.589398 0.472992
0.404054 0.655364 0.552710
0.475899 0.677806 0.550055
0.551176 0.697806 0.543463
0.629334 0.716043 0.539643
0.703822 0.734429 0.536324
0.093765 0.131829 0.330726
0.095299 0.134069 0.313891
0.123394 0.136878 0.299786
0.178427 0.144839 0.285527
0.234541 0.155480 0.270380
0.305639 0.167040 0.259609
0.381294 0.179571 0.254100
0.461617 0.185916 0.254287
0.097301 0.174738 0.308871
0.113905 0.214841 0.378208
0.168703 0.217739 0.371361
0.227520 0.222746 0.358997
0.285691 0.231410 0.346461
0.360378 0.240087 0.335671
0.438433 0.249305 0.331932
0.520255 0.257389 0.331509
0.111966 0.219332 0.289166
0.145695 0.262609 0.364715
0.224251 0.309244 0.441908
0.283143 0.317499 0.437655
0.343474 0.326085 0.427738
0.419613 0.336812 0.420797
0.497310 0.346796 0.418139
0.576603 0.358524 0.420140
0.128671 0.265406 0.276692
0.172602 0.313226 0.352552
0.251474 0.370425 0.434707
0.341640 0.429539 0.519423
0.403286 0.443532 0.518895
0.477983 0.455146 0.515356
0.554779 0.465999 0.515794
0.630472 0.478880 0.518127
0.143993 0.311270 0.270506
0.193177 0.365936 0.347827
0.272514 0.426232 0.431105
0.366351 0.494447 0.521697
0.455440 0.561343 0.605377
0.536261 0.572441 0.601153
0.622728 0.581774 0.591252
0.705863 0.591153 0.583370
0.153184 0.362041 0.286153
0.205992 0.419599 0.364395
0.284302 0.482949 0.448179
0.377419 0.553078 0.542210
0.475039 0.620261 0.618733
0.554411 0.641808 0.615697
0.639057 0.651222 0.606894
0.721180 0.660808 0.598471
0.165256 0.415863 0.308833
0.215926 0.476271 0.383720
0.297028 0.539903 0.470546
0.386787 0.612432 0.565474
0.499831 0.674680 0.628415
0.575989 0.697478 0.624976
0.653937 0.715367 0.617795
0.733670 0.724381 0.609709
0.174396 0.471660 0.330169
0.224227 0.534199 0.406193
0.306535 0.600021 0.495052
0.408549 0.667403 0.578463
0.525973 0.728159 0.637584
0.601499 0.749678 0.634593
0.676936 0.767993 0.627355
0.748146 0.784585 0.621544
0.087424 0.141227 0.384812
0.088206 0.141634 0.368929
0.098328 0.140907 0.353292
0.156906 0.145633 0.339070
0.210692 0.153872 0.324915
0.267694 0.165972 0.311013
0.342900 0.178739 0.300477
0.421122 0.185508 0.293782
0.087846 0.179426 0.362855
0.091995 0.219084 0.430427
0.139679 0.223194 0.420629
0.201324 0.225715 0.410954
0.263842 0.234023 0.398874
0.323949 0.242392 0.387362
0.399723 0.251128 0.377467
0.478778 0.260278 0.373345
0.096826 0.225176 0.342380
0.127252 0.267990 0.415089
0.204864 0.315000 0.491910
0.262808 0.322554 0.488157
0.321767 0.329027 0.478723
0.383269 0.339933 0.468405
0.460166 0.349903 0.462009
0.537386 0.361092 0.459818
0.125321 0.271518 0.326191
0.152354 0.320438 0.401457
0.234098 0.375884 0.483741
0.324957 0.434800 0.568148
0.385395 0.446045 0.568456
0.444097 0.458001 0.560726
0.518818 0.470618 0.558149
0.591392 0.483087 0.558150
0.130803 0.320855 0.315925
0.176726 0.373428 0.392157
0.257461 0.434988 0.475097
0.349212 0.503271 0.567441
0.441871 0.569177 0.654004
0.509902 0.582866 0.649725
0.590918 0.591616 0.638468
0.674759 0.599902 0.628915
0.147677 0.370649 0.313142
0.198864 0.429087 0.389544
0.279131 0.492341 0.475786
0.371016 0.564883 0.568849
0.480291 0.632478 0.648401
0.600878 0.692468 0.707262
0.681938 0.703632 0.699493
0.760722 0.712815 0.688727
0.159376 0.425842 0.329568
0.210085 0.486462 0.407738
0.291250 0.550824 0.494303
0.385591 0.623206 0.588500
0.506051 0.687459 0.656937
0.627683 0.748453 0.717179
0.705223 0.769885 0.714435
0.781282 0.778631 0.704072
0.168143 0.481333 0.352366
0.218680 0.544700 0.428642
0.301460 0.610997 0.518899
0.410149 0.677192 0.599789
0.533903 0.738701 0.666865
0.654123 0.799220 0.726387
0.729131 0.820440 0.723336
0.797425 0.834686 0.714767
0.087424 0.147970 0.438536
0.087424 0.145875 0.422202
0.087662 0.146604 0.406229
0.121482 0.149157 0.392769
0.187384 0.154850 0.379297
0.246520 0.164276 0.363855
0.305771 0.175071 0.351200
0.381596 0.185172 0.342357
0.087424 0.185123 0.416188
0.087774 0.222837 0.483534
0.116192 0.226757 0.472194
0.180379 0.229618 0.461872
0.241012 0.233679 0.451251
0.303915 0.243887 0.437657
0.363693 0.252587 0.427346
0.440722 0.262385 0.419151
0.091297 0.230144 0.396035
0.108220 0.272801 0.466455
0.186962 0.320473 0.542823
0.247687 0.326016 0.538711
0.304156 0.332415 0.530258
0.365521 0.340699 0.517954
0.424174 0.352531 0.509783
0.499884 0.363328 0.503996
0.113712 0.278279 0.378376
0.136460 0.327373 0.451406
0.215963 0.382227 0.533035
0.309130 0.440964 0.619078
0.367749 0.451258 0.619095
0.427123 0.460786 0.610202
0.485896 0.473782 0.603808
0.555816 0.487248 0.600831
0.129811 0.328006 0.365578
0.165432 0.380663 0.440396
0.241413 0.441870 0.523945
0.334018 0.510083 0.616488
0.424414 0.575252 0.704917
0.494667 0.587120 0.698068
0.559176 0.596805 0.684308
0.638698 0.606377 0.672652
0.137884 0.382205 0.356966
0.177777 0.437148 0.433699
0.262329 0.503296 0.519756
0.355308 0.574848 0.613132
0.467363 0.642660 0.691541
0.590192 0.701879 0.756265
0.658327 0.714686 0.750946
0.736190 0.722407 0.738659
0.154910 0.436660 0.355820
0.199087 0.496872 0.434181
0.284745 0.562960 0.522203
0.382859 0.634075 0.612503
0.507373 0.696967 0.681100
0.633193 0.761840 0.751252
0.750982 0.818560 0.811490
0.824555 0.828005 0.801872
0.165101 0.491095 0.376631
0.209897 0.556224 0.453178
0.295839 0.622731 0.543011
0.411055 0.687905 0.621790
0.536448 0.748485 0.688762
0.662095 0.811388 0.757843
0.780357 0.866960 0.822867
0.848326 0.884438 0.817833
0.087424 0.152995 0.491575
0.087424 0.151489 0.475154
0.087424 0.153495 0.459867
0.092935 0.154500 0.442472
0.157084 0.156573 0.429731
0.223178 0.165322 0.416906
0.285108 0.172461 0.401886
0.340924 0.187724 0.391565
0.087424 0.189721 0.469628
0.087462 0.229751 0.536358
0.094524 0.231025 0.523403
0.156912 0.233939 0.512549
0.217396 0.237638 0.501810
0.284275 0.242936 0.489204
0.344252 0.253453 0.476879
0.402534 0.264402 0.467992
0.088433 0.234279 0.448360
0.091414 0.278225 0.517905
0.172572 0.327236 0.594467
0.230587 0.331292 0.588620
0.284446 0.336572 0.580443
0.346884 0.345014 0.569493
0.407720 0.355535 0.558838
0.463881 0.366021 0.551463
0.105371 0.283959 0.429814
0.128346 0.333581 0.502194
0.199774 0.388411 0.583831
0.293340 0.447363 0.670957
0.351217 0.456893 0.671276
0.411276 0.464514 0.661678
0.468403 0.477963 0.652706
0.524308 0.488675 0.646727
0.117230 0.335325 0.414890
0.157155 0.388995 0.489685
0.229647 0.449066 0.573854
0.319370 0.516484 0.667037
0.409440 0.581407 0.756672
0.478201 0.591102 0.750886
0.545307 0.600172 0.732937
0.607625 0.610288 0.719623
0.134907 0.389990 0.405397
0.174369 0.444876 0.481729
0.249808 0.511162 0.566895
0.341230 0.582881 0.660680
0.453114 0.649685 0.740746
0.575460 0.707971 0.808618
0.647216 0.719566 0.801230
0.706345 0.728120 0.786381
0.142291 0.444988 0.399480
0.182994 0.505245 0.477666
0.266545 0.573334 0.563482
0.368169 0.644313 0.653847
0.494028 0.707979 0.721686
0.624197 0.771062 0.794671
0.743305 0.827625 0.863100
0.804351 0.838305 0.856175
0.160491 0.500036 0.401346
0.205875 0.566804 0.480013
0.290622 0.633815 0.568387
0.408482 0.698768 0.644272
0.537458 0.758939 0.712340
0.664689 0.819576 0.783450
0.785529 0.877842 0.856818
0.889593 0.926190 0.917607
