gsg/04_Specialty/GSG_LUT_Specialty_InstantPhoto.cube
# GSG LUTs 1.0
# Copyright (c) 2016-2020 Greyscalegorilla
# See EULA for licensing and distribution information
# Converted by Briz LUT Converter
LUT_3D_SIZE 32
0.000000 0.033211 0.048352
0.000000 0.034968 0.049612
0.000252 0.036465 0.050841
0.005278 0.037725 0.051621
0.019646 0.038891 0.052535
0.032171 0.039356 0.052747
0.044224 0.039608 0.052747
0.056127 0.039805 0.052692
0.068794 0.039931 0.052566
0.083800 0.040506 0.052889
0.100831 0.041341 0.053472
0.119248 0.042436 0.054228
0.138848 0.043696 0.054984
0.159376 0.044956 0.055843
0.180692 0.046327 0.056851
0.202221 0.047958 0.057978
0.223900 0.049596 0.059112
0.245461 0.051243 0.060254
0.266572 0.053007 0.061515
0.286644 0.054921 0.062925
0.305991 0.056938 0.064280
0.325314 0.059120 0.065706
0.344897 0.061215 0.067218
0.364741 0.063413 0.068912
0.385033 0.065871 0.070487
0.405254 0.068392 0.072197
0.426035 0.070913 0.073961
0.446745 0.073433 0.075726
0.468077 0.076175 0.077711
0.489275 0.078948 0.079727
0.511395 0.081720 0.081744
0.533089 0.084737 0.083761
0.000000 0.050605 0.051384
0.000002 0.052109 0.052637
0.000678 0.053582 0.053842
0.011084 0.054581 0.054370
0.025453 0.055481 0.055062
0.038023 0.055692 0.055268
0.050272 0.055684 0.055221
0.062057 0.055623 0.054967
0.074211 0.055492 0.054772
0.088774 0.055801 0.054911
0.105460 0.056376 0.055407
0.123447 0.057208 0.055990
0.142681 0.058112 0.056647
0.162694 0.059066 0.057352
0.183490 0.060207 0.058246
0.204616 0.061444 0.059120
0.225905 0.062818 0.060124
0.246953 0.064205 0.061258
0.267548 0.065704 0.062373
0.287398 0.067210 0.063527
0.306424 0.068870 0.064784
0.325569 0.070624 0.066204
0.344971 0.072380 0.067541
0.364735 0.074312 0.068977
0.384647 0.076318 0.070487
0.404752 0.078327 0.072000
0.425326 0.080533 0.073710
0.445989 0.082786 0.075467
0.467320 0.085053 0.077230
0.488511 0.087535 0.078995
0.510394 0.090040 0.080988
0.532081 0.092552 0.083004
0.000000 0.067998 0.054646
0.000067 0.069242 0.055654
0.002970 0.070455 0.056615
0.017135 0.071173 0.057141
0.031549 0.071643 0.057789
0.044287 0.071803 0.057789
0.056292 0.071548 0.057738
0.067825 0.071276 0.057419
0.079704 0.070999 0.057036
0.093926 0.070884 0.057096
0.110179 0.071199 0.057348
0.127727 0.071692 0.057681
0.146390 0.072279 0.058175
0.166027 0.073016 0.058775
0.186303 0.073868 0.059522
0.206909 0.074852 0.060389
0.227799 0.075844 0.061263
0.248579 0.076970 0.062144
0.268777 0.078081 0.063145
0.288123 0.079369 0.064154
0.306939 0.080702 0.065309
0.325902 0.082112 0.066554
0.345055 0.083608 0.067809
0.364564 0.085104 0.069069
0.384398 0.086789 0.070507
0.404309 0.088537 0.072015
0.424824 0.090286 0.073515
0.445293 0.092034 0.075025
0.466567 0.094209 0.076758
0.487549 0.096232 0.078507
0.509417 0.098247 0.080271
0.531104 0.100492 0.082264
0.000000 0.085368 0.057671
0.000263 0.086375 0.058671
0.009045 0.087328 0.059410
0.023254 0.087810 0.059892
0.037872 0.088248 0.060330
0.050589 0.088184 0.060306
0.062589 0.087860 0.060196
0.073995 0.087282 0.059706
0.085377 0.086646 0.059246
0.099163 0.086440 0.059129
0.115058 0.086494 0.059357
0.132166 0.086809 0.059593
0.150456 0.087194 0.059939
0.169573 0.087626 0.060434
0.189339 0.088248 0.061024
0.209449 0.088846 0.061767
0.229831 0.089590 0.062511
0.250216 0.090454 0.063256
0.270129 0.091427 0.064154
0.289205 0.092411 0.065148
0.307629 0.093411 0.066147
0.326259 0.094552 0.067155
0.345314 0.095781 0.068320
0.364629 0.097034 0.069573
0.384222 0.098447 0.070816
0.404061 0.099930 0.072268
0.424381 0.101418 0.073575
0.444991 0.102926 0.075048
0.465879 0.104638 0.076760
0.487008 0.106378 0.078294
0.508890 0.108355 0.080020
0.530576 0.110323 0.081783
0.000000 0.102572 0.060696
0.001077 0.103509 0.061665
0.015392 0.104234 0.062389
0.029808 0.104504 0.062662
0.044397 0.104856 0.063047
0.056922 0.104560 0.062817
0.068874 0.103982 0.062533
0.080020 0.103219 0.062145
0.091133 0.102493 0.061515
0.104562 0.102036 0.061325
0.119937 0.101853 0.061302
0.136536 0.101896 0.061389
0.154326 0.102013 0.061711
0.172922 0.102204 0.062087
0.192267 0.102566 0.062454
0.212085 0.102919 0.063044
0.232076 0.103516 0.063657
0.251956 0.104108 0.064296
0.271367 0.104736 0.065175
0.290071 0.105459 0.066021
0.308365 0.106341 0.066914
0.326834 0.107172 0.067911
0.345639 0.108080 0.068920
0.364717 0.109213 0.070086
0.384204 0.110268 0.071149
0.403877 0.111448 0.072526
0.424134 0.112676 0.073827
0.444519 0.114116 0.075273
0.465375 0.115596 0.076781
0.486297 0.117076 0.078294
0.508165 0.118793 0.079806
0.529820 0.120280 0.081563
0.000000 0.120178 0.063721
0.006358 0.120689 0.064475
0.021949 0.121373 0.065162
0.036402 0.121564 0.065414
0.050991 0.121528 0.065630
0.063509 0.121163 0.065517
0.075379 0.120399 0.065012
0.086265 0.119547 0.064444
0.097053 0.118571 0.063773
0.109973 0.117934 0.063492
0.124855 0.117626 0.063319
0.141010 0.117360 0.063391
0.158416 0.117177 0.063524
0.176492 0.117246 0.063712
0.195317 0.117342 0.064083
0.214633 0.117559 0.064453
0.234214 0.117897 0.064957
0.253679 0.118242 0.065574
0.272710 0.118706 0.066289
0.291032 0.119193 0.067029
0.308998 0.119804 0.067785
0.327325 0.120533 0.068680
0.345953 0.121261 0.069676
0.364940 0.121976 0.070655
0.384088 0.122881 0.071684
0.403805 0.123849 0.072866
0.423883 0.124849 0.074119
0.444043 0.126036 0.075379
0.464871 0.127256 0.076824
0.485793 0.128476 0.078333
0.507623 0.129932 0.079846
0.529103 0.131199 0.081563
0.000567 0.137666 0.066745
0.012763 0.138123 0.067447
0.028611 0.138592 0.067935
0.043255 0.138544 0.068182
0.057838 0.138438 0.068329
0.070275 0.137887 0.068037
0.081885 0.137034 0.067524
0.092510 0.135933 0.066882
0.102985 0.134786 0.066024
0.115466 0.133995 0.065556
0.129954 0.133366 0.065367
0.145620 0.132963 0.065319
0.162506 0.132630 0.065288
0.180082 0.132498 0.065391
0.198413 0.132335 0.065621
0.217285 0.132382 0.065966
0.236346 0.132459 0.066445
0.255326 0.132567 0.066927
0.273957 0.132798 0.067431
0.292029 0.133141 0.068056
0.309797 0.133451 0.068794
0.327756 0.134002 0.069550
0.346219 0.134537 0.070446
0.365005 0.135027 0.071259
0.384088 0.135684 0.072357
0.403601 0.136391 0.073410
0.423459 0.137303 0.074623
0.443586 0.138263 0.075842
0.464371 0.139265 0.077096
0.485245 0.140229 0.078585
0.506919 0.141425 0.080098
0.528552 0.142637 0.081610
0.004364 0.155619 0.069770
0.019577 0.155822 0.070273
0.035669 0.156225 0.070708
0.050313 0.155973 0.070936
0.064863 0.155675 0.070898
0.077049 0.154996 0.070558
0.088445 0.153941 0.069996
0.098797 0.152668 0.069195
0.108956 0.151414 0.068439
0.121021 0.150419 0.067809
0.134952 0.149624 0.067517
0.150231 0.148935 0.067265
0.166596 0.148468 0.067086
0.183734 0.148159 0.067155
0.201660 0.147875 0.067297
0.219916 0.147596 0.067507
0.238456 0.147413 0.067828
0.257042 0.147387 0.068187
0.275291 0.147464 0.068691
0.292959 0.147554 0.069195
0.310426 0.147698 0.069821
0.328278 0.148021 0.070521
0.346505 0.148316 0.071259
0.365056 0.148709 0.072015
0.384045 0.149156 0.072961
0.403387 0.149647 0.073969
0.423161 0.150310 0.075136
0.443279 0.151010 0.076175
0.463886 0.151929 0.077404
0.484556 0.152704 0.078841
0.506355 0.153643 0.080350
0.527796 0.154650 0.081862
0.010981 0.173831 0.072795
0.026452 0.173839 0.073229
0.042727 0.174056 0.073477
0.057371 0.173738 0.073646
0.071897 0.173335 0.073583
0.083908 0.172316 0.073069
0.095202 0.171208 0.072429
0.105252 0.169878 0.071513
0.114939 0.168364 0.070708
0.126538 0.167127 0.070004
0.140083 0.166178 0.069534
0.154841 0.165356 0.069260
0.170687 0.164630 0.068991
0.187304 0.164087 0.068930
0.204709 0.163636 0.068998
0.222475 0.163197 0.069117
0.240527 0.162819 0.069243
0.258696 0.162631 0.069476
0.276548 0.162433 0.069952
0.293876 0.162441 0.070417
0.311164 0.162471 0.070897
0.328801 0.162448 0.071401
0.346678 0.162577 0.072078
0.365072 0.162764 0.072835
0.383899 0.163000 0.073731
0.403097 0.163398 0.074674
0.422740 0.163837 0.075671
0.442783 0.164331 0.076734
0.463382 0.164999 0.077914
0.483993 0.165690 0.079168
0.505605 0.166442 0.080665
0.527039 0.167317 0.082114
0.017858 0.192446 0.075749
0.033581 0.192380 0.076001
0.049856 0.192516 0.076238
0.064500 0.192005 0.076231
0.079017 0.191374 0.076104
0.090937 0.190327 0.075560
0.102017 0.189039 0.074790
0.111733 0.187554 0.073922
0.121076 0.185852 0.072976
0.132240 0.184440 0.072220
0.145214 0.183308 0.071599
0.159452 0.182252 0.071212
0.174777 0.181338 0.070869
0.190874 0.180625 0.070724
0.207758 0.179928 0.070582
0.225092 0.179290 0.070666
0.242754 0.178839 0.070755
0.260437 0.178384 0.070889
0.277873 0.177981 0.071242
0.294911 0.177805 0.071566
0.311822 0.177620 0.071976
0.329134 0.177486 0.072480
0.346930 0.177412 0.073107
0.365137 0.177392 0.073843
0.383844 0.177526 0.074544
0.402733 0.177705 0.075342
0.422399 0.177943 0.076257
0.442240 0.178346 0.077405
0.462807 0.178777 0.078500
0.483249 0.179274 0.079743
0.504849 0.179946 0.081171
0.526283 0.180456 0.082508
0.024995 0.211761 0.078601
0.040894 0.211514 0.078851
0.057245 0.211401 0.079011
0.071882 0.210800 0.078987
0.086305 0.210002 0.078693
0.098049 0.208873 0.078081
0.108929 0.207452 0.077278
0.118270 0.205670 0.076251
0.127222 0.203887 0.075245
0.138037 0.202316 0.074489
0.150398 0.200857 0.073786
0.164062 0.199630 0.073229
0.178867 0.198655 0.072788
0.194443 0.197700 0.072521
0.210808 0.196766 0.072389
0.227621 0.196047 0.072308
0.244852 0.195376 0.072268
0.262141 0.194710 0.072401
0.279138 0.194171 0.072608
0.295795 0.193768 0.072827
0.312415 0.193435 0.073236
0.329521 0.193101 0.073687
0.347149 0.192824 0.074166
0.365182 0.192694 0.074851
0.383648 0.192613 0.075418
0.402481 0.192595 0.076253
0.421936 0.192734 0.077107
0.441585 0.192905 0.078089
0.462058 0.193218 0.079389
0.482492 0.193706 0.080731
0.503940 0.194286 0.082149
0.525212 0.194872 0.083737
0.032305 0.231683 0.081539
0.048297 0.231431 0.081783
0.064808 0.231142 0.081778
0.079420 0.230304 0.081673
0.093615 0.229474 0.081358
0.105305 0.228099 0.080602
0.115875 0.226522 0.079798
0.124999 0.224613 0.078735
0.133539 0.222570 0.077578
0.143798 0.220787 0.076732
0.155641 0.219213 0.075915
0.168673 0.217812 0.075245
0.182957 0.216598 0.074741
0.198013 0.215403 0.074405
0.213857 0.214345 0.074245
0.230192 0.213413 0.073993
0.246947 0.212567 0.073867
0.263807 0.211769 0.073953
0.280454 0.211054 0.074024
0.296713 0.210477 0.074174
0.313065 0.209917 0.074528
0.329994 0.209382 0.074836
0.347332 0.208990 0.075261
0.365204 0.208648 0.075882
0.383453 0.208374 0.076494
0.402159 0.208249 0.077215
0.421458 0.208159 0.078103
0.441005 0.208221 0.079173
0.461240 0.208830 0.080868
0.481487 0.209513 0.082649
0.502352 0.210600 0.084834
0.523014 0.211714 0.087046
0.039710 0.252479 0.084407
0.055862 0.252130 0.084556
0.072458 0.251739 0.084541
0.086967 0.250745 0.084279
0.101008 0.249809 0.083879
0.112600 0.248281 0.083123
0.123011 0.246577 0.082319
0.131713 0.244429 0.081234
0.139822 0.242199 0.079964
0.149589 0.240155 0.078955
0.160867 0.238372 0.078026
0.173378 0.236795 0.077323
0.187142 0.235341 0.076758
0.201677 0.233983 0.076316
0.217001 0.232735 0.076009
0.232846 0.231629 0.075757
0.249113 0.230524 0.075582
0.265504 0.229552 0.075537
0.281674 0.228611 0.075537
0.297625 0.227844 0.075686
0.313794 0.227146 0.075877
0.330378 0.226491 0.076160
0.347517 0.225889 0.076549
0.365175 0.225357 0.077096
0.383310 0.224969 0.077813
0.401799 0.224696 0.078569
0.421048 0.224523 0.079484
0.440376 0.224711 0.080779
0.460265 0.225796 0.083190
0.480096 0.227088 0.085751
0.500202 0.229098 0.089022
0.520084 0.231155 0.092434
0.047375 0.274418 0.087432
0.063531 0.273811 0.087329
0.080263 0.273269 0.087313
0.094622 0.272165 0.087038
0.108551 0.271081 0.086502
0.119972 0.269423 0.085729
0.130123 0.267478 0.084840
0.138541 0.265186 0.083721
0.146234 0.262812 0.082308
0.155458 0.260508 0.081224
0.166250 0.258465 0.080295
0.178204 0.256681 0.079538
0.191382 0.255063 0.078837
0.205397 0.253488 0.078270
0.220200 0.252039 0.077876
0.235501 0.250673 0.077575
0.251224 0.249360 0.077270
0.267177 0.248177 0.077152
0.282953 0.247063 0.077152
0.298610 0.246099 0.077238
0.314440 0.245237 0.077359
0.330781 0.244444 0.077657
0.347692 0.243616 0.077955
0.365166 0.243087 0.078645
0.383299 0.242847 0.079745
0.401678 0.242774 0.080924
0.420813 0.243024 0.082599
0.439905 0.243643 0.084511
0.459398 0.245144 0.087493
0.478763 0.246894 0.090719
0.498207 0.249368 0.094466
0.517413 0.251889 0.098389
0.055189 0.297436 0.090346
0.071453 0.296684 0.090209
0.088078 0.296026 0.090086
0.102422 0.294768 0.089811
0.116195 0.293466 0.089261
0.127402 0.291644 0.088369
0.137363 0.289466 0.087361
0.145400 0.287029 0.086242
0.152694 0.284422 0.084793
0.161463 0.281940 0.083603
0.171598 0.279637 0.082638
0.182946 0.277593 0.081807
0.195582 0.275757 0.081051
0.209031 0.274003 0.080351
0.223299 0.272312 0.079843
0.238156 0.270739 0.079466
0.253374 0.269296 0.079145
0.268867 0.267922 0.078966
0.284255 0.266612 0.078916
0.299519 0.265433 0.078916
0.315105 0.264382 0.079074
0.331321 0.263390 0.079326
0.348017 0.262467 0.079656
0.365418 0.262035 0.080565
0.383442 0.262332 0.082426
0.401788 0.262900 0.084621
0.420712 0.263996 0.087455
0.439543 0.265441 0.090527
0.458577 0.267270 0.093880
0.477395 0.269252 0.097500
0.496317 0.271633 0.101272
0.515113 0.274150 0.105053
0.063122 0.321470 0.093237
0.079515 0.320714 0.093229
0.096002 0.319918 0.092970
0.110237 0.318524 0.092583
0.123975 0.316965 0.092016
0.134929 0.315018 0.091008
0.144717 0.312702 0.089977
0.152359 0.310100 0.088763
0.159236 0.307268 0.087313
0.167484 0.304625 0.086090
0.177056 0.302099 0.084997
0.187798 0.299875 0.084076
0.199924 0.297786 0.083320
0.212796 0.295774 0.082563
0.226473 0.293814 0.081917
0.240811 0.292046 0.081474
0.255501 0.290411 0.081161
0.270547 0.288842 0.080909
0.285543 0.287402 0.080799
0.300636 0.286165 0.081016
0.316216 0.285184 0.081463
0.332501 0.284372 0.082199
0.349219 0.283779 0.083235
0.366615 0.283716 0.084892
0.384639 0.284312 0.087342
0.402795 0.285361 0.090182
0.421362 0.287006 0.093592
0.439812 0.288668 0.097231
0.458328 0.290638 0.100883
0.476749 0.292772 0.104541
0.495159 0.295033 0.108315
0.513569 0.297428 0.112214
0.071188 0.346552 0.096262
0.087581 0.345665 0.096128
0.104061 0.344740 0.095860
0.118165 0.343215 0.095356
0.131773 0.341526 0.094789
0.142577 0.339450 0.093781
0.152104 0.337003 0.092725
0.159458 0.334271 0.091410
0.165912 0.331276 0.089928
0.173603 0.328410 0.088574
0.182565 0.325713 0.087392
0.192742 0.323274 0.086426
0.204218 0.320956 0.085588
0.216545 0.318713 0.084832
0.229718 0.316639 0.084129
0.243527 0.314611 0.083617
0.257761 0.312781 0.083239
0.272287 0.311081 0.082926
0.286909 0.309439 0.082815
0.301973 0.308250 0.083419
0.317765 0.307611 0.084598
0.334396 0.307446 0.086456
0.351504 0.307633 0.088793
0.369010 0.308257 0.091564
0.386839 0.309211 0.094567
0.404734 0.310418 0.097695
0.422724 0.311982 0.101154
0.440743 0.313514 0.104683
0.458755 0.315353 0.108319
0.476656 0.317240 0.111977
0.494667 0.319485 0.115751
0.512561 0.321754 0.119776
0.079389 0.372681 0.099287
0.095782 0.371668 0.099035
0.112253 0.370499 0.098767
0.126207 0.368963 0.098250
0.139572 0.367150 0.097579
0.150232 0.364938 0.096666
0.159500 0.362344 0.095498
0.166563 0.359377 0.094183
0.172588 0.356249 0.092670
0.179725 0.353256 0.091228
0.188082 0.350388 0.090004
0.197739 0.347693 0.088905
0.208648 0.345157 0.087991
0.220376 0.342785 0.087235
0.233080 0.340581 0.086478
0.246636 0.338495 0.086153
0.260834 0.336673 0.086189
0.275392 0.335129 0.086381
0.290116 0.333702 0.086962
0.305325 0.332812 0.088237
0.321320 0.332561 0.090227
0.337933 0.332687 0.092796
0.355067 0.333286 0.095837
0.372404 0.334124 0.098983
0.389773 0.335183 0.102225
0.407338 0.336305 0.105610
0.424755 0.337745 0.109006
0.442336 0.339141 0.112513
0.459858 0.340856 0.116163
0.477240 0.342621 0.119934
0.494845 0.344728 0.123715
0.512088 0.346859 0.127740
0.087849 0.399685 0.102454
0.104237 0.398527 0.102197
0.120564 0.397242 0.101792
0.134391 0.395573 0.101264
0.147510 0.393727 0.100490
0.158006 0.391295 0.099554
0.167013 0.388680 0.098385
0.173791 0.385600 0.096955
0.179406 0.382349 0.095443
0.186022 0.379178 0.094001
0.193813 0.376086 0.092741
0.202853 0.373217 0.091567
0.213242 0.370484 0.090599
0.224404 0.367919 0.089755
0.236509 0.365504 0.089063
0.249962 0.363462 0.089113
0.264623 0.361917 0.089930
0.279702 0.360847 0.091247
0.295028 0.360154 0.093211
0.310662 0.359817 0.095538
0.326756 0.359778 0.098126
0.343123 0.359943 0.100959
0.359760 0.360441 0.104124
0.376567 0.361156 0.107220
0.393525 0.361992 0.110434
0.410488 0.362968 0.113908
0.427476 0.364148 0.117232
0.444436 0.365402 0.120722
0.461519 0.366976 0.124471
0.478523 0.368594 0.128252
0.495480 0.370586 0.132171
0.512371 0.372602 0.136201
0.096420 0.427658 0.105731
0.112660 0.426397 0.105326
0.129023 0.425096 0.104957
0.142685 0.423177 0.104289
0.155544 0.421202 0.103502
0.165780 0.418787 0.102493
0.174527 0.416017 0.101390
0.181045 0.412783 0.099878
0.186334 0.409390 0.098365
0.192430 0.406113 0.096880
0.199715 0.402866 0.095562
0.208427 0.399880 0.094649
0.218817 0.397261 0.094104
0.230201 0.394746 0.093787
0.242667 0.392447 0.093846
0.256379 0.390635 0.094597
0.271174 0.389326 0.096117
0.286228 0.388550 0.098222
0.301603 0.388168 0.100910
0.317182 0.388003 0.103774
0.333006 0.387906 0.106702
0.348996 0.388018 0.109693
0.365178 0.388338 0.112785
0.381479 0.388868 0.115949
0.397880 0.389470 0.119201
0.414350 0.390269 0.122554
0.430912 0.391248 0.125975
0.447280 0.392339 0.129620
0.463828 0.393665 0.133253
0.480408 0.395163 0.137160
0.496897 0.397004 0.141187
0.513325 0.398866 0.145220
0.104990 0.456300 0.109008
0.121286 0.455040 0.108512
0.137430 0.453732 0.108228
0.150979 0.451715 0.107472
0.163578 0.449627 0.106684
0.173579 0.447005 0.105650
0.182168 0.444137 0.104415
0.188298 0.440805 0.102903
0.193303 0.437298 0.101390
0.198949 0.433859 0.099878
0.205684 0.430521 0.098574
0.214426 0.427610 0.098100
0.225377 0.425151 0.098397
0.237625 0.423027 0.099234
0.251386 0.421285 0.100714
0.265661 0.419872 0.102556
0.280245 0.418774 0.104728
0.294813 0.417953 0.107180
0.309652 0.417326 0.109953
0.324751 0.416958 0.112876
0.340054 0.416740 0.115799
0.355523 0.416712 0.118875
0.371252 0.416801 0.121950
0.387060 0.417072 0.125157
0.402868 0.417413 0.128434
0.418745 0.417952 0.131838
0.434775 0.418882 0.135350
0.450759 0.419753 0.138955
0.466807 0.420962 0.142637
0.482867 0.422156 0.146638
0.498927 0.423884 0.150824
0.514743 0.425491 0.155020
0.113726 0.485864 0.112450
0.129938 0.484598 0.111949
0.145903 0.483130 0.111505
0.159289 0.481114 0.110749
0.171777 0.479003 0.109961
0.181532 0.476230 0.108913
0.189980 0.473362 0.107670
0.196122 0.470030 0.106499
0.201294 0.466501 0.105370
0.207361 0.463020 0.104418
0.214566 0.459766 0.103825
0.223907 0.456973 0.104127
0.235435 0.454718 0.105174
0.248140 0.452858 0.106783
0.262153 0.451345 0.109142
0.276202 0.449989 0.111656
0.290185 0.448810 0.114221
0.304238 0.447855 0.116838
0.318496 0.447003 0.119611
0.333005 0.446375 0.122533
0.347788 0.445953 0.125507
0.362736 0.445695 0.128558
0.377945 0.445524 0.131608
0.393232 0.445535 0.134814
0.408519 0.445744 0.138219
0.423940 0.446060 0.141731
0.439464 0.446803 0.145260
0.454859 0.447428 0.148933
0.470527 0.448454 0.152853
0.485927 0.449470 0.156879
0.501456 0.451027 0.161309
0.516917 0.452377 0.165599
0.122722 0.516381 0.115979
0.138682 0.514940 0.115475
0.154631 0.513384 0.114955
0.167748 0.511206 0.114199
0.179913 0.509094 0.113411
0.189558 0.506294 0.112364
0.197844 0.503314 0.111218
0.204363 0.500122 0.110567
0.210417 0.496638 0.110114
0.217746 0.493409 0.110423
0.226473 0.490512 0.111296
0.236849 0.487865 0.112666
0.248651 0.485691 0.114463
0.261202 0.483806 0.116554
0.274483 0.482115 0.119075
0.287616 0.480625 0.121714
0.300728 0.479276 0.124361
0.314087 0.478104 0.127016
0.327837 0.477027 0.129788
0.341865 0.476139 0.132711
0.356128 0.475456 0.135736
0.370556 0.474939 0.138761
0.385244 0.474508 0.141909
0.400011 0.474387 0.145165
0.414778 0.474441 0.148631
0.429741 0.474515 0.152300
0.444760 0.474997 0.156008
0.459567 0.475362 0.159778
0.474775 0.476285 0.163936
0.489751 0.477131 0.167986
0.504765 0.478433 0.172660
0.519611 0.479523 0.177132
0.131616 0.547497 0.119690
0.147505 0.545984 0.119185
0.163449 0.544425 0.118677
0.176521 0.542162 0.118126
0.188955 0.539887 0.117712
0.199179 0.537104 0.117097
0.208167 0.534196 0.116691
0.215556 0.530956 0.116830
0.222622 0.527677 0.117419
0.230919 0.524676 0.118697
0.240521 0.521962 0.120598
0.251147 0.519485 0.122716
0.262807 0.517241 0.124990
0.274855 0.515139 0.127357
0.287136 0.513188 0.129773
0.299316 0.511472 0.132412
0.311797 0.509899 0.135058
0.324651 0.508467 0.137813
0.337889 0.507235 0.140667
0.351315 0.506052 0.143590
0.364987 0.505039 0.146615
0.379018 0.504384 0.149762
0.393115 0.503751 0.153019
0.407309 0.503422 0.156430
0.421696 0.503235 0.159943
0.436034 0.503048 0.163669
0.450498 0.503271 0.167602
0.464941 0.503533 0.171571
0.479652 0.504120 0.175816
0.494174 0.504864 0.180212
0.508673 0.505918 0.184978
0.523108 0.506928 0.189885
0.140628 0.579133 0.123471
0.156511 0.577620 0.122973
0.172308 0.576060 0.122676
0.185960 0.573792 0.122604
0.199020 0.571460 0.122979
0.210682 0.568687 0.123716
0.221454 0.565856 0.124851
0.230341 0.562732 0.126104
0.238335 0.559518 0.127572
0.246997 0.556564 0.129466
0.256343 0.553809 0.131561
0.266489 0.551180 0.133830
0.277426 0.548789 0.136193
0.288469 0.546543 0.138690
0.299770 0.544331 0.141265
0.311421 0.542356 0.143916
0.323480 0.540522 0.146563
0.335844 0.538831 0.149339
0.348452 0.537375 0.152247
0.361356 0.536035 0.155248
0.374556 0.534810 0.158395
0.387981 0.533810 0.161653
0.401607 0.533010 0.165064
0.415317 0.532336 0.168577
0.429232 0.531986 0.172252
0.443013 0.531582 0.176174
0.456944 0.531544 0.180196
0.470922 0.531766 0.184394
0.485121 0.532068 0.189014
0.499122 0.532605 0.193564
0.513101 0.533402 0.198704
0.527079 0.534216 0.203750
0.150490 0.611091 0.128040
0.166778 0.609573 0.128147
0.182965 0.607822 0.128343
0.197595 0.605535 0.129184
0.211611 0.603050 0.130412
0.224445 0.600449 0.132484
0.236437 0.597629 0.134771
0.246295 0.594593 0.136893
0.254945 0.591481 0.139040
0.263543 0.588324 0.141260
0.272305 0.585411 0.143495
0.281638 0.582655 0.145834
0.291646 0.580025 0.148324
0.301993 0.577636 0.150845
0.312881 0.575367 0.153476
0.324051 0.573144 0.156226
0.335517 0.571050 0.158974
0.347360 0.569194 0.161855
0.359530 0.567478 0.164859
0.372006 0.565912 0.167884
0.384708 0.564448 0.171066
0.397575 0.563150 0.174477
0.410702 0.562112 0.178130
0.423907 0.561298 0.181863
0.437302 0.560615 0.185784
0.450563 0.560077 0.189807
0.464138 0.559817 0.194170
0.477628 0.559827 0.198651
0.491128 0.559876 0.203403
0.504590 0.560153 0.208333
0.518239 0.560881 0.213414
0.531703 0.561440 0.218654
0.161393 0.643515 0.133648
0.179469 0.641578 0.135380
0.197398 0.639571 0.137133
0.213049 0.637107 0.139203
0.227842 0.634745 0.141382
0.241016 0.632006 0.144080
0.253023 0.629186 0.146765
0.263027 0.626161 0.149198
0.271734 0.623073 0.151520
0.279974 0.619867 0.153941
0.287990 0.616855 0.156275
0.296597 0.613943 0.158770
0.306085 0.611185 0.161370
0.316028 0.608556 0.164102
0.326537 0.606076 0.166852
0.337302 0.603695 0.169625
0.348223 0.601340 0.172503
0.359658 0.599147 0.175509
0.371427 0.597171 0.178534
0.383403 0.595470 0.181810
0.395584 0.593826 0.185283
0.407931 0.592267 0.188798
0.420537 0.590969 0.192501
0.433222 0.589930 0.196434
0.446097 0.589121 0.200615
0.459002 0.588397 0.205025
0.471965 0.587886 0.209547
0.484909 0.587635 0.214085
0.498031 0.587609 0.218843
0.510988 0.587646 0.223669
0.524161 0.588159 0.228697
0.537107 0.588460 0.233778
0.174186 0.675182 0.141148
0.193891 0.672946 0.144475
0.213000 0.670692 0.147591
0.229448 0.668195 0.150738
0.244736 0.665863 0.153866
0.257904 0.663090 0.156858
0.269658 0.660270 0.159803
0.279443 0.657197 0.162488
0.287865 0.654000 0.164985
0.295603 0.650889 0.167496
0.303194 0.647645 0.169995
0.311619 0.644563 0.172591
0.320820 0.641790 0.175426
0.330487 0.639030 0.178329
0.340521 0.636386 0.181198
0.350773 0.633777 0.184191
0.361393 0.631163 0.187199
0.372315 0.628794 0.190341
