gsg/04_Specialty/GSG_LUT_Specialty_BattleWarmth.cube
# GSG LUTs 1.0
# Copyright (c) 2016-2020 Greyscalegorilla
# See EULA for licensing and distribution information
# Converted by Briz LUT Converter
LUT_3D_SIZE 32
0.055189 0.061783 0.068376
0.068809 0.058514 0.061822
0.082689 0.055709 0.055788
0.096806 0.056237 0.057552
0.110954 0.056993 0.059506
0.125322 0.057789 0.062744
0.139643 0.058750 0.066005
0.153815 0.059561 0.070290
0.168183 0.060507 0.074765
0.182481 0.061334 0.079735
0.196676 0.062421 0.084919
0.211044 0.063594 0.090882
0.225413 0.064603 0.096869
0.239781 0.065611 0.103273
0.254149 0.066730 0.110048
0.268518 0.067990 0.117224
0.283012 0.069250 0.124660
0.297499 0.070511 0.132357
0.311867 0.071771 0.140455
0.326236 0.073032 0.148773
0.340762 0.074450 0.157407
0.355217 0.075962 0.166229
0.369759 0.077301 0.175399
0.384198 0.078743 0.184726
0.398755 0.080255 0.194431
0.413376 0.081768 0.204262
0.427996 0.083280 0.214707
0.442617 0.085005 0.225082
0.457237 0.086770 0.235858
0.471858 0.088306 0.246697
0.486478 0.090055 0.257773
0.501099 0.091819 0.269109
0.066808 0.081697 0.181488
0.076265 0.079721 0.118012
0.086234 0.077908 0.058829
0.100373 0.078665 0.060625
0.114703 0.079459 0.062798
0.128859 0.080422 0.066068
0.143227 0.081232 0.069488
0.157596 0.082187 0.073583
0.171964 0.083012 0.078057
0.186401 0.084021 0.083099
0.200940 0.085029 0.088377
0.215317 0.086037 0.094175
0.229693 0.087046 0.100253
0.244070 0.088153 0.106802
0.258446 0.089409 0.113577
0.272937 0.090551 0.120635
0.287432 0.091685 0.128071
0.301934 0.092946 0.135886
0.316417 0.094348 0.143984
0.330934 0.095711 0.152302
0.345399 0.097129 0.160941
0.359935 0.098476 0.169766
0.374562 0.099909 0.179103
0.389184 0.101422 0.188499
0.403805 0.102934 0.198210
0.418425 0.104447 0.208043
0.433052 0.105966 0.218284
0.447880 0.107685 0.228825
0.462538 0.109236 0.239638
0.477167 0.110970 0.250479
0.492024 0.112734 0.261562
0.506660 0.114498 0.272890
0.078735 0.101800 0.285691
0.084249 0.101053 0.170486
0.090330 0.100185 0.062453
0.104445 0.100965 0.064483
0.118547 0.101944 0.066614
0.132701 0.102753 0.069692
0.147056 0.103761 0.073155
0.161424 0.104770 0.077427
0.175793 0.105778 0.081902
0.190161 0.106786 0.086943
0.204603 0.107800 0.092216
0.219213 0.108819 0.098003
0.233834 0.109827 0.103990
0.248454 0.110835 0.110394
0.263082 0.111954 0.117162
0.277718 0.113096 0.124211
0.292237 0.114231 0.131639
0.306764 0.115482 0.139446
0.321391 0.116868 0.147544
0.335872 0.118234 0.155863
0.350414 0.119648 0.164644
0.365040 0.121000 0.173548
0.379823 0.122428 0.182728
0.394521 0.123936 0.192060
0.409146 0.125448 0.201954
0.423779 0.126973 0.211840
0.438607 0.128680 0.222080
0.453267 0.130230 0.232416
0.468108 0.131963 0.243413
0.482981 0.133513 0.254275
0.497869 0.135263 0.265587
0.512742 0.137028 0.276703
0.084304 0.124692 0.289220
0.089339 0.124259 0.174033
0.095441 0.123835 0.067283
0.109512 0.124637 0.069531
0.123405 0.125645 0.071524
0.137500 0.126657 0.074777
0.151660 0.127685 0.078180
0.166004 0.128694 0.082282
0.180354 0.129708 0.086738
0.194722 0.130734 0.091773
0.209091 0.131821 0.096963
0.223546 0.132995 0.102603
0.238157 0.134012 0.108575
0.252763 0.135035 0.114969
0.267494 0.136153 0.121630
0.282366 0.137296 0.128556
0.297239 0.138430 0.135854
0.312125 0.139557 0.143537
0.326893 0.140707 0.151611
0.341563 0.142088 0.159905
0.356374 0.143424 0.168530
0.371106 0.144850 0.177352
0.385734 0.146189 0.186695
0.400536 0.147631 0.196093
0.415237 0.149143 0.205987
0.430060 0.150853 0.215873
0.444933 0.152412 0.226114
0.459613 0.153925 0.236469
0.474457 0.155658 0.247448
0.489330 0.157423 0.258309
0.504439 0.159187 0.269621
0.519319 0.160928 0.280964
0.090197 0.147316 0.292780
0.095019 0.147604 0.177464
0.101349 0.147103 0.072494
0.115181 0.148114 0.074965
0.129017 0.149151 0.077364
0.142915 0.150199 0.080439
0.156999 0.151418 0.083668
0.171090 0.152452 0.087873
0.185269 0.153523 0.092150
0.199628 0.154722 0.097097
0.213975 0.155821 0.102192
0.228418 0.156985 0.107893
0.242936 0.158108 0.113730
0.257426 0.159279 0.120013
0.272143 0.160402 0.126631
0.286998 0.161542 0.133554
0.301871 0.162693 0.140738
0.316860 0.163836 0.148300
0.331971 0.165001 0.156128
0.347095 0.166111 0.164181
0.362240 0.167277 0.172700
0.377232 0.168682 0.181490
0.392031 0.169988 0.190778
0.406916 0.171397 0.200158
0.421805 0.172926 0.210027
0.436677 0.174617 0.219932
0.451550 0.176171 0.230178
0.466422 0.177683 0.240726
0.481324 0.179416 0.251534
0.496199 0.181181 0.262373
0.511308 0.182945 0.273685
0.526220 0.184497 0.285029
0.096829 0.171263 0.296562
0.101698 0.171916 0.181534
0.108218 0.170759 0.078824
0.121793 0.171791 0.081149
0.135432 0.173025 0.083766
0.149255 0.174107 0.087224
0.163086 0.175367 0.090291
0.176997 0.176581 0.094293
0.191136 0.177683 0.098505
0.205404 0.178944 0.103265
0.219599 0.180138 0.108291
0.233967 0.181260 0.113895
0.248415 0.182520 0.119737
0.263012 0.183780 0.125889
0.277614 0.184948 0.132412
0.292331 0.186096 0.139218
0.307204 0.187357 0.146382
0.322076 0.188617 0.153903
0.337068 0.189878 0.161590
0.352176 0.191012 0.169530
0.367458 0.192193 0.177896
0.382670 0.193454 0.186467
0.398141 0.194569 0.195356
0.413618 0.195770 0.204571
0.428718 0.197347 0.214236
0.443744 0.198834 0.224159
0.458680 0.200364 0.234457
0.473559 0.201883 0.245012
0.488653 0.203616 0.255819
0.503586 0.205380 0.266659
0.518697 0.207145 0.278009
0.533822 0.208909 0.289354
0.103982 0.195258 0.300390
0.109378 0.195559 0.185592
0.115656 0.194249 0.085533
0.129036 0.195281 0.088035
0.142605 0.196542 0.090535
0.156210 0.197802 0.094245
0.169820 0.199063 0.097675
0.183646 0.200334 0.101566
0.197562 0.201643 0.105652
0.211629 0.202938 0.110247
0.225791 0.204199 0.115224
0.240142 0.205476 0.120651
0.254480 0.206767 0.126228
0.268931 0.208047 0.132360
0.283435 0.209335 0.138834
0.298043 0.210595 0.145614
0.312867 0.211880 0.152648
0.327717 0.213163 0.159935
0.342589 0.214424 0.167529
0.357612 0.215713 0.175344
0.372863 0.216992 0.183600
0.388090 0.218252 0.192090
0.403543 0.219512 0.200837
0.419158 0.220773 0.209820
0.434787 0.222070 0.219224
0.450574 0.223182 0.228633
0.465990 0.224695 0.238874
0.481097 0.226183 0.249356
0.496300 0.227867 0.260152
0.511434 0.229627 0.270991
0.526559 0.231392 0.282494
0.541683 0.233156 0.293891
0.111600 0.219457 0.304368
0.118775 0.218900 0.190679
0.123833 0.217838 0.092954
0.137193 0.218922 0.095480
0.150578 0.220182 0.098201
0.164103 0.221442 0.101895
0.177499 0.222713 0.105576
0.191110 0.224073 0.109778
0.204917 0.225572 0.113673
0.218740 0.226988 0.118153
0.232727 0.228306 0.122870
0.246934 0.229690 0.128126
0.261145 0.231129 0.133682
0.275490 0.232526 0.139675
0.289937 0.233928 0.145914
0.304557 0.235215 0.152532
0.319178 0.236630 0.159436
0.333902 0.238039 0.166625
0.348749 0.239324 0.174162
0.363738 0.240734 0.181919
0.378841 0.242089 0.190027
0.394131 0.243387 0.198180
0.409469 0.244704 0.206901
0.425011 0.245981 0.215778
0.440597 0.247430 0.224979
0.456258 0.248746 0.234459
0.472261 0.249847 0.244232
0.488220 0.251077 0.254227
0.503987 0.252508 0.264866
0.519376 0.254141 0.275591
0.534728 0.255845 0.286843
0.549860 0.257608 0.298428
0.119666 0.243720 0.308275
0.128819 0.241849 0.196792
0.132715 0.241104 0.100957
0.146010 0.242365 0.103502
0.159313 0.243625 0.106377
0.172663 0.244896 0.109961
0.185970 0.246244 0.113679
0.199371 0.247706 0.118161
0.212918 0.249171 0.122479
0.226537 0.250568 0.126858
0.240356 0.252125 0.131359
0.254285 0.253660 0.136423
0.268430 0.255213 0.141840
0.282658 0.256725 0.147599
0.296966 0.258156 0.153700
0.311522 0.259569 0.160101
0.326110 0.261082 0.166842
0.340730 0.262594 0.173923
0.355456 0.264038 0.181273
0.370302 0.265462 0.188823
0.385332 0.266833 0.196793
0.400580 0.268282 0.204923
0.415763 0.269794 0.213465
0.431203 0.271172 0.222223
0.446675 0.272638 0.231407
0.462409 0.273953 0.240683
0.478278 0.275267 0.250355
0.494317 0.276537 0.260176
0.510442 0.277854 0.270391
0.526633 0.279121 0.280720
0.542831 0.280557 0.291703
0.558305 0.282185 0.303092
0.128489 0.268171 0.312490
0.139766 0.264665 0.203863
0.142600 0.264477 0.109603
0.155642 0.265737 0.112214
0.168773 0.266998 0.115104
0.182032 0.268297 0.118795
0.195173 0.269776 0.122559
0.208460 0.271149 0.127000
0.221765 0.272661 0.131485
0.235176 0.274245 0.136226
0.248794 0.275953 0.140747
0.262610 0.277575 0.145550
0.276541 0.279227 0.150735
0.290584 0.280813 0.156323
0.304770 0.282398 0.162227
0.319104 0.283950 0.168490
0.333525 0.285499 0.175044
0.348111 0.287046 0.181850
0.362732 0.288700 0.189141
0.377502 0.290208 0.196553
0.392486 0.291654 0.204309
0.407538 0.293166 0.212327
0.422690 0.294729 0.220718
0.437964 0.296262 0.229236
0.453511 0.297775 0.238300
0.469083 0.299147 0.247414
0.484903 0.300626 0.256899
0.500784 0.301988 0.266629
0.516821 0.303478 0.276671
0.533176 0.304762 0.286916
0.549492 0.306091 0.297651
0.565875 0.307354 0.308488
0.137469 0.292623 0.316602
0.151381 0.287198 0.211779
0.152909 0.287594 0.118673
0.165781 0.288928 0.121446
0.178807 0.290199 0.124324
0.191847 0.291555 0.127948
0.204955 0.293001 0.131773
0.218045 0.294531 0.136159
0.231155 0.296105 0.140762
0.244492 0.297688 0.145755
0.257850 0.299453 0.150624
0.271468 0.301158 0.155405
0.285251 0.302847 0.160346
0.299067 0.304659 0.165741
0.313080 0.306424 0.171330
0.327282 0.308109 0.177379
0.341525 0.309788 0.183811
0.355946 0.311462 0.190535
0.370531 0.313151 0.197590
0.385252 0.314766 0.204750
0.400044 0.316330 0.212388
0.414942 0.317923 0.220207
0.430130 0.319579 0.228460
0.445303 0.321198 0.236827
0.460745 0.322730 0.245652
0.476159 0.324306 0.254645
0.491879 0.325834 0.264048
0.507679 0.327346 0.273615
0.523550 0.328930 0.283635
0.539814 0.330295 0.293644
0.555957 0.331797 0.304195
0.572334 0.333066 0.314947
0.147922 0.316641 0.320540
0.163773 0.309641 0.220639
0.163916 0.310538 0.128426
0.176682 0.311955 0.131190
0.189471 0.313325 0.134011
0.202428 0.314812 0.137753
0.215447 0.316192 0.141471
0.228430 0.317740 0.145973
0.241389 0.319397 0.150492
0.254589 0.321045 0.155469
0.267714 0.322809 0.160696
0.281100 0.324604 0.165990
0.294600 0.326519 0.170810
0.308278 0.328434 0.175961
0.322092 0.330237 0.181386
0.336109 0.332091 0.187136
0.350262 0.333901 0.193267
0.364512 0.335665 0.199732
0.378972 0.337480 0.206572
0.393556 0.339184 0.213659
0.408177 0.340888 0.221134
0.423011 0.342652 0.228694
0.438079 0.344305 0.236748
0.453140 0.346024 0.245002
0.468431 0.347666 0.253610
0.483738 0.349395 0.262483
0.499303 0.351028 0.271659
0.514932 0.352554 0.281034
0.530781 0.354287 0.291032
0.546809 0.355904 0.300886
0.563021 0.357423 0.311342
0.579314 0.358777 0.321840
0.160904 0.339738 0.324385
0.176526 0.331788 0.230088
0.175438 0.333467 0.138698
0.188042 0.334751 0.141447
0.200697 0.336264 0.144125
0.213668 0.337776 0.147867
0.226445 0.339307 0.151585
0.239300 0.340896 0.156101
0.252195 0.342471 0.160653
0.265162 0.344236 0.165584
0.278145 0.346031 0.170831
0.291321 0.347912 0.176391
0.304520 0.349868 0.181642
0.318035 0.351822 0.186726
0.331660 0.353794 0.191891
0.345472 0.355863 0.197457
0.359414 0.357802 0.203409
0.373567 0.359664 0.209614
0.387892 0.361613 0.216157
0.402353 0.363480 0.223054
0.416875 0.365306 0.230269
0.431462 0.367104 0.237663
0.446362 0.368935 0.245630
0.461279 0.370727 0.253670
0.476456 0.372565 0.262090
0.491614 0.374351 0.270902
0.507149 0.376116 0.279861
0.522695 0.377750 0.289003
0.538532 0.379580 0.298801
0.554325 0.381354 0.308638
0.570489 0.382974 0.318850
0.586719 0.384489 0.329087
0.174517 0.362574 0.329481
0.189504 0.354235 0.239604
0.187586 0.356311 0.149388
0.200085 0.357680 0.152137
0.212614 0.359114 0.154815
0.225342 0.360715 0.158557
0.237973 0.362275 0.162255
0.250723 0.364008 0.166655
0.263500 0.365662 0.171129
0.276356 0.367427 0.176171
0.289258 0.369270 0.181337
0.302210 0.371200 0.186763
0.315215 0.373059 0.192351
0.328469 0.375076 0.197931
0.341834 0.377249 0.203073
0.355459 0.379456 0.208379
0.369270 0.381525 0.214071
0.383212 0.383591 0.220072
0.397365 0.385667 0.226428
0.411627 0.387640 0.233085
0.425956 0.389602 0.240076
0.440490 0.391522 0.247362
0.455211 0.393493 0.255132
0.469978 0.395405 0.262988
0.485013 0.397385 0.271290
0.500055 0.399287 0.279755
0.515484 0.401071 0.288425
0.530883 0.402925 0.297567
0.546609 0.404831 0.307102
0.562251 0.406705 0.316813
0.578117 0.408476 0.326775
0.594281 0.410099 0.336957
0.188570 0.385151 0.335358
0.202569 0.376785 0.249200
0.200291 0.379007 0.160447
0.212643 0.380506 0.163207
0.225012 0.381915 0.165971
0.237502 0.383562 0.169599
0.250014 0.385214 0.173177
0.262618 0.386979 0.177463
0.275256 0.388743 0.181937
0.287998 0.390540 0.186947
0.300776 0.392461 0.192024
0.313593 0.394430 0.197440
0.326472 0.396361 0.203104
0.339534 0.398377 0.208995
0.352638 0.400565 0.214583
0.366003 0.402842 0.219878
0.379627 0.405098 0.225310
0.393378 0.407347 0.231121
0.407334 0.409491 0.237149
0.421383 0.411632 0.243554
0.435614 0.413762 0.250439
0.449998 0.415818 0.257505
0.464548 0.417913 0.264927
0.479168 0.419961 0.272595
0.494081 0.422063 0.280674
0.508984 0.424105 0.288968
0.524174 0.426009 0.297584
0.539437 0.428004 0.306405
0.554920 0.429900 0.315893
0.570538 0.431904 0.325368
0.586297 0.433791 0.335177
0.602064 0.435669 0.345386
0.203190 0.407468 0.342132
0.216035 0.399354 0.259084
0.213376 0.401575 0.171909
0.225606 0.403099 0.174671
0.237851 0.404719 0.177431
0.250184 0.406270 0.180921
0.262484 0.408035 0.184387
0.275061 0.409826 0.188672
0.287543 0.411682 0.193116
0.300059 0.413518 0.197999
0.312704 0.415534 0.202987
0.325393 0.417551 0.208408
0.338140 0.419613 0.214015
0.351073 0.421702 0.219891
0.363986 0.423829 0.225852
0.377090 0.426155 0.231604
0.390455 0.428611 0.237020
0.404010 0.430998 0.242505
0.417768 0.433193 0.248349
0.431636 0.435481 0.254603
0.445739 0.437796 0.261147
0.459900 0.439979 0.267997
0.474279 0.442207 0.275190
0.488778 0.444382 0.282594
0.503557 0.446619 0.290412
0.518334 0.448786 0.298649
0.533289 0.450825 0.307179
0.548395 0.452945 0.315751
0.563633 0.454977 0.325097
0.579227 0.457104 0.334326
0.594742 0.459128 0.344118
0.610367 0.461145 0.354075
0.218063 0.429651 0.349821
0.229765 0.421915 0.269342
0.226854 0.424145 0.183631
0.238942 0.425786 0.186392
0.250943 0.427422 0.189137
0.263145 0.429083 0.192516
0.275315 0.430848 0.195958
0.287762 0.432668 0.200142
0.300114 0.434654 0.204553
0.312500 0.436583 0.209343
0.325015 0.438599 0.214290
0.337574 0.440616 0.219580
0.350191 0.442727 0.225107
0.362994 0.444946 0.230929
0.375777 0.447146 0.236874
0.388690 0.449533 0.243001
0.401729 0.451989 0.248872
0.415032 0.454453 0.254340
0.428587 0.456909 0.259998
0.442272 0.459303 0.266044
0.456164 0.461699 0.272328
0.470150 0.464097 0.278832
0.484309 0.466407 0.285903
0.498735 0.468769 0.293027
0.513319 0.471070 0.300650
0.527836 0.473440 0.308757
0.542637 0.475634 0.317051
0.557612 0.477884 0.325472
0.572720 0.480046 0.334574
0.588184 0.482303 0.343661
0.603568 0.484336 0.353322
0.619063 0.486478 0.363149
0.233455 0.451700 0.358155
0.243630 0.444472 0.279974
0.240726 0.446831 0.195612
0.252663 0.448459 0.198372
0.264422 0.450124 0.201087
0.276500 0.451889 0.204364
0.288508 0.453679 0.207783
0.300722 0.455607 0.211841
0.312970 0.457623 0.216149
0.325322 0.459640 0.220899
0.337709 0.461700 0.225751
0.350136 0.463807 0.230958
0.362625 0.465918 0.236326
0.375240 0.468243 0.242089
0.387877 0.470590 0.247966
0.400668 0.472976 0.254149
0.413455 0.475371 0.260394
0.426432 0.477908 0.266385
0.439735 0.480539 0.271939
0.453209 0.483074 0.277610
0.466927 0.485604 0.283713
0.480700 0.488125 0.290106
0.494695 0.490567 0.296859
0.508975 0.493056 0.303790
0.523337 0.495491 0.311283
0.537705 0.497987 0.319048
0.552371 0.500416 0.327155
0.567105 0.502706 0.335452
0.582181 0.505096 0.344312
0.597284 0.507377 0.353374
0.612125 0.509798 0.363310
0.626681 0.512340 0.373548
0.249084 0.473489 0.367151
0.257776 0.467053 0.290756
0.254826 0.469520 0.207986
0.266531 0.471188 0.210603
0.278299 0.472953 0.213218
0.290213 0.474717 0.216472
0.301989 0.476529 0.219772
0.314057 0.478546 0.223774
0.326073 0.480562 0.227886
0.338279 0.482620 0.232605
0.350530 0.484816 0.237333
0.362882 0.487049 0.242444
0.375273 0.489251 0.247769
0.387688 0.491622 0.253405
0.400196 0.494033 0.259199
0.412856 0.496420 0.265314
0.425513 0.498888 0.271543
0.438300 0.501415 0.277907
0.451275 0.504064 0.284007
0.464429 0.506794 0.289661
0.477958 0.509501 0.295533
0.491607 0.512168 0.301662
0.505465 0.514735 0.307978
0.519435 0.517361 0.314748
0.533594 0.519918 0.322147
0.547930 0.522553 0.329595
0.562385 0.525101 0.337659
0.576735 0.527657 0.345961
0.590864 0.530439 0.355361
0.604868 0.533156 0.364746
0.618801 0.536062 0.375295
0.632526 0.538840 0.385884
0.264863 0.495317 0.376927
0.271997 0.489740 0.301793
0.269075 0.492213 0.220434
0.280540 0.493978 0.222955
0.292233 0.495762 0.225551
0.303911 0.497656 0.228634
0.315572 0.499468 0.231722
0.327496 0.501485 0.235701
0.339407 0.503540 0.239695
0.351463 0.505739 0.244303
0.363487 0.508007 0.248949
0.375684 0.510276 0.253889
0.387940 0.512603 0.259157
0.400291 0.515066 0.264721
0.412686 0.517544 0.270475
0.425135 0.520013 0.276458
0.437662 0.522533 0.282557
0.450318 0.525136 0.288905
0.463106 0.527779 0.295522
0.476020 0.530490 0.301820
0.489192 0.533359 0.307625
0.502698 0.536185 0.313302
0.516377 0.538891 0.319398
0.530087 0.541636 0.325951
0.543986 0.544452 0.333170
0.557541 0.547358 0.341105
0.570983 0.550331 0.349756
0.584472 0.553268 0.358669
0.597714 0.556415 0.368338
0.611060 0.559455 0.377935
0.624656 0.562480 0.388261
0.638119 0.565560 0.398992
0.280744 0.517248 0.387325
0.286426 0.512584 0.312930
0.283448 0.515058 0.232943
0.294932 0.516837 0.235449
0.306243 0.518756 0.237890
0.317813 0.520621 0.240876
0.329324 0.522595 0.243855
0.341136 0.524739 0.247706
0.352884 0.526819 0.251595
0.364796 0.529087 0.255898
0.376671 0.531356 0.260514
0.388664 0.533681 0.265391
0.400798 0.536146 0.270560
0.412987 0.538666 0.276009
0.425247 0.541187 0.281704
0.437599 0.543708 0.287550
0.449995 0.546310 0.293600
0.462437 0.549041 0.299902
0.475111 0.551763 0.306537
0.487871 0.554500 0.313177
0.500722 0.557329 0.319372
0.513891 0.560239 0.325192
0.526843 0.563286 0.331756
0.539642 0.566384 0.338890
0.552630 0.569550 0.346539
0.565528 0.572737 0.354687
0.578252 0.575997 0.363738
0.591158 0.579199 0.372640
0.604246 0.582607 0.381984
0.617288 0.585818 0.391695
0.630559 0.589006 0.401757
0.643759 0.592438 0.412100
0.296625 0.539013 0.398243
0.300878 0.535523 0.324230
0.297811 0.538007 0.245537
0.309205 0.539950 0.247879
0.320338 0.541957 0.250221
0.331750 0.543905 0.253062
0.343124 0.545937 0.255992
0.354650 0.548054 0.259603
0.366308 0.550262 0.263361
0.378108 0.552531 0.267611
0.389838 0.554853 0.272110
0.401714 0.557320 0.276869
0.413643 0.559841 0.281791
0.425641 0.562362 0.287118
0.437776 0.564957 0.292678
0.450037 0.567569 0.298396
0.462304 0.570215 0.304446
0.474576 0.572988 0.310737
0.487019 0.575857 0.317152
0.499282 0.578801 0.324246
0.511425 0.581851 0.331603
0.523651 0.584907 0.338822
0.535855 0.588222 0.346204
0.548036 0.591548 0.353621
0.560406 0.594953 0.361519
0.572903 0.598267 0.369719
0.585490 0.601683 0.378286
0.598162 0.605130 0.386868
0.611068 0.608649 0.395951
0.623777 0.612105 0.405410
0.636698 0.615713 0.415456
0.649470 0.619245 0.425373
0.311986 0.561385 0.409508
0.314749 0.558977 0.335614
0.312326 0.561298 0.258135
0.323321 0.563315 0.260404
0.334422 0.565331 0.262713
0.345614 0.567348 0.265335
0.356958 0.569398 0.268216
0.368317 0.571610 0.271567
0.379752 0.573923 0.275106
0.391272 0.576320 0.279263
0.402890 0.578668 0.283650
0.414621 0.581189 0.288235
0.426468 0.583709 0.292989
0.438346 0.586303 0.298104
0.450345 0.589035 0.303517
0.462395 0.591773 0.309281
0.474173 0.594599 0.315599
0.485775 0.597551 0.322338
0.497512 0.600644 0.329309
0.509134 0.603848 0.336689
0.520736 0.607098 0.344370
0.532405 0.610444 0.352184
0.544124 0.613927 0.360194
0.555866 0.617404 0.368241
0.567797 0.620915 0.376699
0.579930 0.624526 0.384661
0.592163 0.628221 0.393024
0.604409 0.631778 0.401432
0.616875 0.635463 0.410265
0.629469 0.639171 0.419228
0.641974 0.643115 0.429241
0.654575 0.646831 0.438907
0.326748 0.584253 0.420852
0.328382 0.582664 0.346993
0.326575 0.584741 0.270558
0.337420 0.586776 0.272827
0.348324 0.588956 0.275104
0.359268 0.591002 0.277448
0.370425 0.593218 0.280011
0.381622 0.595486 0.283288
0.392965 0.597818 0.286707
0.404327 0.600268 0.290624
0.415794 0.602674 0.294860
0.427412 0.605317 0.299333
0.439003 0.607908 0.304153
0.450324 0.610718 0.309680
0.461616 0.613596 0.315426
0.473036 0.616457 0.321686
0.484351 0.619543 0.328207
0.495695 0.622655 0.334956
0.506970 0.625822 0.342082
0.518264 0.629210 0.349419
0.529648 0.632674 0.357044
0.540934 0.636304 0.364736
0.552284 0.640020 0.372710
0.563827 0.643602 0.381110
0.575331 0.647271 0.389573
0.587001 0.651038 0.398060
0.598727 0.654971 0.407073
0.610611 0.658726 0.415834
0.622580 0.662663 0.424641
0.634786 0.666631 0.433463
0.647131 0.670661 0.442942
0.659545 0.674450 0.452519
0.340045 0.607948 0.432195
0.341456 0.606912 0.358186
0.340502 0.608575 0.282910
0.351341 0.610774 0.285160
0.362156 0.612865 0.287234
0.372840 0.615085 0.289338
0.383772 0.617354 0.291759
0.394876 0.619665 0.294841
0.405976 0.622143 0.298098
0.416874 0.624703 0.302059
0.427650 0.627398 0.306580
0.438532 0.630218 0.311360
0.449448 0.633151 0.316505
0.460239 0.636142 0.322084
0.471128 0.639227 0.327876
0.482054 0.642325 0.334009
0.493077 0.645574 0.340465
0.504121 0.648912 0.347038
0.515152 0.652274 0.353956
0.526277 0.655780 0.361151
0.537426 0.659309 0.368581
0.548537 0.663004 0.376291
0.559667 0.666785 0.384127
0.570997 0.670525 0.392360
0.582355 0.674292 0.400840
0.593743 0.678073 0.409442
0.605302 0.681901 0.418638
0.616780 0.685855 0.427869
0.628579 0.689711 0.437253
0.640302 0.693726 0.446661
0.652430 0.697759 0.456542
0.664587 0.701737 0.465753
0.351916 0.632487 0.443342
0.353957 0.631551 0.369318
0.354156 0.632907 0.295249
0.364792 0.634987 0.297291
0.375422 0.637213 0.299130
0.385954 0.639513 0.301217
0.396231 0.641985 0.303907
0.406757 0.644468 0.307453
0.417328 0.647040 0.310921
0.427600 0.649777 0.315036
0.437984 0.652677 0.319233
0.448385 0.655804 0.323969
0.458876 0.658905 0.328946
0.469400 0.662133 0.334326
0.479922 0.665383 0.339775
0.490558 0.668732 0.345621
0.501219 0.672111 0.351846
0.511986 0.675519 0.358397
0.522852 0.679141 0.365126
0.533740 0.682752 0.372122
0.544629 0.686409 0.379495
0.555517 0.690040 0.386956
0.566545 0.693757 0.394783
0.577817 0.697538 0.402871
0.589008 0.701472 0.411328
0.600307 0.705298 0.419898
0.611690 0.709244 0.428918
0.623041 0.713098 0.438042
0.634648 0.717063 0.447742
0.646248 0.721092 0.457340
0.658126 0.725125 0.467582
0.670022 0.729158 0.477679
0.360030 0.658624 0.453819
0.364717 0.656656 0.381229
0.366292 0.657792 0.307188
0.376245 0.660235 0.309221
0.386198 0.662715 0.311413
0.396139 0.665201 0.313621
0.406057 0.667722 0.315955
0.416190 0.670289 0.319250
0.426334 0.673032 0.322620
0.436429 0.675864 0.326764
0.446553 0.678940 0.330728
0.456676 0.682130 0.335226
0.466895 0.685250 0.340115
0.477254 0.688527 0.345205
0.487607 0.691896 0.350577
0.498082 0.695404 0.356276
0.508669 0.698912 0.362346
0.519166 0.702422 0.368788
0.529820 0.705974 0.375391
0.540534 0.709645 0.382221
0.551294 0.713411 0.389383
0.562133 0.717166 0.396846
0.573146 0.720934 0.404597
0.584115 0.724715 0.412604
0.595163 0.728686 0.420890
0.606452 0.732522 0.429414
0.617623 0.736508 0.438395
0.628934 0.740328 0.447469
0.640498 0.744330 0.457021
0.651902 0.748363 0.466795
0.663721 0.752397 0.476898
0.675363 0.756430 0.487227
0.366489 0.685730 0.463728
0.374237 0.682082 0.393554
0.376829 0.683390 0.319887
0.386241 0.685932 0.321886
0.395825 0.688645 0.323715
0.405251 0.691200 0.325540
0.414869 0.693940 0.327573
0.424561 0.696688 0.330623
0.434425 0.699515 0.333799
0.444288 0.702517 0.337469
0.454220 0.705621 0.341408
0.464303 0.708886 0.345715
0.474399 0.712143 0.350325
0.484514 0.715420 0.355366
0.494726 0.718807 0.360643
0.505076 0.722336 0.366206
0.515444 0.725866 0.372146
0.525911 0.729511 0.378346
