gsg/04_Specialty/GSG_LUT_Specialty_OldPoster.cube
# GSG LUTs 1.0
# Copyright (c) 2016-2020 Greyscalegorilla
# See EULA for licensing and distribution information
# Converted by Briz LUT Converter
LUT_3D_SIZE 32
0.083028 0.079121 0.061294
0.121092 0.088597 0.061578
0.143007 0.094773 0.062870
0.156840 0.098964 0.064611
0.168876 0.102367 0.066659
0.187491 0.106495 0.072063
0.205609 0.109677 0.075056
0.221836 0.112395 0.076655
0.236331 0.114979 0.078105
0.253070 0.117185 0.081374
0.270479 0.118256 0.085439
0.286415 0.121320 0.087164
0.301099 0.125826 0.088771
0.317445 0.127268 0.093804
0.334507 0.126764 0.097428
0.350081 0.127677 0.098783
0.365205 0.129694 0.101052
0.381086 0.131876 0.105841
0.396967 0.133940 0.110063
0.412698 0.133357 0.112947
0.429588 0.135279 0.116161
0.445248 0.138903 0.119776
0.459175 0.140100 0.123652
0.473875 0.137091 0.128410
0.487487 0.138855 0.133641
0.502367 0.138107 0.134995
0.518563 0.133428 0.135043
0.533459 0.127922 0.139084
0.548080 0.126787 0.144094
0.562472 0.127882 0.149364
0.578022 0.127016 0.154185
0.596581 0.119902 0.157998
0.103423 0.115554 0.067620
0.125563 0.116088 0.068533
0.141654 0.114496 0.068533
0.154681 0.112930 0.068849
0.167215 0.113484 0.070135
0.184031 0.113355 0.073208
0.200890 0.113799 0.075307
0.216227 0.114179 0.076708
0.230565 0.115199 0.078098
0.247940 0.118275 0.081136
0.265666 0.120036 0.085179
0.282256 0.121166 0.086661
0.297740 0.123401 0.087905
0.314070 0.126842 0.093345
0.330375 0.128756 0.097350
0.345452 0.131326 0.098849
0.360341 0.134281 0.101548
0.375966 0.135036 0.106024
0.391732 0.133760 0.109053
0.407904 0.133262 0.111159
0.425231 0.133503 0.114515
0.440989 0.134205 0.118786
0.455106 0.134675 0.122532
0.470611 0.133680 0.124757
0.485423 0.132724 0.127469
0.500757 0.132344 0.130929
0.516375 0.132082 0.135115
0.531172 0.131383 0.140052
0.544031 0.132936 0.145507
0.558691 0.129465 0.147837
0.574737 0.126797 0.149829
0.590854 0.132743 0.154965
0.115113 0.140147 0.074757
0.126285 0.136036 0.073621
0.139508 0.132570 0.073117
0.153640 0.129874 0.073189
0.167901 0.128055 0.074217
0.181305 0.128071 0.075870
0.196671 0.126707 0.077101
0.212192 0.124945 0.078459
0.227583 0.124352 0.079959
0.245589 0.126458 0.081438
0.262870 0.127607 0.084758
0.278695 0.127352 0.086788
0.293625 0.126550 0.088507
0.309694 0.127667 0.092330
0.325967 0.129736 0.094964
0.341792 0.131540 0.097246
0.357210 0.132252 0.101572
0.372720 0.132194 0.105562
0.388340 0.132460 0.107232
0.404252 0.134068 0.110467
0.421441 0.134010 0.114341
0.437518 0.133331 0.118147
0.452178 0.133224 0.121244
0.467990 0.132853 0.122391
0.482843 0.131629 0.125246
0.497601 0.130667 0.129990
0.512870 0.130011 0.135418
0.528245 0.128570 0.140664
0.541252 0.133237 0.145212
0.555918 0.130406 0.147060
0.571705 0.126142 0.148401
0.587341 0.129387 0.151782
0.124629 0.159234 0.083241
0.128419 0.153873 0.080010
0.138511 0.150499 0.078991
0.152056 0.147786 0.078518
0.166768 0.144803 0.078068
0.179960 0.144471 0.079373
0.193661 0.143148 0.080158
0.208479 0.140835 0.081240
0.224978 0.138780 0.082533
0.242793 0.138723 0.083275
0.259332 0.139170 0.085950
0.274843 0.137962 0.088628
0.289897 0.135135 0.090525
0.305691 0.134168 0.092842
0.321858 0.135246 0.094766
0.338347 0.135319 0.097135
0.354342 0.133555 0.101782
0.369842 0.132747 0.105174
0.385368 0.133982 0.105934
0.401049 0.136087 0.110277
0.417368 0.136712 0.115179
0.433393 0.136304 0.118135
0.448980 0.135772 0.120004
0.464673 0.135230 0.121346
0.479236 0.134549 0.125458
0.494068 0.133029 0.130721
0.509213 0.130939 0.135696
0.524331 0.128466 0.139281
0.538237 0.132476 0.142523
0.553003 0.130478 0.145265
0.568303 0.126329 0.147789
0.583946 0.126173 0.150325
0.136571 0.178203 0.093009
0.135882 0.173771 0.089633
0.140782 0.168878 0.087954
0.149406 0.165044 0.085494
0.161439 0.162621 0.081738
0.180432 0.158955 0.083774
0.192862 0.159038 0.084354
0.205210 0.158576 0.084658
0.221489 0.155179 0.085699
0.237744 0.152652 0.087366
0.253835 0.152882 0.090655
0.270643 0.151792 0.093321
0.287616 0.149254 0.094450
0.303034 0.148964 0.096228
0.318494 0.148646 0.099526
0.334769 0.147673 0.101077
0.350536 0.145941 0.103203
0.365864 0.143601 0.105759
0.381716 0.141339 0.106734
0.397467 0.140611 0.110624
0.412249 0.142199 0.116611
0.428025 0.142998 0.119070
0.444725 0.142086 0.119179
0.459971 0.141226 0.121457
0.474648 0.140626 0.126203
0.490483 0.139447 0.131484
0.506079 0.138197 0.135210
0.519213 0.137435 0.135317
0.533842 0.134903 0.137824
0.548777 0.130499 0.141983
0.563745 0.128247 0.146710
0.579660 0.133199 0.151648
0.151483 0.201063 0.101319
0.148301 0.195505 0.098271
0.147096 0.189331 0.095546
0.151060 0.183985 0.093453
0.162470 0.180719 0.091870
0.179919 0.176241 0.090902
0.193131 0.174487 0.091142
0.206114 0.173268 0.091986
0.221446 0.171341 0.093266
0.237259 0.169219 0.094557
0.252598 0.167556 0.096161
0.268704 0.167394 0.098128
0.285047 0.166329 0.099554
0.300310 0.163098 0.100584
0.315810 0.162582 0.102928
0.331638 0.163222 0.105518
0.346779 0.161954 0.107636
0.361617 0.158655 0.109737
0.377174 0.156150 0.111915
0.393077 0.155636 0.113138
0.409583 0.154103 0.117042
0.425895 0.151592 0.120858
0.441801 0.149693 0.122667
0.457092 0.149070 0.123661
0.472113 0.147834 0.127440
0.486849 0.146974 0.131238
0.501272 0.145933 0.133743
0.514790 0.142984 0.135024
0.529694 0.141328 0.138726
0.545010 0.136928 0.143028
0.560545 0.130962 0.147552
0.576785 0.124841 0.151845
0.159565 0.223404 0.113671
0.156835 0.216352 0.108956
0.154350 0.209327 0.104858
0.155242 0.203780 0.102139
0.162561 0.200305 0.100786
0.178708 0.194613 0.098956
0.191982 0.190580 0.098583
0.204866 0.188189 0.099232
0.218982 0.187030 0.100557
0.234387 0.185381 0.101434
0.249998 0.183607 0.102627
0.265868 0.183211 0.103820
0.281405 0.182572 0.104694
0.296041 0.179691 0.105574
0.311510 0.177484 0.107220
0.327800 0.177345 0.109335
0.343852 0.177492 0.111982
0.359004 0.175573 0.114387
0.373969 0.172689 0.116094
0.390001 0.169726 0.118147
0.406377 0.168081 0.119861
0.422167 0.165909 0.122935
0.437814 0.163291 0.126600
0.453889 0.162337 0.127661
0.468613 0.158739 0.130033
0.483458 0.155205 0.133437
0.498106 0.152970 0.136012
0.511572 0.151284 0.136595
0.526422 0.149053 0.140333
0.541497 0.144908 0.144621
0.556619 0.139149 0.148915
0.571996 0.132104 0.153295
0.167616 0.245114 0.125031
0.166295 0.236915 0.119914
0.163897 0.229973 0.115817
0.162353 0.224422 0.112714
0.164614 0.219881 0.109734
0.177843 0.213634 0.107606
0.189904 0.208697 0.107013
0.203391 0.205305 0.107420
0.218347 0.203504 0.108221
0.232067 0.202278 0.107534
0.247331 0.201044 0.108309
0.262953 0.199717 0.109299
0.278252 0.198233 0.109897
0.293091 0.196287 0.111406
0.307711 0.193455 0.113693
0.323918 0.192704 0.115202
0.340454 0.192977 0.117450
0.355577 0.191844 0.119778
0.370517 0.189489 0.120793
0.386510 0.185606 0.123968
0.402561 0.183289 0.125039
0.418055 0.181966 0.126971
0.433739 0.180193 0.130948
0.450148 0.177533 0.132736
0.464559 0.174018 0.135179
0.479714 0.169537 0.138079
0.495082 0.166013 0.140687
0.508371 0.165361 0.142306
0.522948 0.163582 0.145966
0.537970 0.159075 0.148483
0.553250 0.153944 0.150903
0.567758 0.150593 0.155619
0.179274 0.266036 0.134672
0.178692 0.257679 0.130627
0.175619 0.251664 0.128457
0.171881 0.246058 0.125660
0.170133 0.239378 0.120435
0.178919 0.233459 0.117323
0.188658 0.229379 0.116490
0.202696 0.225498 0.116814
0.219766 0.221647 0.116411
0.231819 0.219970 0.113941
0.246059 0.218943 0.114359
0.260768 0.217131 0.115416
0.276221 0.214679 0.116428
0.292097 0.212706 0.118903
0.305762 0.210960 0.122114
0.320995 0.210118 0.123319
0.336424 0.208601 0.124136
0.350966 0.206540 0.125736
0.366581 0.205360 0.126926
0.382300 0.203672 0.129435
0.398570 0.199574 0.131319
0.414400 0.197715 0.133155
0.429905 0.197731 0.135583
0.445960 0.193703 0.137550
0.460713 0.192887 0.141246
0.475742 0.190405 0.143631
0.490890 0.186490 0.145568
0.504752 0.184399 0.150169
0.519135 0.183905 0.154399
0.534362 0.180028 0.154688
0.550024 0.174869 0.154391
0.565426 0.171200 0.158013
0.189633 0.287881 0.149868
0.189835 0.280527 0.144553
0.186848 0.274125 0.142119
0.182123 0.267937 0.139675
0.177672 0.261699 0.134956
0.183237 0.254989 0.129489
0.191332 0.250554 0.127166
0.202651 0.246697 0.126427
0.216774 0.242121 0.125596
0.231610 0.238049 0.124476
0.245939 0.236161 0.125099
0.259667 0.234866 0.125865
0.273741 0.233471 0.126728
0.288792 0.232053 0.128136
0.303903 0.229880 0.128939
0.318855 0.227555 0.129290
0.333642 0.225591 0.130506
0.348562 0.224032 0.132685
0.363989 0.222478 0.134395
0.379582 0.220280 0.135424
0.395532 0.217829 0.137097
0.411242 0.216017 0.138711
0.426591 0.214894 0.139909
0.441766 0.213910 0.141642
0.456860 0.212147 0.144419
0.471722 0.209400 0.147138
0.486845 0.205569 0.149679
0.502166 0.200678 0.152954
0.516052 0.200054 0.157985
0.530289 0.199930 0.160077
0.545568 0.195904 0.160561
0.562693 0.184080 0.161802
0.196739 0.311922 0.165087
0.199173 0.304439 0.158751
0.196505 0.296937 0.156464
0.191648 0.290408 0.154846
0.187707 0.285284 0.150257
0.189750 0.277780 0.143406
0.195082 0.272970 0.139102
0.203633 0.268518 0.137968
0.215231 0.263356 0.138214
0.229760 0.259218 0.135095
0.245229 0.256305 0.134902
0.259219 0.253627 0.136338
0.272284 0.251338 0.138099
0.286691 0.249938 0.138085
0.301051 0.248084 0.135766
0.316063 0.246226 0.135070
0.331729 0.244206 0.138043
0.346635 0.242739 0.141672
0.360855 0.241801 0.143512
0.376092 0.239790 0.143789
0.392390 0.238359 0.144453
0.408388 0.236200 0.145279
0.423695 0.233617 0.146672
0.438762 0.233117 0.150831
0.453055 0.231972 0.152502
0.467549 0.229517 0.154263
0.482784 0.225669 0.156706
0.498517 0.219847 0.159021
0.511450 0.220324 0.164378
0.525490 0.220701 0.166447
0.541342 0.216929 0.167414
0.559258 0.206247 0.170594
0.208003 0.334318 0.179613
0.209593 0.327862 0.172927
0.205880 0.320188 0.170059
0.200567 0.313257 0.168591
0.197360 0.308051 0.165519
0.197474 0.300616 0.158358
0.200546 0.295162 0.152895
0.206941 0.289964 0.150489
0.216326 0.284374 0.150292
0.227592 0.279939 0.147160
0.242898 0.275784 0.144959
0.258645 0.272213 0.145566
0.272860 0.269745 0.148338
0.286447 0.268401 0.148077
0.299949 0.267068 0.144755
0.314077 0.265803 0.143679
0.329145 0.264128 0.146485
0.343787 0.262198 0.149235
0.357769 0.260708 0.150514
0.372856 0.258998 0.151773
0.389222 0.257491 0.153454
0.405271 0.255156 0.154248
0.420576 0.252421 0.155456
0.435391 0.251664 0.159910
0.449487 0.251093 0.160408
0.463809 0.249028 0.161736
0.478575 0.245308 0.164529
0.494005 0.240091 0.166708
0.507616 0.239781 0.171566
0.521968 0.238568 0.173754
0.537661 0.235760 0.175388
0.555044 0.231100 0.179385
0.220450 0.355556 0.193288
0.219522 0.350314 0.187623
0.215015 0.343149 0.184129
0.210181 0.335942 0.182101
0.207580 0.329638 0.180205
0.207176 0.322740 0.173508
0.207730 0.316499 0.167939
0.211361 0.310872 0.163802
0.218145 0.305737 0.161710
0.226680 0.300303 0.160234
0.240974 0.295264 0.156831
0.257654 0.291535 0.155052
0.273235 0.289279 0.156608
0.286707 0.287407 0.157780
0.300122 0.286136 0.156389
0.313238 0.284840 0.155424
0.326598 0.283327 0.156099
0.340686 0.281219 0.156949
0.355186 0.278781 0.157785
0.369965 0.277370 0.160107
0.385834 0.275367 0.163227
0.401719 0.273201 0.164777
0.416984 0.271574 0.165489
0.431495 0.270296 0.167200
0.446290 0.269212 0.167031
0.460822 0.267439 0.169102
0.474868 0.264835 0.172800
0.489365 0.261600 0.174956
0.504594 0.258309 0.177826
0.519103 0.255805 0.180835
0.533910 0.254091 0.183608
0.550002 0.252905 0.185435
0.226515 0.379306 0.206239
0.226251 0.372850 0.202646
0.223561 0.365652 0.199610
0.220678 0.358632 0.197024
0.219171 0.352226 0.193995
0.217525 0.344922 0.187916
0.215211 0.338391 0.182260
0.215018 0.332918 0.177636
0.219263 0.328263 0.174900
0.228225 0.322683 0.173116
0.241748 0.317547 0.170472
0.256115 0.313009 0.167040
0.270395 0.309046 0.165455
0.285558 0.305752 0.167163
0.299522 0.303677 0.167892
0.312561 0.302236 0.167389
0.325340 0.300882 0.167137
0.338990 0.299425 0.168199
0.353295 0.297936 0.169519
0.367151 0.296877 0.170996
0.382615 0.294745 0.172706
0.398617 0.292914 0.174250
0.413766 0.291481 0.175238
0.428183 0.289197 0.175491
0.443002 0.287812 0.175580
0.457824 0.286498 0.178196
0.472149 0.284919 0.181751
0.485822 0.283459 0.182953
0.500638 0.279388 0.184485
0.515029 0.277298 0.187587
0.529593 0.275864 0.190702
0.545268 0.272890 0.192067
0.235181 0.403616 0.219473
0.235004 0.395659 0.216335
0.232111 0.388844 0.213212
0.228865 0.382236 0.209949
0.226851 0.375271 0.206353
0.225117 0.367980 0.201056
0.222466 0.361618 0.195378
0.221232 0.355658 0.190659
0.224152 0.349978 0.188028
0.232023 0.344504 0.186577
0.242576 0.339332 0.183705
0.254096 0.334468 0.179794
0.267636 0.329687 0.176621
0.284095 0.325434 0.176393
0.299056 0.322492 0.177576
0.311501 0.320615 0.178004
0.323361 0.319367 0.177752
0.336959 0.318358 0.178547
0.351278 0.317208 0.180063
0.365183 0.315813 0.181540
0.380606 0.313735 0.182858
0.396152 0.311923 0.183903
0.410746 0.310261 0.184458
0.425121 0.307680 0.184632
0.439697 0.307275 0.184929
0.454323 0.306385 0.186839
0.468831 0.304437 0.189366
0.482984 0.301830 0.190886
0.496699 0.299622 0.193655
0.511229 0.298485 0.195806
0.526406 0.297239 0.197978
0.541423 0.294710 0.201725
0.246445 0.427476 0.236205
0.244433 0.418839 0.232066
0.241018 0.412186 0.227698
0.237419 0.405801 0.223570
0.234667 0.398613 0.219388
0.233480 0.391487 0.214030
0.230764 0.384743 0.208326
0.228975 0.378329 0.203556
0.230727 0.372301 0.201007
0.236011 0.366197 0.199365
0.243328 0.360693 0.196977
0.252616 0.355700 0.193297
0.265023 0.351167 0.189026
0.280343 0.347171 0.187027
0.295209 0.343861 0.187535
0.309238 0.340974 0.186562
0.322484 0.338612 0.185700
0.335808 0.336822 0.187277
0.349578 0.335199 0.189282
0.363449 0.333708 0.190996
0.378431 0.332304 0.192117
0.393567 0.330583 0.192673
0.408085 0.328439 0.193049
0.422012 0.326073 0.193868
0.436137 0.326234 0.194677
0.450675 0.325853 0.195736
0.465395 0.323957 0.197490
0.479822 0.321157 0.200311
0.493301 0.319917 0.202172
0.507582 0.318475 0.204034
0.523018 0.316743 0.206606
0.538974 0.314971 0.210745
0.255898 0.449911 0.251329
0.252926 0.442400 0.247292
0.251048 0.435471 0.242144
0.248351 0.428675 0.237284
0.244055 0.422089 0.232956
0.242307 0.415081 0.228309
0.238884 0.407710 0.223597
0.236875 0.400947 0.219323
0.238009 0.395049 0.215993
0.240089 0.388722 0.213010
0.245609 0.382965 0.210003
0.253726 0.377273 0.206153
0.264328 0.372528 0.201687
0.277366 0.369175 0.199326
0.291713 0.365450 0.199533
0.307551 0.361478 0.197369
0.322683 0.357749 0.196116
0.335966 0.355142 0.198312
0.348866 0.353495 0.200374
0.361928 0.352651 0.202165
0.376423 0.351426 0.201871
0.391424 0.349785 0.201024
0.405763 0.348170 0.201205
0.418776 0.346736 0.202341
0.433096 0.345985 0.203638
0.447777 0.345161 0.204709
0.462073 0.343558 0.206862
0.475541 0.341259 0.211740
0.489687 0.339173 0.212073
0.504052 0.337633 0.213385
0.519245 0.335901 0.215811
0.535318 0.333121 0.218055
0.263807 0.472661 0.264713
0.261206 0.465426 0.261223
0.260331 0.458508 0.256173
0.258043 0.451666 0.251077
0.252742 0.445314 0.246869
0.250539 0.438623 0.243206
0.247382 0.431056 0.239537
0.245744 0.423715 0.235701
0.246083 0.417423 0.231523
0.245898 0.411597 0.226919
0.249928 0.405479 0.222470
0.256708 0.398992 0.218608
0.265628 0.393768 0.215281
0.277145 0.390431 0.213221
0.290579 0.386564 0.212974
0.305635 0.382178 0.210857
0.321081 0.377868 0.209088
0.335357 0.374853 0.210165
0.348526 0.373180 0.211964
0.360950 0.372541 0.213759
0.375202 0.370516 0.212681
0.389940 0.368632 0.211380
0.403686 0.367908 0.211738
0.416669 0.367230 0.213063
0.431277 0.365717 0.214581
0.445812 0.364150 0.216005
0.459449 0.362545 0.218275
0.472209 0.360630 0.223142
0.486318 0.358442 0.223002
0.500785 0.357298 0.223475
0.515869 0.356052 0.224802
0.531128 0.352507 0.225932
0.273843 0.496357 0.280484
0.270646 0.488158 0.276521
0.267887 0.481660 0.271455
0.264492 0.475330 0.266082
0.260517 0.468405 0.261494
0.259157 0.461783 0.257830
0.256910 0.454201 0.253961
0.255344 0.446689 0.249896
0.254590 0.440052 0.245584
0.253653 0.434065 0.240466
0.255239 0.427257 0.235786
0.259822 0.420730 0.232570
0.267495 0.415654 0.230375
0.277514 0.411899 0.228092
0.288848 0.408470 0.226073
0.301974 0.404322 0.222947
0.317184 0.399712 0.219747
0.332737 0.395900 0.219308
0.347211 0.393168 0.221217
0.360101 0.391610 0.222836
0.374173 0.388812 0.223259
0.388576 0.386479 0.223558
0.402127 0.385720 0.224389
0.415803 0.385064 0.226046
0.429968 0.383881 0.227658
0.443778 0.382524 0.229170
0.457198 0.381277 0.230617
0.470627 0.380057 0.232727
0.484054 0.378873 0.232032
0.498069 0.377488 0.232384
0.512853 0.375806 0.233734
0.528780 0.373855 0.234897
0.283981 0.519304 0.294419
0.280126 0.512156 0.291416
0.275730 0.505995 0.286778
0.271536 0.499547 0.281221
0.268991 0.492196 0.276041
0.267584 0.484596 0.273891
0.264495 0.477275 0.269849
0.262717 0.470407 0.265189
0.262882 0.463857 0.261020
0.262286 0.457348 0.257064
0.261963 0.450599 0.252484
0.264194 0.444031 0.248860
0.270026 0.438036 0.245811
0.278051 0.433180 0.241871
0.287623 0.429710 0.238121
0.299432 0.426169 0.234243
0.313581 0.421660 0.230926
0.328739 0.417225 0.230293
0.343858 0.413769 0.231847
0.358329 0.411252 0.232611
0.373341 0.408029 0.234033
0.387798 0.405538 0.234605
0.401209 0.404640 0.234134
0.414403 0.404066 0.235322
0.427983 0.403043 0.237037
0.441178 0.401804 0.238584
0.454355 0.400497 0.239686
0.468246 0.398789 0.240091
0.481874 0.397905 0.240192
0.495431 0.396603 0.241075
0.509695 0.394917 0.242409
0.525866 0.394336 0.243523
0.287983 0.545520 0.309859
0.287428 0.539200 0.306881
0.283782 0.532306 0.302090
0.280555 0.524898 0.297138
0.280222 0.517076 0.293213
0.277547 0.509214 0.289403
0.275194 0.502209 0.285609
0.272922 0.495872 0.280632
0.270655 0.489607 0.275113
0.269650 0.482714 0.272326
0.268235 0.475235 0.268785
0.269520 0.468340 0.264086
0.274458 0.462293 0.259411
0.280645 0.456679 0.256195
0.288241 0.452202 0.252803
0.298675 0.448575 0.249344
0.311311 0.444326 0.246157
0.325338 0.439616 0.244243
0.340768 0.436028 0.243878
0.356676 0.433266 0.245016
0.372274 0.429043 0.245076
0.386237 0.426189 0.244402
0.399266 0.425789 0.244430
0.413018 0.425468 0.245893
0.425158 0.424396 0.247332
0.438098 0.422247 0.248920
0.451911 0.420039 0.250317
0.465174 0.418748 0.250800
0.478948 0.417233 0.251787
0.492355 0.415944 0.252883
0.506424 0.415210 0.254134
0.522652 0.415731 0.255150
0.293284 0.572185 0.325015
0.294319 0.565521 0.321683
0.291145 0.558179 0.316657
0.288756 0.550389 0.312152
0.290037 0.542823 0.309759
0.286092 0.535244 0.303269
0.285354 0.528093 0.299107
0.283294 0.521222 0.294558
0.278919 0.514278 0.288811
0.277679 0.507298 0.285949
0.275909 0.499364 0.282721
0.276791 0.492383 0.277883
0.280383 0.486541 0.272822
0.284334 0.480729 0.269922
0.290441 0.475596 0.266942
0.298957 0.471437 0.263879
0.310117 0.467021 0.261115
0.323072 0.462354 0.258773
0.337213 0.458756 0.257113
0.353042 0.455758 0.257717
0.369237 0.450797 0.255979
0.383838 0.447442 0.254704
0.397484 0.446740 0.256303
0.411859 0.445591 0.258764
0.423286 0.444263 0.260024
0.436048 0.442158 0.260785
0.449965 0.440087 0.261459
0.462647 0.439348 0.262420
0.476631 0.437968 0.263351
0.490225 0.436221 0.264041
0.504145 0.435394 0.264944
0.519627 0.436677 0.265784
0.302139 0.597377 0.338611
0.300766 0.590203 0.335285
0.297733 0.582727 0.330449
0.296038 0.575480 0.326231
0.296920 0.568451 0.323378
0.292202 0.560928 0.316137
0.292101 0.553564 0.311775
0.290818 0.545820 0.307856
0.286951 0.537928 0.303268
0.286357 0.530921 0.299863
0.285053 0.523258 0.295852
0.285093 0.516118 0.291623
0.286355 0.509823 0.287194
0.288610 0.503944 0.283025
0.293877 0.498752 0.279877
0.300460 0.494088 0.276779
0.309653 0.489193 0.274348
0.321183 0.484485 0.272639
0.333565 0.480777 0.270751
0.348423 0.477364 0.269465
0.365260 0.472493 0.266789
0.381451 0.468718 0.265901
0.396356 0.466657 0.267875
0.410708 0.463942 0.270083
0.422964 0.462358 0.271165
0.435378 0.461105 0.270968
0.448432 0.460009 0.270795
0.461210 0.459268 0.272295
0.475371 0.458706 0.272868
0.489054 0.456666 0.273362
0.502567 0.455080 0.274103
0.516948 0.456324 0.274859
0.307842 0.623238 0.353058
0.304895 0.615009 0.348331
0.304170 0.607291 0.345023
0.304197 0.600017 0.341265
0.302902 0.592485 0.335301
0.298425 0.585178 0.329249
0.298086 0.578217 0.325731
0.296892 0.570986 0.322151
0.293160 0.563417 0.317367
0.292823 0.556030 0.313509
0.292807 0.547217 0.309597
0.291408 0.539329 0.305689
0.290759 0.533057 0.301755
0.294427 0.526972 0.298260
0.298911 0.521204 0.295482
0.303915 0.516200 0.292267
0.309867 0.511158 0.288750
0.319252 0.506217 0.285463
0.332574 0.502199 0.282586
0.346772 0.498483 0.280603
0.362704 0.493974 0.278273
0.378796 0.489662 0.277690
0.394144 0.486093 0.278444
0.409788 0.482737 0.277260
0.423655 0.481005 0.277754
0.436051 0.479810 0.278766
0.448169 0.478971 0.279799
0.460908 0.478531 0.281507
0.473451 0.477935 0.282611
0.486789 0.476837 0.284009
0.500504 0.475813 0.285510
0.514065 0.475552 0.287014
0.307401 0.649454 0.365095
0.306690 0.640718 0.361204
0.306896 0.632923 0.358412
0.307159 0.625352 0.355176
0.306181 0.617284 0.350220
0.303885 0.610095 0.343957
0.303746 0.602508 0.339825
0.302757 0.595012 0.336017
0.299805 0.587834 0.331624
0.299225 0.580258 0.327716
0.299258 0.571669 0.324191
0.297259 0.563602 0.320647
0.295407 0.557029 0.316632
0.297935 0.551035 0.312890
0.300977 0.545113 0.310211
0.306312 0.539009 0.307264
0.312719 0.533675 0.303552
0.321059 0.529006 0.299848
0.333055 0.524284 0.296719
0.345565 0.520186 0.294463
0.359716 0.516140 0.291686
0.374307 0.512139 0.289857
0.389184 0.508323 0.289298
0.406072 0.504343 0.288953
0.421109 0.501212 0.288536
0.434430 0.499305 0.289164
0.447301 0.498381 0.290725
0.459987 0.497556 0.292481
0.473132 0.496107 0.294658
0.485948 0.495101 0.295936
0.499195 0.494332 0.296933
0.513498 0.493009 0.298673
0.307551 0.677246 0.377959
0.307565 0.668245 0.374828
0.308046 0.660027 0.371443
0.308913 0.651822 0.368012
0.309439 0.643483 0.364293
0.307471 0.636244 0.358667
0.306852 0.627984 0.354068
0.305932 0.619815 0.350196
0.304391 0.612490 0.346431
0.303915 0.604750 0.341987
0.303572 0.596480 0.338130
0.302006 0.588486 0.334413
0.300510 0.581349 0.330576
0.301879 0.575198 0.326933
0.304062 0.569176 0.323858
0.308037 0.562867 0.320770
0.314335 0.556837 0.316810
0.322657 0.551601 0.312997
0.332564 0.546816 0.310186
0.343873 0.542587 0.307220
0.356976 0.538064 0.304563
0.370304 0.534183 0.302777
0.384222 0.530948 0.301818
0.400672 0.526976 0.301689
0.416533 0.522990 0.300042
0.431448 0.519808 0.300146
0.445531 0.517808 0.301886
0.458169 0.516509 0.303683
0.471985 0.515169 0.305931
0.485090 0.513760 0.306694
0.498192 0.512391 0.306487
0.512568 0.511473 0.306613
0.307487 0.706503 0.390705
0.306697 0.697432 0.387453
0.307682 0.688479 0.383712
0.309580 0.679522 0.380055
0.311350 0.670718 0.377049
0.309397 0.663106 0.372837
0.308086 0.654740 0.367978
0.307184 0.646307 0.364130
0.306664 0.638299 0.361003
0.306534 0.630068 0.355944
0.306059 0.621828 0.351422
0.304906 0.613849 0.347218
0.304582 0.606363 0.343569
0.306430 0.599530 0.340534
0.308665 0.593123 0.337063
0.310554 0.587134 0.333696
0.315144 0.580535 0.329134
0.322933 0.574446 0.325011
0.331526 0.569926 0.322574
0.342565 0.565483 0.318912
0.355013 0.560317 0.316593
0.367211 0.556011 0.315409
0.380233 0.552775 0.314047
0.396041 0.549148 0.312896
0.412101 0.545316 0.310899
0.427877 0.541259 0.310655
0.442817 0.537645 0.312356
0.456257 0.535679 0.314160
0.470259 0.535105 0.315070
0.483653 0.533312 0.315218
0.496972 0.531377 0.314750
0.510489 0.531199 0.313671
0.307661 0.735145 0.397991
0.305590 0.726935 0.395590
0.304741 0.718258 0.393154
0.305892 0.708922 0.391244
0.309081 0.699296 0.390157
0.310463 0.690572 0.386666
0.309937 0.682687 0.381203
0.309039 0.674549 0.376502
0.308497 0.665596 0.373861
0.307891 0.656619 0.369814
0.307251 0.647789 0.364976
0.305628 0.639747 0.360032
0.305612 0.632134 0.356244
0.309722 0.624307 0.353883
0.312704 0.617612 0.350505
0.314998 0.611255 0.346565
0.317746 0.604795 0.341682
0.322669 0.599086 0.337480
