gsg/04_Specialty/GSG_LUT_Specialty_TechnicolorDreamcoat.cube
# GSG LUTs 1.0
# Copyright (c) 2016-2020 Greyscalegorilla
# See EULA for licensing and distribution information
# Converted by Briz LUT Converter
LUT_3D_SIZE 8
DOMAIN_MIN 0.000000 0.000000 0.000000
DOMAIN_MAX 0.903226 0.903226 0.903226
0.000000 0.045177 0.083028
0.012186 0.047225 0.085076
0.076687 0.050061 0.087487
0.196762 0.042664 0.088306
0.373280 0.001079 0.085817
0.565591 0.000000 0.078365
0.740841 0.000000 0.065107
0.889700 0.000000 0.047997
0.000000 0.072008 0.096877
0.005039 0.076293 0.091154
0.102491 0.079561 0.085233
0.241164 0.078091 0.082187
0.416242 0.036278 0.077087
0.596708 0.000022 0.067009
0.760870 0.000000 0.049767
0.900035 0.000000 0.027881
0.000000 0.180606 0.132892
0.000000 0.186898 0.119744
0.101375 0.199733 0.100500
0.317979 0.193821 0.076399
0.499919 0.162813 0.052719
0.662401 0.132444 0.016380
0.803528 0.089239 0.000825
0.923399 0.063462 0.000000
0.000000 0.375454 0.196999
0.000000 0.384179 0.177473
0.006402 0.376653 0.146579
0.307313 0.396042 0.095632
0.559127 0.386983 0.008930
0.723931 0.334508 0.000000
0.849684 0.312638 0.000000
0.952847 0.312997 0.000000
0.000000 0.555847 0.278916
0.000000 0.563414 0.260002
0.000000 0.555838 0.225043
0.237519 0.553949 0.175001
0.526019 0.573602 0.100377
0.739507 0.569160 0.000305
0.868594 0.519193 0.000000
0.971009 0.485096 0.000000
0.000000 0.700272 0.400354
0.000000 0.701581 0.391404
0.000000 0.698934 0.351155
0.246579 0.694171 0.308704
0.491510 0.698368 0.262740
0.697246 0.712453 0.206865
0.863471 0.714485 0.102754
0.962573 0.674040 0.009539
0.218559 0.809571 0.566103
0.260258 0.807781 0.559371
0.280280 0.807192 0.526721
0.401022 0.806590 0.499408
0.531478 0.803602 0.454032
0.680194 0.809973 0.423131
0.823780 0.820023 0.388608
0.943275 0.824199 0.330705
0.553303 0.891496 0.732601
0.562433 0.890527 0.730493
0.564196 0.890264 0.713755
0.596457 0.890323 0.696958
0.650271 0.889625 0.673256
0.725727 0.889186 0.641185
0.818773 0.895708 0.630641
0.908037 0.901695 0.608638
0.000000 0.048722 0.103635
0.003744 0.049848 0.103473
0.081487 0.048963 0.103287
0.210483 0.048931 0.101410
0.391319 0.007607 0.092600
0.581915 0.000000 0.074187
0.754840 0.000000 0.056000
0.900558 0.000000 0.037027
0.000000 0.074453 0.120477
0.001637 0.079483 0.122518
0.099448 0.082278 0.116679
0.249953 0.080330 0.108461
0.426145 0.043636 0.094198
0.609639 0.000184 0.070587
0.776107 0.000000 0.038160
0.912047 0.000000 0.015330
0.000000 0.187223 0.177236
0.000000 0.196844 0.171190
0.109556 0.205087 0.147024
0.325291 0.190865 0.121830
0.501836 0.161098 0.096877
0.664801 0.127837 0.062042
0.813204 0.111787 0.006464
0.934406 0.111009 0.000000
0.000000 0.388061 0.248939
0.000000 0.398270 0.239781
0.011884 0.390955 0.199529
0.325356 0.405877 0.155923
0.569382 0.388935 0.098566
0.730066 0.335066 0.034249
0.854401 0.315265 0.000535
0.959142 0.318905 0.000000
0.000000 0.572704 0.332442
0.000000 0.580684 0.326538
0.000000 0.573915 0.281498
0.271185 0.567448 0.231586
0.543192 0.584361 0.176605
0.747134 0.573652 0.082172
0.874903 0.522727 0.002615
0.975072 0.489626 0.000000
0.000000 0.712383 0.448463
0.000000 0.715214 0.445502
0.012261 0.712673 0.406212
0.296292 0.706535 0.362772
0.509737 0.706590 0.315221
0.706331 0.718995 0.268661
0.867617 0.718820 0.196091
0.965470 0.677975 0.069149
0.298591 0.816203 0.600232
0.333231 0.816038 0.598266
0.359754 0.815576 0.574380
0.441280 0.814103 0.543633
0.550905 0.809383 0.496140
0.688460 0.813853 0.462756
0.827230 0.823677 0.431892
0.943839 0.827192 0.379188
0.570804 0.894540 0.748297
0.583486 0.894677 0.748659
0.596789 0.893711 0.739440
0.615853 0.893870 0.718853
0.662546 0.892527 0.694733
0.731626 0.891194 0.661534
0.821266 0.897494 0.650857
0.908470 0.903233 0.630380
0.000000 0.054228 0.157612
0.000336 0.056615 0.158415
0.075566 0.057049 0.164337
0.255937 0.022901 0.173847
0.397205 0.000000 0.144025
0.566497 0.000000 0.130088
0.751328 0.000000 0.106443
0.905687 0.000000 0.053508
0.000000 0.088101 0.183016
0.000205 0.091404 0.186773
0.099584 0.098767 0.191774
0.270415 0.076986 0.183324
0.414898 0.038641 0.158345
0.593262 0.000232 0.139071
0.768577 0.000000 0.109141
0.914152 0.000000 0.050113
0.000000 0.189338 0.232939
0.000000 0.196968 0.236457
0.112238 0.206479 0.236067
0.307733 0.192528 0.211104
0.480424 0.166253 0.183119
0.647214 0.127727 0.152443
0.802410 0.095021 0.113164
0.931303 0.103529 0.040811
0.000000 0.383886 0.327301
0.000000 0.392868 0.328083
0.040433 0.394362 0.304792
0.334191 0.401599 0.261138
0.562299 0.372460 0.217421
0.716035 0.329750 0.172780
0.844415 0.312489 0.121583
0.952879 0.310408 0.029728
0.000000 0.570854 0.414668
0.000000 0.577446 0.413491
0.013441 0.574826 0.386984
0.298329 0.567674 0.331625
0.547497 0.581653 0.291464
0.741580 0.564417 0.235253
0.871530 0.515672 0.166196
0.969762 0.487441 0.061805
0.004960 0.711536 0.516539
0.048917 0.713959 0.515276
0.204830 0.711697 0.497401
0.343396 0.708514 0.449154
0.519406 0.704420 0.399831
0.707891 0.718622 0.367271
0.863542 0.715956 0.315667
0.962580 0.674656 0.222014
0.350636 0.815550 0.642014
0.379280 0.816037 0.641349
0.430924 0.814792 0.634006
0.478096 0.814747 0.601918
0.566987 0.809952 0.558691
0.692013 0.812960 0.525164
0.825890 0.823957 0.503532
0.939123 0.826129 0.457355
0.580322 0.894378 0.766485
0.592665 0.894559 0.766876
0.614922 0.893442 0.763587
0.633085 0.894098 0.746231
0.673104 0.893060 0.724370
0.735532 0.891392 0.692427
0.821758 0.897670 0.682216
0.906687 0.903657 0.664974
0.000000 0.065343 0.264453
0.000000 0.069089 0.268739
0.089358 0.080275 0.281186
0.272884 0.056182 0.296438
0.513880 0.000000 0.311741
0.640987 0.000000 0.246036
0.749087 0.000000 0.196566
0.887447 0.000000 0.169816
0.000000 0.107275 0.298007
0.000000 0.113359 0.304110
0.111742 0.129319 0.312467
0.297054 0.117735 0.318533
0.519642 0.033673 0.319921
0.640946 0.000000 0.249606
0.753440 0.000000 0.207287
0.896093 0.000000 0.175664
0.000000 0.201960 0.331899
0.000000 0.207903 0.337761
0.099276 0.224345 0.351427
0.329599 0.237211 0.357625
0.518135 0.196124 0.331138
0.632642 0.139180 0.267790
0.776631 0.109424 0.232291
0.914423 0.072977 0.187722
0.000000 0.367968 0.396857
0.000000 0.377134 0.402479
0.093657 0.384385 0.403052
0.341853 0.396126 0.402181
0.529693 0.367163 0.360209
0.681912 0.338354 0.315003
0.821211 0.317191 0.267974
0.938079 0.302824 0.209400
0.000829 0.566281 0.510123
0.036101 0.572737 0.514884
0.228409 0.572200 0.507005
0.368125 0.571355 0.478905
0.549702 0.575298 0.434751
0.729633 0.548710 0.387046
0.856472 0.510145 0.327220
0.956659 0.485322 0.257193
0.197227 0.710243 0.606531
0.256349 0.712746 0.607684
0.334621 0.710883 0.598102
0.432650 0.709259 0.575378
0.537103 0.702973 0.520961
0.707818 0.717315 0.497971
0.854063 0.709058 0.454059
0.956461 0.666920 0.367064
0.414124 0.815797 0.700746
0.437875 0.816928 0.701445
0.478526 0.815608 0.696180
0.539089 0.814602 0.684030
0.592578 0.811522 0.645244
0.695990 0.811486 0.609591
0.822873 0.823968 0.597840
0.931378 0.824002 0.558687
0.592267 0.894734 0.794454
0.604978 0.895211 0.795417
0.627020 0.894285 0.793063
0.664794 0.893930 0.789571
0.689825 0.894022 0.767605
0.741971 0.892454 0.739182
0.821540 0.897655 0.726032
0.904354 0.904137 0.713283
0.000000 0.089511 0.416314
0.000000 0.094923 0.425372
0.065107 0.106564 0.440371
0.320512 0.121627 0.455760
0.509223 0.032409 0.456987
0.745242 0.000000 0.482574
0.853948 0.000000 0.409373
0.935064 0.000000 0.315582
0.000000 0.135634 0.444096
0.000000 0.141781 0.449851
0.086030 0.154948 0.459083
0.339085 0.177961 0.472914
0.524690 0.127262 0.473186
0.747106 0.057005 0.492152
0.849685 0.002754 0.412085
0.930100 0.000000 0.315767
0.000000 0.228343 0.462104
0.000000 0.235626 0.473581
0.068523 0.245837 0.484292
0.358394 0.282060 0.500015
0.544756 0.269387 0.502959
0.737653 0.252746 0.503787
0.835396 0.151892 0.413781
0.913673 0.037026 0.323816
0.000000 0.365091 0.495763
0.000000 0.370078 0.499381
0.016343 0.373472 0.499311
0.342593 0.406124 0.524535
0.553518 0.433189 0.540944
0.708066 0.401027 0.506994
0.804816 0.331756 0.416288
0.909999 0.295065 0.347206
0.000000 0.540628 0.566068
0.002124 0.546098 0.570486
0.164270 0.548726 0.569901
0.383645 0.557228 0.573971
0.547776 0.568253 0.575680
0.695761 0.540304 0.529595
0.821508 0.505615 0.467719
0.934026 0.472268 0.394957
0.295724 0.704840 0.677805
0.346222 0.707761 0.681316
0.422474 0.707747 0.680997
0.504059 0.708617 0.675932
0.577797 0.706627 0.651950
0.704418 0.713447 0.621696
0.840391 0.695159 0.577765
0.943324 0.654819 0.496315
0.487215 0.815986 0.762033
0.503404 0.817495 0.762955
0.527580 0.816224 0.757841
0.575495 0.815640 0.750514
0.632842 0.814011 0.733874
0.701312 0.811220 0.695251
0.819771 0.823993 0.686207
0.923021 0.818503 0.649653
0.602937 0.895604 0.827358
0.614716 0.896417 0.828314
0.635720 0.895664 0.826374
0.674536 0.895398 0.824664
0.716592 0.895197 0.818146
0.752482 0.894896 0.793324
0.820332 0.897016 0.772884
0.902031 0.904517 0.765153
0.000000 0.129891 0.593477
0.000000 0.134381 0.597601
0.028736 0.144070 0.606386
0.352460 0.162635 0.621240
0.561813 0.183722 0.635479
0.732572 0.104542 0.639785
0.895033 0.162200 0.653987
0.981392 0.118721 0.595173
0.000000 0.173267 0.603846
0.000000 0.178408 0.608280
0.058434 0.189702 0.615672
0.364719 0.213357 0.630287
0.571344 0.246927 0.646034
0.735851 0.201401 0.649164
0.890646 0.244380 0.659746
0.975795 0.198192 0.596755
0.000000 0.258500 0.614401
0.000000 0.261747 0.620084
0.051988 0.275461 0.627554
0.373715 0.308177 0.643094
0.581245 0.361509 0.662874
0.735167 0.340492 0.665534
0.877594 0.369778 0.670339
0.962045 0.309409 0.598399
0.000000 0.366957 0.605804
0.000000 0.374597 0.613328
0.020819 0.392468 0.628742
0.352991 0.422399 0.653089
0.576897 0.483943 0.678325
0.725127 0.491115 0.686536
0.854357 0.498603 0.682403
0.940262 0.411932 0.591551
0.000000 0.528465 0.654216
0.000000 0.530660 0.655701
0.019691 0.529644 0.652996
0.296027 0.532245 0.654103
0.543073 0.573821 0.684330
0.712483 0.613131 0.708807
0.825355 0.583291 0.675329
0.912033 0.493746 0.567240
0.127805 0.678529 0.714577
0.207941 0.680934 0.716604
0.324102 0.681308 0.715659
0.452394 0.686384 0.718441
0.578768 0.695643 0.724958
0.700485 0.708722 0.730017
0.808938 0.680280 0.686279
0.910793 0.638876 0.614898
0.492491 0.807462 0.800212
0.515679 0.809632 0.802942
0.555825 0.810580 0.804297
0.617899 0.813801 0.807418
0.676843 0.817232 0.806846
0.727695 0.816281 0.789791
0.815692 0.821355 0.768865
0.913593 0.805532 0.730753
0.656532 0.894458 0.869139
0.664676 0.895388 0.869859
0.676011 0.895428 0.867952
0.698575 0.896483 0.865536
0.733433 0.897901 0.862042
0.776995 0.898338 0.853288
0.820772 0.896725 0.826189
0.900446 0.905308 0.820788
0.000000 0.190059 0.751420
0.000000 0.194424 0.753310
0.134607 0.205771 0.758538
0.407978 0.232460 0.769011
0.607955 0.292762 0.783338
0.759602 0.334250 0.791134
0.883408 0.300065 0.787980
0.975120 0.365677 0.779623
0.000000 0.229935 0.754761
0.000000 0.235015 0.757106
0.158350 0.247496 0.761861
0.415836 0.277090 0.772322
0.610761 0.337850 0.786063
0.759227 0.383764 0.794086
0.879080 0.351596 0.790044
0.969845 0.407746 0.782782
0.000000 0.304409 0.756975
0.000000 0.310829 0.759585
0.160022 0.326172 0.764401
0.418898 0.360361 0.775071
0.610073 0.420890 0.789056
0.755832 0.476391 0.799146
0.868091 0.449091 0.795069
0.957093 0.490022 0.790737
0.000000 0.413781 0.748370
0.000000 0.421454 0.753291
0.079442 0.427298 0.762053
0.396172 0.458549 0.774730
0.598576 0.516020 0.790428
0.748210 0.580591 0.805514
0.850778 0.563249 0.803195
0.939806 0.585357 0.801674
0.000000 0.518092 0.745304
0.000000 0.517984 0.745691
0.000000 0.518603 0.746698
0.303938 0.542241 0.762870
0.559449 0.590012 0.787751
0.733234 0.656863 0.810408
0.834536 0.659448 0.813782
0.923341 0.664992 0.810239
0.012721 0.669845 0.785136
0.055547 0.671014 0.785990
0.173696 0.669062 0.784032
0.352067 0.667878 0.782743
0.497279 0.667203 0.782021
0.691747 0.708688 0.807231
0.821394 0.745337 0.827978
0.904036 0.718633 0.801053
0.402931 0.789443 0.827983
0.427582 0.790842 0.829137
0.472830 0.791278 0.828959
0.547395 0.794321 0.830963
0.632519 0.799212 0.834131
0.722618 0.806372 0.838893
0.811010 0.816044 0.842091
0.891219 0.786127 0.801078
0.630275 0.888066 0.889543
0.642808 0.889092 0.890811
0.667640 0.890027 0.892061
0.711553 0.893404 0.895923
0.761776 0.897797 0.900443
0.805762 0.901860 0.901405
0.838376 0.901192 0.889303
0.900266 0.905525 0.875573
0.127268 0.309874 0.879822
0.213348 0.315622 0.880613
0.361056 0.331602 0.882056
0.518127 0.364789 0.884827
0.664284 0.420121 0.887862
0.792277 0.502097 0.891117
0.886328 0.514738 0.891289
0.972517 0.489922 0.887307
0.139950 0.344402 0.880542
0.229089 0.350353 0.881300
0.367362 0.365392 0.882420
0.520514 0.397366 0.884793
0.664052 0.449376 0.887504
0.790266 0.526364 0.890782
0.882976 0.542174 0.891386
0.967833 0.518687 0.888095
0.133925 0.407561 0.879253
0.224016 0.413803 0.880059
0.364458 0.428299 0.881094
0.518033 0.458808 0.883417
0.660731 0.506490 0.886422
0.785179 0.574482 0.890392
0.875665 0.597829 0.892179
0.957241 0.575387 0.889642
0.099953 0.495369 0.873967
0.161209 0.495612 0.875623
0.323475 0.503043 0.877366
0.496623 0.531651 0.880369
0.647402 0.574437 0.884341
0.774809 0.632611 0.889989
0.865741 0.667936 0.894421
0.942412 0.647067 0.892314
0.000000 0.561657 0.862029
0.000712 0.565739 0.864238
0.157606 0.574035 0.867284
0.428668 0.595117 0.874148
0.606786 0.628404 0.881024
0.754278 0.681746 0.889289
0.855580 0.731363 0.897913
0.927476 0.716987 0.896783
0.000000 0.681012 0.870942
0.000000 0.679974 0.870970
0.069814 0.672778 0.868267
0.264002 0.663849 0.865523
0.497879 0.675964 0.870520
0.707812 0.722522 0.886094
0.841682 0.783131 0.901386
0.913675 0.785711 0.903827
0.362331 0.801652 0.893174
0.384109 0.802000 0.893533
0.422574 0.800000 0.892253
0.486159 0.796970 0.890498
0.559945 0.791043 0.887449
0.646721 0.781401 0.882864
0.803019 0.814200 0.898187
0.905277 0.849284 0.914192
0.593739 0.884296 0.917339
0.604575 0.884808 0.917803
0.625162 0.884868 0.917591
0.662368 0.885837 0.918071
0.710137 0.887246 0.918578
0.767848 0.889882 0.919681
0.832687 0.894893 0.922305
0.901434 0.904746 0.925816
