gsg/04_Specialty/GSG_LUT_Specialty_SailorsDelight.cube
# GSG LUTs 1.0
# Copyright (c) 2016-2020 Greyscalegorilla
# See EULA for licensing and distribution information
# Converted by Briz LUT Converter
LUT_3D_SIZE 8
DOMAIN_MIN 0.000000 0.000000 0.000000
DOMAIN_MAX 0.903226 0.903226 0.903226
0.050794 0.061538 0.077167
0.068668 0.077679 0.102745
0.176281 0.103533 0.133767
0.441553 0.130387 0.171681
0.715318 0.207279 0.231069
0.853826 0.323959 0.324810
0.910835 0.430084 0.433495
0.929725 0.526764 0.544212
0.050794 0.122982 0.162354
0.078205 0.150677 0.169411
0.271689 0.187808 0.189539
0.531000 0.237803 0.223672
0.744157 0.311719 0.285091
0.855138 0.395439 0.373435
0.904491 0.477420 0.472870
0.921694 0.557408 0.573396
0.079586 0.334405 0.309528
0.220788 0.370402 0.312001
0.451205 0.428936 0.323134
0.656891 0.468161 0.368883
0.784252 0.499162 0.428309
0.853685 0.531974 0.494817
0.888761 0.574597 0.568492
0.903645 0.622619 0.641582
0.436346 0.594549 0.513545
0.484134 0.607044 0.516200
0.592212 0.633482 0.524455
0.712605 0.647702 0.550583
0.792476 0.650465 0.598453
0.838672 0.657943 0.642140
0.865233 0.670389 0.680355
0.883473 0.689195 0.718752
0.631785 0.705983 0.677640
0.647875 0.709432 0.680199
0.685474 0.716244 0.685043
0.745008 0.724988 0.694271
0.794210 0.723563 0.708121
0.827479 0.722316 0.730926
0.851950 0.726876 0.754811
0.878446 0.736295 0.777499
0.733830 0.747513 0.766860
0.739952 0.748726 0.768123
0.753911 0.750979 0.770134
0.777475 0.754358 0.773749
0.807927 0.757603 0.778784
0.831486 0.756421 0.785359
0.856359 0.758210 0.797574
0.890638 0.764771 0.811256
0.794368 0.769404 0.815597
0.796778 0.769924 0.815873
0.803124 0.771429 0.816651
0.814679 0.773729 0.818210
0.832654 0.777124 0.820166
0.857678 0.781251 0.822994
0.882752 0.783218 0.826117
0.915606 0.787144 0.832678
0.849573 0.797267 0.846886
0.851673 0.797542 0.847354
0.857403 0.799159 0.847903
0.868234 0.801946 0.848996
0.883970 0.805388 0.850069
0.907999 0.810469 0.852448
0.936905 0.815826 0.855825
0.957967 0.816511 0.859616
0.050794 0.066643 0.110323
0.059402 0.079121 0.132090
0.188446 0.109527 0.169672
0.473017 0.165819 0.225945
0.723152 0.261275 0.293201
0.847947 0.366491 0.377469
0.902019 0.459731 0.471571
0.921985 0.544500 0.567962
0.050794 0.132160 0.192683
0.077211 0.157715 0.204790
0.287851 0.207006 0.236267
0.549301 0.270734 0.279197
0.746880 0.349017 0.340609
0.849407 0.427977 0.420026
0.896324 0.501281 0.506168
0.914773 0.571911 0.593655
0.137924 0.352484 0.341755
0.255825 0.384299 0.344691
0.459325 0.433336 0.358563
0.655275 0.477812 0.406397
0.778799 0.513090 0.462802
0.846722 0.546546 0.523103
0.881935 0.585904 0.587904
0.898596 0.629805 0.653496
0.455205 0.598334 0.531928
0.498617 0.610217 0.534617
0.599264 0.634999 0.543147
0.709785 0.646511 0.565574
0.787575 0.651458 0.610357
0.834032 0.660622 0.651902
0.861544 0.673010 0.687287
0.880782 0.691288 0.723415
0.639070 0.706983 0.686082
0.653615 0.710064 0.687904
0.689192 0.716494 0.692258
0.745748 0.724738 0.700270
0.792808 0.723380 0.713196
0.825733 0.722784 0.735118
0.850456 0.727754 0.758311
0.876997 0.736806 0.779560
0.735836 0.747587 0.769354
0.741289 0.748620 0.770185
0.754893 0.750855 0.772085
0.777921 0.754198 0.775528
0.807729 0.757436 0.780567
0.830983 0.756358 0.787084
0.855767 0.758265 0.798899
0.890197 0.764913 0.812212
0.794612 0.769223 0.816250
0.796992 0.769743 0.816544
0.803018 0.771058 0.817352
0.814495 0.773431 0.818786
0.832507 0.776966 0.820864
0.857524 0.781177 0.823637
0.882385 0.783111 0.826757
0.915314 0.787036 0.833096
0.848925 0.797246 0.847165
0.851217 0.797517 0.847629
0.856944 0.798934 0.848204
0.867763 0.801788 0.849297
0.884598 0.805714 0.850904
0.908209 0.810688 0.853184
0.936717 0.815831 0.856402
0.957949 0.816537 0.860343
0.050794 0.075292 0.155303
0.050817 0.085848 0.177391
0.190229 0.107762 0.231355
0.494132 0.153440 0.285248
0.730328 0.277414 0.356678
0.843403 0.405452 0.443926
0.890100 0.504154 0.533995
0.909677 0.576280 0.612365
0.050794 0.150838 0.249667
0.076618 0.172149 0.268505
0.306963 0.214455 0.300837
0.568384 0.284918 0.347641
0.750932 0.379206 0.410921
0.842416 0.469431 0.488579
0.884298 0.540128 0.563855
0.903364 0.599038 0.633297
0.176372 0.376461 0.404357
0.293645 0.408476 0.408836
0.484881 0.450759 0.428275
0.662537 0.498693 0.474593
0.774292 0.537796 0.523963
0.837335 0.573950 0.576421
0.871431 0.610077 0.629212
0.889870 0.646769 0.681115
0.489018 0.611365 0.576889
0.529099 0.622758 0.580179
0.617961 0.644191 0.588057
0.713007 0.652878 0.608489
0.784077 0.661154 0.646522
0.827883 0.671826 0.680888
0.855457 0.683267 0.709109
0.876434 0.698960 0.738400
0.656313 0.710693 0.706608
0.669056 0.713386 0.708237
0.700597 0.719458 0.711940
0.750716 0.726624 0.718783
0.792737 0.725721 0.730072
0.823880 0.726277 0.748722
0.848647 0.731591 0.768742
0.875961 0.739537 0.786287
0.742864 0.748639 0.777264
0.747904 0.749544 0.777911
0.760252 0.751734 0.779743
0.781377 0.754894 0.782794
0.808891 0.757900 0.787094
0.831069 0.757115 0.793038
0.855964 0.759577 0.803768
0.890995 0.766135 0.815873
0.797060 0.769697 0.819330
0.799243 0.770217 0.819629
0.805202 0.771637 0.820236
0.816351 0.774028 0.821638
0.833931 0.777451 0.823494
0.858438 0.781649 0.826040
0.883453 0.783560 0.828969
0.917038 0.787741 0.835415
0.849399 0.797812 0.848501
0.851643 0.798041 0.848956
0.857254 0.799113 0.849762
0.867998 0.802044 0.850991
0.884801 0.805958 0.852590
0.908498 0.811001 0.854827
0.937161 0.816273 0.858301
0.958419 0.816974 0.862137
0.050794 0.088487 0.234157
0.050794 0.099543 0.261052
0.189398 0.130040 0.322537
0.510946 0.163012 0.384574
0.734049 0.295789 0.441750
0.835519 0.430751 0.510276
0.878756 0.529989 0.584549
0.897121 0.601665 0.653159
0.050794 0.178276 0.340568
0.088880 0.196431 0.360396
0.327376 0.238783 0.399045
0.580322 0.299504 0.438003
0.750427 0.401029 0.489828
0.833372 0.494146 0.549777
0.872358 0.567136 0.613738
0.891271 0.622778 0.671999
0.245853 0.417809 0.488038
0.351699 0.442083 0.500354
0.515156 0.477379 0.521727
0.664850 0.516783 0.551216
0.767431 0.558245 0.587660
0.826380 0.598000 0.629567
0.859504 0.633598 0.672322
0.880519 0.663005 0.710031
0.526329 0.628031 0.635095
0.559176 0.636622 0.638640
0.636032 0.654780 0.644741
0.717250 0.663182 0.662696
0.780175 0.674289 0.690684
0.820528 0.684165 0.713429
0.848544 0.693879 0.733330
0.871540 0.706314 0.754551
0.674239 0.715033 0.732669
0.685719 0.717720 0.734035
0.714189 0.723278 0.737165
0.757008 0.729350 0.742479
0.793003 0.729115 0.751826
0.821997 0.731021 0.766543
0.846703 0.736195 0.782040
0.874673 0.742116 0.794281
0.751668 0.750099 0.788363
0.756322 0.751034 0.789031
0.767094 0.753106 0.790372
0.786004 0.756135 0.792867
0.810676 0.758878 0.796439
0.831457 0.758497 0.801493
0.856932 0.761320 0.810700
0.892727 0.767528 0.820908
0.799793 0.770686 0.823486
0.801983 0.770945 0.823988
0.807733 0.772216 0.824654
0.818302 0.774645 0.825904
0.835598 0.778289 0.827545
0.859813 0.782410 0.829794
0.885092 0.784288 0.832472
0.919397 0.788535 0.838618
0.849023 0.799047 0.850762
0.851337 0.799099 0.851252
0.857073 0.799661 0.852298
0.867646 0.802266 0.853590
0.884335 0.806330 0.855351
0.908155 0.811413 0.857614
0.937582 0.816811 0.861019
0.958952 0.817481 0.865090
0.050794 0.110725 0.357423
0.050794 0.121486 0.382826
0.239124 0.154030 0.434792
0.530436 0.233645 0.504409
0.732421 0.344235 0.542717
0.821530 0.474914 0.590455
0.862826 0.565302 0.644133
0.882724 0.628750 0.696216
0.053811 0.211644 0.452019
0.152139 0.229224 0.470745
0.371290 0.277192 0.506988
0.592165 0.353280 0.548232
0.741848 0.438524 0.576888
0.818649 0.530369 0.620458
0.857588 0.596557 0.666113
0.878458 0.645781 0.710128
0.348583 0.461314 0.583758
0.421385 0.480255 0.597266
0.540928 0.510191 0.613022
0.662845 0.542347 0.628029
0.755789 0.582166 0.651511
0.814222 0.619180 0.679230
0.848400 0.651394 0.709321
0.870877 0.677923 0.738149
0.569218 0.648721 0.690608
0.598926 0.653394 0.696657
0.658319 0.667205 0.702245
0.723920 0.677000 0.715973
0.776771 0.685768 0.729732
0.814330 0.693805 0.742070
0.842193 0.702883 0.756079
0.866808 0.712293 0.770374
0.694206 0.721324 0.759460
0.704078 0.722545 0.761388
0.727177 0.727725 0.763544
0.762890 0.732529 0.767010
0.794145 0.733430 0.774439
0.820963 0.735934 0.784752
0.845030 0.739050 0.793730
0.873232 0.742623 0.801052
0.760820 0.752475 0.800722
0.764949 0.752723 0.801576
0.773998 0.754625 0.802637
0.789986 0.757462 0.804407
0.811827 0.759972 0.806937
0.832439 0.760274 0.811331
0.858878 0.763282 0.818591
0.895225 0.768498 0.826475
0.803474 0.772503 0.829065
0.805251 0.772531 0.829528
0.810000 0.772924 0.830315
0.819335 0.775278 0.831159
0.836320 0.779112 0.832591
0.861184 0.783377 0.834474
0.887379 0.785331 0.837040
0.922964 0.789547 0.843216
0.846427 0.800449 0.853681
0.848613 0.800589 0.854062
0.854567 0.800997 0.855120
0.865629 0.802340 0.857376
0.882288 0.806418 0.859199
0.906663 0.811719 0.861586
0.937096 0.817362 0.865028
0.959593 0.818214 0.869247
0.050794 0.144504 0.507834
0.064045 0.157187 0.526967
0.328989 0.194488 0.568753
0.572629 0.291146 0.614548
0.733961 0.429760 0.647813
0.812487 0.527243 0.668302
0.845521 0.604813 0.701816
0.867282 0.657740 0.738333
0.130082 0.257090 0.574222
0.251330 0.274247 0.587666
0.432285 0.319637 0.616864
0.618271 0.408225 0.647605
0.740637 0.503580 0.669234
0.808062 0.571122 0.687138
0.841277 0.628964 0.716622
0.864623 0.669785 0.747145
0.424035 0.495202 0.666760
0.473678 0.508563 0.674595
0.573367 0.539763 0.690765
0.675078 0.582628 0.704472
0.751886 0.613048 0.712537
0.802931 0.643440 0.726446
0.836642 0.671144 0.745625
0.860960 0.694513 0.766770
0.609276 0.665757 0.740092
0.635385 0.672775 0.745628
0.681237 0.682887 0.753653
0.729110 0.688830 0.757411
0.773691 0.695699 0.762360
0.809045 0.703702 0.769463
0.835826 0.712587 0.778914
0.861219 0.721943 0.790382
0.715619 0.730857 0.785978
0.725440 0.731657 0.788252
0.743165 0.734210 0.790910
0.770556 0.737850 0.793055
0.796953 0.739132 0.797730
0.820469 0.740875 0.802482
0.842676 0.742461 0.806577
0.871389 0.745081 0.811484
0.772391 0.756462 0.814615
0.775810 0.756529 0.815417
0.783202 0.757190 0.816718
0.796022 0.759809 0.818057
0.814575 0.762091 0.819685
0.834979 0.762964 0.823040
0.862222 0.765419 0.827922
0.896544 0.767679 0.831620
0.809185 0.775139 0.836177
0.811013 0.775203 0.836666
0.815525 0.775522 0.837461
0.823806 0.777041 0.838639
0.838102 0.780514 0.839533
0.862904 0.784906 0.841115
0.891145 0.786916 0.843684
0.927701 0.790714 0.849523
0.850179 0.803127 0.860625
0.851993 0.803356 0.860888
0.856705 0.803663 0.861665
0.865138 0.804427 0.863012
0.879229 0.806347 0.865206
0.903676 0.812041 0.867677
0.936123 0.818332 0.871117
0.960217 0.819345 0.875734
0.102619 0.203679 0.660900
0.245504 0.220948 0.671800
0.428311 0.268641 0.694739
0.619682 0.366735 0.721551
0.751488 0.498042 0.735512
0.810186 0.595274 0.744878
0.840942 0.643823 0.754718
0.857416 0.680793 0.771848
0.282888 0.318298 0.693063
0.357837 0.336655 0.700767
0.494452 0.382344 0.717367
0.647354 0.463551 0.736653
0.754055 0.558498 0.746535
0.807354 0.623647 0.753943
0.837489 0.659955 0.762523
0.854995 0.690574 0.778000
0.481121 0.527864 0.739062
0.518450 0.539535 0.743336
0.596466 0.566820 0.752981
0.693035 0.607323 0.764527
0.762738 0.648151 0.770614
0.805549 0.672382 0.773903
0.832989 0.691554 0.780299
0.852523 0.710941 0.792708
0.635467 0.674621 0.778420
0.653449 0.679363 0.781060
0.690374 0.688305 0.786956
0.740369 0.700569 0.794091
0.779498 0.709994 0.796590
0.809090 0.715537 0.797303
0.832484 0.723658 0.802097
0.856774 0.731600 0.809215
0.726552 0.736735 0.808983
0.735526 0.738049 0.810688
0.754986 0.741248 0.814375
0.777554 0.743865 0.817918
0.798716 0.744067 0.817977
0.820161 0.745235 0.818994
0.842327 0.747262 0.821079
0.870676 0.750140 0.824978
0.779956 0.762354 0.828454
0.784224 0.762680 0.829575
0.793651 0.763501 0.832038
0.804583 0.764087 0.834147
0.819944 0.766011 0.834822
0.840647 0.766631 0.836595
0.866599 0.767738 0.838437
0.897761 0.768344 0.840253
0.814560 0.779964 0.845068
0.817169 0.780202 0.845838
0.822679 0.780489 0.846919
0.831218 0.780967 0.848428
0.844542 0.783595 0.849748
0.867946 0.787628 0.851333
0.896693 0.789320 0.854057
0.932582 0.791569 0.859129
0.854459 0.806838 0.869248
0.857422 0.806884 0.870323
0.863291 0.807375 0.871647
0.871968 0.808148 0.873478
0.884777 0.809265 0.876042
0.902857 0.813067 0.878296
0.933997 0.819713 0.881082
0.961338 0.821455 0.886176
0.332357 0.307700 0.775777
0.395592 0.328174 0.779504
0.512589 0.379505 0.786830
0.647939 0.465993 0.797206
0.765476 0.565214 0.803934
0.819653 0.643277 0.801408
0.842680 0.688235 0.804682
0.862276 0.709550 0.809945
0.409251 0.405269 0.783961
0.457056 0.423031 0.786787
0.551055 0.466047 0.792446
0.665451 0.532564 0.800928
0.768428 0.605526 0.807075
0.817566 0.663443 0.805345
0.841128 0.697883 0.808571
0.861737 0.715567 0.813387
0.532670 0.565099 0.796495
0.561169 0.575284 0.798320
0.621629 0.598542 0.802463
0.701593 0.632733 0.809203
0.776689 0.668202 0.814633
0.816328 0.698652 0.814749
0.840040 0.717090 0.817149
0.862710 0.727725 0.820990
0.646750 0.678949 0.810443
0.662006 0.683032 0.811766
0.694743 0.691436 0.815084
0.741805 0.704180 0.820616
0.789799 0.718421 0.825630
0.819700 0.731258 0.827381
0.842686 0.737106 0.828198
0.868321 0.741563 0.830730
0.725049 0.734231 0.826079
0.732389 0.735273 0.826951
0.748795 0.738110 0.828847
0.773985 0.743052 0.832680
0.804404 0.748826 0.837588
0.828714 0.752566 0.839386
0.852405 0.752946 0.838981
0.881266 0.754158 0.840473
0.781418 0.765458 0.843169
0.784715 0.765742 0.843690
0.792552 0.766507 0.845028
0.805539 0.767735 0.847558
0.824160 0.769780 0.851602
0.846190 0.769537 0.852168
0.872927 0.769110 0.852050
0.905134 0.770197 0.854184
0.813108 0.787853 0.858760
0.815629 0.788271 0.859288
0.822196 0.788866 0.860814
0.834543 0.790458 0.863756
0.854403 0.792364 0.868977
0.876402 0.793859 0.872150
0.905093 0.793896 0.874012
0.935890 0.794167 0.876141
0.852618 0.812315 0.879790
0.855236 0.812564 0.880555
0.862055 0.813360 0.882349
0.874487 0.814716 0.885968
0.893850 0.816541 0.892400
0.911989 0.817786 0.896989
0.935672 0.823020 0.900776
0.961586 0.825869 0.906422
