gsg/04_Specialty/GSG_LUT_Specialty_BeachHaze.cube
# GSG LUTs 1.0
# Copyright (c) 2016-2020 Greyscalegorilla
# See EULA for licensing and distribution information
# Converted by Briz LUT Converter
LUT_3D_SIZE 32
0.050794 0.122589 0.201709
0.050794 0.123605 0.201709
0.051125 0.124944 0.201725
0.059183 0.127488 0.201954
0.094316 0.130324 0.201985
0.131679 0.133562 0.202198
0.167978 0.136539 0.202198
0.204553 0.139312 0.202198
0.242743 0.142022 0.202198
0.283603 0.144472 0.202127
0.327323 0.146583 0.201796
0.373642 0.148261 0.201205
0.421757 0.149679 0.200354
0.470763 0.150939 0.199141
0.520249 0.152420 0.197519
0.571815 0.155012 0.195518
0.624877 0.159549 0.192871
0.674481 0.166166 0.189980
0.718815 0.174863 0.187065
0.758770 0.185041 0.184190
0.794880 0.195786 0.181260
0.827847 0.206790 0.178400
0.858647 0.217708 0.175454
0.887629 0.228367 0.172248
0.914979 0.238387 0.168971
0.940573 0.247824 0.165694
0.964756 0.257151 0.162417
0.986577 0.266052 0.159352
0.998960 0.274875 0.156107
1.000000 0.283241 0.153058
1.000000 0.291559 0.150506
1.000000 0.299389 0.148474
0.050794 0.131269 0.208035
0.050794 0.133326 0.206797
0.051120 0.135886 0.206498
0.059316 0.138887 0.206261
0.096446 0.141658 0.206213
0.134945 0.144414 0.205946
0.171271 0.147125 0.205686
0.207848 0.149638 0.205424
0.245920 0.152153 0.205158
0.286284 0.154671 0.204824
0.329579 0.157031 0.204230
0.375546 0.158972 0.203384
0.423146 0.160753 0.202277
0.471733 0.162534 0.200914
0.521516 0.164756 0.199181
0.573264 0.168021 0.197046
0.624773 0.172819 0.194651
0.672593 0.179412 0.192001
0.715777 0.187418 0.189232
0.755002 0.196567 0.186314
0.790602 0.206436 0.183444
0.823225 0.216330 0.180669
0.853766 0.226136 0.177723
0.882668 0.235937 0.174511
0.910016 0.245181 0.171232
0.935807 0.254226 0.167955
0.960243 0.263070 0.164678
0.982747 0.271457 0.161401
0.998599 0.279760 0.158124
1.000000 0.287834 0.155082
1.000000 0.295656 0.152294
1.000000 0.303454 0.150246
0.050794 0.143700 0.215188
0.050794 0.146428 0.213728
0.050987 0.149294 0.211971
0.057469 0.152310 0.211315
0.096946 0.155016 0.210737
0.137838 0.157255 0.210015
0.175137 0.159507 0.209475
0.211863 0.161756 0.208878
0.250207 0.164059 0.208177
0.290822 0.166497 0.207507
0.334116 0.168771 0.206573
0.379657 0.171056 0.205632
0.426883 0.173341 0.204372
0.474974 0.175639 0.203003
0.524709 0.178398 0.201268
0.576386 0.182292 0.199141
0.626505 0.187325 0.196747
0.672616 0.193641 0.194226
0.714752 0.201217 0.191563
0.753319 0.209674 0.188781
0.788681 0.218737 0.185844
0.821127 0.227817 0.182985
0.851435 0.236833 0.180027
0.880121 0.245689 0.176659
0.907441 0.254278 0.173315
0.933277 0.262432 0.170022
0.957761 0.270469 0.166742
0.980521 0.278503 0.163464
0.998387 0.286330 0.160202
1.000000 0.293885 0.157368
1.000000 0.301400 0.154625
1.000000 0.308685 0.152357
0.050794 0.161306 0.223947
0.050794 0.163268 0.223466
0.050822 0.167264 0.220649
0.054979 0.170653 0.217680
0.095520 0.173358 0.216275
0.139669 0.175261 0.215373
0.179880 0.177253 0.214298
0.218258 0.179206 0.213131
0.257278 0.181127 0.212251
0.298073 0.183379 0.211218
0.341140 0.185726 0.210193
0.386332 0.188255 0.209090
0.432976 0.190810 0.207805
0.480968 0.193584 0.206326
0.530869 0.197088 0.204540
0.580924 0.201371 0.202513
0.628396 0.206274 0.200106
0.672279 0.212053 0.197561
0.712829 0.218849 0.194888
0.750274 0.226371 0.191965
0.784782 0.234230 0.188940
0.816936 0.242057 0.186065
0.847374 0.250119 0.182937
0.876476 0.258333 0.179824
0.904292 0.266213 0.176433
0.930789 0.273940 0.172910
0.955981 0.281472 0.169585
0.979448 0.288961 0.166329
0.998292 0.296450 0.163275
1.000000 0.303460 0.160295
1.000000 0.310230 0.157959
1.000000 0.316964 0.155957
0.050794 0.181315 0.234661
0.050794 0.182106 0.235089
0.050794 0.186081 0.232095
0.053641 0.190990 0.228123
0.086629 0.194553 0.224608
0.136871 0.197449 0.222470
0.180732 0.199425 0.221098
0.221918 0.201300 0.219757
0.263661 0.203530 0.218299
0.305589 0.205715 0.216997
0.349050 0.208140 0.215750
0.394055 0.210768 0.214504
0.440622 0.213660 0.212926
0.488991 0.216942 0.211259
0.538482 0.220792 0.209242
0.586817 0.225145 0.206925
0.632451 0.229886 0.204372
0.675034 0.235148 0.201582
0.714543 0.241173 0.198758
0.751083 0.247747 0.195809
0.784940 0.254423 0.192784
0.817267 0.261728 0.189717
0.849309 0.269593 0.186431
0.878926 0.276925 0.183150
0.906645 0.284007 0.179905
0.932867 0.290722 0.176515
0.957707 0.297306 0.173262
0.980651 0.303912 0.170262
0.998401 0.310466 0.167331
1.000000 0.316444 0.164890
1.000000 0.322539 0.162499
1.000000 0.328434 0.160810
0.050794 0.204774 0.246690
0.050794 0.205069 0.247317
0.050794 0.208103 0.245109
0.052867 0.213203 0.241270
0.078870 0.218977 0.236539
0.131658 0.222807 0.232478
0.181167 0.226253 0.229983
0.225796 0.228463 0.228303
0.269893 0.230909 0.226749
0.315014 0.233758 0.225125
0.361252 0.236902 0.223374
0.408128 0.240041 0.221594
0.456179 0.243341 0.219506
0.504954 0.246964 0.217367
0.552991 0.250646 0.215044
0.599144 0.254541 0.212345
0.642705 0.258831 0.209491
0.683694 0.263626 0.206525
0.721987 0.268899 0.203340
0.757460 0.274432 0.200213
0.790506 0.280092 0.197162
0.826445 0.288121 0.193819
0.869557 0.299966 0.190040
0.901550 0.307584 0.186766
0.927256 0.313059 0.183741
0.951381 0.318295 0.180913
0.973830 0.323228 0.178173
0.993207 0.328320 0.175688
0.999571 0.333010 0.173434
1.000000 0.337865 0.171817
1.000000 0.342508 0.170340
1.000000 0.347174 0.169396
0.050794 0.233715 0.260916
0.050794 0.233733 0.261370
0.050794 0.235973 0.260108
0.052562 0.240832 0.256509
0.076380 0.246946 0.251643
0.133699 0.253437 0.245990
0.184419 0.257675 0.241219
0.233412 0.261664 0.238260
0.281132 0.264984 0.236263
0.329053 0.268181 0.234393
0.379203 0.272457 0.232297
0.431701 0.277481 0.229995
0.483340 0.282075 0.227458
0.532352 0.285738 0.224617
0.578552 0.288841 0.221746
0.622057 0.291910 0.218662
0.662958 0.295321 0.215337
0.701443 0.299100 0.212037
0.737643 0.303262 0.208732
0.771904 0.307705 0.205556
0.804414 0.312408 0.202355
0.836752 0.317969 0.199110
0.869933 0.324488 0.195882
0.899488 0.330058 0.192765
0.926194 0.334967 0.189764
0.950807 0.339420 0.186985
0.973193 0.343392 0.184426
0.992449 0.347450 0.182331
0.999496 0.351142 0.180357
1.000000 0.354961 0.178618
1.000000 0.358609 0.177329
1.000000 0.362488 0.176801
0.050794 0.262893 0.274583
0.050794 0.262683 0.275061
0.050794 0.263985 0.274544
0.052592 0.268583 0.271160
0.076630 0.274535 0.266610
0.134146 0.282012 0.261012
0.187641 0.289208 0.254702
0.236474 0.294202 0.249591
0.288133 0.299907 0.246174
0.339558 0.304762 0.243798
0.391175 0.309482 0.241624
0.443622 0.314286 0.239182
0.495562 0.318846 0.236294
0.545007 0.322793 0.233132
0.590594 0.325735 0.229806
0.632490 0.328068 0.226323
0.671362 0.330292 0.222737
0.707826 0.332662 0.219285
0.742319 0.335402 0.215842
0.775316 0.338487 0.212462
0.806928 0.341903 0.209185
0.837684 0.345879 0.206073
0.867747 0.350114 0.203049
0.896346 0.354185 0.199883
0.923141 0.357997 0.197041
0.947615 0.361396 0.194478
0.970083 0.364493 0.192003
0.989704 0.367542 0.189917
0.999235 0.370371 0.188171
1.000000 0.373168 0.186691
1.000000 0.376019 0.185526
1.000000 0.379062 0.185057
0.050794 0.295033 0.288763
0.050794 0.294864 0.289261
0.050798 0.295470 0.289370
0.053612 0.299697 0.286264
0.086245 0.305502 0.282170
0.141273 0.313357 0.276996
0.194488 0.322468 0.270581
0.245532 0.330760 0.263636
0.295273 0.336464 0.257942
0.347224 0.342009 0.253814
0.399292 0.346900 0.250953
0.450625 0.351203 0.248383
0.501110 0.355129 0.245446
0.549965 0.358704 0.242207
0.596268 0.362004 0.238738
0.639159 0.364682 0.234992
0.677902 0.366549 0.231210
0.713386 0.368030 0.227529
0.746692 0.369437 0.223971
0.778388 0.370999 0.220592
0.808942 0.373082 0.217315
0.838788 0.375565 0.214203
0.867895 0.378308 0.211178
0.895705 0.381042 0.208200
0.921883 0.383503 0.205521
0.946076 0.385740 0.203036
0.968296 0.387783 0.200785
0.987932 0.389792 0.198794
0.999065 0.391637 0.197227
1.000000 0.393458 0.196061
1.000000 0.395516 0.195342
1.000000 0.397590 0.195140
0.050794 0.331616 0.303817
0.050794 0.331614 0.304321
0.051216 0.331747 0.304665
0.061525 0.335187 0.302461
0.106751 0.340766 0.298627
0.156344 0.347829 0.293713
0.204664 0.356310 0.287467
0.254392 0.365522 0.279837
0.304257 0.373318 0.271830
0.352743 0.378330 0.265462
0.403376 0.383041 0.260812
0.454460 0.387399 0.257414
0.504065 0.390898 0.254437
0.551852 0.394072 0.251353
0.597848 0.397202 0.247998
0.641401 0.400131 0.244424
0.681843 0.402652 0.240716
0.718773 0.404458 0.237008
0.752155 0.405225 0.233441
0.783052 0.405632 0.230092
0.812460 0.406161 0.226815
0.841030 0.406944 0.223703
0.868758 0.407962 0.220678
0.895340 0.409216 0.217834
0.920589 0.410218 0.215117
0.944043 0.411170 0.212811
0.965858 0.412138 0.210761
0.985600 0.413105 0.209018
0.998841 0.414073 0.207612
1.000000 0.415107 0.206798
1.000000 0.416315 0.206416
1.000000 0.417677 0.206475
0.050794 0.369239 0.318610
0.051020 0.369155 0.319117
0.059548 0.369122 0.319592
0.088938 0.371421 0.318200
0.132655 0.376458 0.314687
0.175269 0.382794 0.309966
0.218473 0.390399 0.304028
0.264423 0.399098 0.296802
0.313124 0.408276 0.288229
0.361851 0.415625 0.279641
0.409209 0.419931 0.272797
0.459627 0.424791 0.267792
0.512182 0.430794 0.264445
0.560692 0.434647 0.261534
0.605501 0.437023 0.258384
0.647992 0.439152 0.255070
0.688052 0.441103 0.251663
0.725409 0.442606 0.248296
0.759723 0.443236 0.245026
0.791142 0.443144 0.241878
0.820158 0.442500 0.238764
0.847575 0.441788 0.235708
0.873931 0.441138 0.232683
0.899276 0.440668 0.229898
0.923203 0.440203 0.227457
0.945634 0.439848 0.225365
0.966589 0.439531 0.223415
0.985718 0.439283 0.221836
0.998846 0.439047 0.220836
1.000000 0.439113 0.220137
1.000000 0.439287 0.220095
1.000000 0.439876 0.220497
0.060759 0.410327 0.334617
0.068023 0.410078 0.335040
0.093282 0.409945 0.335656
0.129843 0.410828 0.335248
0.164549 0.415009 0.332112
0.200345 0.420632 0.327417
0.238851 0.427418 0.321683
0.280560 0.435220 0.314837
0.326065 0.444171 0.306571
0.374549 0.453371 0.297162
0.422349 0.460190 0.288164
0.472099 0.466563 0.281223
0.528062 0.476099 0.276824
0.578487 0.481519 0.273411
0.622356 0.483225 0.270455
0.663175 0.484034 0.267491
0.701421 0.484388 0.264519
0.737334 0.484429 0.261625
0.771041 0.484001 0.258740
0.802757 0.483294 0.256044
0.832253 0.482059 0.253450
0.859414 0.480275 0.250749
0.884712 0.478163 0.247931
0.908395 0.475891 0.245383
0.930576 0.473779 0.243196
0.951416 0.471800 0.241160
0.971029 0.469913 0.239420
0.988722 0.468180 0.237958
0.999119 0.466629 0.237118
1.000000 0.465476 0.236672
1.000000 0.464598 0.236814
1.000000 0.464067 0.237725
0.098066 0.454630 0.352704
0.118968 0.454272 0.352961
0.144548 0.453680 0.353374
0.174035 0.453495 0.353598
0.201619 0.456081 0.350885
0.231172 0.460556 0.346355
0.264659 0.466200 0.340657
0.302089 0.473088 0.334056
0.343657 0.481079 0.326262
0.389371 0.490240 0.317169
0.437711 0.499473 0.307176
0.486280 0.507241 0.297866
0.534762 0.513346 0.290820
0.581123 0.517018 0.285326
0.624903 0.518983 0.281561
0.665439 0.519556 0.278904
0.702726 0.519031 0.276501
0.737641 0.517967 0.274041
0.770594 0.516579 0.271605
0.801974 0.515065 0.269371
0.831902 0.513537 0.267200
0.860173 0.511859 0.265157
0.886393 0.509709 0.263075
0.910122 0.506840 0.260986
0.931831 0.503728 0.258985
0.951966 0.500650 0.257054
0.970963 0.497710 0.255465
0.988235 0.494963 0.254248
0.999067 0.492603 0.253526
1.000000 0.490610 0.253324
1.000000 0.488887 0.253787
1.000000 0.487573 0.255213
0.148828 0.492599 0.369128
0.169291 0.492190 0.369380
0.188090 0.491420 0.369642
0.210622 0.490592 0.369873
0.234121 0.491449 0.368173
0.258990 0.494874 0.364025
0.288024 0.499649 0.358577
0.321131 0.505520 0.352380
0.358575 0.512549 0.345055
0.400337 0.520800 0.336700
0.445855 0.530101 0.327077
0.493075 0.538979 0.316767
0.538061 0.544877 0.307257
0.579932 0.547389 0.299443
0.621063 0.548615 0.293728
0.661037 0.549140 0.290232
0.698092 0.548437 0.288057
0.732480 0.546747 0.286118
0.764925 0.544711 0.284203
0.795983 0.542543 0.282335
0.825843 0.540630 0.280556
0.854568 0.538740 0.279048
0.881706 0.536664 0.277714
0.906772 0.534226 0.276460
0.929358 0.531286 0.275255
0.949852 0.527941 0.273945
0.968774 0.524346 0.272636
0.986062 0.520958 0.271671
0.998857 0.517929 0.271210
1.000000 0.515306 0.271364
1.000000 0.513056 0.272048
1.000000 0.511174 0.273985
0.196235 0.525716 0.384726
0.210658 0.525452 0.385088
0.225273 0.524778 0.385340
0.243710 0.523670 0.385553
0.264662 0.523319 0.384995
0.286436 0.525909 0.381455
0.311698 0.530108 0.376592
0.341186 0.535198 0.370826
0.374723 0.541496 0.364144
0.412249 0.548755 0.356487
0.453399 0.556957 0.347690
0.497408 0.565632 0.337815
0.541981 0.573365 0.327240
0.583359 0.577634 0.317406
0.621124 0.578259 0.309500
0.658068 0.577641 0.303813
0.694326 0.576669 0.300450
0.728465 0.574808 0.298665
0.760508 0.572269 0.297256
0.791259 0.569656 0.295843
0.820930 0.567237 0.294592
0.849435 0.564863 0.293595
0.876592 0.562480 0.292771
0.902144 0.560016 0.292353
0.925688 0.557398 0.292058
0.947230 0.554345 0.291935
0.966718 0.550864 0.291565
0.984242 0.547311 0.291339
0.998484 0.543800 0.291194
0.999986 0.540524 0.291741
1.000000 0.537744 0.292939
1.000000 0.535484 0.295396
0.238324 0.556800 0.400843
0.249712 0.556544 0.401221
0.261690 0.556130 0.401481
0.277285 0.555244 0.401855
0.295973 0.554628 0.401927
0.315866 0.556239 0.399592
0.338267 0.559842 0.395461
0.364454 0.564479 0.390246
0.394382 0.570100 0.384218
0.427812 0.576433 0.377243
0.464374 0.583290 0.369227
0.503753 0.590626 0.360085
0.544958 0.597972 0.349692
0.586008 0.603869 0.338708
0.623552 0.606251 0.328779
0.657465 0.605165 0.320816
0.690987 0.603169 0.315058
0.724512 0.601152 0.311965
0.756591 0.598648 0.310647
0.787174 0.595877 0.309903
0.816671 0.593031 0.309260
0.844963 0.590302 0.308869
0.871955 0.587659 0.308692
0.897373 0.584835 0.308829
0.921194 0.582038 0.309353
0.943259 0.579165 0.310270
0.963596 0.576057 0.311257
0.981923 0.573005 0.312453
0.997174 0.569424 0.313355
0.999908 0.565883 0.314452
1.000000 0.562598 0.316169
1.000000 0.559817 0.318910
0.277900 0.585789 0.417606
0.287458 0.585618 0.417919
0.301145 0.587790 0.420025
0.314751 0.587270 0.420647
0.331195 0.586622 0.421028
0.349384 0.587122 0.420112
0.369142 0.589993 0.416607
0.391890 0.594025 0.411884
0.418110 0.598736 0.406344
0.447490 0.604084 0.400113
0.479588 0.609730 0.392788
0.514368 0.615720 0.384427
0.551183 0.621830 0.374765
0.589598 0.627662 0.363903
0.627500 0.632012 0.352698
0.661709 0.632821 0.342714
0.692695 0.630499 0.334680
0.723683 0.627596 0.328915
0.755078 0.624938 0.326109
0.785430 0.621987 0.325462
0.814455 0.618751 0.325422
0.842227 0.615631 0.325595
0.868788 0.612598 0.326029
0.893815 0.609478 0.326816
0.917344 0.606225 0.327991
0.939250 0.603137 0.329354
0.959563 0.600005 0.331366
0.978329 0.597062 0.333734
0.994441 0.593953 0.336261
0.999737 0.590696 0.338814
1.000000 0.587305 0.341596
1.000000 0.584143 0.344622
0.318043 0.614022 0.436086
0.326343 0.614221 0.436746
0.343074 0.619490 0.441223
0.355197 0.619454 0.441968
0.369623 0.618833 0.442596
0.386032 0.618538 0.442678
0.403305 0.620378 0.440030
0.422751 0.623494 0.435800
0.445336 0.627267 0.430686
0.470731 0.631614 0.425001
0.498816 0.636276 0.418331
0.529359 0.641103 0.410659
0.562021 0.646096 0.401830
0.596583 0.650987 0.391732
0.632509 0.655468 0.380401
0.667639 0.658395 0.368980
0.699259 0.657968 0.359064
0.727899 0.654809 0.351032
0.756546 0.651185 0.345331
0.785759 0.647832 0.342936
0.814188 0.644311 0.342990
0.841226 0.640718 0.343732
0.867091 0.637165 0.344686
0.891471 0.633611 0.346081
0.914345 0.629972 0.347703
0.935688 0.626394 0.349570
0.955491 0.622953 0.352092
0.973930 0.619750 0.355080
0.990447 0.616808 0.358691
0.999482 0.613793 0.362862
1.000000 0.610921 0.367341
1.000000 0.607791 0.371728
0.357430 0.640837 0.456174
0.364984 0.641456 0.457136
0.376739 0.644224 0.459822
0.387540 0.644433 0.460725
0.400434 0.644171 0.461609
0.415332 0.643723 0.462132
0.431125 0.644457 0.460904
0.447913 0.646736 0.457309
0.467351 0.649846 0.452687
0.489419 0.653435 0.447473
0.514083 0.657373 0.441446
0.541088 0.661498 0.434481
0.570242 0.665651 0.426530
0.601259 0.669793 0.417486
0.634067 0.673740 0.407079
0.668110 0.677360 0.395689
0.701412 0.679486 0.384536
0.731188 0.678425 0.374970
0.757908 0.674758 0.367228
0.784802 0.670794 0.361932
0.812271 0.667128 0.360291
0.838907 0.663398 0.361185
0.864228 0.659616 0.362805
0.888161 0.655835 0.364762
0.910576 0.651944 0.366929
0.931431 0.648131 0.369527
0.950931 0.644555 0.372525
0.969042 0.641115 0.376016
0.985616 0.637912 0.380376
0.998375 0.634873 0.385401
0.999973 0.632321 0.391367
1.000000 0.629737 0.397818
0.391752 0.663705 0.475545
0.398465 0.664453 0.476553
0.405939 0.664942 0.477561
0.415424 0.665170 0.478569
0.426849 0.665126 0.479566
0.440259 0.664759 0.480406
0.454863 0.664626 0.480361
0.469862 0.666182 0.477731
0.486825 0.668771 0.473629
0.506111 0.671810 0.468936
0.527808 0.675140 0.463463
0.551791 0.678676 0.457229
0.577881 0.682243 0.450138
0.605887 0.685927 0.442056
0.635713 0.689486 0.432951
0.667313 0.692913 0.422663
0.700165 0.696015 0.411580
0.732151 0.697553 0.400867
0.760434 0.696131 0.391996
0.785712 0.692400 0.384897
0.810992 0.688276 0.380258
0.836720 0.684422 0.379409
0.861645 0.680641 0.381385
0.885177 0.676860 0.384201
0.907177 0.672890 0.387277
0.927738 0.669054 0.390689
0.946852 0.665352 0.394382
0.964637 0.661798 0.398548
0.981173 0.658490 0.403675
0.995554 0.655581 0.409665
0.999885 0.652894 0.416623
1.000000 0.650762 0.424672
0.425247 0.685100 0.496246
0.430917 0.685686 0.497250
0.437262 0.686022 0.498105
0.445290 0.686235 0.499099
0.455275 0.686041 0.499944
0.466977 0.685598 0.500751
0.480108 0.685152 0.501115
0.494016 0.685694 0.499906
0.508848 0.687642 0.496446
0.525739 0.690160 0.492273
0.544736 0.692939 0.487371
0.565986 0.695946 0.481832
0.589254 0.699094 0.475505
0.614398 0.702298 0.468256
0.641362 0.705392 0.460177
0.670221 0.708420 0.451191
0.700861 0.711408 0.441246
0.732632 0.714033 0.430627
0.763455 0.715194 0.420616
0.790361 0.713542 0.412620
0.814022 0.709670 0.406314
0.837540 0.705446 0.402321
0.861239 0.701452 0.402452
0.884024 0.697508 0.405597
0.905463 0.693497 0.409673
0.925580 0.689661 0.413922
0.944192 0.686012 0.418528
0.961594 0.682469 0.423775
0.977658 0.679160 0.429865
0.992170 0.676340 0.437123
0.999776 0.673720 0.445351
1.000000 0.671685 0.454701
0.460940 0.706779 0.520162
0.465395 0.706939 0.520827
0.470434 0.707009 0.521417
0.477047 0.706905 0.522076
0.485389 0.706621 0.522662
0.495440 0.706090 0.523234
0.507036 0.705398 0.523708
0.519869 0.705020 0.523537
0.533260 0.706252 0.521220
0.548067 0.708298 0.517690
0.564814 0.710727 0.513337
0.583461 0.713298 0.508377
0.604094 0.715939 0.502701
0.626546 0.718724 0.496388
0.650819 0.721297 0.489310
0.676868 0.723846 0.481363
0.704650 0.726404 0.472593
0.734076 0.728835 0.462910
0.764651 0.730896 0.452698
0.793897 0.731635 0.443328
0.818889 0.729666 0.435996
0.840435 0.725427 0.430120
0.861563 0.720803 0.426320
0.882764 0.716380 0.427024
0.902977 0.712005 0.430454
0.922291 0.707961 0.435242
0.940628 0.704352 0.440840
0.957638 0.700967 0.447059
0.973414 0.697680 0.454180
0.987746 0.694860 0.462404
0.998833 0.692484 0.471837
1.000000 0.690622 0.482485
0.494293 0.725858 0.544251
0.498152 0.725858 0.544756
0.502247 0.725842 0.545260
0.507885 0.725573 0.545747
0.514930 0.725133 0.546072
0.523599 0.724589 0.546426
0.533794 0.723819 0.546930
0.545300 0.723141 0.547228
0.557719 0.723389 0.546276
0.570802 0.724938 0.543404
0.585350 0.726927 0.539448
0.601692 0.729065 0.535070
0.619901 0.731210 0.530057
0.639858 0.733489 0.524412
0.661528 0.735721 0.518183
0.684899 0.737845 0.511150
0.709957 0.739971 0.503421
0.736605 0.742061 0.494957
0.764729 0.744009 0.485737
0.793785 0.745567 0.476108
0.821237 0.745845 0.467346
0.844264 0.743465 0.460570
0.863597 0.738977 0.455140
0.882357 0.734061 0.451384
0.900561 0.729031 0.451484
0.918705 0.724631 0.455603
0.936426 0.720828 0.461589
0.953065 0.717484 0.468545
0.968484 0.714363 0.476518
0.982709 0.711560 0.485693
0.995270 0.709428 0.496329
1.000000 0.707826 0.508275
0.527575 0.743212 0.569759
0.531169 0.743212 0.570444
0.534834 0.743196 0.570936
0.539650 0.742920 0.571230
0.545458 0.742416 0.571318
0.552796 0.741872 0.571551
0.561525 0.741081 0.571716
0.571705 0.740152 0.572046
0.582979 0.739622 0.571993
0.594708 0.740328 0.570076
0.607194 0.741669 0.566532
0.621242 0.743311 0.562513
0.637039 0.745024 0.557879
0.654437 0.746804 0.552643
0.673423 0.748565 0.546917
0.694006 0.750307 0.540505
0.716274 0.751950 0.533536
0.740194 0.753592 0.526011
0.765537 0.755198 0.517905
0.792209 0.756737 0.509351
0.819575 0.757970 0.500337
0.845254 0.757867 0.492224
0.866272 0.755334 0.486226
0.883409 0.750632 0.481114
0.900103 0.745635 0.477377
0.916891 0.740919 0.478644
0.933257 0.736669 0.483633
0.949150 0.733097 0.490827
0.964035 0.730017 0.499534
0.977872 0.727390 0.509556
0.990372 0.725513 0.521289
0.999275 0.724172 0.534712
0.558139 0.757706 0.594273
0.561284 0.757706 0.594832
0.564657 0.757690 0.595333
0.568716 0.757433 0.595757
0.573979 0.757100 0.595959
0.580592 0.756586 0.596233
0.588515 0.755978 0.596634
0.597784 0.755208 0.597136
0.608262 0.754612 0.597750
0.619371 0.754461 0.597415
0.630653 0.755432 0.594968
0.643006 0.756749 0.591532
0.656754 0.758161 0.587427
0.671940 0.759628 0.582868
0.688601 0.760970 0.577829
0.706711 0.762317 0.572128
0.726313 0.763635 0.565908
0.747404 0.764952 0.559271
0.770024 0.766269 0.552206
0.793912 0.767587 0.544770
0.818864 0.768746 0.536724
0.844316 0.769497 0.528432
0.867994 0.769115 0.521003
0.887054 0.766482 0.515677
0.902317 0.761908 0.511257
0.917373 0.757076 0.508332
0.932177 0.752537 0.510256
0.946674 0.748530 0.516275
0.960762 0.745394 0.525380
0.974060 0.743002 0.536518
0.985918 0.741203 0.549483
0.996187 0.740116 0.564457
0.590193 0.770924 0.620584
0.592622 0.770924 0.621082
0.595524 0.770909 0.621382
0.599017 0.770638 0.621698
0.603784 0.770201 0.622128
0.609641 0.769869 0.622419
0.616665 0.769356 0.622923
0.625109 0.768769 0.623527
0.634631 0.768100 0.624487
0.645010 0.767687 0.625080
0.655755 0.767978 0.624218
0.666964 0.769035 0.621810
0.678997 0.770186 0.618525
0.692222 0.771476 0.614786
0.706776 0.772647 0.610502
0.722557 0.773704 0.605690
0.739658 0.774761 0.600351
0.758078 0.775819 0.594621
0.777867 0.776876 0.588622
0.799037 0.777933 0.582310
0.821330 0.778832 0.575594
0.844363 0.779605 0.568448
0.867632 0.780227 0.560828
0.889272 0.779707 0.554213
0.906444 0.777062 0.549763
0.919794 0.772459 0.546120
0.933012 0.768002 0.543824
0.945979 0.763578 0.546255
0.958300 0.760021 0.553443
0.970589 0.757459 0.564678
0.981847 0.755841 0.579071
0.991618 0.755209 0.595604
0.623372 0.782804 0.648580
0.625439 0.782804 0.648872
0.627833 0.782788 0.649124
0.630997 0.782532 0.649399
0.635264 0.782244 0.649898
0.640756 0.781986 0.650434
0.647382 0.781693 0.651401
0.655458 0.781391 0.652603
0.664574 0.781068 0.654087
0.674765 0.780787 0.655744
0.685656 0.780731 0.656884
0.696312 0.781395 0.656305
0.707320 0.782551 0.654506
0.719166 0.783600 0.652065
0.731877 0.784631 0.649005
0.745431 0.785639 0.645310
0.759954 0.786542 0.641200
0.775782 0.787339 0.636695
0.792775 0.788136 0.631955
0.810901 0.788933 0.627040
0.830168 0.789704 0.621849
0.850145 0.790322 0.616233
0.870641 0.790867 0.609923
0.891424 0.791113 0.603372
0.910665 0.790493 0.597629
0.925698 0.788016 0.594170
0.936912 0.783813 0.591513
0.948128 0.779639 0.589844
0.958802 0.775667 0.593094
0.968843 0.772437 0.601479
0.978874 0.770822 0.615777
0.987648 0.770286 0.633826
0.663665 0.794825 0.682130
0.665251 0.794818 0.682382
0.667128 0.794596 0.682620
0.669787 0.794344 0.682677
0.673265 0.794092 0.682961
0.677618 0.793840 0.683290
0.683024 0.793547 0.683907
0.689522 0.793075 0.684735
0.697060 0.792658 0.685707
0.705585 0.792283 0.687042
0.714886 0.791749 0.688260
0.724444 0.791758 0.688575
0.733750 0.792292 0.687388
0.743247 0.793081 0.685118
0.753358 0.793774 0.682116
0.764682 0.794446 0.679028
0.777261 0.795218 0.675779
0.790799 0.795975 0.672370
