gsg/04_Specialty/GSG_LUT_Specialty_AfterSchoolSpecial.cube
# GSG LUTs 1.0
# Copyright (c) 2016-2020 Greyscalegorilla
# See EULA for licensing and distribution information
# Converted by Briz LUT Converter
LUT_3D_SIZE 32
0.074237 0.100122 0.107937
0.077766 0.100878 0.108433
0.081421 0.101682 0.108764
0.086990 0.103218 0.110276
0.092977 0.105045 0.111852
0.100406 0.107354 0.113908
0.108708 0.109969 0.116318
0.118201 0.113049 0.119343
0.128536 0.116452 0.122431
0.139911 0.120304 0.125921
0.152326 0.124337 0.129954
0.165954 0.128631 0.134074
0.180669 0.133420 0.138548
0.196361 0.138414 0.143440
0.213250 0.143818 0.148482
0.231202 0.149482 0.153878
0.250360 0.155406 0.159675
0.270857 0.161724 0.165741
0.292536 0.168278 0.172043
0.315562 0.175131 0.178644
0.339667 0.182189 0.185608
0.365190 0.189578 0.192832
0.391926 0.197314 0.200315
0.420166 0.205309 0.208059
0.449659 0.213565 0.216062
0.480586 0.222080 0.224522
0.513073 0.231061 0.233093
0.546693 0.240135 0.242089
0.582457 0.249651 0.251384
0.618733 0.259230 0.260711
0.657868 0.269518 0.270747
0.696947 0.279609 0.280586
0.082808 0.113726 0.115247
0.086092 0.114231 0.115499
0.089747 0.114798 0.115806
0.095309 0.116333 0.117089
0.101296 0.118122 0.118619
0.108724 0.120216 0.120468
0.117027 0.122823 0.122823
0.126521 0.125842 0.125590
0.136925 0.128993 0.128487
0.148553 0.132661 0.131897
0.161143 0.136689 0.135673
0.174779 0.140896 0.139711
0.189594 0.145525 0.144149
0.205541 0.150511 0.148738
0.222691 0.155800 0.153775
0.240903 0.161326 0.159049
0.260322 0.167120 0.164591
0.281079 0.173185 0.170534
0.303022 0.179624 0.176828
0.326311 0.186474 0.183276
0.350834 0.193528 0.189988
0.376869 0.200754 0.197119
0.404123 0.208408 0.204427
0.432703 0.216395 0.212094
0.462653 0.224459 0.220095
0.493904 0.232920 0.228352
0.527062 0.241695 0.236874
0.561241 0.250724 0.245651
0.597312 0.260239 0.254906
0.634313 0.269810 0.264233
0.673984 0.279861 0.274024
0.713829 0.289944 0.283855
0.091410 0.127197 0.122589
0.094694 0.127700 0.122817
0.098318 0.128251 0.122895
0.103659 0.129749 0.124117
0.109648 0.131325 0.125249
0.117088 0.133381 0.127252
0.125380 0.135741 0.129360
0.134940 0.138556 0.131923
0.145528 0.141707 0.134755
0.157159 0.145302 0.137910
0.169837 0.149151 0.141513
0.183717 0.153352 0.145451
0.198697 0.157879 0.149726
0.214762 0.162622 0.154216
0.232163 0.167766 0.159102
0.250636 0.173177 0.164252
0.270322 0.178849 0.169672
0.291347 0.184907 0.175469
0.313679 0.191209 0.181512
0.337331 0.197950 0.187851
0.362130 0.204845 0.194557
0.388431 0.212136 0.201518
0.416113 0.219694 0.208744
0.445208 0.227437 0.216235
0.475679 0.235441 0.224151
0.507450 0.243888 0.232211
0.540930 0.252661 0.240687
0.575592 0.261483 0.249258
0.612396 0.270954 0.258255
0.649941 0.280317 0.267557
0.690133 0.290339 0.277120
0.730513 0.300421 0.286927
0.100484 0.142345 0.130403
0.103761 0.142818 0.130402
0.107165 0.143133 0.130442
0.112505 0.144415 0.131448
0.118521 0.145969 0.132527
0.126106 0.148021 0.134310
0.134266 0.150322 0.136369
0.143997 0.152966 0.138724
0.154602 0.156093 0.141485
0.166307 0.159611 0.144481
0.179164 0.163307 0.147986
0.193053 0.167411 0.151672
0.208233 0.171791 0.155791
0.224603 0.176523 0.160256
0.242121 0.181551 0.164932
0.260852 0.186936 0.169933
0.280917 0.192595 0.175328
0.302301 0.198543 0.180889
0.324774 0.204845 0.186815
0.348740 0.211431 0.193005
0.374035 0.218228 0.199607
0.400694 0.225365 0.206404
0.428660 0.232849 0.213540
0.458192 0.240575 0.221007
0.489178 0.248572 0.228582
0.521469 0.256836 0.236524
0.555469 0.265564 0.244976
0.590651 0.274387 0.253543
0.627976 0.283650 0.262334
0.666063 0.293184 0.271592
0.706777 0.302997 0.281153
0.747907 0.313073 0.290709
0.109591 0.157879 0.138249
0.112867 0.158131 0.138241
0.116241 0.158445 0.138066
0.121609 0.159675 0.139021
0.127571 0.161026 0.139868
0.135027 0.163021 0.141426
0.143336 0.165199 0.143416
0.152957 0.167947 0.145543
0.163717 0.170846 0.148174
0.175509 0.174255 0.151223
0.188533 0.178014 0.154500
0.202532 0.181969 0.158026
0.217961 0.186336 0.162039
0.234571 0.190957 0.166264
0.252249 0.195856 0.170879
0.271227 0.201134 0.175769
0.291552 0.206680 0.180920
0.313090 0.212610 0.186467
0.335969 0.218898 0.192246
0.360301 0.225350 0.198330
0.385857 0.232061 0.204769
0.412946 0.239177 0.211477
0.441433 0.246650 0.218434
0.471298 0.254212 0.225665
0.502739 0.262153 0.233329
0.535525 0.270416 0.241136
0.570066 0.279118 0.249360
0.605774 0.287936 0.257864
0.643619 0.297200 0.266651
0.682404 0.306526 0.275673
0.723711 0.316326 0.285218
0.765363 0.326370 0.294553
0.118957 0.174556 0.146394
0.122226 0.174808 0.146307
0.125406 0.175107 0.146116
0.130919 0.176139 0.146835
0.136747 0.177463 0.147654
0.144354 0.179300 0.148987
0.152704 0.181583 0.150758
0.162457 0.184158 0.152845
0.173138 0.187047 0.155345
0.185088 0.190366 0.158085
0.198193 0.193974 0.161306
0.212452 0.197928 0.164756
0.228044 0.202214 0.168617
0.244760 0.206704 0.172728
0.262698 0.211586 0.177106
0.281936 0.216842 0.181858
0.302521 0.222388 0.186880
0.324341 0.228201 0.192282
0.347599 0.234370 0.197920
0.372288 0.240805 0.203891
0.398144 0.247517 0.210178
0.425652 0.254488 0.216784
0.454619 0.261865 0.223577
0.484865 0.269445 0.230746
0.516750 0.277365 0.238214
0.549908 0.285620 0.245965
0.585082 0.294143 0.254156
0.621338 0.302926 0.262468
0.659703 0.312190 0.271192
0.698846 0.321517 0.280011
0.741036 0.331317 0.289505
0.783260 0.341148 0.298838
0.128583 0.191729 0.154917
0.131805 0.191934 0.154467
0.134972 0.192233 0.154213
0.140313 0.193260 0.154692
0.146300 0.194541 0.155469
0.153728 0.196345 0.156761
0.162078 0.198456 0.158281
0.171878 0.201021 0.160156
0.182729 0.203833 0.162539
0.194728 0.207021 0.165276
0.207933 0.210595 0.168191
0.222403 0.214533 0.171593
0.238145 0.218788 0.175325
0.254996 0.223278 0.179282
0.273195 0.228067 0.183568
0.292693 0.233211 0.188185
0.313538 0.238733 0.193076
0.335730 0.244523 0.198241
0.359250 0.250573 0.203765
0.384258 0.256922 0.209581
0.410586 0.263634 0.215771
0.438459 0.270605 0.222206
0.467734 0.277837 0.228918
0.498558 0.285474 0.236051
0.530846 0.293313 0.243349
0.564605 0.301494 0.251015
0.600158 0.310008 0.259026
0.636901 0.318792 0.267264
0.675830 0.328055 0.275797
0.715690 0.337338 0.284596
0.758261 0.347135 0.293845
0.801158 0.356966 0.303171
0.138469 0.210241 0.163346
0.141439 0.210249 0.162976
0.144606 0.210544 0.162519
0.149941 0.211506 0.162795
0.155886 0.212652 0.163379
0.163362 0.214408 0.164544
0.171712 0.216508 0.165899
0.181512 0.218997 0.167761
0.192414 0.221735 0.170036
0.204632 0.224971 0.172587
0.218033 0.228406 0.175420
0.232542 0.232274 0.178581
0.248381 0.236402 0.182089
0.265492 0.240869 0.185868
0.283951 0.245626 0.190122
0.303683 0.250770 0.194617
0.324788 0.256190 0.199378
0.347267 0.261885 0.204435
0.371161 0.267935 0.209838
0.396513 0.274284 0.215511
0.423136 0.280960 0.221588
0.451422 0.287912 0.227870
0.481161 0.295144 0.234480
0.512343 0.302635 0.241451
0.545101 0.310575 0.248656
0.579222 0.318642 0.256150
0.615303 0.327118 0.264076
0.652527 0.335901 0.272134
0.692147 0.345115 0.280591
0.732546 0.354260 0.289334
0.775828 0.364047 0.298442
0.819111 0.373878 0.307708
0.148490 0.229336 0.172169
0.151331 0.229404 0.171419
0.154437 0.229627 0.170897
0.159754 0.230424 0.171107
0.165552 0.231668 0.171586
0.173193 0.233303 0.172421
0.181543 0.235327 0.173764
0.191357 0.237742 0.175518
0.202308 0.240529 0.177549
0.214581 0.243625 0.179942
0.228178 0.247039 0.182670
0.242859 0.250865 0.185680
0.258852 0.254992 0.189074
0.276159 0.259380 0.192632
0.294841 0.264028 0.196710
0.314772 0.269141 0.201079
0.336138 0.274561 0.205710
0.358973 0.280252 0.210737
0.383155 0.286274 0.215994
0.408805 0.292623 0.221561
0.435836 0.299177 0.227475
0.464449 0.306062 0.233668
0.494493 0.313293 0.240099
0.526140 0.320785 0.246950
0.559419 0.328676 0.254041
0.594060 0.336729 0.261456
0.630767 0.345205 0.269158
0.668423 0.353988 0.277175
0.708547 0.363031 0.285462
0.749466 0.372334 0.294009
0.793269 0.382134 0.303167
0.837323 0.391965 0.312245
0.158391 0.249352 0.180992
0.161408 0.249525 0.180165
0.164334 0.249573 0.179456
0.169585 0.250353 0.179472
0.175383 0.251446 0.179724
0.183024 0.253160 0.180536
0.191388 0.255113 0.181724
0.201300 0.257576 0.183292
0.212391 0.260205 0.185164
0.224664 0.263268 0.187431
0.238284 0.266675 0.189980
0.253141 0.270352 0.192901
0.269424 0.274434 0.196132
0.286847 0.278822 0.199614
0.305652 0.283469 0.203473
0.325892 0.288495 0.207670
0.347518 0.293878 0.212171
0.370625 0.299562 0.217071
0.395149 0.305493 0.222191
0.421171 0.311812 0.227638
0.448577 0.318366 0.233362
0.477523 0.325251 0.239466
0.508029 0.332483 0.245768
0.540145 0.339974 0.252380
0.573870 0.347725 0.259491
0.609016 0.355737 0.266785
0.646092 0.364213 0.274300
0.684396 0.372934 0.282226
0.725064 0.382033 0.290504
0.766504 0.391276 0.298984
0.810895 0.401071 0.307787
0.855654 0.410902 0.316854
0.168553 0.270353 0.189814
0.171413 0.270353 0.188812
0.174333 0.270401 0.188021
0.179487 0.271180 0.187948
0.185214 0.272252 0.188032
0.192868 0.273830 0.188720
0.201316 0.275828 0.189602
0.211304 0.278152 0.191089
0.222416 0.280756 0.192855
0.234770 0.283777 0.194943
0.248501 0.287225 0.197344
0.263504 0.290815 0.200122
0.279972 0.294806 0.203190
0.297713 0.299178 0.206639
0.316700 0.303836 0.210339
0.337105 0.308819 0.214313
0.358991 0.314112 0.218684
0.382358 0.319765 0.223451
0.407189 0.325683 0.228447
0.433504 0.331963 0.233755
0.461282 0.338517 0.239300
0.490721 0.345348 0.245289
0.521691 0.352554 0.251510
0.554176 0.360046 0.257970
0.588243 0.367797 0.264902
0.623870 0.375808 0.272094
0.661466 0.384285 0.279594
0.700154 0.392855 0.287300
0.741108 0.402088 0.295616
0.782751 0.411186 0.304016
0.827276 0.420970 0.312889
0.871992 0.430722 0.322037
0.178802 0.291961 0.198724
0.181414 0.291961 0.197626
0.184255 0.292008 0.196581
0.189476 0.292788 0.196344
0.195132 0.293860 0.196329
0.202798 0.295411 0.196859
0.211297 0.297254 0.197637
0.221222 0.299508 0.198933
0.232399 0.302154 0.200482
0.244988 0.305225 0.202480
0.258864 0.308469 0.204766
0.273985 0.312064 0.207373
0.290559 0.316098 0.210268
0.308406 0.320402 0.213541
0.327693 0.325031 0.217070
0.348363 0.329922 0.220954
0.370510 0.335216 0.225195
0.394131 0.340778 0.229792
0.419279 0.346717 0.234653
0.445976 0.353013 0.239838
0.474049 0.359534 0.245294
0.503860 0.366312 0.251140
0.535205 0.373492 0.257190
0.568162 0.380984 0.263538
0.602749 0.388735 0.270381
0.638827 0.396747 0.277419
0.676927 0.405150 0.284814
0.715696 0.413782 0.292438
0.755718 0.422869 0.301129
0.796141 0.431951 0.309968
0.838196 0.441651 0.319447
0.880358 0.451235 0.329127
0.188979 0.314585 0.207704
0.191650 0.314582 0.206444
0.194328 0.314538 0.205240
0.199408 0.315318 0.204891
0.205120 0.316389 0.204635
0.212777 0.317941 0.205057
0.221253 0.319753 0.205685
0.231305 0.321880 0.206869
0.242522 0.324502 0.208231
0.255229 0.327484 0.209996
0.269186 0.330703 0.212140
0.284511 0.334342 0.214650
0.301183 0.338375 0.217362
0.319154 0.342613 0.220442
0.338674 0.347150 0.223928
0.359609 0.352042 0.227714
0.382065 0.357336 0.231825
0.405988 0.362897 0.236208
0.431313 0.368782 0.240900
0.458385 0.374942 0.245949
0.486815 0.381401 0.251243
0.516950 0.388286 0.256969
0.548698 0.395518 0.262921
0.582078 0.402939 0.269195
0.617015 0.410666 0.275826
0.653291 0.418677 0.282884
0.691606 0.426949 0.290165
0.730164 0.435610 0.298065
0.767958 0.444421 0.307398
0.805876 0.453384 0.317009
0.843414 0.462833 0.327665
0.881019 0.472315 0.338391
0.199212 0.338036 0.216629
0.201733 0.338028 0.215263
0.204405 0.337839 0.213944
0.209384 0.338609 0.213344
0.215041 0.339588 0.212935
0.222632 0.341140 0.213210
0.231234 0.342952 0.213703
0.241309 0.345079 0.214684
0.252605 0.347662 0.215981
0.265341 0.350577 0.217529
0.279387 0.353854 0.219519
0.294833 0.357355 0.221805
0.311765 0.361322 0.224420
0.329934 0.365560 0.227414
0.349560 0.370097 0.230714
0.370746 0.374989 0.234346
0.393485 0.380283 0.238326
0.417702 0.385844 0.242577
0.443327 0.391642 0.247055
0.470731 0.397739 0.251936
0.499545 0.404199 0.257190
0.530078 0.411084 0.262745
0.562208 0.418242 0.268510
0.595573 0.425523 0.274927
0.630073 0.433132 0.281825
0.665490 0.441038 0.289227
0.702385 0.449203 0.297093
0.739242 0.457540 0.305709
0.775049 0.466212 0.315589
0.810846 0.475025 0.325764
0.845735 0.484221 0.337135
0.880807 0.493544 0.348482
0.209295 0.362346 0.225594
0.211813 0.362231 0.224078
0.214376 0.362142 0.222506
0.219328 0.362806 0.221763
0.225009 0.363742 0.221239
0.232555 0.365198 0.221395
0.241086 0.367009 0.221720
0.251257 0.369136 0.222473
0.262607 0.371720 0.223648
0.275466 0.374603 0.225050
0.289602 0.377801 0.226858
0.305077 0.381252 0.228934
0.322198 0.385127 0.231436
0.340627 0.389365 0.234243
0.360513 0.393903 0.237378
0.381906 0.398795 0.240903
0.404832 0.404031 0.244697
0.429294 0.409540 0.248819
0.455261 0.415337 0.253165
0.482985 0.421502 0.257899
0.512151 0.427933 0.263027
0.542995 0.434779 0.268447
0.575485 0.441837 0.274166
0.608404 0.449076 0.280770
0.641733 0.456405 0.288428
0.675124 0.464025 0.296618
0.708853 0.471838 0.305799
0.742643 0.479773 0.315521
0.776707 0.488267 0.325886
0.810811 0.496859 0.336439
0.845105 0.506011 0.347970
0.879546 0.515223 0.359431
0.219378 0.387388 0.234416
0.221773 0.387258 0.232778
0.224215 0.387183 0.231069
0.229280 0.387834 0.230202
0.234842 0.388767 0.229525
0.242400 0.390106 0.229443
0.250920 0.391918 0.229643
0.261100 0.394018 0.230231
0.272472 0.396510 0.231180
0.285465 0.399388 0.232460
0.299728 0.402576 0.234141
0.315336 0.406026 0.236079
0.332585 0.409856 0.238396
0.351202 0.414022 0.241000
0.371295 0.418559 0.244013
0.392875 0.423451 0.247343
0.416062 0.428619 0.250937
0.440856 0.434062 0.254929
0.467137 0.439860 0.259146
0.494904 0.445962 0.263976
0.523888 0.452190 0.269337
0.554264 0.458787 0.275236
0.585909 0.465601 0.281565
0.617822 0.472596 0.288791
0.649736 0.479657 0.297099
0.681639 0.486918 0.306055
0.713434 0.494435 0.315948
0.745519 0.502210 0.326244
0.778332 0.510579 0.336906
0.811351 0.519020 0.347844
0.845090 0.528177 0.359400
0.878877 0.537256 0.370995
0.229462 0.413226 0.243239
0.231726 0.413096 0.241345
0.234046 0.413021 0.239505
0.239099 0.413659 0.238508
0.244547 0.414495 0.237701
0.252105 0.415924 0.237468
0.260625 0.417630 0.237433
0.270834 0.419701 0.237890
0.282303 0.422096 0.238677
0.295333 0.424974 0.239734
0.309726 0.428162 0.241284
0.325509 0.431612 0.243092
0.342920 0.435442 0.245279
0.361643 0.439555 0.247700
0.381939 0.444019 0.250453
0.403771 0.448911 0.253645
0.427219 0.454079 0.257109
0.452281 0.459522 0.260910
0.478879 0.465320 0.264997
0.506443 0.471190 0.270082
0.534744 0.477028 0.276127
0.563827 0.483149 0.283148
0.593463 0.489443 0.290867
0.623632 0.495918 0.299150
0.653985 0.502750 0.308174
0.684835 0.509780 0.317578
0.716141 0.517248 0.327649
0.747727 0.524913 0.337965
0.779905 0.533152 0.348742
0.812392 0.541581 0.359809
0.845611 0.550616 0.371495
0.878751 0.559691 0.383095
0.239411 0.439994 0.251928
0.241538 0.439745 0.249777
0.243735 0.439656 0.247815
0.248664 0.440309 0.246669
0.254124 0.441142 0.245617
0.261670 0.442538 0.245248
0.270227 0.444145 0.245090
0.280531 0.446217 0.245392
0.292000 0.448612 0.245941
0.305069 0.451455 0.246871
0.319595 0.454559 0.248289
0.335500 0.458009 0.249927
0.353039 0.461833 0.251900
0.371893 0.465943 0.254189
0.392433 0.470356 0.256820
0.414469 0.475045 0.260077
0.437900 0.480005 0.263825
0.462799 0.485163 0.268139
0.489105 0.490546 0.272924
0.516076 0.496011 0.278764
0.543591 0.501548 0.285509
0.571653 0.507334 0.293241
0.600165 0.513245 0.301793
0.629108 0.519438 0.310683
0.658583 0.526118 0.320107
0.688673 0.533121 0.329794
0.719512 0.540476 0.340013
0.750493 0.548133 0.350465
0.782257 0.556254 0.361380
0.814236 0.564559 0.372461
0.846805 0.573587 0.384261
0.879436 0.582528 0.395864
0.249242 0.467470 0.260357
0.251117 0.467218 0.258096
0.253307 0.467020 0.256118
0.258130 0.467643 0.254724
0.263566 0.468463 0.253540
0.271134 0.469762 0.252929
0.279664 0.471369 0.252625
0.290000 0.473441 0.252763
0.301579 0.475836 0.253105
0.314680 0.478680 0.253856
0.329330 0.481783 0.255049
0.345331 0.485234 0.256552
0.362968 0.489015 0.258356
0.382036 0.493044 0.260491
0.402757 0.497453 0.263058
0.424793 0.501915 0.266550
0.448110 0.506412 0.271022
0.472454 0.510964 0.276531
0.497768 0.515567 0.282813
0.523832 0.520493 0.289772
0.550523 0.525706 0.297269
0.577901 0.531221 0.305402
0.605935 0.537073 0.314213
0.634414 0.543275 0.323363
0.663571 0.549845 0.332853
0.693198 0.556702 0.342629
0.723398 0.564056 0.352988
0.753959 0.571691 0.363559
0.785320 0.579708 0.374587
0.816657 0.588003 0.385811
0.848726 0.596893 0.397621
0.880807 0.605861 0.409366
0.258773 0.495695 0.268675
0.260691 0.495443 0.266260
0.262726 0.495238 0.264120
0.267414 0.495766 0.262492
0.272886 0.496585 0.261275
0.280397 0.497885 0.260404
0.288842 0.499492 0.259868
0.299200 0.501564 0.259890
0.310898 0.503920 0.260089
0.324109 0.506652 0.260692
0.338792 0.509708 0.261672
0.354969 0.512951 0.263212
0.372839 0.516481 0.265402
0.392012 0.520187 0.268091
0.412793 0.524119 0.271298
0.434706 0.528147 0.275582
0.457792 0.532123 0.280912
0.481678 0.536264 0.287206
0.506282 0.540549 0.294364
0.531769 0.545192 0.301986
0.557891 0.550175 0.310052
0.584813 0.555548 0.318469
0.612376 0.561334 0.327386
0.640521 0.567521 0.336642
0.669186 0.574012 0.346274
0.698402 0.580763 0.356204
0.728150 0.588058 0.366678
0.758288 0.595597 0.377396
0.789007 0.603735 0.388444
0.819853 0.611905 0.399904
0.851360 0.620686 0.411729
0.882965 0.629603 0.423727
0.268100 0.524589 0.276836
0.269952 0.524337 0.274318
0.271900 0.524132 0.271929
0.276640 0.524645 0.270181
0.282043 0.525322 0.268668
0.289472 0.526622 0.267699
0.297916 0.528229 0.267023
0.308275 0.530301 0.266769
0.319997 0.532632 0.266854
0.333278 0.535295 0.267313
0.348013 0.538269 0.268226
0.364418 0.541218 0.270057
0.382573 0.544305 0.273043
0.401843 0.547346 0.276845
0.422553 0.550426 0.281643
0.444258 0.553786 0.287117
0.467034 0.557323 0.293276
0.490614 0.561219 0.300075
0.514903 0.565413 0.307547
0.539994 0.569932 0.315373
0.565734 0.574879 0.323597
0.592256 0.580251 0.332188
0.619440 0.585970 0.341156
0.647180 0.592014 0.350528
0.675399 0.598464 0.360396
0.704185 0.605342 0.370460
0.733510 0.612588 0.381085
0.763143 0.619974 0.391910
0.793398 0.628178 0.403112
0.823818 0.636268 0.414676
0.854719 0.645043 0.426660
0.885738 0.653866 0.438757
0.277262 0.554240 0.284737
0.279021 0.553988 0.282046
0.280804 0.553783 0.279412
0.285462 0.554287 0.277632
0.290787 0.554886 0.275812
0.298242 0.556186 0.274817
0.306826 0.557761 0.274001
0.317259 0.559624 0.273778
0.329280 0.561615 0.274140
0.342828 0.563888 0.275217
0.358049 0.566375 0.276867
0.374710 0.568834 0.279557
0.392911 0.571316 0.283410
0.412267 0.573817 0.288153
0.432841 0.576419 0.293930
0.454377 0.579376 0.300156
0.476807 0.582693 0.306926
0.500047 0.586506 0.314057
0.524076 0.590649 0.321620
0.548853 0.595132 0.329583
0.574300 0.600079 0.337977
0.600502 0.605339 0.346686
0.627281 0.611005 0.355799
0.654649 0.617106 0.365407
0.682457 0.623577 0.375407
0.710875 0.630392 0.385623
0.739712 0.637623 0.396353
0.768969 0.644933 0.407192
0.798654 0.652976 0.418622
0.828700 0.661205 0.430365
0.859091 0.669831 0.442444
0.889503 0.678648 0.454709
0.286337 0.584584 0.292552
0.287920 0.584332 0.289606
0.289621 0.584127 0.286874
0.294189 0.584631 0.284761
0.299358 0.585230 0.282848
0.306798 0.586530 0.281661
0.315403 0.588022 0.280716
0.326330 0.589429 0.280971
0.338761 0.590854 0.282102
0.352923 0.592355 0.284499
0.368720 0.593964 0.287696
0.385756 0.595757 0.291687
0.404049 0.597668 0.296463
0.423420 0.599827 0.301784
0.443870 0.602347 0.307880
0.465105 0.605223 0.314375
0.487235 0.608500 0.321307
0.510260 0.612217 0.328694
0.534028 0.616283 0.336435
0.558439 0.620765 0.344519
0.583558 0.625712 0.352995
0.609384 0.630919 0.361966
0.635913 0.636559 0.371247
0.662920 0.642591 0.380937
0.690362 0.649037 0.391091
0.718362 0.655788 0.401410
0.746694 0.663004 0.412300
0.775499 0.670465 0.423318
0.804759 0.678459 0.434998
0.834206 0.686592 0.446839
0.864070 0.695303 0.459091
0.894135 0.703951 0.471440
0.295049 0.615810 0.300004
0.296556 0.615377 0.296975
0.298094 0.615160 0.293907
0.302859 0.615477 0.292018
0.308338 0.615866 0.290330
0.316199 0.616762 0.289660
0.325428 0.617701 0.289431
0.336771 0.618588 0.290637
0.349686 0.619427 0.292819
0.364420 0.620179 0.296155
0.380622 0.621144 0.300660
0.397779 0.622434 0.305472
0.416047 0.624081 0.310771
0.435231 0.626153 0.316520
0.455462 0.628592 0.322785
0.476490 0.631368 0.329499
0.498453 0.634645 0.336618
0.521252 0.638324 0.344078
0.544761 0.642357 0.351998
0.568868 0.646839 0.360299
0.593699 0.651786 0.368962
0.619216 0.656993 0.378093
0.645385 0.662633 0.387548
0.672046 0.668612 0.397425
0.699070 0.675040 0.407680
0.726566 0.681791 0.418162
0.754681 0.689007 0.429146
0.783024 0.696530 0.440396
0.811828 0.704370 0.452172
0.840695 0.712588 0.464189
0.870034 0.721200 0.476521
0.899468 0.729954 0.489054
0.303431 0.647509 0.307125
0.304746 0.647195 0.303903
0.306252 0.646768 0.300745
0.311497 0.646629 0.299408
0.317740 0.646505 0.298630
0.326727 0.646450 0.299428
0.337119 0.646304 0.301069
0.349237 0.646517 0.303483
0.362623 0.646869 0.306722
0.377573 0.647304 0.310749
0.393669 0.648078 0.315465
0.410698 0.649199 0.320623
0.428942 0.650854 0.326207
0.447981 0.652810 0.332175
0.467952 0.655306 0.338563
0.488750 0.658060 0.345441
0.510486 0.661239 0.352723
0.533025 0.664918 0.360378
0.556273 0.668951 0.368419
0.580120 0.673433 0.376901
0.604691 0.678380 0.385702
0.629948 0.683587 0.394984
0.655677 0.689228 0.404679
0.682006 0.695207 0.414676
0.708720 0.701635 0.425094
0.735738 0.708386 0.435821
0.763439 0.715601 0.447014
0.791281 0.723124 0.458348
0.819735 0.730907 0.470303
0.848100 0.739002 0.482398
0.877102 0.747727 0.495100
0.905959 0.756359 0.507708
0.312143 0.679467 0.314577
0.314013 0.678807 0.312107
0.316136 0.678090 0.309579
0.322110 0.677247 0.309179
0.329148 0.676563 0.309482
0.339029 0.675662 0.311632
0.350267 0.674681 0.314594
0.362950 0.674329 0.318164
0.376588 0.674276 0.322036
0.391563 0.674613 0.326561
0.407602 0.675293 0.331395
0.424523 0.676459 0.336680
0.442564 0.678002 0.342448
0.461377 0.679924 0.348533
0.481177 0.682445 0.355148
0.501823 0.685202 0.362165
0.523298 0.688353 0.369577
0.545577 0.692032 0.377384
0.568565 0.696065 0.385565
0.592152 0.700547 0.394284
0.616463 0.705495 0.403310
0.641326 0.710701 0.412698
0.666832 0.716342 0.422590
0.692795 0.722321 0.432806
0.719198 0.728749 0.443318
0.745912 0.735500 0.454261
0.773131 0.742715 0.465548
0.800453 0.750238 0.477235
0.828436 0.758021 0.489291
0.856470 0.766064 0.501575
0.884827 0.774839 0.514396
0.913159 0.783418 0.527205
0.321580 0.711686 0.322959
0.325288 0.709873 0.322585
0.329209 0.708083 0.322069
0.336347 0.706656 0.323113
0.344112 0.705287 0.324595
0.354286 0.704061 0.327372
0.365449 0.702903 0.330710
0.378053 0.702288 0.334538
0.391729 0.702162 0.338666
0.406644 0.702485 0.343275
0.422471 0.703147 0.348209
0.439237 0.704329 0.353722
0.457150 0.705841 0.359731
0.475789 0.707763 0.366048
0.495469 0.710191 0.372831
0.515880 0.712935 0.379972
0.537201 0.716192 0.387514
0.559319 0.719871 0.395569
0.582047 0.723904 0.403962
0.605373 0.728386 0.412730
0.629292 0.733333 0.421937
0.653929 0.738540 0.431554
0.679114 0.744181 0.441546
0.704736 0.750311 0.451962
0.730708 0.756634 0.462697
0.757116 0.763338 0.473890
0.783862 0.770554 0.485398
0.810842 0.778077 0.497200
0.838332 0.785860 0.509453
0.865890 0.794094 0.521801
0.893882 0.802685 0.534823
0.921698 0.811462 0.547891
0.332861 0.743314 0.333656
0.338211 0.740632 0.334979
0.343725 0.737796 0.336523
0.351718 0.735844 0.338686
0.360172 0.733952 0.341152
0.370373 0.732506 0.344188
0.381496 0.731340 0.347601
0.394020 0.730694 0.351609
0.407476 0.730513 0.355823
0.422222 0.730679 0.360651
0.438009 0.731340 0.365818
0.454673 0.732522 0.371515
0.472433 0.734034 0.377565
0.490958 0.735957 0.384011
0.510401 0.738463 0.391037
0.530655 0.741218 0.398417
0.551736 0.744385 0.406199
0.573510 0.748064 0.414400
