gsg/04_Specialty/GSG_LUT_Specialty_BrightBrightBlue.cube
# GSG LUTs 1.0
# Copyright (c) 2016-2020 Greyscalegorilla
# See EULA for licensing and distribution information
# Converted by Briz LUT Converter
LUT_3D_SIZE 32
0.000000 0.000000 0.000000
0.041585 0.006270 0.018276
0.075143 0.011564 0.032628
0.109244 0.016858 0.046745
0.144094 0.022183 0.060798
0.179503 0.027768 0.074331
0.215645 0.033566 0.087345
0.252196 0.039419 0.099728
0.288621 0.045469 0.111072
0.324526 0.051518 0.121305
0.360384 0.057647 0.130474
0.397196 0.063949 0.138863
0.434409 0.070345 0.146142
0.471464 0.076899 0.152334
0.505873 0.083012 0.156966
0.531206 0.087495 0.159801
0.546331 0.090267 0.161188
0.555800 0.092000 0.161928
0.564040 0.093403 0.162574
0.575304 0.095514 0.163331
0.593611 0.098822 0.164244
0.620662 0.103761 0.164922
0.652566 0.109654 0.165079
0.685699 0.115704 0.164355
0.718595 0.121943 0.162779
0.750577 0.127851 0.160424
0.781110 0.133444 0.157289
0.810083 0.138777 0.153799
0.837276 0.143629 0.150049
0.862878 0.148190 0.145811
0.886920 0.152491 0.141526
0.901832 0.155067 0.138950
0.020276 0.040080 0.028028
0.049917 0.041608 0.036344
0.081205 0.043884 0.046913
0.114275 0.046688 0.058485
0.148400 0.050011 0.070559
0.183496 0.053846 0.082778
0.219123 0.058154 0.094536
0.255211 0.062776 0.105866
0.291437 0.067728 0.116231
0.327258 0.072647 0.125746
0.362934 0.077918 0.134303
0.399567 0.083366 0.141998
0.436462 0.089234 0.148654
0.473410 0.095164 0.154270
0.507673 0.100729 0.158518
0.533002 0.104947 0.160956
0.548123 0.107460 0.162204
0.557592 0.109071 0.162937
0.565831 0.110473 0.163436
0.577092 0.112430 0.163937
0.595242 0.115483 0.164594
0.622367 0.120159 0.165166
0.654173 0.125783 0.164963
0.687229 0.131571 0.163902
0.720123 0.137360 0.162058
0.752105 0.142953 0.159441
0.782638 0.148293 0.156045
0.811399 0.153367 0.152295
0.838560 0.158180 0.148285
0.864162 0.162732 0.144016
0.888196 0.166789 0.139722
0.903108 0.169357 0.136902
0.036126 0.072394 0.049644
0.061007 0.073646 0.055659
0.089789 0.075204 0.063707
0.121346 0.077487 0.073029
0.154460 0.080261 0.083282
0.188838 0.083346 0.093758
0.224133 0.086893 0.104156
0.259763 0.090713 0.114047
0.295644 0.094848 0.123356
0.331029 0.099341 0.131818
0.366445 0.103930 0.139405
0.402901 0.108790 0.146293
0.439688 0.113903 0.152158
0.476475 0.119267 0.156986
0.510623 0.124456 0.160552
0.535815 0.128284 0.162582
0.550805 0.130545 0.163448
0.560281 0.132041 0.163936
0.568492 0.133434 0.164292
0.579651 0.135230 0.164684
0.597794 0.138176 0.165161
0.624759 0.142516 0.165137
0.656478 0.147635 0.164506
0.689354 0.153094 0.162992
0.722187 0.158623 0.160628
0.754156 0.163956 0.157681
0.784686 0.169220 0.154009
0.813447 0.174083 0.149996
0.840594 0.178638 0.145726
0.866194 0.182931 0.141196
0.890015 0.186742 0.136642
0.904904 0.189287 0.133798
0.051503 0.105510 0.070219
0.073364 0.106534 0.074744
0.100097 0.108039 0.081231
0.130142 0.109848 0.088970
0.162219 0.112156 0.097429
0.195617 0.114944 0.106165
0.230220 0.118039 0.115046
0.265448 0.121593 0.123612
0.300709 0.125338 0.131607
0.335816 0.129183 0.138853
0.370964 0.133342 0.145308
0.407144 0.137925 0.151000
0.443680 0.142690 0.155904
0.480212 0.147558 0.159817
0.514199 0.152344 0.162456
0.539281 0.155921 0.163938
0.554153 0.158064 0.164544
0.563504 0.159536 0.164783
0.571730 0.160786 0.165011
0.582835 0.162346 0.165224
0.600890 0.165040 0.165269
0.627839 0.169136 0.164740
0.659388 0.174003 0.163580
0.692180 0.179202 0.161521
0.724989 0.184453 0.158631
0.756769 0.189539 0.155163
0.787235 0.194356 0.150990
0.815991 0.199121 0.146660
0.842953 0.203445 0.142105
0.868512 0.207499 0.137335
0.892552 0.211273 0.132523
0.907220 0.213589 0.129418
0.066816 0.139667 0.089692
0.086410 0.140683 0.093415
0.111188 0.141973 0.098434
0.139746 0.143732 0.104641
0.170786 0.145811 0.111567
0.203404 0.148366 0.118939
0.237232 0.151201 0.126292
0.271805 0.154453 0.133329
0.306699 0.157840 0.139902
0.341374 0.161574 0.145986
0.376168 0.165424 0.151212
0.411939 0.169598 0.155842
0.448288 0.174103 0.159619
0.484596 0.178723 0.162356
0.518298 0.183167 0.164068
0.543346 0.186577 0.164891
0.558218 0.188704 0.165204
0.567551 0.189948 0.165275
0.575635 0.191099 0.165242
0.586648 0.192658 0.165079
0.604682 0.195190 0.164629
0.631470 0.199175 0.163686
0.662926 0.203853 0.161899
0.695569 0.208791 0.159093
0.728133 0.213636 0.155601
0.759857 0.218597 0.151605
0.790137 0.223196 0.147097
0.818831 0.227701 0.142310
0.845960 0.231793 0.137267
0.871330 0.235797 0.132392
0.895356 0.239356 0.127332
0.910024 0.241632 0.123999
0.081610 0.174863 0.107566
0.099478 0.175878 0.110547
0.122954 0.177119 0.114717
0.150215 0.178711 0.119643
0.180055 0.180750 0.125084
0.211892 0.183243 0.130963
0.244981 0.185884 0.136974
0.278962 0.188923 0.142679
0.313257 0.192180 0.147895
0.347569 0.195605 0.152532
0.381924 0.199330 0.156497
0.417421 0.203285 0.159915
0.453417 0.207555 0.162600
0.489431 0.212004 0.164296
0.522896 0.216330 0.165063
0.547691 0.219520 0.165207
0.562543 0.221517 0.165020
0.571759 0.222742 0.164749
0.579747 0.223892 0.164474
0.590760 0.225428 0.164157
0.608632 0.227833 0.163351
0.635304 0.231585 0.161599
0.666596 0.236003 0.159099
0.699305 0.240711 0.155749
0.731750 0.245470 0.151572
0.763393 0.250218 0.146976
0.793667 0.254591 0.141973
0.822175 0.258842 0.136857
0.849084 0.262866 0.131549
0.874434 0.266667 0.126215
0.898422 0.270173 0.120880
0.913088 0.272236 0.117539
0.095790 0.211099 0.123573
0.112452 0.212060 0.125971
0.134676 0.213113 0.129146
0.160709 0.214838 0.133031
0.189577 0.216708 0.137399
0.220600 0.219048 0.141952
0.252957 0.221781 0.146490
0.286289 0.224609 0.150728
0.320185 0.227748 0.154656
0.353990 0.231171 0.158086
0.387925 0.234606 0.160947
0.423056 0.238543 0.163114
0.458739 0.242704 0.164476
0.494533 0.246922 0.165102
0.527711 0.251101 0.164850
0.552381 0.254268 0.164222
0.567103 0.256159 0.163645
0.576323 0.257308 0.163226
0.584304 0.258431 0.162783
0.595297 0.259850 0.162081
0.613037 0.262296 0.160772
0.639465 0.265934 0.158469
0.670676 0.270125 0.155142
0.703199 0.274737 0.151118
0.735578 0.279326 0.146408
0.767018 0.283825 0.141127
0.797203 0.288148 0.135735
0.825704 0.292180 0.130132
0.852613 0.295986 0.124531
0.877963 0.299723 0.118936
0.901753 0.303029 0.113388
0.916413 0.305038 0.109993
0.108929 0.248210 0.137335
0.124805 0.248974 0.139009
0.146045 0.250014 0.141444
0.171113 0.251574 0.144340
0.199175 0.253622 0.147642
0.229286 0.255921 0.150974
0.261113 0.258443 0.154386
0.293847 0.261271 0.157368
0.327113 0.264359 0.160045
0.360471 0.267636 0.162337
0.394082 0.271070 0.163890
0.428820 0.274918 0.164729
0.464221 0.278916 0.164939
0.499721 0.283052 0.164404
0.532639 0.287116 0.163224
0.557170 0.290189 0.161938
0.571791 0.292051 0.160942
0.580993 0.293269 0.160266
0.588924 0.294277 0.159588
0.599801 0.295734 0.158625
0.617519 0.298094 0.156894
0.643814 0.301546 0.153900
0.674922 0.305652 0.149932
0.707283 0.310103 0.145225
0.739569 0.314598 0.139944
0.770838 0.318926 0.134142
0.800819 0.323165 0.128231
0.829288 0.327016 0.122203
0.856148 0.330747 0.116274
0.881492 0.334243 0.110465
0.905282 0.337479 0.104850
0.919942 0.339344 0.101256
0.120903 0.285517 0.148300
0.136124 0.286283 0.149452
0.156587 0.287384 0.151294
0.180934 0.288938 0.153444
0.208232 0.290929 0.155704
0.237702 0.293208 0.157965
0.268931 0.295624 0.160178
0.301072 0.298452 0.162076
0.333932 0.301524 0.163518
0.366889 0.304754 0.164610
0.400219 0.308189 0.165077
0.434654 0.311970 0.164831
0.469722 0.315845 0.163894
0.504846 0.319955 0.162306
0.537532 0.323983 0.160208
0.561929 0.327025 0.158228
0.576517 0.328789 0.156777
0.585616 0.329946 0.155849
0.593462 0.330954 0.155004
0.604222 0.332373 0.153808
0.621827 0.334586 0.151654
0.648100 0.338056 0.148010
0.679029 0.342114 0.143327
0.711269 0.346481 0.137998
0.743393 0.350765 0.132180
0.774619 0.355036 0.125909
0.804600 0.359063 0.119542
0.833015 0.362874 0.113333
0.859752 0.366434 0.107046
0.885025 0.369676 0.101142
0.908811 0.372713 0.095341
0.923471 0.374698 0.091741
0.131813 0.324172 0.156737
0.146689 0.324944 0.157434
0.166457 0.326220 0.158570
0.190266 0.327756 0.160025
0.216893 0.329584 0.161318
0.245910 0.331880 0.162588
0.276502 0.334389 0.163701
0.308243 0.337217 0.164558
0.340544 0.340260 0.164941
0.373168 0.343409 0.164887
0.406129 0.346820 0.164184
0.440181 0.350553 0.162937
0.474989 0.354429 0.160987
0.509882 0.358462 0.158337
0.542399 0.362353 0.155294
0.566631 0.365303 0.152591
0.581126 0.367067 0.150843
0.590185 0.368278 0.149647
0.598040 0.369286 0.148598
0.608787 0.370594 0.147174
0.626248 0.372736 0.144615
0.652408 0.376084 0.140477
0.683186 0.380162 0.135223
0.715239 0.384374 0.129271
0.747316 0.388507 0.122904
0.778485 0.392696 0.116259
0.808452 0.396558 0.109618
0.836709 0.400277 0.103053
0.863523 0.403764 0.096655
0.888703 0.406830 0.090575
0.912482 0.409786 0.084761
0.927071 0.411588 0.081090
0.143377 0.371862 0.162677
0.157814 0.372710 0.163024
0.177132 0.373910 0.163531
0.200347 0.375454 0.163962
0.226432 0.377342 0.164383
0.254765 0.379555 0.164666
0.284770 0.381984 0.164563
0.316030 0.384812 0.164216
0.347965 0.387880 0.163371
0.380127 0.391099 0.162066
0.412649 0.394454 0.160216
0.446413 0.398070 0.157732
0.480910 0.401946 0.154615
0.515615 0.405979 0.150877
0.547930 0.409792 0.146760
0.571934 0.412692 0.143444
0.586347 0.414416 0.141305
0.595317 0.415542 0.139899
0.603184 0.416550 0.138668
0.613864 0.417858 0.136877
0.631258 0.420001 0.133941
0.657247 0.423295 0.129290
0.687944 0.427168 0.123367
0.719938 0.431179 0.116915
0.751995 0.435340 0.110113
0.783024 0.439347 0.103028
0.812892 0.443094 0.096094
0.841136 0.446650 0.089488
0.867864 0.449887 0.082934
0.893124 0.452855 0.076836
0.916909 0.455638 0.071023
0.931403 0.457356 0.067336
0.155114 0.433589 0.164284
0.169378 0.434514 0.164189
0.188415 0.435637 0.163910
0.211035 0.437189 0.163462
0.236600 0.439138 0.162810
0.264400 0.441309 0.161819
0.293818 0.443877 0.160538
0.324578 0.446705 0.158790
0.356102 0.449730 0.156515
0.387916 0.452826 0.153909
0.420095 0.456182 0.150733
0.453481 0.459767 0.146925
0.487611 0.463587 0.142563
0.522056 0.467583 0.137596
0.554224 0.471346 0.132507
0.578106 0.474166 0.128452
0.592304 0.475804 0.125923
0.601284 0.476931 0.124337
0.609130 0.477889 0.122896
0.619741 0.479160 0.120881
0.637134 0.481303 0.117522
0.663012 0.484485 0.112297
0.693593 0.488126 0.105828
0.725440 0.491999 0.098862
0.757387 0.495943 0.091736
0.788466 0.499760 0.084462
0.818213 0.503263 0.077429
0.846505 0.506628 0.070810
0.873316 0.509693 0.064334
0.898510 0.512409 0.058408
0.922373 0.515008 0.053863
0.937122 0.516468 0.051676
0.163496 0.495411 0.159463
0.177940 0.496183 0.159003
0.196723 0.497460 0.158137
0.219157 0.499005 0.157041
0.244311 0.500906 0.155437
0.271795 0.503131 0.153422
0.300941 0.505699 0.151047
0.331390 0.508527 0.148244
0.362613 0.511552 0.144864
0.394096 0.514648 0.141152
0.426106 0.517973 0.136921
0.459189 0.521472 0.132169
0.493095 0.525215 0.126840
0.527338 0.529087 0.120957
0.559360 0.532716 0.115173
0.583166 0.535484 0.110608
0.597282 0.537122 0.107787
0.606263 0.538249 0.105986
0.614108 0.539115 0.104431
0.624719 0.540321 0.102262
0.642052 0.542402 0.098602
0.667896 0.545487 0.093094
0.698433 0.548986 0.086388
0.730261 0.552696 0.079287
0.762159 0.556404 0.072089
0.793275 0.560011 0.064876
0.823113 0.563346 0.058073
0.851640 0.566246 0.052812
0.878512 0.568990 0.048979
0.904121 0.571266 0.045997
0.928257 0.573349 0.045388
0.943267 0.574446 0.046036
0.167710 0.544811 0.151546
0.182555 0.545583 0.150775
0.201285 0.546859 0.149531
0.223619 0.548409 0.147865
0.248717 0.550346 0.145698
0.276088 0.552531 0.143139
0.305109 0.555079 0.140080
0.335500 0.557824 0.136564
0.366516 0.560849 0.132508
0.397891 0.563945 0.128152
0.429722 0.567222 0.123318
0.462752 0.570636 0.117928
0.496562 0.574351 0.112048
0.530742 0.578132 0.105668
0.562677 0.581693 0.099509
0.586482 0.584379 0.094734
0.600599 0.585965 0.091782
0.609579 0.587042 0.089906
0.617425 0.587908 0.088330
0.628036 0.589113 0.086069
0.645272 0.591099 0.082351
0.671132 0.593960 0.076742
0.701735 0.597377 0.070093
0.733654 0.601011 0.063077
0.765615 0.604498 0.056009
0.796786 0.607724 0.050024
0.827017 0.610723 0.046124
0.855838 0.613224 0.044879
0.883197 0.615326 0.045864
0.909180 0.617022 0.047889
0.933582 0.618681 0.050803
0.948749 0.619465 0.053322
0.169428 0.580133 0.143700
0.184529 0.580905 0.142810
0.203394 0.582181 0.141275
0.225712 0.583717 0.139349
0.250920 0.585545 0.136903
0.278168 0.587853 0.133938
0.307167 0.590374 0.130478
0.337462 0.593005 0.126606
0.368462 0.596030 0.122229
0.399851 0.599094 0.117475
0.431659 0.602328 0.112293
0.464689 0.605766 0.106621
0.498499 0.609347 0.100469
0.532680 0.613061 0.093868
0.564565 0.616572 0.087581
0.588363 0.619197 0.082782
0.602537 0.620767 0.079814
0.611517 0.621768 0.077947
0.619363 0.622585 0.076371
0.629974 0.623790 0.074131
0.647281 0.625704 0.070456
0.673201 0.628504 0.064922
0.703792 0.631833 0.058309
0.735807 0.635248 0.051584
0.767951 0.638389 0.046752
0.799571 0.641242 0.044567
0.830165 0.643722 0.045433
0.859256 0.645820 0.047510
0.886904 0.647619 0.050566
0.912987 0.649155 0.054969
0.937532 0.650454 0.061404
0.952814 0.651227 0.069881
0.170082 0.608744 0.136256
0.185438 0.609512 0.135114
0.204427 0.610682 0.133562
0.226870 0.612328 0.131388
0.252078 0.614140 0.128789
0.279326 0.616346 0.125563
0.308322 0.618889 0.121840
0.338635 0.621589 0.117698
0.369703 0.624522 0.113104
0.400998 0.627547 0.108173
0.432817 0.630730 0.102762
0.465889 0.634217 0.096921
0.499775 0.637716 0.090606
0.533956 0.641370 0.083999
0.565834 0.644752 0.077703
0.589631 0.647304 0.072911
0.603874 0.648881 0.070013
0.612846 0.649817 0.068203
0.620639 0.650642 0.066549
0.631322 0.651824 0.064335
0.648685 0.653606 0.060711
0.674601 0.656370 0.055348
0.705282 0.659608 0.049320
0.737598 0.662710 0.045268
0.770236 0.665457 0.044617
0.802190 0.667911 0.046025
0.832921 0.670105 0.048789
0.862145 0.671826 0.052736
0.889917 0.673468 0.058389
0.916152 0.674883 0.070280
0.940821 0.675915 0.079921
0.956241 0.676679 0.089180
0.170082 0.634708 0.128694
0.185695 0.635472 0.127421
0.204813 0.636519 0.125739
0.227374 0.638178 0.123435
0.252598 0.640088 0.120706
0.279956 0.642184 0.117350
0.308976 0.644727 0.113473
0.339391 0.647398 0.109099
0.370460 0.650234 0.104342
0.401754 0.653259 0.099224
0.433574 0.656401 0.093773
0.466690 0.659803 0.087802
0.500658 0.663301 0.081454
0.534891 0.666903 0.074924
0.566842 0.670212 0.068628
0.590640 0.672703 0.063837
0.604882 0.674215 0.061003
0.613855 0.675151 0.059254
0.621647 0.675975 0.057673
0.632408 0.677081 0.055512
0.649738 0.678814 0.051970
0.675865 0.681407 0.047676
0.706847 0.684385 0.044819
0.739611 0.687133 0.044857
0.772476 0.689587 0.046711
0.804560 0.691781 0.049765
0.835527 0.693714 0.054513
0.864902 0.695285 0.061860
0.892804 0.696684 0.075026
0.919051 0.697956 0.088381
0.943842 0.698858 0.095875
0.959266 0.699618 0.099011
0.169562 0.661239 0.120210
0.185561 0.662003 0.118933
0.204687 0.663043 0.117137
0.227371 0.664603 0.114808
0.252731 0.666619 0.111834
0.280214 0.668693 0.108362
0.309347 0.671128 0.104439
0.339761 0.673811 0.099871
0.370864 0.676613 0.095041
0.402292 0.679538 0.089748
0.434196 0.682642 0.084296
0.467313 0.686006 0.078325
0.501280 0.689483 0.072023
0.535619 0.692930 0.065573
0.567663 0.696239 0.059346
0.591453 0.698673 0.054685
0.605764 0.700116 0.051912
0.614810 0.701044 0.050163
0.622655 0.701800 0.048651
0.633416 0.702773 0.047279
0.651006 0.704368 0.045748
0.677526 0.706743 0.044636
0.708890 0.709283 0.045377
0.741849 0.711697 0.047566
0.774849 0.713891 0.051181
0.807166 0.715932 0.056717
0.838182 0.717632 0.069022
0.867659 0.719045 0.080263
0.895698 0.720320 0.092503
0.922069 0.721455 0.098895
0.946996 0.722234 0.102968
0.962291 0.722856 0.105132
0.168238 0.690842 0.110142
0.184751 0.691611 0.108861
0.204161 0.692788 0.106928
0.226988 0.694334 0.104589
0.252466 0.696223 0.101501
0.280090 0.698279 0.097909
0.309315 0.700642 0.093867
0.339762 0.703383 0.089275
0.371003 0.706083 0.084359
0.402554 0.709031 0.079066
0.434558 0.712089 0.073615
0.467725 0.715307 0.067694
0.501784 0.718650 0.061483
0.536169 0.722029 0.055138
0.568406 0.725210 0.049620
0.592488 0.727420 0.046671
0.607003 0.728733 0.045655
0.616179 0.729530 0.044990
0.624172 0.730222 0.044438
0.635078 0.731128 0.044438
0.652936 0.732517 0.044995
0.679649 0.734536 0.046470
0.711227 0.736691 0.049251
0.744365 0.738918 0.053765
0.777596 0.740888 0.061360
0.810059 0.742644 0.075177
0.841215 0.744196 0.088403
0.870839 0.745496 0.096877
0.898868 0.746628 0.102071
0.925368 0.747514 0.105745
0.950412 0.748277 0.108628
0.965741 0.748789 0.110142
0.166324 0.720005 0.099752
0.183352 0.720777 0.098468
0.203121 0.722043 0.096426
0.226199 0.723439 0.093946
0.251826 0.725255 0.090858
0.279563 0.727441 0.087250
0.308942 0.729775 0.083123
0.339533 0.732406 0.078530
0.370854 0.735130 0.073653
0.402434 0.738001 0.068471
0.434559 0.740919 0.063068
0.467864 0.744031 0.057285
0.502047 0.747308 0.051198
0.536712 0.750499 0.046557
0.569437 0.753259 0.044790
0.593895 0.755225 0.044646
0.608593 0.756408 0.045207
0.617898 0.757076 0.045562
0.625996 0.757635 0.046013
0.637008 0.758478 0.046781
0.655002 0.759705 0.048236
0.681869 0.761495 0.051313
0.713569 0.763512 0.056641
0.746923 0.765487 0.069088
0.780299 0.767301 0.081377
0.812906 0.768748 0.093337
0.844177 0.770106 0.100372
0.873906 0.771381 0.104760
0.901990 0.772286 0.108042
0.928591 0.773051 0.110660
0.953641 0.773808 0.112748
0.969073 0.774170 0.113884
0.164307 0.745055 0.090614
0.181848 0.745822 0.089178
0.201867 0.746940 0.087282
0.225058 0.748395 0.084714
0.250932 0.750202 0.081606
0.278822 0.752334 0.077860
0.308299 0.754650 0.073763
0.339001 0.757190 0.069298
0.370485 0.759841 0.064445
0.402182 0.762614 0.059379
0.434389 0.765465 0.054118
0.467920 0.768521 0.048846
0.502424 0.771574 0.045195
0.537622 0.774387 0.044444
0.570759 0.776848 0.045517
0.595407 0.778686 0.046965
0.610154 0.779739 0.048128
0.619505 0.780362 0.048958
0.627603 0.780866 0.049837
0.638712 0.781573 0.051099
0.656828 0.782678 0.053688
0.683792 0.784327 0.059062
0.715634 0.786181 0.072265
0.749104 0.787971 0.086603
0.782626 0.789614 0.096135
0.815345 0.791076 0.101901
0.846634 0.792235 0.106086
0.876501 0.793332 0.109274
0.904691 0.794274 0.111795
0.931301 0.794898 0.113786
0.956504 0.795644 0.115409
0.971941 0.795912 0.116279
0.162125 0.766678 0.082540
0.180178 0.767283 0.081019
0.200452 0.768482 0.079208
0.223806 0.770003 0.076639
0.249791 0.771649 0.073541
0.277927 0.773705 0.069865
0.307543 0.776021 0.065784
0.338302 0.778542 0.061389
0.370003 0.781126 0.056579
0.401813 0.783899 0.051660
0.434218 0.786697 0.047208
0.468127 0.789492 0.044808
0.503172 0.792145 0.044589
0.538736 0.794714 0.045982
0.572059 0.797050 0.048221
0.596835 0.798755 0.050679
0.611666 0.799678 0.052578
0.621017 0.800221 0.053917
0.629115 0.800725 0.055288
0.640176 0.801379 0.057359
0.658368 0.802450 0.061921
0.685503 0.804041 0.074491
0.717460 0.805688 0.088210
0.750955 0.807282 0.096989
0.784544 0.808815 0.102637
0.817416 0.810194 0.106701
0.848876 0.811265 0.109860
0.878701 0.812273 0.112383
0.907030 0.813132 0.114373
0.933656 0.813822 0.115843
0.958943 0.814413 0.117190
0.974383 0.814676 0.117799
0.159857 0.786309 0.075072
0.178421 0.787005 0.073552
0.198944 0.788113 0.071740
0.222389 0.789625 0.069172
0.248541 0.791201 0.066084
0.276786 0.793257 0.062504
0.306647 0.795573 0.058569
0.337564 0.798094 0.054212
0.369370 0.800633 0.049557
0.401482 0.803227 0.045652
0.434450 0.805765 0.044452
0.468792 0.808216 0.044722
0.504132 0.810737 0.046225
0.539777 0.813185 0.048756
0.573146 0.815306 0.052429
0.597960 0.816873 0.056207
0.612922 0.817756 0.059155
0.622356 0.818260 0.061367
0.630454 0.818764 0.063727
0.641573 0.819418 0.069853
0.659741 0.820377 0.078859
0.687013 0.821907 0.089423
0.719175 0.823498 0.097346
0.752720 0.825011 0.102730
0.786309 0.826389 0.106841
0.819245 0.827666 0.110014
0.850786 0.828721 0.112538
0.880706 0.829578 0.114678
0.909118 0.830344 0.116170
0.935752 0.830938 0.117445
0.961038 0.831447 0.118370
0.976478 0.831707 0.118713
0.157407 0.805286 0.067762
0.176659 0.806050 0.066422
0.197262 0.807078 0.064611
0.220901 0.808439 0.062043
0.247304 0.810178 0.058978
0.275718 0.812204 0.055538
0.305687 0.814368 0.051546
0.336848 0.816848 0.047597
0.368954 0.819182 0.044773
0.401636 0.821516 0.044159
0.434987 0.823829 0.044891
0.469573 0.826120 0.046490
0.505029 0.828524 0.049104
0.540785 0.830867 0.053074
0.574236 0.832809 0.058823
0.599149 0.834250 0.065677
0.614148 0.835132 0.073536
0.623617 0.835625 0.079156
0.631715 0.836047 0.082072
0.642877 0.836701 0.086441
0.661143 0.837615 0.092125
0.688380 0.838997 0.097871
0.720685 0.840529 0.102819
0.754303 0.841907 0.106840
0.788033 0.843184 0.110013
0.821009 0.844298 0.112682
0.852550 0.845319 0.114707
0.882690 0.846114 0.116388
0.910971 0.846871 0.117533
0.937757 0.847398 0.118437
0.963055 0.847903 0.119201
0.978495 0.848163 0.119288
0.154697 0.824192 0.060451
0.174523 0.824962 0.059175
0.195337 0.826169 0.057376
0.219394 0.827458 0.054984
0.245887 0.829083 0.051928
0.274520 0.831100 0.048563
0.304648 0.833175 0.045274
0.336570 0.835445 0.044456
0.369114 0.837567 0.044299
0.402095 0.839781 0.045279
0.435511 0.841916 0.046918
0.470208 0.844117 0.049624
0.505810 0.846285 0.053719
0.541684 0.848486 0.060183
0.575358 0.850392 0.072246
0.600410 0.851802 0.083999
0.615408 0.852587 0.089256
0.624877 0.852984 0.092307
0.633085 0.853377 0.094154
0.644326 0.854031 0.096400
0.662633 0.854945 0.099426
0.689850 0.856156 0.103231
0.722179 0.857473 0.106911
0.755956 0.858890 0.110153
0.789783 0.860053 0.112725
0.822774 0.861074 0.114910
0.854473 0.862082 0.116585
0.884533 0.862878 0.117777
0.912913 0.863463 0.118629
0.939769 0.864149 0.119213
0.964889 0.864483 0.119592
0.980511 0.864737 0.119603
0.151727 0.843885 0.053141
0.172071 0.844651 0.051865
0.193328 0.845721 0.050069
0.217507 0.847024 0.047748
0.244261 0.848726 0.045200
0.273616 0.850400 0.044582
0.304574 0.852387 0.044229
0.336628 0.854283 0.044780
0.369577 0.856312 0.045983
0.402600 0.858364 0.047800
0.436079 0.860396 0.050505
0.470928 0.862514 0.054685
0.506642 0.864676 0.061593
0.542743 0.866639 0.074519
0.576499 0.868431 0.088727
0.601568 0.869746 0.095381
0.616669 0.870401 0.098093
0.626137 0.870879 0.099589
0.634377 0.871247 0.100784
0.645642 0.871819 0.102218
0.663949 0.872732 0.104476
0.691299 0.873906 0.107458
0.723691 0.875166 0.110282
0.757655 0.876462 0.112914
0.791548 0.877545 0.114965
0.824538 0.878554 0.116631
0.856284 0.879397 0.117831
0.886305 0.880161 0.118855
0.914727 0.880696 0.119287
0.941589 0.881245 0.119592
0.966845 0.881706 0.119657
0.982528 0.881965 0.119461
0.148293 0.864619 0.045626
0.169574 0.865178 0.045004
0.191569 0.866202 0.044529
0.216578 0.867470 0.044367
0.243948 0.868833 0.044214
0.273465 0.870391 0.044709
0.304652 0.872189 0.045643
0.336855 0.874008 0.046946
0.369930 0.875972 0.049073
0.403163 0.877837 0.052167
0.436803 0.879853 0.056614
0.471757 0.881811 0.065310
0.507621 0.883721 0.079231
0.543771 0.885636 0.091017
0.577626 0.887308 0.098203
0.602804 0.888487 0.101947
0.617929 0.889117 0.103813
0.627510 0.889621 0.104868
0.635723 0.889984 0.105683
0.647028 0.890410 0.106779
0.665414 0.891244 0.108578
0.692935 0.892418 0.110868
0.725409 0.893533 0.113203
0.759256 0.894734 0.115208
0.793266 0.895805 0.116845
0.826303 0.896814 0.118036
0.858049 0.897617 0.118888
0.888248 0.898373 0.119506
0.916696 0.898909 0.119615
0.943558 0.899413 0.119656
0.968861 0.899719 0.119262
0.984544 0.899972 0.119004
0.147103 0.885966 0.044232
0.168971 0.886486 0.044181
0.191091 0.887497 0.044592
0.216280 0.888558 0.045084
0.243948 0.889850 0.045834
0.273499 0.891367 0.047042
0.304872 0.892954 0.048660
0.337155 0.894725 0.051183
0.370405 0.896514 0.054660
0.403741 0.898288 0.059937
0.437628 0.900154 0.070360
0.472740 0.902084 0.085323
0.508712 0.903860 0.093975
0.544992 0.905644 0.100036
0.578961 0.907202 0.104258
0.604277 0.908244 0.106943
0.619402 0.908874 0.108268
0.628888 0.909261 0.109055
