gsg/04_Specialty/GSG_LUT_Specialty_RoseGlasses.cube
# GSG LUTs 1.0
# Copyright (c) 2016-2020 Greyscalegorilla
# See EULA for licensing and distribution information
# Converted by Briz LUT Converter
LUT_3D_SIZE 8
DOMAIN_MIN 0.000000 0.000000 0.000000
DOMAIN_MAX 0.903226 0.903226 0.903226
0.000000 0.000000 0.000000
0.135200 0.003269 0.017385
0.269810 0.006538 0.034834
0.413951 0.009902 0.053322
0.559904 0.013447 0.072236
0.696443 0.016834 0.089858
0.813447 0.019615 0.104967
0.905069 0.021687 0.116736
0.062941 0.106755 0.059183
0.156946 0.126374 0.048911
0.287463 0.129237 0.061530
0.430166 0.131360 0.077396
0.575911 0.133230 0.094340
0.712513 0.135019 0.110651
0.829926 0.136571 0.124693
0.921432 0.137823 0.136054
0.125464 0.213281 0.118193
0.194925 0.241436 0.106433
0.313308 0.252456 0.097569
0.451667 0.255969 0.110102
0.594675 0.258475 0.124912
0.729716 0.260522 0.139794
0.845957 0.262106 0.152954
0.937274 0.263358 0.163571
0.192509 0.327205 0.181386
0.251474 0.356840 0.172879
0.348768 0.379207 0.151690
0.480688 0.387401 0.149692
0.620086 0.391217 0.161731
0.752798 0.393934 0.174776
0.867596 0.395835 0.186816
0.956664 0.398140 0.195825
0.260333 0.442688 0.245421
0.314001 0.472189 0.238457
0.396712 0.499249 0.222683
0.514908 0.517792 0.196687
0.650100 0.524028 0.202464
0.775276 0.530810 0.210275
0.874533 0.542597 0.211829
0.952692 0.552050 0.212989
0.323825 0.550467 0.305282
0.374007 0.580059 0.298786
0.449033 0.609021 0.285956
0.549398 0.634745 0.262860
0.662552 0.657760 0.233620
0.774367 0.673063 0.230344
0.871893 0.685513 0.230167
0.949238 0.695080 0.230415
0.378250 0.643042 0.356438
0.423920 0.673096 0.349495
0.486022 0.706708 0.335134
0.569187 0.739683 0.314072
0.668942 0.768840 0.286132
0.775931 0.791559 0.255585
0.872449 0.805593 0.248532
0.948600 0.815571 0.247971
0.411154 0.718516 0.391083
0.452935 0.749471 0.384001
0.511684 0.784538 0.371033
0.588895 0.819889 0.351240
0.681772 0.851644 0.327218
0.780447 0.877806 0.299201
0.873824 0.897126 0.272357
0.949819 0.908740 0.263187
0.013872 0.010052 0.071251
0.139067 0.004826 0.135031
0.273875 0.007365 0.148340
0.417752 0.010816 0.162795
0.563567 0.014314 0.178242
0.699902 0.017587 0.193036
0.816747 0.020355 0.206223
0.908318 0.022451 0.216632
0.077545 0.113049 0.121631
0.163314 0.127260 0.153865
0.295018 0.128662 0.166761
0.437145 0.130651 0.180861
0.581700 0.132723 0.196006
0.717468 0.134925 0.210676
0.833756 0.136770 0.223424
0.924869 0.138271 0.233609
0.141290 0.217283 0.180803
0.208027 0.240203 0.198431
0.319274 0.253458 0.193462
0.459148 0.255716 0.205726
0.602915 0.257501 0.219730
0.738252 0.259113 0.233658
0.854613 0.260560 0.245866
0.945885 0.261638 0.255611
0.209048 0.329564 0.243743
0.270550 0.352768 0.258363
0.354291 0.380694 0.241681
0.485897 0.388467 0.240162
0.626248 0.391478 0.251853
0.759624 0.393669 0.264369
0.874727 0.395288 0.275774
0.962548 0.398293 0.283404
0.277963 0.443483 0.307739
0.335233 0.467157 0.319469
0.406027 0.499036 0.307822
0.519544 0.519398 0.283101
0.654990 0.525105 0.288920
0.777376 0.533751 0.294471
0.876556 0.545504 0.295993
0.954969 0.554711 0.297168
0.342600 0.550010 0.367840
0.396327 0.574173 0.377126
0.461299 0.607465 0.367531
0.552830 0.636962 0.346174
0.663311 0.661270 0.316850
0.775218 0.676499 0.313184
0.873119 0.688829 0.313119
0.950607 0.698271 0.313504
0.398085 0.641357 0.419480
0.445085 0.667619 0.424835
0.499113 0.704752 0.413786
0.575699 0.740633 0.395331
0.671460 0.771340 0.369387
0.776779 0.794723 0.339032
0.873079 0.808949 0.331125
0.949603 0.818890 0.330415
0.428729 0.717563 0.452141
0.475357 0.743410 0.458254
0.526798 0.781666 0.447990
0.598030 0.819562 0.431252
0.686184 0.853313 0.408707
0.782369 0.880535 0.382390
0.874593 0.900379 0.354806
0.950583 0.912041 0.345383
0.027988 0.019922 0.142148
0.129055 0.022932 0.215251
0.277914 0.009537 0.270086
0.422569 0.011824 0.284470
0.568152 0.015250 0.298350
0.704242 0.018362 0.311779
0.820899 0.021198 0.323706
0.912466 0.023459 0.333144
0.089456 0.122919 0.186664
0.165086 0.139112 0.229931
0.299170 0.129956 0.286828
0.441976 0.131230 0.300693
0.586285 0.133433 0.314373
0.721809 0.135476 0.327748
0.837890 0.137424 0.339580
0.929120 0.138942 0.348955
0.154846 0.225688 0.242845
0.222829 0.246099 0.266620
0.326306 0.253923 0.308163
0.466722 0.255252 0.321406
0.609799 0.257175 0.334940
0.744320 0.259011 0.348158
0.859819 0.260718 0.359824
0.950509 0.262011 0.369018
0.223554 0.336705 0.306124
0.288562 0.356168 0.328379
0.364103 0.381326 0.345466
0.493738 0.388965 0.347790
0.635612 0.390752 0.360150
0.769548 0.392264 0.372750
0.884650 0.393703 0.383875
0.968566 0.399643 0.388667
0.291930 0.450235 0.370152
0.354517 0.468994 0.390839
0.424324 0.495921 0.405902
0.525339 0.521320 0.386351
0.661038 0.526474 0.392509
0.780048 0.537168 0.396194
0.879717 0.548571 0.397981
0.958300 0.557619 0.399508
0.356123 0.556611 0.429791
0.416803 0.574925 0.449573
0.483032 0.602764 0.462158
0.558443 0.639318 0.445408
0.664359 0.665636 0.417225
0.776526 0.680866 0.413178
0.874690 0.692833 0.413430
0.952504 0.702005 0.413929
0.409086 0.648495 0.479742
0.463414 0.668856 0.495577
0.522618 0.699414 0.505305
0.587108 0.740284 0.491540
0.675504 0.774182 0.468781
0.777837 0.798931 0.439681
0.874130 0.813310 0.430514
0.950843 0.823208 0.429806
0.438686 0.724928 0.511978
0.492765 0.745241 0.527473
0.552676 0.774976 0.538369
0.613180 0.817534 0.526182
0.693602 0.854657 0.506686
0.785112 0.883812 0.481658
0.875628 0.904296 0.455491
0.951585 0.916381 0.444480
0.042688 0.030494 0.218024
0.133387 0.036650 0.292986
0.261212 0.030772 0.360378
0.426989 0.014119 0.415109
0.573532 0.016346 0.429595
0.709465 0.019615 0.442058
0.826035 0.022280 0.453196
0.917372 0.024467 0.462106
0.103092 0.133247 0.257497
0.175910 0.149297 0.303685
0.287333 0.148276 0.376129
0.446601 0.132790 0.430543
0.591768 0.134223 0.444506
0.726952 0.136240 0.456926
0.843017 0.138230 0.468045
0.934001 0.139681 0.476869
0.167112 0.236354 0.311930
0.234950 0.256150 0.335875
0.322860 0.267883 0.395132
0.471647 0.256463 0.450281
0.615143 0.257792 0.463743
0.749451 0.259713 0.476143
0.864846 0.261320 0.487053
0.955426 0.262594 0.495875
0.237547 0.346331 0.372392
0.301839 0.365644 0.394762
0.377801 0.388022 0.422735
0.501224 0.389098 0.473612
0.642727 0.390667 0.486372
0.775998 0.392340 0.498670
0.888508 0.395430 0.508158
0.968923 0.403932 0.510236
0.307927 0.458260 0.436356
0.369995 0.476811 0.457743
0.444098 0.499035 0.483364
0.532958 0.522932 0.501856
0.667742 0.528200 0.509497
0.784546 0.540220 0.512081
0.884563 0.551342 0.513997
0.963408 0.560309 0.515504
0.371649 0.564286 0.496719
0.431917 0.582314 0.517127
0.502780 0.605273 0.540560
0.573105 0.638513 0.553126
0.665561 0.670647 0.530149
0.777925 0.685724 0.525715
0.876850 0.697264 0.526439
0.955169 0.706196 0.527385
0.421048 0.657293 0.545081
0.474930 0.677553 0.561769
0.540730 0.702706 0.581566
0.610168 0.735720 0.595546
0.683070 0.776315 0.579274
0.779128 0.803611 0.552559
0.875301 0.818404 0.542313
0.952173 0.828003 0.541931
0.450337 0.733687 0.577580
0.504171 0.753838 0.593899
0.570052 0.778991 0.613400
0.639818 0.811437 0.628294
0.706253 0.854587 0.614840
0.789756 0.887069 0.593500
0.876827 0.909045 0.568420
0.952599 0.921423 0.555908
0.057812 0.041309 0.294923
0.142628 0.048856 0.369955
0.257590 0.047911 0.441833
0.407013 0.036624 0.509384
0.578114 0.018574 0.562164
0.715226 0.020867 0.575585
0.831596 0.023459 0.586041
0.922793 0.025613 0.594486
0.117208 0.143818 0.329812
0.188385 0.159208 0.378907
0.288699 0.162724 0.454707
0.429480 0.153196 0.525067
0.596728 0.135597 0.576855
0.732669 0.137107 0.589655
0.848490 0.138993 0.600139
0.939418 0.140531 0.608553
0.180401 0.246831 0.383078
0.247953 0.266210 0.407002
0.330721 0.279374 0.470406
0.458207 0.274697 0.544590
0.620451 0.258886 0.595544
0.755059 0.260351 0.607795
0.870282 0.262057 0.618328
0.960715 0.263358 0.626728
0.249738 0.357101 0.442176
0.313848 0.376029 0.464567
0.390012 0.397799 0.493099
0.493707 0.404149 0.566654
0.648523 0.391333 0.617622
0.781583 0.393034 0.629320
0.889127 0.399630 0.635222
0.968335 0.408988 0.636562
0.321320 0.468478 0.503618
0.382804 0.486951 0.525005
0.456442 0.509025 0.551055
0.540655 0.531311 0.588568
0.669201 0.531988 0.635433
0.785613 0.544267 0.637247
0.886284 0.555144 0.638880
0.965500 0.563981 0.640214
0.388150 0.572694 0.563078
0.447903 0.590623 0.583639
0.515501 0.614823 0.606370
0.589886 0.643628 0.630866
0.669211 0.675071 0.646305
0.780504 0.690443 0.643318
0.880382 0.701230 0.644985
0.959200 0.709742 0.646338
0.433490 0.666856 0.610582
0.487274 0.686998 0.627843
0.552871 0.712032 0.648911
0.627219 0.740754 0.672370
0.701100 0.774432 0.688819
0.781350 0.808466 0.669375
0.876495 0.823791 0.658399
0.953878 0.833097 0.658363
0.462460 0.743034 0.643767
0.516373 0.763169 0.660754
0.582116 0.788078 0.681433
0.656484 0.816709 0.704218
0.730326 0.850000 0.721369
0.798080 0.889126 0.707407
0.878717 0.913816 0.685144
0.953608 0.926942 0.671716
0.072047 0.051392 0.366844
0.153022 0.059735 0.440890
0.260535 0.061412 0.515857
0.397324 0.055319 0.587621
0.557890 0.039986 0.652944
0.720161 0.022379 0.700326
0.837000 0.024656 0.711202
0.928079 0.026728 0.719367
0.130734 0.153733 0.397719
0.200508 0.168611 0.448860
0.295035 0.174228 0.526451
0.422866 0.170102 0.601546
0.578178 0.155497 0.667947
0.737879 0.138205 0.714352
0.853967 0.139761 0.724668
0.944727 0.141305 0.732813
0.193224 0.256757 0.450202
0.260255 0.275647 0.473985
0.340776 0.289142 0.540122
0.455712 0.289630 0.619048
0.604118 0.277366 0.687175
0.760538 0.261129 0.732058
0.875686 0.262815 0.742229
0.965854 0.264228 0.750125
0.261830 0.367039 0.508332
0.325745 0.385679 0.530766
0.401768 0.406998 0.559660
0.497300 0.416329 0.638139
0.634950 0.407996 0.709758
0.785705 0.394665 0.752071
0.888558 0.404598 0.755006
0.967826 0.413956 0.756184
0.332530 0.478604 0.568776
0.393868 0.496745 0.590046
0.467662 0.518555 0.616351
0.550570 0.541001 0.654728
0.654566 0.550393 0.721555
0.785049 0.549012 0.756924
0.885691 0.559865 0.758447
0.965009 0.568561 0.759717
0.399693 0.582670 0.626477
0.457261 0.601382 0.646111
0.523691 0.626169 0.667932
0.598535 0.654666 0.692678
0.676913 0.684162 0.720278
0.781774 0.694435 0.759962
0.882831 0.704643 0.761890
0.962175 0.712963 0.763149
0.445385 0.676387 0.670755
0.499189 0.696471 0.688353
0.564787 0.721399 0.709912
0.639076 0.749925 0.734453
0.716432 0.780052 0.759908
0.788694 0.810997 0.777143
0.878108 0.828784 0.768832
0.956418 0.837348 0.769623
0.474316 0.752317 0.704975
0.528094 0.772324 0.722234
0.593814 0.797164 0.743566
0.668090 0.825588 0.767607
0.745508 0.855684 0.792240
0.816679 0.886824 0.810086
0.881875 0.917915 0.795442
0.954637 0.932217 0.781512
0.084131 0.059876 0.428469
0.162598 0.068581 0.502274
0.265461 0.072234 0.577545
0.394996 0.068835 0.652815
0.545131 0.057722 0.722056
0.702191 0.040529 0.780362
0.841767 0.025750 0.818734
0.932882 0.027736 0.826720
0.142376 0.162354 0.455819
0.210998 0.176722 0.508933
0.302432 0.183380 0.587375
0.422879 0.182113 0.665477
0.567092 0.172169 0.736192
0.721420 0.154888 0.795171
0.858654 0.140519 0.831990
0.949422 0.142051 0.839891
0.204481 0.265154 0.507803
0.271095 0.283854 0.531560
0.350064 0.297119 0.600141
0.458737 0.300221 0.681352
0.595050 0.292961 0.754023
0.745441 0.276945 0.813683
0.880487 0.263347 0.848887
0.969350 0.265790 0.855921
0.272522 0.375503 0.565347
0.336212 0.393835 0.587779
0.412081 0.414949 0.616959
0.504030 0.425388 0.698132
0.628946 0.422333 0.774709
0.769012 0.411677 0.832235
0.888095 0.408996 0.858250
0.967325 0.418299 0.859430
0.342726 0.487192 0.625137
0.403849 0.505161 0.646524
0.477663 0.526519 0.672803
0.558644 0.549997 0.710405
0.651173 0.565002 0.778550
0.767596 0.567102 0.832564
0.885180 0.564047 0.861589
0.964518 0.572660 0.862843
0.408819 0.591642 0.681886
0.464281 0.611154 0.700326
0.530403 0.636031 0.721982
0.605495 0.664337 0.746946
0.684089 0.693727 0.774534
0.771412 0.709816 0.830304
0.882043 0.708800 0.864697
0.961674 0.716871 0.866139
0.452073 0.686337 0.723518
0.506022 0.706348 0.741126
0.572043 0.731073 0.762574
0.646676 0.759455 0.787142
0.724542 0.789268 0.812752
0.798696 0.817819 0.837481
0.879403 0.832500 0.867290
0.959160 0.840189 0.869164
0.484761 0.760466 0.756480
0.538488 0.780482 0.773957
0.604106 0.805317 0.795562
0.678377 0.833729 0.820088
0.755689 0.863590 0.845763
0.829290 0.892192 0.869937
0.891604 0.918673 0.886910
0.955648 0.936757 0.876338
0.093584 0.066769 0.476663
0.170620 0.075345 0.550932
0.270688 0.080052 0.626338
0.395485 0.078368 0.703175
0.539135 0.070050 0.774370
0.688453 0.056120 0.835067
0.827893 0.039422 0.883085
0.936723 0.028503 0.910909
0.151577 0.169002 0.501453
0.219401 0.182775 0.557318
0.308832 0.190358 0.635021
0.424972 0.190749 0.714491
0.562473 0.183666 0.787465
0.708205 0.170115 0.849209
0.846412 0.152797 0.897833
0.953200 0.142589 0.923857
0.213210 0.271803 0.553135
0.279497 0.290254 0.576843
0.357696 0.303575 0.647051
0.462710 0.307997 0.728886
0.592481 0.303403 0.804740
0.733914 0.291150 0.867822
0.869440 0.274778 0.915840
0.969599 0.269122 0.937653
0.281059 0.382118 0.610263
0.344413 0.400236 0.632592
0.420177 0.421178 0.662197
0.510270 0.432052 0.745042
0.628829 0.431570 0.824372
0.755167 0.428112 0.882621
0.872892 0.423562 0.921755
0.966928 0.421868 0.940707
0.350774 0.493824 0.669518
0.411902 0.511549 0.690793
0.485651 0.532850 0.717131
0.564595 0.557699 0.752789
0.652451 0.574873 0.821800
0.758473 0.581377 0.880120
0.869500 0.579036 0.922455
0.964058 0.575934 0.943976
0.415069 0.598976 0.724959
0.469576 0.618819 0.742929
0.535882 0.643683 0.764781
0.611075 0.671869 0.789814
0.689947 0.701224 0.817266
0.771210 0.720052 0.874216
0.868297 0.723325 0.922474
0.961161 0.720097 0.947153
0.456956 0.694238 0.765828
0.511068 0.714254 0.783308
0.576983 0.738959 0.804884
0.651781 0.767309 0.829389
0.729803 0.796955 0.855253
0.804321 0.825208 0.880208
0.873887 0.843801 0.919503
0.958528 0.843559 0.950018
0.489818 0.768485 0.797976
0.543950 0.788299 0.815453
0.609800 0.812960 0.836860
0.684412 0.841112 0.861376
0.762272 0.870830 0.886841
0.836227 0.899279 0.911245
0.900291 0.924021 0.932475
0.956680 0.939995 0.952088
