gsg/04_Specialty/GSG_LUT_Specialty_AfterSchoolSpecial.cube
# GSG LUTs 1.0
# Copyright (c) 2016-2020 Greyscalegorilla
# See EULA for licensing and distribution information
# Converted by Briz LUT Converter
LUT_3D_SIZE 5
DOMAIN_MIN 0.000000 0.000000 0.000000
DOMAIN_MAX 0.903226 0.903226 0.903226
0.074237 0.100122 0.107937
0.118201 0.113049 0.119343
0.213250 0.143818 0.148482
0.365190 0.189578 0.192832
0.582457 0.249651 0.251384
0.138469 0.210241 0.163346
0.181512 0.218997 0.167761
0.283951 0.245626 0.190122
0.451422 0.287912 0.227870
0.692147 0.345115 0.280591
0.209295 0.362346 0.225594
0.251257 0.369136 0.222473
0.360513 0.393903 0.237378
0.542995 0.434779 0.268447
0.776707 0.488267 0.325886
0.277262 0.554240 0.284737
0.317259 0.559624 0.273778
0.432841 0.576419 0.293930
0.600502 0.605339 0.346686
0.798654 0.652976 0.418622
0.349309 0.772839 0.350262
0.411249 0.759620 0.369903
0.526735 0.767372 0.410624
0.681878 0.796014 0.472204
0.861292 0.843609 0.552714
0.090228 0.115081 0.173122
0.133160 0.125932 0.181390
0.229052 0.154484 0.207445
0.383221 0.198291 0.248614
0.604178 0.256355 0.304132
0.148934 0.220571 0.221009
0.191125 0.227297 0.222240
0.294057 0.251786 0.241177
0.463811 0.292000 0.275928
0.708354 0.347205 0.325660
0.214069 0.369025 0.275300
0.254956 0.373739 0.268969
0.364845 0.396412 0.280733
0.547682 0.434866 0.309615
0.767157 0.486073 0.368742
0.275905 0.557493 0.326261
0.316092 0.559857 0.313716
0.432663 0.571565 0.337361
0.596225 0.600370 0.385907
0.789153 0.648068 0.453406
0.355416 0.766647 0.396059
0.415542 0.753148 0.410957
0.528152 0.760772 0.447034
0.679289 0.789499 0.504066
0.853326 0.837118 0.580062
0.111080 0.134901 0.260034
0.152980 0.143212 0.267068
0.249166 0.169499 0.291835
0.405325 0.211131 0.331833
0.629903 0.267076 0.386459
0.163826 0.235433 0.304092
0.204829 0.239805 0.303953
0.308210 0.261997 0.321776
0.479977 0.299905 0.355391
0.728134 0.352972 0.404093
0.222677 0.379905 0.354306
0.262528 0.382196 0.346802
0.372884 0.402484 0.357256
0.550919 0.437717 0.387298
0.761451 0.488241 0.440947
0.278069 0.564477 0.400937
0.320576 0.562133 0.389984
0.436819 0.570948 0.410284
0.596176 0.599693 0.451137
0.783768 0.647355 0.510890
0.366127 0.764827 0.471443
0.424388 0.750946 0.478305
0.533635 0.758189 0.506370
0.680736 0.786762 0.555681
0.849322 0.834356 0.624112
0.135815 0.158360 0.367450
0.176194 0.164142 0.374517
0.272551 0.187896 0.399393
0.430550 0.226957 0.439482
0.658608 0.280610 0.494427
0.181929 0.253639 0.410148
0.221602 0.255270 0.410100
0.325235 0.274938 0.428083
0.498736 0.310435 0.461761
0.747926 0.361493 0.510623
0.234259 0.393422 0.458939
0.272740 0.393216 0.451544
0.383224 0.410946 0.462111
0.555540 0.443753 0.489328
0.759725 0.494470 0.534765
0.283331 0.573499 0.504021
0.331271 0.565719 0.493070
0.444992 0.574343 0.504918
0.600584 0.603332 0.537116
0.783009 0.651190 0.588258
0.380645 0.767112 0.568467
0.437305 0.753066 0.566366
0.543857 0.760326 0.585633
0.687077 0.789109 0.626395
0.850546 0.836899 0.686165
0.163236 0.184726 0.494639
0.202261 0.187850 0.502737
0.298573 0.208807 0.528678
0.458112 0.245146 0.570090
0.689267 0.296420 0.626295
0.202615 0.274345 0.538089
0.240742 0.273200 0.539156
0.344369 0.290102 0.558107
0.519462 0.322941 0.593042
0.764386 0.372683 0.640831
0.247976 0.409138 0.587423
0.284813 0.406108 0.581111
0.394955 0.420989 0.590872
0.562485 0.453268 0.609490
0.761924 0.504346 0.645359
0.292205 0.583844 0.632369
0.345614 0.572621 0.614248
0.456895 0.581378 0.616238
0.608869 0.610853 0.638949
0.786442 0.659269 0.680561
0.398947 0.773036 0.682403
0.454257 0.759027 0.670411
0.558210 0.766590 0.679780
0.697831 0.795943 0.710943
0.856500 0.844269 0.761261
