gsg/04_Specialty/GSG_LUT_Specialty_HazyHeat.cube
# GSG LUTs 1.0
# Copyright (c) 2016-2020 Greyscalegorilla
# See EULA for licensing and distribution information
# Converted by Briz LUT Converter
LUT_3D_SIZE 32
0.000000 0.000000 0.000000
0.029162 0.000000 0.000000
0.056087 0.000000 0.000000
0.086675 0.000000 0.000000
0.121746 0.000000 0.000000
0.148765 0.000000 0.000000
0.178668 0.000000 0.000000
0.207224 0.000000 0.000000
0.234070 0.000000 0.000000
0.266328 0.000000 0.000000
0.299382 0.000000 0.000000
0.330096 0.000000 0.000000
0.359935 0.000000 0.000000
0.391737 0.000000 0.000000
0.422711 0.000000 0.000000
0.455150 0.000000 0.000000
0.489054 0.000000 0.000000
0.522817 0.000000 0.000000
0.556202 0.000000 0.000000
0.589027 0.000000 0.000000
0.624223 0.000000 0.000000
0.658710 0.000000 0.000000
0.690598 0.000000 0.000000
0.721494 0.000000 0.000000
0.750924 0.000000 0.000000
0.779519 0.000000 0.000000
0.807594 0.000000 0.000000
0.835149 0.000000 0.000000
0.859979 0.000000 0.000000
0.885116 0.000000 0.000000
0.910796 0.000000 0.000000
0.936752 0.000000 0.000000
0.000205 0.023349 0.000000
0.028333 0.021316 0.000000
0.056351 0.019804 0.000000
0.086201 0.018599 0.000000
0.117505 0.017784 0.000000
0.147399 0.016636 0.000000
0.176776 0.016058 0.000000
0.205602 0.016508 0.000000
0.233987 0.017325 0.000000
0.263780 0.016633 0.000000
0.296157 0.015264 0.000000
0.326700 0.013776 0.000000
0.356014 0.010573 0.000000
0.387820 0.005074 0.000202
0.419673 0.001619 0.000591
0.453099 0.000248 0.000374
0.485983 0.000081 0.000000
0.519405 0.000018 0.000000
0.554786 0.000000 0.000000
0.587517 0.000000 0.000000
0.620288 0.000000 0.000000
0.654561 0.000000 0.000000
0.687862 0.000000 0.000000
0.718295 0.000000 0.000000
0.747991 0.000000 0.000000
0.776353 0.000000 0.000000
0.803507 0.000000 0.000000
0.830073 0.000000 0.000000
0.856117 0.000000 0.000000
0.881626 0.000000 0.000000
0.908016 0.000000 0.000000
0.936634 0.000000 0.000000
0.006806 0.043925 0.000000
0.031977 0.040836 0.000031
0.057636 0.038849 0.000015
0.085494 0.037832 0.000000
0.116135 0.037154 0.000000
0.145283 0.037087 0.000000
0.174023 0.036206 0.000000
0.202935 0.035935 0.000000
0.232096 0.036646 0.000000
0.261674 0.036740 0.000000
0.294566 0.034488 0.000000
0.325182 0.031075 0.000000
0.353840 0.026330 0.000000
0.385532 0.020391 0.000096
0.417734 0.015289 0.000332
0.450455 0.008740 0.000236
0.483030 0.003182 0.000000
0.516677 0.000814 0.000000
0.551332 0.000069 0.000000
0.583585 0.000006 0.000000
0.617420 0.000000 0.000000
0.651662 0.000000 0.000000
0.684256 0.000000 0.000000
0.715278 0.000000 0.000000
0.745405 0.000000 0.000000
0.773639 0.000000 0.000000
0.800565 0.000000 0.000000
0.827754 0.000000 0.000000
0.854309 0.000000 0.000000
0.879861 0.000000 0.000000
0.905748 0.000000 0.000000
0.932821 0.000000 0.000000
0.013975 0.067289 0.000000
0.038547 0.062644 0.000598
0.061659 0.060015 0.000317
0.086549 0.058349 0.000000
0.114347 0.057222 0.000000
0.143731 0.058481 0.000000
0.172629 0.058229 0.000000
0.201660 0.057389 0.000000
0.230518 0.057324 0.000000
0.259779 0.058103 0.000000
0.292993 0.055692 0.000000
0.323724 0.051760 0.000000
0.352164 0.047405 0.000000
0.383422 0.042171 0.000000
0.415059 0.035650 0.000000
0.447456 0.026577 0.000000
0.481064 0.014908 0.000000
0.515126 0.005560 0.000000
0.548320 0.001323 0.000000
0.580008 0.000122 0.000000
0.615010 0.000000 0.000000
0.649589 0.000000 0.000000
0.681281 0.000000 0.000000
0.712488 0.000000 0.000000
0.742686 0.000000 0.000000
0.771112 0.000000 0.000000
0.798322 0.000000 0.000000
0.826112 0.000000 0.000000
0.852414 0.000000 0.000000
0.877887 0.000000 0.000000
0.903176 0.000000 0.000000
0.928701 0.000000 0.000000
0.020087 0.094230 0.000000
0.045363 0.088343 0.001600
0.068597 0.084275 0.001083
0.090115 0.080983 0.000000
0.111602 0.077851 0.000000
0.143878 0.078994 0.000000
0.173488 0.079756 0.000000
0.202290 0.079509 0.000000
0.230490 0.078574 0.000000
0.257537 0.079108 0.000000
0.289988 0.077416 0.000000
0.321053 0.075501 0.000000
0.349766 0.073284 0.000000
0.380102 0.068316 0.000000
0.410969 0.061116 0.000000
0.444761 0.054307 0.000000
0.480027 0.039499 0.000000
0.514267 0.020314 0.000000
0.547441 0.009264 0.000000
0.579218 0.004659 0.000000
0.613300 0.002602 0.000000
0.647598 0.001207 0.000000
0.679691 0.000448 0.000000
0.709627 0.000073 0.000000
0.739834 0.000000 0.000000
0.768733 0.000000 0.000000
0.796419 0.000000 0.000000
0.823928 0.000000 0.000000
0.849181 0.000000 0.000000
0.874164 0.000000 0.000000
0.899945 0.000000 0.000000
0.926118 0.000000 0.000000
0.029666 0.117657 0.000551
0.047886 0.114145 0.001085
0.068455 0.111161 0.000727
0.091931 0.108133 0.000079
0.117794 0.104970 0.000074
0.142135 0.103727 0.000033
0.169059 0.102281 0.000000
0.196959 0.102271 0.000000
0.224950 0.103450 0.000000
0.254629 0.101839 0.000000
0.286516 0.101067 0.000025
0.317324 0.100902 0.000149
0.346931 0.099795 0.000199
0.377479 0.096160 0.000046
0.409063 0.090571 0.000000
0.443023 0.082640 0.000000
0.476302 0.075606 0.000000
0.508604 0.066705 0.000000
0.542622 0.052766 0.000000
0.577116 0.039778 0.000000
0.611574 0.025625 0.000000
0.644282 0.014005 0.000000
0.675425 0.007561 0.000000
0.706753 0.003921 0.000000
0.736337 0.001718 0.000000
0.764757 0.001490 0.000000
0.792620 0.001866 0.000000
0.820321 0.000729 0.000000
0.846870 0.001690 0.000000
0.872262 0.002033 0.000000
0.897353 0.003230 0.000000
0.923132 0.006853 0.000000
0.045153 0.142550 0.004222
0.056874 0.138807 0.001962
0.074238 0.135994 0.000999
0.095674 0.133277 0.000648
0.119463 0.130280 0.000782
0.143843 0.128142 0.000496
0.168976 0.126053 0.000313
0.195437 0.125299 0.000183
0.223480 0.125702 0.000000
0.252602 0.123941 0.000000
0.283108 0.123218 0.000173
0.314369 0.123085 0.000986
0.345163 0.122649 0.001313
0.375411 0.120994 0.000311
0.407326 0.117381 0.000000
0.441320 0.110260 0.000000
0.473891 0.106267 0.000000
0.505358 0.102449 0.000000
0.538848 0.091691 0.000000
0.572878 0.079479 0.000000
0.608712 0.061526 0.000000
0.642580 0.045673 0.000000
0.673284 0.036183 0.000000
0.703217 0.028444 0.000000
0.733448 0.016621 0.000000
0.762452 0.014569 0.000000
0.790476 0.016977 0.000000
0.817975 0.010204 0.000000
0.843993 0.016153 0.000000
0.869759 0.018674 0.000000
0.895520 0.027128 0.000000
0.920406 0.051802 0.000000
0.053385 0.168372 0.008508
0.067920 0.163257 0.003432
0.082713 0.160443 0.001228
0.100115 0.158060 0.001485
0.121940 0.154166 0.002866
0.147780 0.151405 0.002537
0.171173 0.149325 0.002410
0.196128 0.147848 0.001458
0.224129 0.146520 0.000000
0.252046 0.145514 0.000000
0.281555 0.145410 0.000183
0.312483 0.145885 0.000970
0.343460 0.145580 0.001262
0.373885 0.143688 0.000329
0.405879 0.140910 0.000000
0.439105 0.136411 0.000000
0.471200 0.134093 0.000000
0.502822 0.131780 0.000000
0.535815 0.125020 0.000000
0.568722 0.117114 0.000000
0.604646 0.101292 0.000000
0.639729 0.086450 0.000000
0.671288 0.077525 0.000000
0.700579 0.069846 0.000000
0.731720 0.054764 0.000000
0.761417 0.048914 0.000000
0.789007 0.050650 0.000000
0.816091 0.048847 0.000000
0.841878 0.052416 0.000000
0.867706 0.056622 0.000000
0.893342 0.069195 0.000000
0.917996 0.098263 0.000000
0.054961 0.194210 0.011280
0.076942 0.188018 0.005353
0.091881 0.185004 0.002153
0.106917 0.182330 0.002249
0.127758 0.177835 0.004931
0.150990 0.174491 0.004891
0.173195 0.172455 0.004431
0.197118 0.170368 0.002629
0.224094 0.167723 0.000114
0.251859 0.166692 0.000405
0.281579 0.167621 0.000213
0.311623 0.169509 0.000000
0.341649 0.169196 0.000000
0.372552 0.165206 0.000000
0.404221 0.162310 0.000000
0.436108 0.160694 0.000000
0.468171 0.159645 0.000000
0.500685 0.156744 0.000000
0.533479 0.151964 0.000000
0.566124 0.147616 0.000000
0.600617 0.138144 0.000000
0.635495 0.128482 0.000000
0.668525 0.122859 0.000000
0.698918 0.119827 0.000000
0.730222 0.111136 0.000000
0.759701 0.103259 0.000000
0.787031 0.101934 0.000000
0.813581 0.110517 0.000000
0.840490 0.107946 0.000000
0.865738 0.112973 0.000000
0.890167 0.123891 0.000000
0.916042 0.134688 0.000000
0.070196 0.219268 0.008594
0.082382 0.214083 0.007544
0.101060 0.208801 0.005678
0.119398 0.205092 0.003750
0.132962 0.203961 0.003096
0.152523 0.201260 0.002950
0.174921 0.198925 0.001934
0.198487 0.195967 0.000671
0.222719 0.192133 0.000405
0.249744 0.189699 0.001446
0.279920 0.189009 0.000779
0.310734 0.189692 0.000000
0.340534 0.189365 0.000000
0.370312 0.186996 0.000000
0.401387 0.185611 0.000000
0.433324 0.184592 0.000000
0.466940 0.182775 0.000000
0.500381 0.180181 0.000000
0.532299 0.177386 0.000000
0.564989 0.173835 0.000000
0.600024 0.168960 0.000000
0.634224 0.163281 0.000000
0.665949 0.158579 0.000000
0.695748 0.157013 0.000000
0.725135 0.154055 0.000000
0.754807 0.151999 0.000000
0.783766 0.151525 0.000000
0.810719 0.151539 0.000000
0.837262 0.155694 0.000000
0.861584 0.162299 0.000000
0.886052 0.169257 0.000000
0.913782 0.174706 0.000000
0.078325 0.245153 0.004734
0.089318 0.241228 0.007052
0.108597 0.235903 0.008457
0.127400 0.231849 0.006840
0.140227 0.231152 0.001758
0.159554 0.227026 0.001434
0.179680 0.224640 0.000661
0.201369 0.222140 0.000000
0.225003 0.218627 0.000213
0.251447 0.215600 0.000779
0.279670 0.213324 0.000448
0.309621 0.211951 0.000000
0.339321 0.210857 0.000000
0.368062 0.210195 0.000000
0.399094 0.210580 0.000000
0.431449 0.210650 0.000000
0.464732 0.209174 0.000000
0.497944 0.206554 0.000000
0.530655 0.203781 0.000000
0.563642 0.200748 0.000000
0.598621 0.197546 0.000000
0.632246 0.195321 0.000000
0.663215 0.194416 0.000000
0.693121 0.194265 0.000000
0.721480 0.193503 0.000000
0.750758 0.192950 0.000000
0.780085 0.192455 0.000000
0.807344 0.190941 0.000000
0.832840 0.197794 0.000000
0.857666 0.202987 0.000000
0.882999 0.207082 0.000000
0.909937 0.212643 0.000000
0.084895 0.270172 0.007200
0.099414 0.267442 0.008154
0.115074 0.262783 0.008598
0.130582 0.258794 0.007352
0.145391 0.257288 0.003578
0.164863 0.253328 0.002045
0.185999 0.250311 0.000743
0.207957 0.247241 0.000000
0.230703 0.243781 0.000000
0.255924 0.240775 0.000000
0.281942 0.237661 0.000000
0.309209 0.234765 0.000000
0.337434 0.232928 0.000000
0.366606 0.233290 0.000000
0.397338 0.234433 0.000000
0.430508 0.234388 0.000000
0.463457 0.233433 0.000000
0.495710 0.232016 0.000000
0.528897 0.230009 0.000000
0.561132 0.228649 0.000000
0.595542 0.226573 0.000000
0.628973 0.225663 0.000000
0.659662 0.226290 0.000000
0.689994 0.226282 0.000000
0.719404 0.225412 0.000000
0.748595 0.225896 0.000000
0.776697 0.227302 0.000000
0.802913 0.228095 0.000000
0.828771 0.232838 0.000000
0.854268 0.236860 0.000000
0.879712 0.241585 0.000000
0.905487 0.248848 0.000000
0.091512 0.295853 0.011391
0.109057 0.292828 0.010820
0.121682 0.288809 0.008951
0.133978 0.285173 0.007108
0.149539 0.283009 0.005396
0.166860 0.280143 0.003251
0.189870 0.276773 0.001226
0.214012 0.272727 0.000000
0.236620 0.268649 0.000000
0.260278 0.265497 0.000000
0.285422 0.262326 0.000000
0.310440 0.259083 0.000000
0.336803 0.256599 0.000000
0.366670 0.256006 0.000000
0.396599 0.256412 0.000000
0.429582 0.255623 0.000000
0.462515 0.254944 0.000000
0.494110 0.255014 0.000000
0.526685 0.254857 0.000000
0.558101 0.255778 0.000000
0.592211 0.255409 0.000000
0.625985 0.254209 0.000000
0.657139 0.253507 0.000000
0.687623 0.253260 0.000000
0.718065 0.252886 0.000000
0.747022 0.254692 0.000000
0.774149 0.257601 0.000000
0.799462 0.259836 0.000000
0.825609 0.262822 0.000000
0.851148 0.267491 0.000000
0.876318 0.273770 0.000000
0.901390 0.280988 0.000000
0.095222 0.325149 0.007933
0.111586 0.320115 0.010361
0.125528 0.316151 0.010561
0.139591 0.313311 0.008442
0.155178 0.310932 0.003863
0.170380 0.306772 0.003117
0.190125 0.304163 0.001315
0.213920 0.300927 0.000000
0.239581 0.296499 0.000000
0.262453 0.293177 0.000000
0.287249 0.290085 0.000000
0.313003 0.286462 0.000000
0.339885 0.282617 0.000000
0.368013 0.280005 0.000000
0.396612 0.279085 0.000000
0.427707 0.278722 0.000000
0.459888 0.278388 0.000000
0.491611 0.278382 0.000000
0.523679 0.279102 0.000000
0.556004 0.280964 0.000000
0.590300 0.281433 0.000000
0.624240 0.280555 0.000000
0.656067 0.280136 0.000000
0.686407 0.281300 0.000000
0.715063 0.283550 0.000000
0.743373 0.285348 0.000000
0.771388 0.286471 0.000000
0.797839 0.287390 0.000000
0.822413 0.292426 0.000000
0.847673 0.297176 0.000000
0.873225 0.302034 0.000000
0.897916 0.307866 0.000000
0.095884 0.355004 0.006751
0.110936 0.349258 0.006983
0.123827 0.345175 0.005621
0.138674 0.342095 0.004860
0.157630 0.339046 0.005626
0.174542 0.334342 0.004447
0.191946 0.332026 0.001950
0.214720 0.328953 0.000000
0.242195 0.324530 0.000000
0.264327 0.321974 0.000000
0.288602 0.319031 0.000000
0.315513 0.314429 0.000000
0.343472 0.309251 0.000000
0.369591 0.305885 0.000000
0.396401 0.303772 0.000000
0.426017 0.303369 0.000000
0.457734 0.303792 0.000000
0.489422 0.304216 0.000000
0.521201 0.305131 0.000000
0.553700 0.306891 0.000000
0.587269 0.306920 0.000000
0.620391 0.306620 0.000000
0.652188 0.307769 0.000000
0.682661 0.309925 0.000000
0.710967 0.312789 0.000000
0.739192 0.315185 0.000000
0.767265 0.316790 0.000000
0.794070 0.317945 0.000000
0.818966 0.321498 0.000000
0.844018 0.324671 0.000000
0.869478 0.328776 0.000000
0.894891 0.335452 0.000000
0.094655 0.385238 0.005168
0.112647 0.379358 0.003048
0.125040 0.374761 0.001187
0.138831 0.371058 0.002450
0.158929 0.367796 0.006648
0.178417 0.363264 0.003342
0.194330 0.360826 0.001118
0.214762 0.357712 0.000000
0.241519 0.353671 0.000000
0.264256 0.351413 0.000000
0.290045 0.347556 0.000000
0.317488 0.342838 0.000000
0.344439 0.338531 0.000000
0.369818 0.335276 0.000000
0.395989 0.332421 0.000000
0.424749 0.330004 0.000000
0.455831 0.329536 0.000000
0.487673 0.330586 0.000000
0.519801 0.331400 0.000000
0.551876 0.332613 0.000000
0.584763 0.333616 0.000000
0.617337 0.334029 0.000000
0.648788 0.334834 0.000000
0.679111 0.336854 0.000000
0.708238 0.339447 0.000000
0.736031 0.342672 0.000000
0.762924 0.345539 0.000000
0.789649 0.347451 0.000000
0.816433 0.349662 0.000000
0.841119 0.352264 0.000000
0.865366 0.356438 0.000000
0.891158 0.363181 0.000000
0.095159 0.415487 0.002521
0.114176 0.409599 0.000694
0.126984 0.404758 0.000077
0.139335 0.401068 0.001511
0.156197 0.397919 0.004017
0.178006 0.393266 0.001004
0.195740 0.390120 0.000000
0.215535 0.386815 0.000000
0.240145 0.383164 0.000000
0.264370 0.380833 0.000000
0.291216 0.376878 0.000000
0.318777 0.372688 0.000000
0.345272 0.369325 0.000000
0.370997 0.366428 0.000000
0.397810 0.363028 0.000000
0.425175 0.359334 0.000000
0.453851 0.357045 0.000000
0.485039 0.356904 0.000000
0.517573 0.357636 0.000000
0.549318 0.358724 0.000000
0.581864 0.360881 0.000000
0.614523 0.361839 0.000000
0.646015 0.361937 0.000000
0.676245 0.364167 0.000000
0.705242 0.365948 0.000000
0.733006 0.368481 0.000000
0.759793 0.371357 0.000000
0.786498 0.373398 0.000000
0.813396 0.375740 0.000000
0.838448 0.378825 0.000000
0.862719 0.383154 0.000000
0.888259 0.389145 0.000000
0.096593 0.445752 0.000551
0.107163 0.440249 0.000107
0.119881 0.435392 0.000014
0.135344 0.431670 0.000285
0.153818 0.428548 0.000797
0.173392 0.424052 0.000185
0.194006 0.420201 0.000000
0.216446 0.416512 0.000000
0.240832 0.412949 0.000000
0.265428 0.410769 0.000000
0.292201 0.407275 0.000000
0.319837 0.403333 0.000000
0.346776 0.400087 0.000000
0.373314 0.397129 0.000000
0.400893 0.392855 0.000000
0.427125 0.389520 0.000000
0.453902 0.386483 0.000000
0.484011 0.384020 0.000000
0.515593 0.383810 0.000000
0.546676 0.384850 0.000000
0.579030 0.386720 0.000000
0.611402 0.387830 0.000000
0.642457 0.388627 0.000000
0.672952 0.391503 0.000000
0.701351 0.392688 0.000000
0.729473 0.394147 0.000000
0.757092 0.396658 0.000000
0.783697 0.399266 0.000000
0.809401 0.401775 0.000000
0.834851 0.404728 0.000000
0.860073 0.408674 0.000000
0.885659 0.414148 0.000000
0.096703 0.475970 0.000000
0.095013 0.471105 0.000000
0.107567 0.465953 0.000000
0.129590 0.461470 0.000000
0.154622 0.458282 0.000000
0.170105 0.454889 0.000000
0.191488 0.450967 0.000000
0.216429 0.446815 0.000000
0.241970 0.443223 0.000000
0.265740 0.441377 0.000000
0.293641 0.437351 0.000000
0.321069 0.433505 0.000000
0.347109 0.430982 0.000000
0.374773 0.427606 0.000000
0.402726 0.422845 0.000000
0.429261 0.419352 0.000000
0.456786 0.416274 0.000000
0.486213 0.412799 0.000000
0.515452 0.410599 0.000000
0.545528 0.410468 0.000000
0.577752 0.411680 0.000000
0.609305 0.412779 0.000000
0.639284 0.414028 0.000000
0.669626 0.416750 0.000000
0.698294 0.417858 0.000000
0.726251 0.419781 0.000000
0.753696 0.422917 0.000000
0.779962 0.426447 0.000000
0.805719 0.428751 0.000000
0.830841 0.431197 0.000000
0.855903 0.434623 0.000000
0.881594 0.439576 0.000000
0.098050 0.505069 0.000000
0.088258 0.501107 0.000000
0.102780 0.495839 0.000000
0.127075 0.491088 0.000000
0.149357 0.487681 0.000000
0.171994 0.484335 0.000000
0.194858 0.480363 0.000000
0.218915 0.476211 0.000000
0.243373 0.472966 0.000000
0.266627 0.471622 0.000000
0.294932 0.467449 0.000000
0.322641 0.463921 0.000000
0.348684 0.461561 0.000000
0.376549 0.457780 0.000000
0.404253 0.453799 0.000000
0.431161 0.450554 0.000000
0.459422 0.447529 0.000000
0.487865 0.444011 0.000000
0.514993 0.440331 0.000000
0.544621 0.437182 0.000000
0.576387 0.437099 0.000000
0.607676 0.438503 0.000000
0.637744 0.439954 0.000000
0.666911 0.442554 0.000000
0.695209 0.444036 0.000000
0.723014 0.445931 0.000000
0.750333 0.448449 0.000000
0.776754 0.450612 0.000000
0.801455 0.453583 0.000000
0.826926 0.455650 0.000000
0.852789 0.458265 0.000000
0.877758 0.463736 0.000000
0.091969 0.534972 0.000000
0.094711 0.531708 0.000000
0.114652 0.526598 0.000000
0.137774 0.521957 0.000000
0.153949 0.518571 0.000000
0.174051 0.514028 0.000000
0.197559 0.510218 0.000000
0.222838 0.506673 0.000000
0.247605 0.503729 0.000000
0.270738 0.501914 0.000000
0.298288 0.498239 0.000000
0.325970 0.494729 0.000000
0.352708 0.491925 0.000000
0.380431 0.488772 0.000000
0.407380 0.485596 0.000000
0.433870 0.482647 0.000000
0.461660 0.478972 0.000000
0.489785 0.474859 0.000000
0.517169 0.471069 0.000000
0.545712 0.466876 0.000000
0.575148 0.464271 0.000000
0.605181 0.464432 0.000000
0.635267 0.466351 0.000000
0.664283 0.469413 0.000000
0.692304 0.470464 0.000000
0.719798 0.472286 0.000000
0.746924 0.474876 0.000000
0.773485 0.476280 0.000000
0.797811 0.479166 0.000000
0.823003 0.481943 0.000000
0.848485 0.485004 0.000000
0.872969 0.488913 0.000000
0.102714 0.563575 0.000000
0.107704 0.560503 0.000000
0.127201 0.555957 0.000000
0.149295 0.551301 0.000000
0.164769 0.547779 0.000000
0.180095 0.543352 0.000000
0.201911 0.539910 0.000000
0.227933 0.536351 0.000000
0.254375 0.532939 0.000000
0.276964 0.530846 0.000000
0.302738 0.527753 0.000000
0.329210 0.524369 0.000000
0.356140 0.521311 0.000000
0.383962 0.518692 0.000000
0.410528 0.516105 0.000000
0.436494 0.513140 0.000000
0.463799 0.508850 0.000000
0.492091 0.504360 0.000000
0.519748 0.500913 0.000000
0.546912 0.497378 0.000000
0.574824 0.493595 0.000000
0.603127 0.491892 0.000000
0.631743 0.492668 0.000000
0.661293 0.495110 0.000000
0.689038 0.495760 0.000000
0.716090 0.497845 0.000000
0.743078 0.500946 0.000000
0.769481 0.502653 0.000000
0.793942 0.504661 0.000000
0.818672 0.507826 0.000000
0.843937 0.510859 0.000000
0.869243 0.512482 0.000000
0.128363 0.590011 0.000000
0.124365 0.586785 0.000000
0.136296 0.582826 0.000000
0.155261 0.578445 0.000000
0.173556 0.574598 0.000000
0.191933 0.571130 0.000000
0.210828 0.568063 0.000000
0.234314 0.564150 0.000000
0.261402 0.560227 0.000000
0.283141 0.558229 0.000000
0.306986 0.555533 0.000000
0.332005 0.552614 0.000000
0.358959 0.549549 0.000000
0.387036 0.546662 0.000000
0.412953 0.544361 0.000000
0.438586 0.541379 0.000000
0.466168 0.537236 0.000000
0.494386 0.533271 0.000000
0.521304 0.530072 0.000000
0.547682 0.526960 0.000000
0.575455 0.523809 0.000000
0.602753 0.521081 0.000000
0.629486 0.519340 0.000000
0.658508 0.519218 0.000000
0.685619 0.519848 0.000000
0.712559 0.522031 0.000000
0.739419 0.525035 0.000000
0.765272 0.526946 0.000000
0.789657 0.528388 0.000000
0.814638 0.531004 0.000000
0.840408 0.533104 0.000000
0.867163 0.533971 0.000000
0.140006 0.616157 0.000000
0.148137 0.612694 0.000000
0.151970 0.609267 0.000000
0.160745 0.605479 0.000000
0.181899 0.601143 0.000000
0.205186 0.597413 0.000000
0.221277 0.594322 0.000000
0.240572 0.591460 0.000000
0.266752 0.588409 0.000000
0.288592 0.585169 0.000000
0.311738 0.582500 0.000000
0.336184 0.579978 0.000000
0.363811 0.577155 0.000000
0.392282 0.573986 0.000000
0.415784 0.571344 0.000000
0.441290 0.568343 0.000000
0.469580 0.565151 0.000000
0.497024 0.562114 0.000000
0.523518 0.558956 0.000000
0.549734 0.555966 0.000000
0.577292 0.553052 0.000000
0.604369 0.549804 0.000000
0.630257 0.546153 0.000000
0.656433 0.542447 0.000000
0.683061 0.542703 0.000000
0.710320 0.544869 0.000000
0.736866 0.547309 0.000000
0.761517 0.549025 0.000000
0.786716 0.550489 0.000000
0.811426 0.552400 0.000000
0.836957 0.554528 0.000000
0.865398 0.556414 0.000000
0.162377 0.641238 0.000000
0.173912 0.638089 0.000000
0.175611 0.634589 0.000000
0.180605 0.630612 0.000000
0.198701 0.626210 0.000000
0.216820 0.622820 0.000000
0.233635 0.619843 0.000000
0.252648 0.617335 0.000000
0.274778 0.614576 0.000000
0.295374 0.611123 0.000000
0.317515 0.608295 0.000000
0.342768 0.605928 0.000000
0.369867 0.603309 0.000000
0.395689 0.600404 0.000000
0.421208 0.598326 0.000000
0.447090 0.594896 0.000000
0.473428 0.591119 0.000000
0.499566 0.588446 0.000000
0.525441 0.585780 0.000000
0.551267 0.583156 0.000000
0.579329 0.578957 0.000000
0.606806 0.574863 0.000000
0.632447 0.571485 0.000000
0.657811 0.567392 0.000000
0.682488 0.566738 0.000000
0.708232 0.568183 0.000000
0.734428 0.569866 0.000000
0.758895 0.571240 0.000000
0.784752 0.572216 0.000000
0.808828 0.574079 0.000000
0.833273 0.576511 0.000000
0.860987 0.579164 0.000000
0.189964 0.666139 0.000000
0.196922 0.663092 0.000000
0.200390 0.659328 0.000000
0.206529 0.655101 0.000000
0.220012 0.651128 0.000000
0.232547 0.648233 0.000000
0.248090 0.645227 0.000000
0.266334 0.642255 0.000000
0.286366 0.638974 0.000000
0.306005 0.635612 0.000000
0.328228 0.633355 0.000000
0.352484 0.631268 0.000000
0.376719 0.628506 0.000000
0.400276 0.625897 0.000000
0.425739 0.624136 0.000000
0.451709 0.620679 0.000000
0.477218 0.616951 0.000000
0.502775 0.614610 0.000000
0.528575 0.612064 0.000000
0.553804 0.608978 0.000000
0.581097 0.604612 0.000000
0.608209 0.600716 0.000000
0.633467 0.597737 0.000000
0.658011 0.594448 0.000000
0.681894 0.592549 0.000000
0.706370 0.592001 0.000000
0.731310 0.592179 0.000000
0.756320 0.593288 0.000000
0.781852 0.593752 0.000000
0.806095 0.595428 0.000000
0.830479 0.597905 0.000000
0.856481 0.600473 0.000000
0.217645 0.689866 0.000000
0.218960 0.687227 0.000000
0.224387 0.683441 0.000000
0.232445 0.679621 0.000000
0.242015 0.676195 0.000000
0.252449 0.672669 0.000000
0.264457 0.669644 0.000000
0.280145 0.666472 0.000000
0.299827 0.662752 0.000000
0.319206 0.659515 0.000000
0.341687 0.657760 0.000000
0.363416 0.655802 0.000000
0.384374 0.652945 0.000000
0.407349 0.650424 0.000000
0.430583 0.648572 0.000000
0.456031 0.645534 0.000000
0.482125 0.642302 0.000000
0.507604 0.640033 0.000000
0.533095 0.637481 0.000000
0.557660 0.634008 0.000000
0.583036 0.630590 0.000000
0.609232 0.627235 0.000000
0.634554 0.623948 0.000000
0.657739 0.620998 0.000000
0.682089 0.618327 0.000000
0.705661 0.615844 0.000000
0.728706 0.614182 0.000000
0.753392 0.614122 0.000000
0.778054 0.614738 0.000000
0.802676 0.616592 0.000000
0.827534 0.618881 0.000000
0.852605 0.620985 0.000000
0.246437 0.710331 0.000000
0.243198 0.709301 0.000000
0.247641 0.706810 0.000000
0.255204 0.703913 0.000000
0.262455 0.700683 0.000000
0.273507 0.695133 0.000000
0.282019 0.692053 0.000000
0.294668 0.689569 0.000000
0.313561 0.686666 0.000000
0.332292 0.683837 0.000000
0.353433 0.681341 0.000000
0.372532 0.679114 0.000000
0.392323 0.676274 0.000000
0.416907 0.673460 0.000000
0.439299 0.672092 0.000000
0.463229 0.670215 0.000000
0.489554 0.666185 0.000000
0.515037 0.662709 0.000000
