gsg/04_Specialty/GSG_LUT_Specialty_HazyHeat.cube
# GSG LUTs 1.0
# Copyright (c) 2016-2020 Greyscalegorilla
# See EULA for licensing and distribution information
# Converted by Briz LUT Converter
LUT_3D_SIZE 8
DOMAIN_MIN 0.000000 0.000000 0.000000
DOMAIN_MAX 0.903226 0.903226 0.903226
0.000000 0.000000 0.000000
0.121746 0.000000 0.000000
0.234070 0.000000 0.000000
0.359935 0.000000 0.000000
0.489054 0.000000 0.000000
0.624223 0.000000 0.000000
0.750924 0.000000 0.000000
0.859979 0.000000 0.000000
0.020087 0.094230 0.000000
0.111602 0.077851 0.000000
0.230490 0.078574 0.000000
0.349766 0.073284 0.000000
0.480027 0.039499 0.000000
0.613300 0.002602 0.000000
0.739834 0.000000 0.000000
0.849181 0.000000 0.000000
0.054961 0.194210 0.011280
0.127758 0.177835 0.004931
0.224094 0.167723 0.000114
0.341649 0.169196 0.000000
0.468171 0.159645 0.000000
0.600617 0.138144 0.000000
0.730222 0.111136 0.000000
0.840490 0.107946 0.000000
0.091512 0.295853 0.011391
0.149539 0.283009 0.005396
0.236620 0.268649 0.000000
0.336803 0.256599 0.000000
0.462515 0.254944 0.000000
0.592211 0.255409 0.000000
0.718065 0.252886 0.000000
0.825609 0.262822 0.000000
0.095159 0.415487 0.002521
0.156197 0.397919 0.004017
0.240145 0.383164 0.000000
0.345272 0.369325 0.000000
0.453851 0.357045 0.000000
0.581864 0.360881 0.000000
0.705242 0.365948 0.000000
0.813396 0.375740 0.000000
0.091969 0.534972 0.000000
0.153949 0.518571 0.000000
0.247605 0.503729 0.000000
0.352708 0.491925 0.000000
0.461660 0.478972 0.000000
0.575148 0.464271 0.000000
0.692304 0.470464 0.000000
0.797811 0.479166 0.000000
0.162377 0.641238 0.000000
0.198701 0.626210 0.000000
0.274778 0.614576 0.000000
0.369867 0.603309 0.000000
0.473428 0.591119 0.000000
0.579329 0.578957 0.000000
0.682488 0.566738 0.000000
0.784752 0.572216 0.000000
0.268809 0.734216 0.000000
0.285251 0.721247 0.000000
0.329210 0.710074 0.000000
0.403608 0.698991 0.000000
0.493374 0.689575 0.000000
0.589156 0.678712 0.000000
0.686804 0.665025 0.000000
0.773866 0.656176 0.000000
0.007397 0.000000 0.090937
0.072870 0.000000 0.041890
0.192378 0.000196 0.030402
0.306999 0.000000 0.024155
0.430767 0.000000 0.013730
0.567812 0.000000 0.006638
0.697003 0.000000 0.001206
0.811905 0.000000 0.000041
0.026854 0.076544 0.053050
0.151206 0.129641 0.103604
0.261603 0.124550 0.091773
0.381014 0.123362 0.079517
0.511213 0.099841 0.071236
0.642654 0.051220 0.054210
0.764926 0.007493 0.038930
0.870965 0.009496 0.020281
0.066924 0.168906 0.061589
0.168238 0.222619 0.107556
0.260157 0.211006 0.082031
0.375840 0.211309 0.069388
0.502402 0.208814 0.056460
0.634609 0.197117 0.041185
0.753914 0.191036 0.016836
0.861856 0.202382 0.003603
0.105675 0.272964 0.066337
0.184629 0.331606 0.105688
0.267112 0.320539 0.080772
0.370778 0.305126 0.054882
0.495272 0.306657 0.037696
0.622882 0.310860 0.012224
0.744060 0.312700 0.002789
0.847724 0.327647 0.000194
0.105410 0.387309 0.062312
0.179409 0.450313 0.099255
0.273445 0.438224 0.063794
0.378695 0.424770 0.023041
0.488610 0.410772 0.006496
0.611931 0.415069 0.001650
0.729570 0.421631 0.000068
0.833344 0.432217 0.000000
0.092645 0.509722 0.028436
0.200931 0.565988 0.082114
0.283113 0.555042 0.026930
0.388314 0.542421 0.003142
0.495262 0.529842 0.000000
0.603923 0.516731 0.000000
0.716313 0.521461 0.000000
0.819226 0.530982 0.000000
0.151581 0.618405 0.001086
0.256481 0.669407 0.070724
0.322210 0.658975 0.007768
0.408716 0.648232 0.001168
0.508519 0.637867 0.000000
0.609555 0.624730 0.000000
0.707379 0.612431 0.000000
0.804884 0.619240 0.000000
0.247685 0.714233 0.002579
0.330303 0.759575 0.073859
0.377850 0.749690 0.015815
0.446215 0.739539 0.001090
0.531181 0.729328 0.000000
0.622106 0.718088 0.000000
0.710390 0.707962 0.000000
0.795441 0.698359 0.000000
0.030194 0.000000 0.186128
0.066698 0.000000 0.141006
0.151122 0.000000 0.095291
0.260759 0.002811 0.080574
0.377868 0.000000 0.071205
0.509662 0.000000 0.063684
0.642977 0.000000 0.049848
0.765153 0.000000 0.034518
0.030981 0.079156 0.155617
0.147653 0.126752 0.192814
0.223021 0.132051 0.153506
0.334770 0.128759 0.145293
0.458146 0.118559 0.134805
0.591500 0.077300 0.125082
0.717723 0.021072 0.113963
0.828905 0.011987 0.100686
0.068356 0.154060 0.124727
0.181809 0.205392 0.172890
0.300344 0.259452 0.212461
0.416119 0.259277 0.200708
0.542895 0.255414 0.190670
0.668316 0.251912 0.178777
0.782535 0.255819 0.167858
0.882410 0.270982 0.149867
0.117375 0.251379 0.131590
0.199320 0.308862 0.175566
0.309274 0.372984 0.213869
0.414971 0.362316 0.194090
0.536485 0.365192 0.181361
0.658374 0.367990 0.165706
0.770402 0.377083 0.150560
0.869425 0.389679 0.131318
0.125022 0.362377 0.129673
0.205909 0.426437 0.174051
0.316431 0.489791 0.216997
0.420191 0.480795 0.187695
0.527449 0.466429 0.161970
0.645033 0.471480 0.145200
0.756119 0.478672 0.123230
0.854847 0.488442 0.097628
0.123234 0.482784 0.122548
0.214509 0.545083 0.169641
0.337594 0.601379 0.218907
0.433416 0.593393 0.184563
0.534167 0.580997 0.146082
0.635472 0.568680 0.114067
0.742814 0.572617 0.082065
0.840851 0.580449 0.047539
0.149800 0.595722 0.107028
0.261176 0.650756 0.168711
0.374185 0.700531 0.226431
0.457000 0.693246 0.186634
0.547972 0.681966 0.142970
0.641629 0.669606 0.084726
0.733601 0.657730 0.042136
0.828820 0.661570 0.022442
0.239802 0.694621 0.108537
0.327124 0.742474 0.183064
0.427213 0.787192 0.245830
0.493233 0.779463 0.209149
0.569574 0.769063 0.159227
0.654087 0.757553 0.098943
0.737847 0.746198 0.042932
0.820082 0.736665 0.018170
0.060373 0.000000 0.287235
0.062139 0.000000 0.239640
0.137898 0.000000 0.190359
0.223227 0.000000 0.147753
0.330297 0.000000 0.135488
0.456293 0.000000 0.126054
0.587767 0.000000 0.116544
0.712987 0.000000 0.106911
0.058441 0.067485 0.258760
0.130854 0.118777 0.310117
0.217189 0.127536 0.252726
0.297602 0.128752 0.207057
0.409839 0.125977 0.195148
0.540423 0.100649 0.186585
0.669492 0.045496 0.175608
0.783113 0.012639 0.165850
0.080881 0.160539 0.222568
0.168167 0.213343 0.274149
0.292243 0.258524 0.324636
0.377887 0.265452 0.276422
0.497578 0.264700 0.263040
0.621560 0.260465 0.253377
0.740795 0.260276 0.240389
0.843495 0.272463 0.227581
0.117464 0.238776 0.193334
0.213886 0.290615 0.241891
0.328904 0.354086 0.301445
0.458318 0.418132 0.356190
0.574672 0.423583 0.342102
0.690843 0.427140 0.329664
0.798451 0.434864 0.315500
0.892861 0.448252 0.302459
0.142551 0.339314 0.193427
0.226474 0.401251 0.246203
0.339572 0.467356 0.306141
0.465939 0.533351 0.365386
0.570065 0.525527 0.340508
0.682409 0.529484 0.324664
0.786618 0.535809 0.310379
0.880873 0.544758 0.298123
0.131294 0.461579 0.188797
0.229037 0.520658 0.250427
0.354667 0.581545 0.316137
0.482065 0.638678 0.378735
0.574970 0.632441 0.349104
0.671055 0.620808 0.317961
0.771785 0.624440 0.300917
0.865506 0.630182 0.287382
0.160454 0.574054 0.198024
0.269758 0.627349 0.260417
0.386842 0.682533 0.328857
0.506633 0.730692 0.396867
0.588252 0.725748 0.365058
0.675765 0.714925 0.326997
0.762006 0.704289 0.297090
0.853402 0.706921 0.282485
0.229128 0.674887 0.206988
0.327873 0.722056 0.276798
0.430459 0.769763 0.348844
0.537979 0.813581 0.419449
0.607938 0.808749 0.388433
0.686595 0.799072 0.348702
0.765931 0.788085 0.313167
0.846080 0.777676 0.283980
0.000000 0.000000 0.416054
0.031842 0.000000 0.355130
0.126822 0.000000 0.296329
0.211957 0.000000 0.239482
0.295120 0.000000 0.195998
0.409535 0.000000 0.182923
0.537221 0.000000 0.173714
0.665064 0.000000 0.165438
0.026106 0.047049 0.381384
0.041440 0.105450 0.446123
0.183004 0.111510 0.383575
0.284103 0.123369 0.313757
0.372534 0.123187 0.263205
0.493053 0.111178 0.248103
0.621028 0.062417 0.235907
0.740487 0.017456 0.226519
0.066105 0.154531 0.341652
0.123318 0.207136 0.407640
0.243291 0.253118 0.473358
0.364678 0.260751 0.402993
0.458261 0.264761 0.343421
0.576891 0.264414 0.327603
0.695971 0.263045 0.314744
0.803990 0.269471 0.304208
0.107858 0.241832 0.299502
0.187589 0.297640 0.361608
0.298742 0.361203 0.430225
0.438073 0.422306 0.492809
0.538084 0.429499 0.439041
0.652214 0.434088 0.421493
0.761105 0.440058 0.409478
0.859410 0.450113 0.395155
0.144466 0.323420 0.268274
0.223572 0.387987 0.327167
0.347360 0.452168 0.394460
0.480103 0.518425 0.467790
0.598719 0.577427 0.526234
0.706800 0.580612 0.512538
0.807877 0.586819 0.499131
0.900316 0.594141 0.486111
0.135722 0.442375 0.263061
0.233803 0.503940 0.328282
0.366963 0.563879 0.401638
0.495402 0.623270 0.478283
0.608123 0.675851 0.538407
0.700612 0.670426 0.515702
0.796332 0.673579 0.500597
0.889179 0.678199 0.488123
0.136510 0.559831 0.266656
0.262156 0.614244 0.338662
0.394304 0.665709 0.417600
0.517536 0.716801 0.493739
0.622578 0.762855 0.553973
0.704304 0.758098 0.527959
0.787545 0.748746 0.498008
0.876635 0.750949 0.484457
0.206253 0.662514 0.278824
0.322536 0.706987 0.359153
0.436095 0.752862 0.437296
0.545122 0.800520 0.511676
0.641113 0.841171 0.571854
0.714353 0.837551 0.546624
0.791107 0.828401 0.513058
0.868822 0.818279 0.484757
0.000000 0.000000 0.565056
0.000000 0.000000 0.501941
0.042110 0.000000 0.434335
0.183805 0.000000 0.364629
0.278741 0.000000 0.301524
0.370951 0.000000 0.252245
0.488817 0.000000 0.234858
0.617768 0.000000 0.225101
0.000000 0.018069 0.528288
0.000000 0.086903 0.592096
0.063429 0.089514 0.534668
0.245968 0.098877 0.459120
0.353015 0.109228 0.387564
0.450680 0.105051 0.329211
0.578175 0.068650 0.309880
0.697060 0.017291 0.296934
0.000000 0.142181 0.486112
0.006037 0.196807 0.555902
0.141901 0.245598 0.621853
0.318551 0.247489 0.559385
0.437524 0.256341 0.482257
0.538283 0.258946 0.420365
0.654165 0.261455 0.399851
0.763930 0.268267 0.386249
0.043029 0.239329 0.439364
0.097235 0.298298 0.511004
0.238022 0.358176 0.581226
0.389848 0.417806 0.642119
0.514416 0.425486 0.580471
0.611599 0.432990 0.517287
0.719101 0.440977 0.498084
0.818709 0.449975 0.486119
0.100984 0.330921 0.395203
0.178245 0.394456 0.463305
0.301053 0.461157 0.532727
0.442275 0.526925 0.601929
0.573809 0.580600 0.655898
0.671140 0.587401 0.607847
0.769841 0.593685 0.591380
0.864588 0.599254 0.580307
0.122045 0.424420 0.358409
0.212991 0.490125 0.429061
0.353070 0.552292 0.497788
0.492485 0.613519 0.568111
0.616902 0.665385 0.632732
0.720714 0.712913 0.681617
0.815429 0.717165 0.670631
0.905422 0.720703 0.660757
0.094291 0.543989 0.356218
0.246566 0.602632 0.428789
0.382211 0.654907 0.501367
0.519176 0.705981 0.574204
0.632560 0.752257 0.641501
0.730171 0.795220 0.693289
0.810142 0.792292 0.674419
0.897292 0.794632 0.663093
0.162253 0.651810 0.363716
0.297124 0.698764 0.442149
0.425756 0.743755 0.517477
0.546014 0.788190 0.590199
0.648820 0.831515 0.654164
0.741853 0.870640 0.705349
0.814091 0.867625 0.685305
0.888142 0.858784 0.660837
0.000000 0.000000 0.705951
0.000000 0.000000 0.648727
0.000000 0.000000 0.586041
0.069892 0.000000 0.514655
0.240025 0.000000 0.440442
0.348402 0.000000 0.371838
0.447658 0.000000 0.315141
0.570563 0.000000 0.297160
0.000000 0.001568 0.671833
0.000000 0.043181 0.730686
0.000000 0.054615 0.676671
0.128586 0.052101 0.613634
0.308602 0.075420 0.540668
0.425827 0.080993 0.464787
0.531678 0.057890 0.403443
0.654984 0.011650 0.382137
0.000000 0.126135 0.630275
0.000000 0.184439 0.694651
0.010437 0.234939 0.753509
0.241226 0.233469 0.702073
0.394440 0.239596 0.635357
0.510614 0.250834 0.561550
0.614818 0.250693 0.498692
0.725079 0.259121 0.477340
0.000000 0.232195 0.587242
0.000211 0.293677 0.653511
0.124196 0.355313 0.717689
0.338234 0.416741 0.770474
0.471558 0.417685 0.721878
0.587754 0.425816 0.652551
0.682668 0.433262 0.592854
0.780920 0.446803 0.573503
0.003366 0.331721 0.543665
0.044142 0.397360 0.609407
0.231111 0.463200 0.673557
0.394950 0.526392 0.735023
0.531947 0.578923 0.781709
0.645235 0.583396 0.731496
0.735088 0.590300 0.675127
0.826662 0.598951 0.659410
0.028570 0.428616 0.499761
0.146885 0.495865 0.566131
0.306932 0.558334 0.630249
0.451625 0.619453 0.691773
0.579064 0.671924 0.747809
0.693083 0.715711 0.793467
0.783103 0.722372 0.750628
0.871151 0.727027 0.738148
0.048858 0.523768 0.464234
0.212760 0.585599 0.532600
0.364232 0.642736 0.597854
0.503035 0.696717 0.660403
0.623571 0.744688 0.717340
0.732965 0.790462 0.770910
0.827643 0.828987 0.814899
0.912367 0.832816 0.804990
0.073479 0.635517 0.462631
0.261844 0.686492 0.532612
0.402570 0.735474 0.599380
0.531978 0.780784 0.663683
0.645129 0.823424 0.720766
0.746917 0.864062 0.777648
0.838262 0.899345 0.824757
0.908144 0.896276 0.807994
0.000000 0.000000 0.826334
0.000000 0.000000 0.777336
0.000000 0.000000 0.723220
0.000000 0.000000 0.663828
0.130843 0.000000 0.592534
0.307529 0.000000 0.518154
0.421684 0.000000 0.445300
0.526796 0.000000 0.386313
0.000000 0.000000 0.797831
0.000000 0.004200 0.847697
0.000000 0.008007 0.800008
0.002774 0.008675 0.748784
0.229267 0.014110 0.685185
0.387626 0.026567 0.613565
0.504383 0.020740 0.542598
0.608767 0.007926 0.481467
0.000000 0.089482 0.762253
0.000000 0.166374 0.815406
0.000000 0.223327 0.866767
0.129152 0.222090 0.824102
0.339443 0.222325 0.767934
0.477397 0.230508 0.701333
0.587138 0.241347 0.632707
0.684164 0.241468 0.575152
0.000000 0.223199 0.721020
0.000000 0.288391 0.777362
0.018472 0.350969 0.835038
0.287239 0.413591 0.881680
0.427300 0.413815 0.840720
0.551436 0.417711 0.780220
0.656114 0.426506 0.717410
0.746124 0.435427 0.662814
0.000000 0.329618 0.680203
0.000000 0.396976 0.737995
0.139578 0.462554 0.793819
0.348333 0.526514 0.848321
0.493462 0.577995 0.890811
0.606696 0.579260 0.849514
0.708434 0.585707 0.790307
0.793194 0.592365 0.737431
0.000000 0.434294 0.636346
0.023057 0.499128 0.696621
0.244849 0.562007 0.752643
0.409246 0.620855 0.806885
0.542134 0.672186 0.858336
0.657795 0.715543 0.899645
0.755255 0.717012 0.859387
0.838710 0.723503 0.809378
0.000000 0.529266 0.598196
0.146182 0.590405 0.658617
0.325491 0.645994 0.715903
0.470186 0.700133 0.769689
0.590018 0.747442 0.821909
0.699380 0.793745 0.871503
0.801073 0.831610 0.911591
0.883536 0.835783 0.874345
0.000000 0.616248 0.564375
0.222672 0.670557 0.630679
0.380820 0.721394 0.686798
0.519470 0.769087 0.742592
0.632521 0.813439 0.794220
0.737369 0.856025 0.843713
0.837417 0.895398 0.890916
0.923549 0.927322 0.923845
