gsg/04_Specialty/GSG_LUT_Specialty_TechnicolorDreamcoat.cube
# GSG LUTs 1.0
# Copyright (c) 2016-2020 Greyscalegorilla
# See EULA for licensing and distribution information
# Converted by Briz LUT Converter
LUT_3D_SIZE 5
DOMAIN_MIN 0.000000 0.000000 0.000000
DOMAIN_MAX 0.903226 0.903226 0.903226
0.000000 0.045177 0.083028
0.054882 0.049494 0.087046
0.279058 0.023459 0.087692
0.612438 0.000000 0.075426
0.889700 0.000000 0.047997
0.000000 0.140147 0.119784
0.058412 0.157285 0.098549
0.389235 0.141357 0.069104
0.683769 0.058018 0.027228
0.917075 0.017787 0.000262
0.000000 0.471488 0.235173
0.000000 0.473886 0.191232
0.422370 0.491449 0.088877
0.771125 0.441936 0.000000
0.964064 0.400458 0.000000
0.000000 0.732593 0.441120
0.000907 0.729684 0.398340
0.388971 0.723570 0.327201
0.734064 0.743047 0.247115
0.958195 0.717902 0.065011
0.553303 0.891496 0.732601
0.565936 0.889837 0.720057
0.621059 0.889957 0.686372
0.749479 0.890607 0.637860
0.908037 0.901695 0.608638
0.000000 0.052590 0.139525
0.046831 0.055142 0.144512
0.309276 0.010863 0.134214
0.620278 0.000000 0.108360
0.906413 0.000000 0.035424
0.000000 0.150323 0.196603
0.062250 0.167035 0.201230
0.379439 0.144540 0.165929
0.681616 0.057419 0.116636
0.928923 0.044090 0.014982
0.000000 0.482927 0.347910
0.000000 0.492363 0.325312
0.446070 0.499189 0.242409
0.774710 0.437456 0.142622
0.964337 0.400892 0.008154
0.046597 0.741392 0.529068
0.201015 0.740676 0.515558
0.436530 0.734517 0.436416
0.741703 0.748177 0.369842
0.958160 0.720240 0.245905
0.577537 0.894372 0.761083
0.604611 0.893433 0.758467
0.646744 0.893614 0.728040
0.755874 0.892289 0.678705
0.907215 0.903497 0.654914
0.000000 0.075308 0.334247
0.029339 0.088517 0.354774
0.392853 0.043237 0.375986
0.731482 0.000000 0.341786
0.895806 0.000000 0.225128
0.000000 0.187760 0.387408
0.033916 0.202179 0.406477
0.434025 0.215755 0.419035
0.724262 0.087499 0.351062
0.896687 0.020587 0.245684
0.000000 0.459039 0.483638
0.045074 0.470546 0.489580
0.453194 0.487211 0.488886
0.728006 0.436014 0.406249
0.936692 0.388498 0.298038
0.333740 0.740246 0.671630
0.399787 0.740607 0.667589
0.525622 0.737412 0.636791
0.739810 0.746633 0.580607
0.945597 0.708093 0.473591
0.596706 0.895238 0.810237
0.624416 0.895066 0.809686
0.689549 0.894439 0.802970
0.762689 0.893261 0.757736
0.903207 0.904358 0.738643
0.000000 0.143078 0.637890
0.003533 0.154019 0.646410
0.476045 0.196288 0.671444
0.779742 0.155929 0.684300
0.984716 0.228727 0.660467
0.000000 0.241292 0.651190
0.018458 0.257180 0.659898
0.492375 0.320114 0.688016
0.778316 0.334464 0.701295
0.968013 0.347839 0.663356
0.000000 0.441850 0.651556
0.000000 0.446392 0.655120
0.458331 0.505210 0.698156
0.755328 0.572254 0.730174
0.930350 0.503549 0.654191
0.223995 0.708686 0.746544
0.336059 0.710450 0.747086
0.530866 0.718675 0.752065
0.733094 0.739827 0.762978
0.903379 0.678639 0.668004
0.665978 0.893859 0.877757
0.684355 0.894838 0.878063
0.726636 0.897546 0.875631
0.792905 0.899200 0.862532
0.900335 0.905560 0.835428
0.127268 0.309874 0.879822
0.323608 0.326504 0.881692
0.592755 0.389644 0.886348
0.819607 0.519954 0.891693
0.972517 0.489922 0.887307
0.144053 0.392496 0.881129
0.333712 0.407470 0.882017
0.591890 0.463072 0.885022
0.813257 0.578035 0.891202
0.960364 0.559550 0.889349
0.027578 0.532185 0.869274
0.243970 0.543463 0.872826
0.553525 0.581330 0.880300
0.794600 0.673892 0.891689
0.934910 0.681926 0.894203
0.054265 0.715672 0.876515
0.140387 0.711378 0.875105
0.386121 0.695566 0.869373
0.732539 0.747105 0.888427
0.910741 0.802511 0.906000
0.593739 0.884296 0.917339
0.618490 0.884794 0.917569
0.685180 0.886372 0.918323
0.784106 0.890937 0.920236
0.901434 0.904746 0.925816
