gsg/05_BW/GSG_LUT_BW_PhotographyClass.cube
# GSG LUTs 1.0
# Copyright (c) 2016-2020 Greyscalegorilla
# See EULA for licensing and distribution information
# Converted by Briz LUT Converter
LUT_3D_SIZE 32
0.092063 0.092063 0.092063
0.091567 0.091567 0.091567
0.091284 0.091284 0.091284
0.090527 0.090527 0.090527
0.089771 0.089771 0.089771
0.089015 0.089015 0.089015
0.088306 0.088306 0.088306
0.087692 0.087692 0.087692
0.086683 0.086683 0.086683
0.085746 0.085746 0.085746
0.085068 0.085068 0.085068
0.084824 0.084824 0.084824
0.085265 0.085265 0.085265
0.086431 0.086431 0.086431
0.088747 0.088747 0.088747
0.092481 0.092481 0.092481
0.098027 0.098027 0.098027
0.105652 0.105652 0.105652
0.115782 0.115782 0.115782
0.128473 0.128473 0.128473
0.144291 0.144291 0.144291
0.164244 0.164244 0.164244
0.187751 0.187751 0.187751
0.214376 0.214376 0.214376
0.244311 0.244311 0.244311
0.276836 0.276836 0.276836
0.311497 0.311497 0.311497
0.348450 0.348450 0.348450
0.387522 0.387522 0.387522
0.427988 0.427988 0.427988
0.469518 0.469518 0.469518
0.511111 0.511111 0.511111
0.090567 0.090567 0.090567
0.089787 0.089787 0.089787
0.088351 0.088351 0.088351
0.088014 0.088014 0.088014
0.087292 0.087292 0.087292
0.086803 0.086803 0.086803
0.086307 0.086307 0.086307
0.085814 0.085814 0.085814
0.085393 0.085393 0.085393
0.085085 0.085085 0.085085
0.084848 0.084848 0.084848
0.085297 0.085297 0.085297
0.086362 0.086362 0.086362
0.088315 0.088315 0.088315
0.091644 0.091644 0.091644
0.096557 0.096557 0.096557
0.103148 0.103148 0.103148
0.111948 0.111948 0.111948
0.122950 0.122950 0.122950
0.136634 0.136634 0.136634
0.153748 0.153748 0.153748
0.174328 0.174328 0.174328
0.198105 0.198105 0.198105
0.224987 0.224987 0.224987
0.254789 0.254789 0.254789
0.287055 0.287055 0.287055
0.321654 0.321654 0.321654
0.358172 0.358172 0.358172
0.396511 0.396511 0.396511
0.436434 0.436434 0.436434
0.477200 0.477200 0.477200
0.517752 0.517752 0.517752
0.089511 0.089511 0.089511
0.088733 0.088733 0.088733
0.087282 0.087282 0.087282
0.085843 0.085843 0.085843
0.085214 0.085214 0.085214
0.085210 0.085210 0.085210
0.085004 0.085004 0.085004
0.084894 0.084894 0.084894
0.085116 0.085116 0.085116
0.085295 0.085295 0.085295
0.086010 0.086010 0.086010
0.087263 0.087263 0.087263
0.089152 0.089152 0.089152
0.092136 0.092136 0.092136
0.096660 0.096660 0.096660
0.102744 0.102744 0.102744
0.110522 0.110522 0.110522
0.120387 0.120387 0.120387
0.132593 0.132593 0.132593
0.147585 0.147585 0.147585
0.165847 0.165847 0.165847
0.187281 0.187281 0.187281
0.211638 0.211638 0.211638
0.238686 0.238686 0.238686
0.268313 0.268313 0.268313
0.300335 0.300335 0.300335
0.334491 0.334491 0.334491
0.370727 0.370727 0.370727
0.408794 0.408794 0.408794
0.448190 0.448190 0.448190
0.488144 0.488144 0.488144
0.527378 0.527378 0.527378
0.087723 0.087723 0.087723
0.087000 0.087000 0.087000
0.086484 0.086484 0.086484
0.085183 0.085183 0.085183
0.085090 0.085090 0.085090
0.085787 0.085787 0.085787
0.086543 0.086543 0.086543
0.087082 0.087082 0.087082
0.087812 0.087812 0.087812
0.088609 0.088609 0.088609
0.090203 0.090203 0.090203
0.092594 0.092594 0.092594
0.095977 0.095977 0.095977
0.100552 0.100552 0.100552
0.106401 0.106401 0.106401
0.113822 0.113822 0.113822
0.123068 0.123068 0.123068
0.134393 0.134393 0.134393
0.148095 0.148095 0.148095
0.164543 0.164543 0.164543
0.184094 0.184094 0.184094
0.206161 0.206161 0.206161
0.230760 0.230760 0.230760
0.258206 0.258206 0.258206
0.287970 0.287970 0.287970
0.319959 0.319959 0.319959
0.354086 0.354086 0.354086
0.390236 0.390236 0.390236
0.427793 0.427793 0.427793
0.466148 0.466148 0.466148
0.504501 0.504501 0.504501
0.541849 0.541849 0.541849
0.085801 0.085801 0.085801
0.085377 0.085377 0.085377
0.085380 0.085380 0.085380
0.085014 0.085014 0.085014
0.085616 0.085616 0.085616
0.088249 0.088249 0.088249
0.092166 0.092166 0.092166
0.095143 0.095143 0.095143
0.097076 0.097076 0.097076
0.098872 0.098872 0.098872
0.101463 0.101463 0.101463
0.105051 0.105051 0.105051
0.109869 0.109869 0.109869
0.115870 0.115870 0.115870
0.123295 0.123295 0.123295
0.132416 0.132416 0.132416
0.143483 0.143483 0.143483
0.156664 0.156664 0.156664
0.172326 0.172326 0.172326
0.190597 0.190597 0.190597
0.211250 0.211250 0.211250
0.234364 0.234364 0.234364
0.260033 0.260033 0.260033
0.287809 0.287809 0.287809
0.317784 0.317784 0.317784
0.349449 0.349449 0.349449
0.383168 0.383168 0.383168
0.418296 0.418296 0.418296
0.454572 0.454572 0.454572
0.491155 0.491155 0.491155
0.526985 0.526985 0.526985
0.561479 0.561479 0.561479
0.084856 0.084856 0.084856
0.084942 0.084942 0.084942
0.085181 0.085181 0.085181
0.085313 0.085313 0.085313
0.086593 0.086593 0.086593
0.090273 0.090273 0.090273
0.097038 0.097038 0.097038
0.105966 0.105966 0.105966
0.114937 0.114937 0.114937
0.120447 0.120447 0.120447
0.124803 0.124803 0.124803
0.129578 0.129578 0.129578
0.135576 0.135576 0.135576
0.143074 0.143074 0.143074
0.152133 0.152133 0.152133
0.163035 0.163035 0.163035
0.175924 0.175924 0.175924
0.191136 0.191136 0.191136
0.208583 0.208583 0.208583
0.227919 0.227919 0.227919
0.249190 0.249190 0.249190
0.274548 0.274548 0.274548
0.306265 0.306265 0.306265
0.336429 0.336429 0.336429
0.366587 0.366587 0.366587
0.398038 0.398038 0.398038
0.430577 0.430577 0.430577
0.463816 0.463816 0.463816
0.497147 0.497147 0.497147
0.530139 0.530139 0.530139
0.561915 0.561915 0.561915
0.591902 0.591902 0.591902
0.086132 0.086132 0.086132
0.086630 0.086630 0.086630
0.086937 0.086937 0.086937
0.087401 0.087401 0.087401
0.088837 0.088837 0.088837
0.093244 0.093244 0.093244
0.101990 0.101990 0.101990
0.114685 0.114685 0.114685
0.130828 0.130828 0.130828
0.148232 0.148232 0.148232
0.161724 0.161724 0.161724
0.171073 0.171073 0.171073
0.178699 0.178699 0.178699
0.187188 0.187188 0.187188
0.197522 0.197522 0.197522
0.209790 0.209790 0.209790
0.224159 0.224159 0.224159
0.240601 0.240601 0.240601
0.258813 0.258813 0.258813
0.278703 0.278703 0.278703
0.300269 0.300269 0.300269
0.324216 0.324216 0.324216
0.351340 0.351340 0.351340
0.379702 0.379702 0.379702
0.409092 0.409092 0.409092
0.439628 0.439628 0.439628
0.470358 0.470358 0.470358
0.500825 0.500825 0.500825
0.531160 0.531160 0.531160
0.560525 0.560525 0.560525
0.588654 0.588654 0.588654
0.615046 0.615046 0.615046
0.090433 0.090433 0.090433
0.090996 0.090996 0.090996
0.091642 0.091642 0.091642
0.092765 0.092765 0.092765
0.094560 0.094560 0.094560
0.098042 0.098042 0.098042
0.107388 0.107388 0.107388
0.122172 0.122172 0.122172
0.142311 0.142311 0.142311
0.166700 0.166700 0.166700
0.193970 0.193970 0.193970
0.218753 0.218753 0.218753
0.234659 0.234659 0.234659
0.245904 0.245904 0.245904
0.257043 0.257043 0.257043
0.269410 0.269410 0.269410
0.283437 0.283437 0.283437
0.299051 0.299051 0.299051
0.316197 0.316197 0.316197
0.334985 0.334985 0.334985
0.355303 0.355303 0.355303
0.377587 0.377587 0.377587
0.402113 0.402113 0.402113
0.428400 0.428400 0.428400
0.455929 0.455929 0.455929
0.483839 0.483839 0.483839
0.511528 0.511528 0.511528
0.538686 0.538686 0.538686
0.565314 0.565314 0.565314
0.590738 0.590738 0.590738
0.615151 0.615151 0.615151
0.638150 0.638150 0.638150
0.098751 0.098751 0.098751
0.099644 0.099644 0.099644
0.100737 0.100737 0.100737
0.102216 0.102216 0.102216
0.104629 0.104629 0.104629
0.108125 0.108125 0.108125
0.115931 0.115931 0.115931
0.131490 0.131490 0.131490
0.153858 0.153858 0.153858
0.182469 0.182469 0.182469
0.215858 0.215858 0.215858
0.252306 0.252306 0.252306
0.286134 0.286134 0.286134
0.310814 0.310814 0.310814
0.327174 0.327174 0.327174
0.339547 0.339547 0.339547
0.351947 0.351947 0.351947
0.365995 0.365995 0.365995
0.381442 0.381442 0.381442
0.398281 0.398281 0.398281
0.416639 0.416639 0.416639
0.436823 0.436823 0.436823
0.458825 0.458825 0.458825
0.482351 0.482351 0.482351
0.506595 0.506595 0.506595
0.530752 0.530752 0.530752
0.554497 0.554497 0.554497
0.577522 0.577522 0.577522
0.600044 0.600044 0.600044
0.621428 0.621428 0.621428
0.642053 0.642053 0.642053
0.661720 0.661720 0.661720
0.112694 0.112694 0.112694
0.113959 0.113959 0.113959
0.115398 0.115398 0.115398
0.117386 0.117386 0.117386
0.120253 0.120253 0.120253
0.124215 0.124215 0.124215
0.130642 0.130642 0.130642
0.144866 0.144866 0.144866
0.168419 0.168419 0.168419
0.199239 0.199239 0.199239
0.236086 0.236086 0.236086
0.276538 0.276538 0.276538
0.318589 0.318589 0.318589
0.359160 0.359160 0.359160
0.392014 0.392014 0.392014
0.412606 0.412606 0.412606
0.426076 0.426076 0.426076
0.438471 0.438471 0.438471
0.451593 0.451593 0.451593
0.465924 0.465924 0.465924
0.481457 0.481457 0.481457
0.498339 0.498339 0.498339
0.516655 0.516655 0.516655
0.536123 0.536123 0.536123
0.556009 0.556009 0.556009
0.575800 0.575800 0.575800
0.595346 0.595346 0.595346
0.614331 0.614331 0.614331
0.632936 0.632936 0.632936
0.650719 0.650719 0.650719
0.668018 0.668018 0.668018
0.684556 0.684556 0.684556
0.133711 0.133711 0.133711
0.135069 0.135069 0.135069
0.136951 0.136951 0.136951
0.139477 0.139477 0.139477
0.143053 0.143053 0.143053
0.147765 0.147765 0.147765
0.154022 0.154022 0.154022
0.165058 0.165058 0.165058
0.187171 0.187171 0.187171
0.218929 0.218929 0.218929
0.256857 0.256857 0.256857
0.299895 0.299895 0.299895
0.346206 0.346206 0.346206
0.392764 0.392764 0.392764
0.437015 0.437015 0.437015
0.473294 0.473294 0.473294
0.497091 0.497091 0.497091
0.511810 0.511810 0.511810
0.522964 0.522964 0.522964
0.533822 0.533822 0.533822
0.545742 0.545742 0.545742
0.558908 0.558908 0.558908
0.573173 0.573173 0.573173
0.588361 0.588361 0.588361
0.603847 0.603847 0.603847
0.619354 0.619354 0.619354
0.634722 0.634722 0.634722
0.649846 0.649846 0.649846
0.664631 0.664631 0.664631
0.678990 0.678990 0.678990
0.693073 0.693073 0.693073
0.706566 0.706566 0.706566
0.163914 0.163914 0.163914
0.165528 0.165528 0.165528
0.167603 0.167603 0.167603
0.170641 0.170641 0.170641
0.174681 0.174681 0.174681
0.180123 0.180123 0.180123
0.187020 0.187020 0.187020
0.196114 0.196114 0.196114
0.212943 0.212943 0.212943
0.243570 0.243570 0.243570
0.281724 0.281724 0.281724
0.326307 0.326307 0.326307
0.377215 0.377215 0.377215
0.426393 0.426393 0.426393
0.472482 0.472482 0.472482
0.515089 0.515089 0.515089
0.550062 0.550062 0.550062
0.574505 0.574505 0.574505
0.588868 0.588868 0.588868
0.597933 0.597933 0.597933
0.606363 0.606363 0.606363
0.615810 0.615810 0.615810
0.626236 0.626236 0.626236
0.637283 0.637283 0.637283
0.648728 0.648728 0.648728
0.660259 0.660259 0.660259
0.671789 0.671789 0.671789
0.683183 0.683183 0.683183
0.694550 0.694550 0.694550
0.705771 0.705771 0.705771
0.716824 0.716824 0.716824
0.727622 0.727622 0.727622
0.203899 0.203899 0.203899
0.205766 0.205766 0.205766
0.207862 0.207862 0.207862
0.211210 0.211210 0.211210
0.215432 0.215432 0.215432
0.221175 0.221175 0.221175
0.228264 0.228264 0.228264
0.237058 0.237058 0.237058
0.249893 0.249893 0.249893
0.273973 0.273973 0.273973
0.310848 0.310848 0.310848
0.354298 0.354298 0.354298
0.402490 0.402490 0.402490
0.451140 0.451140 0.451140
0.497012 0.497012 0.497012
0.538956 0.538956 0.538956
0.576288 0.576288 0.576288
0.607595 0.607595 0.607595
0.630256 0.630256 0.630256
0.643678 0.643678 0.643678
0.652067 0.652067 0.652067
0.659339 0.659339 0.659339
0.666941 0.666941 0.666941
0.675094 0.675094 0.675094
0.683693 0.683693 0.683693
0.692394 0.692394 0.692394
0.701174 0.701174 0.701174
0.710054 0.710054 0.710054
0.718865 0.718865 0.718865
0.727752 0.727752 0.727752
0.736647 0.736647 0.736647
0.745299 0.745299 0.745299
0.248942 0.248942 0.248942
0.250959 0.250959 0.250959
0.253054 0.253054 0.253054
0.256392 0.256392 0.256392
0.260509 0.260509 0.260509
0.266163 0.266163 0.266163
0.273252 0.273252 0.273252
0.281989 0.281989 0.281989
0.293025 0.293025 0.293025
0.309879 0.309879 0.309879
0.339783 0.339783 0.339783
0.381018 0.381018 0.381018
0.426024 0.426024 0.426024
0.471930 0.471930 0.471930
0.516616 0.516616 0.516616
0.557159 0.557159 0.557159
0.592539 0.592539 0.592539
0.623504 0.623504 0.623504
0.649783 0.649783 0.649783
0.669788 0.669788 0.669788
0.683493 0.683493 0.683493
0.692316 0.692316 0.692316
0.698621 0.698621 0.698621
0.704797 0.704797 0.704797
0.711384 0.711384 0.711384
0.718060 0.718060 0.718060
0.724855 0.724855 0.724855
0.731890 0.731890 0.731890
0.738929 0.738929 0.738929
0.746095 0.746095 0.746095
0.753275 0.753275 0.753275
0.760314 0.760314 0.760314
0.297846 0.297846 0.297846
0.299866 0.299866 0.299866
0.302061 0.302061 0.302061
0.305282 0.305282 0.305282
0.309252 0.309252 0.309252
0.314764 0.314764 0.314764
0.321761 0.321761 0.321761
0.330441 0.330441 0.330441
0.340851 0.340851 0.340851
0.353827 0.353827 0.353827
0.374317 0.374317 0.374317
0.408536 0.408536 0.408536
0.451422 0.451422 0.451422
0.494789 0.494789 0.494789
0.536312 0.536312 0.536312
0.574659 0.574659 0.574659
0.608144 0.608144 0.608144
0.636895 0.636895 0.636895
0.661869 0.661869 0.661869
0.683788 0.683788 0.683788
0.702055 0.702055 0.702055
0.715591 0.715591 0.715591
0.723763 0.723763 0.723763
0.729395 0.729395 0.729395
0.734639 0.734639 0.734639
0.739868 0.739868 0.739868
0.745097 0.745097 0.745097
0.750634 0.750634 0.750634
0.756349 0.756349 0.756349
0.762082 0.762082 0.762082
0.767815 0.767815 0.767815
0.773658 0.773658 0.773658
0.350081 0.350081 0.350081
0.352101 0.352101 0.352101
0.354303 0.354303 0.354303
0.357410 0.357410 0.357410
0.361487 0.361487 0.361487
0.366959 0.366959 0.366959
0.373722 0.373722 0.373722
0.382222 0.382222 0.382222
0.392220 0.392220 0.392220
0.403875 0.403875 0.403875
0.418274 0.418274 0.418274
0.441498 0.441498 0.441498
0.477677 0.477677 0.477677
0.518232 0.518232 0.518232
0.556295 0.556295 0.556295
0.591111 0.591111 0.591111
0.622410 0.622410 0.622410
0.649654 0.649654 0.649654
0.673019 0.673019 0.673019
0.693652 0.693652 0.693652
0.712203 0.712203 0.712203
0.728234 0.728234 0.728234
0.740273 0.740273 0.740273
0.748211 0.748211 0.748211
0.753700 0.753700 0.753700
0.757963 0.757963 0.757963
0.762112 0.762112 0.762112
0.766606 0.766606 0.766606
0.771159 0.771159 0.771159
0.775713 0.775713 0.775713
0.780381 0.780381 0.780381
0.785183 0.785183 0.785183
0.404403 0.404403 0.404403
0.406371 0.406371 0.406371
0.410768 0.410768 0.410768
0.413876 0.413876 0.413876
0.417920 0.417920 0.417920
0.423111 0.423111 0.423111
0.429459 0.429459 0.429459
0.437383 0.437383 0.437383
0.446535 0.446535 0.446535
0.457112 0.457112 0.457112
0.468999 0.468999 0.468999
0.484208 0.484208 0.484208
0.509069 0.509069 0.509069
0.543180 0.543180 0.543180
0.577949 0.577949 0.577949
0.609131 0.609131 0.609131
0.637307 0.637307 0.637307
0.662563 0.662563 0.662563
0.684587 0.684587 0.684587
0.703739 0.703739 0.703739
0.720761 0.720761 0.720761
0.736130 0.736130 0.736130
0.749519 0.749519 0.749519
0.760193 0.760193 0.760193
0.767894 0.767894 0.767894
0.772888 0.772888 0.772888
0.776476 0.776476 0.776476
0.779970 0.779970 0.779970
0.783596 0.783596 0.783596
0.787239 0.787239 0.787239
0.791119 0.791119 0.791119
0.795014 0.795014 0.795014
0.460546 0.460546 0.460546
0.462619 0.462619 0.462619
0.469707 0.469707 0.469707
0.472790 0.472790 0.472790
0.476559 0.476559 0.476559
0.481325 0.481325 0.481325
0.486940 0.486940 0.486940
0.493809 0.493809 0.493809
0.501856 0.501856 0.501856
0.511020 0.511020 0.511020
0.521207 0.521207 0.521207
0.532612 0.532612 0.532612
0.547848 0.547848 0.547848
0.571484 0.571484 0.571484
0.600873 0.600873 0.600873
0.629028 0.629028 0.629028
0.653976 0.653976 0.653976
0.676386 0.676386 0.676386
0.696506 0.696506 0.696506
0.714222 0.714222 0.714222
0.729735 0.729735 0.729735
0.743632 0.743632 0.743632
0.756113 0.756113 0.756113
0.767176 0.767176 0.767176
0.776499 0.776499 0.776499
0.783655 0.783655 0.783655
0.787926 0.787926 0.787926
0.791059 0.791059 0.791059
0.794063 0.794063 0.794063
0.797063 0.797063 0.797063
0.800171 0.800171 0.800171
0.803419 0.803419 0.803419
0.515956 0.515956 0.515956
0.518195 0.518195 0.518195
0.522682 0.522682 0.522682
0.525621 0.525621 0.525621
0.529222 0.529222 0.529222
0.533399 0.533399 0.533399
0.538190 0.538190 0.538190
0.544013 0.544013 0.544013
0.550806 0.550806 0.550806
0.558460 0.558460 0.558460
0.566925 0.566925 0.566925
0.576157 0.576157 0.576157
0.586370 0.586370 0.586370
0.600555 0.600555 0.600555
0.621835 0.621835 0.621835
0.646644 0.646644 0.646644
0.669534 0.669534 0.669534
0.689465 0.689465 0.689465
0.707404 0.707404 0.707404
0.723548 0.723548 0.723548
0.737781 0.737781 0.737781
0.750484 0.750484 0.750484
0.761888 0.761888 0.761888
0.772098 0.772098 0.772098
0.781237 0.781237 0.781237
0.789401 0.789401 0.789401
0.795446 0.795446 0.795446
0.799615 0.799615 0.799615
0.802657 0.802657 0.802657
0.805178 0.805178 0.805178
0.807795 0.807795 0.807795
0.810524 0.810524 0.810524
0.565962 0.565962 0.565962
0.567926 0.567926 0.567926
0.570072 0.570072 0.570072
0.572732 0.572732 0.572732
0.575829 0.575829 0.575829
0.579250 0.579250 0.579250
0.583357 0.583357 0.583357
0.588165 0.588165 0.588165
0.593631 0.593631 0.593631
0.599834 0.599834 0.599834
0.606705 0.606705 0.606705
0.614217 0.614217 0.614217
0.622111 0.622111 0.622111
0.631075 0.631075 0.631075
0.644034 0.644034 0.644034
0.662946 0.662946 0.662946
0.683865 0.683865 0.683865
0.702379 0.702379 0.702379
0.718325 0.718325 0.718325
0.732668 0.732668 0.732668
0.745549 0.745549 0.745549
0.757057 0.757057 0.757057
0.767478 0.767478 0.767478
0.776877 0.776877 0.776877
0.785237 0.785237 0.785237
0.792950 0.792950 0.792950
0.799701 0.799701 0.799701
0.805335 0.805335 0.805335
0.809341 0.809341 0.809341
0.812033 0.812033 0.812033
0.814413 0.814413 0.814413
0.816629 0.816629 0.816629
0.610737 0.610737 0.610737
0.612342 0.612342 0.612342
0.614054 0.614054 0.614054
0.616126 0.616126 0.616126
0.618585 0.618585 0.618585
0.621240 0.621240 0.621240
0.624597 0.624597 0.624597
0.628378 0.628378 0.628378
0.632787 0.632787 0.632787
0.637707 0.637707 0.637707
0.643241 0.643241 0.643241
0.649214 0.649214 0.649214
0.655587 0.655587 0.655587
0.662276 0.662276 0.662276
0.670040 0.670040 0.670040
0.681691 0.681691 0.681691
0.698154 0.698154 0.698154
0.715224 0.715224 0.715224
0.729966 0.729966 0.729966
0.742743 0.742743 0.742743
0.754087 0.754087 0.754087
0.764239 0.764239 0.764239
0.773493 0.773493 0.773493
0.781903 0.781903 0.781903
0.789563 0.789563 0.789563
0.796658 0.796658 0.796658
0.803028 0.803028 0.803028
0.808832 0.808832 0.808832
0.813724 0.813724 0.813724
0.817569 0.817569 0.817569
0.820082 0.820082 0.820082
0.822112 0.822112 0.822112
0.651117 0.651117 0.651117
0.652288 0.652288 0.652288
0.653474 0.653474 0.653474
0.654929 0.654929 0.654929
0.656706 0.656706 0.656706
0.658725 0.658725 0.658725
0.661285 0.661285 0.661285
0.664178 0.664178 0.664178
0.667634 0.667634 0.667634
0.671571 0.671571 0.671571
0.676009 0.676009 0.676009
0.680734 0.680734 0.680734
0.685836 0.685836 0.685836
0.691236 0.691236 0.691236
0.696830 0.696830 0.696830
0.703694 0.703694 0.703694
0.714005 0.714005 0.714005
0.727590 0.727590 0.727590
0.741167 0.741167 0.741167
0.752764 0.752764 0.752764
0.762718 0.762718 0.762718
0.771538 0.771538 0.771538
0.779608 0.779608 0.779608
0.786830 0.786830 0.786830
0.793668 0.793668 0.793668
0.800072 0.800072 0.800072
0.806029 0.806029 0.806029
0.811339 0.811339 0.811339
0.816251 0.816251 0.816251
0.820746 0.820746 0.820746
0.824189 0.824189 0.824189
0.826413 0.826413 0.826413
0.684911 0.684911 0.684911
0.685735 0.685735 0.685735
0.686412 0.686412 0.686412
0.687517 0.687517 0.687517
0.688882 0.688882 0.688882
0.690491 0.690491 0.690491
0.692304 0.692304 0.692304
0.694577 0.694577 0.694577
0.697325 0.697325 0.697325
0.700409 0.700409 0.700409
0.703806 0.703806 0.703806
0.707524 0.707524 0.707524
0.711579 0.711579 0.711579
0.715799 0.715799 0.715799
0.720235 0.720235 0.720235
0.725034 0.725034 0.725034
0.731117 0.731117 0.731117
0.740012 0.740012 0.740012
0.751177 0.751177 0.751177
0.761964 0.761964 0.761964
0.770997 0.770997 0.770997
0.778812 0.778812 0.778812
0.785749 0.785749 0.785749
0.792078 0.792078 0.792078
0.797738 0.797738 0.797738
0.803244 0.803244 0.803244
0.808697 0.808697 0.808697
0.813650 0.813650 0.813650
0.818292 0.818292 0.818292
0.822512 0.822512 0.822512
0.826318 0.826318 0.826318
0.829501 0.829501 0.829501
0.713159 0.713159 0.713159
0.713908 0.713908 0.713908
0.714432 0.714432 0.714432
0.715259 0.715259 0.715259
0.716177 0.716177 0.716177
0.717344 0.717344 0.717344
0.718729 0.718729 0.718729
0.720441 0.720441 0.720441
0.722464 0.722464 0.722464
0.724799 0.724799 0.724799
0.727470 0.727470 0.727470
0.730295 0.730295 0.730295
0.733399 0.733399 0.733399
0.736721 0.736721 0.736721
0.740222 0.740222 0.740222
0.743877 0.743877 0.743877
0.747829 0.747829 0.747829
0.752989 0.752989 0.752989
0.760663 0.760663 0.760663
0.770048 0.770048 0.770048
0.778614 0.778614 0.778614
0.785752 0.785752 0.785752
0.791808 0.791808 0.791808
0.797367 0.797367 0.797367
0.802240 0.802240 0.802240
0.806959 0.806959 0.806959
0.811539 0.811539 0.811539
0.815975 0.815975 0.815975
0.820170 0.820170 0.820170
0.824215 0.824215 0.824215
0.827837 0.827837 0.827837
0.831006 0.831006 0.831006
0.736161 0.736161 0.736161
0.736721 0.736721 0.736721
0.737228 0.737228 0.737228
0.737808 0.737808 0.737808
0.738571 0.738571 0.738571
0.739454 0.739454 0.739454
0.740725 0.740725 0.740725
0.742098 0.742098 0.742098
0.743730 0.743730 0.743730
0.745583 0.745583 0.745583
0.747641 0.747641 0.747641
0.749986 0.749986 0.749986
0.752390 0.752390 0.752390
0.754932 0.754932 0.754932
0.757709 0.757709 0.757709
0.760622 0.760622 0.760622
0.763663 0.763663 0.763663
0.766983 0.766983 0.766983
0.771397 0.771397 0.771397
0.778129 0.778129 0.778129
0.785825 0.785825 0.785825
0.792489 0.792489 0.792489
0.797959 0.797959 0.797959
0.802793 0.802793 0.802793
0.807081 0.807081 0.807081
0.811075 0.811075 0.811075
0.814822 0.814822 0.814822
0.818522 0.818522 0.818522
0.822343 0.822343 0.822343
0.826004 0.826004 0.826004
0.829357 0.829357 0.829357
0.832392 0.832392 0.832392
0.755674 0.755674 0.755674
0.756172 0.756172 0.756172
0.756485 0.756485 0.756485
0.756994 0.756994 0.756994
0.757572 0.757572 0.757572
0.758344 0.758344 0.758344
0.759236 0.759236 0.759236
0.760348 0.760348 0.760348
0.761720 0.761720 0.761720
0.763281 0.763281 0.763281
0.764873 0.764873 0.764873
0.766672 0.766672 0.766672
0.768737 0.768737 0.768737
0.770822 0.770822 0.770822
0.772958 0.772958 0.772958
0.775216 0.775216 0.775216
0.777607 0.777607 0.777607
0.780130 0.780130 0.780130
0.782885 0.782885 0.782885
0.786820 0.786820 0.786820
0.792661 0.792661 0.792661
0.798748 0.798748 0.798748
0.803901 0.803901 0.803901
0.808231 0.808231 0.808231
0.811984 0.811984 0.811984
0.815414 0.815414 0.815414
0.818583 0.818583 0.818583
0.821534 0.821534 0.821534
0.824496 0.824496 0.824496
0.827789 0.827789 0.827789
0.830878 0.830878 0.830878
0.833708 0.833708 0.833708
0.772122 0.772122 0.772122
0.772420 0.772420 0.772420
0.772873 0.772873 0.772873
0.773185 0.773185 0.773185
0.773694 0.773694 0.773694
0.774272 0.774272 0.774272
0.775076 0.775076 0.775076
0.776093 0.776093 0.776093
0.777205 0.777205 0.777205
0.778566 0.778566 0.778566
0.780012 0.780012 0.780012
0.781486 0.781486 0.781486
0.783212 0.783212 0.783212
0.784892 0.784892 0.784892
0.786697 0.786697 0.786697
0.788521 0.788521 0.788521
0.790367 0.790367 0.790367
0.792347 0.792347 0.792347
0.794445 0.794445 0.794445
0.796813 0.796813 0.796813
0.800256 0.800256 0.800256
0.805011 0.805011 0.805011
0.809918 0.809918 0.809918
0.813860 0.813860 0.813860
0.817092 0.817092 0.817092
0.820001 0.820001 0.820001
0.822651 0.822651 0.822651
0.825218 0.825218 0.825218
0.827410 0.827410 0.827410
0.829814 0.829814 0.829814
0.832603 0.832603 0.832603
0.835173 0.835173 0.835173
0.786727 0.786727 0.786727
0.786980 0.786980 0.786980
0.787262 0.787262 0.787262
0.787517 0.787517 0.787517
0.787829 0.787829 0.787829
0.788339 0.788339 0.788339
0.788881 0.788881 0.788881
0.789499 0.789499 0.789499
0.790350 0.790350 0.790350
0.791339 0.791339 0.791339
0.792320 0.792320 0.792320
0.793527 0.793527 0.793527
0.794703 0.794703 0.794703
0.796009 0.796009 0.796009
0.797334 0.797334 0.797334
0.798763 0.798763 0.798763
0.800308 0.800308 0.800308
0.801870 0.801870 0.801870
