gsg/05_BW/GSG_LUT_BW_Simple.cube
# GSG LUTs 1.0
# Copyright (c) 2016-2020 Greyscalegorilla
# See EULA for licensing and distribution information
# Converted by Briz LUT Converter
LUT_3D_SIZE 32
0.050794 0.050794 0.050794
0.063500 0.063508 0.063508
0.071472 0.071716 0.071732
0.078050 0.078317 0.078538
0.085801 0.086384 0.086415
0.099775 0.101075 0.101319
0.111245 0.113096 0.113340
0.120911 0.123518 0.123762
0.131120 0.134609 0.134917
0.143881 0.148631 0.149191
0.154232 0.160243 0.160975
0.164410 0.171767 0.172587
0.175344 0.184403 0.185474
0.186742 0.197818 0.199141
0.198259 0.211351 0.212927
0.208287 0.223396 0.225224
0.217110 0.234235 0.236189
0.226066 0.245342 0.247430
0.235567 0.257111 0.259451
0.245697 0.269660 0.272401
0.256347 0.283146 0.286234
0.267517 0.297507 0.301012
0.277994 0.311261 0.315097
0.286447 0.322266 0.326354
0.295774 0.334806 0.339147
0.306393 0.348954 0.353547
0.316822 0.362913 0.367963
0.326094 0.375501 0.381055
0.336051 0.389176 0.395014
0.346363 0.403041 0.409358
0.356698 0.417141 0.423963
0.367766 0.432479 0.439805
0.063587 0.063594 0.063594
0.072410 0.072670 0.072670
0.081525 0.082038 0.082038
0.090945 0.091741 0.091749
0.101126 0.102465 0.102504
0.111907 0.113965 0.114254
0.122288 0.124958 0.125394
0.133038 0.136773 0.137080
0.144448 0.149450 0.149949
0.155533 0.161800 0.162373
0.165394 0.173014 0.173833
0.175993 0.185218 0.186286
0.187487 0.198574 0.199801
0.197995 0.211103 0.212541
0.208213 0.223448 0.225169
0.217925 0.235311 0.237154
0.227996 0.247654 0.249872
0.238167 0.260354 0.262808
0.247762 0.272478 0.275215
0.258082 0.285621 0.288714
0.268444 0.298861 0.302362
0.278690 0.312211 0.316053
0.288844 0.325639 0.329736
0.298218 0.337945 0.342469
0.308250 0.351324 0.356166
0.318384 0.365177 0.370280
0.328445 0.378615 0.384368
0.337880 0.391534 0.397622
0.347889 0.405078 0.411419
0.357974 0.419143 0.425965
0.368286 0.433251 0.440348
0.378408 0.446926 0.454756
0.074363 0.074623 0.074623
0.083054 0.083582 0.083582
0.092964 0.093760 0.093791
0.103070 0.104411 0.104655
0.113300 0.115413 0.115688
0.124792 0.127717 0.128168
0.135108 0.139054 0.139361
0.145745 0.150813 0.151369
0.157265 0.163799 0.164595
0.167941 0.175890 0.176876
0.178747 0.188470 0.189552
0.188948 0.200446 0.201688
0.199224 0.212668 0.214103
0.210436 0.226078 0.227906
0.220488 0.238276 0.240355
0.229691 0.249628 0.251960
0.239339 0.261663 0.264247
0.249510 0.274609 0.277453
0.259619 0.287515 0.290610
0.269696 0.300528 0.304018
0.279955 0.313980 0.317826
0.290131 0.327283 0.331542
0.300024 0.340380 0.344965
0.309874 0.353688 0.358548
0.320256 0.367612 0.372897
0.330258 0.381134 0.386928
0.339696 0.394097 0.400194
0.348799 0.406517 0.413065
0.359401 0.420852 0.427696
0.369554 0.434787 0.442113
0.379667 0.448697 0.456527
0.390791 0.463862 0.472181
0.084147 0.084659 0.084682
0.094132 0.095165 0.095173
0.105100 0.106463 0.106709
0.115659 0.117801 0.118069
0.125290 0.128448 0.128744
0.138120 0.142365 0.142858
0.148038 0.153497 0.154056
0.158200 0.164838 0.165594
0.169623 0.177987 0.178806
0.180548 0.190520 0.191655
0.191903 0.203806 0.205278
0.201563 0.215398 0.216973
0.211009 0.226698 0.228526
0.222476 0.240817 0.242897
0.232821 0.253607 0.255949
0.241990 0.264964 0.267572
0.250801 0.276056 0.278903
0.260509 0.288553 0.291775
0.270976 0.302200 0.305656
0.281037 0.315412 0.319163
0.291622 0.329362 0.333623
0.301879 0.342991 0.347599
0.311495 0.355884 0.360762
0.321621 0.369486 0.374950
0.331664 0.383217 0.388875
0.341772 0.396740 0.402975
0.351558 0.410076 0.416674
0.360580 0.422426 0.429300
0.370742 0.436463 0.443791
0.380961 0.450501 0.458309
0.391638 0.465221 0.473554
0.403553 0.481366 0.489960
0.094167 0.095025 0.095270
0.105136 0.106720 0.106760
0.117332 0.119707 0.119997
0.128926 0.132140 0.132629
0.138839 0.143124 0.143616
0.151275 0.157029 0.157588
0.160124 0.167077 0.167882
0.169739 0.177971 0.178955
0.181780 0.191973 0.193044
0.192566 0.204628 0.205951
0.203051 0.217162 0.218737
0.212971 0.229120 0.230947
0.222685 0.240957 0.243049
0.233072 0.253850 0.256200
0.243841 0.267396 0.270090
0.253627 0.279748 0.282828
0.262422 0.291002 0.294224
0.271844 0.303245 0.306733
0.282225 0.316930 0.320785
0.292884 0.330956 0.335095
0.303909 0.345552 0.350250
0.314113 0.359239 0.364330
0.323443 0.371888 0.377395
0.333469 0.385516 0.391345
0.342682 0.398164 0.404294
0.353031 0.412224 0.418792
0.363779 0.427089 0.434156
0.373457 0.440187 0.447757
0.382014 0.452106 0.459960
0.392995 0.467029 0.475135
0.404592 0.482832 0.491633
0.415117 0.497089 0.506188
0.108567 0.110394 0.110638
0.118714 0.121141 0.121393
0.129870 0.133318 0.133809
0.141183 0.145838 0.146369
0.151822 0.157619 0.158213
0.162823 0.170074 0.170885
0.171940 0.180400 0.181416
0.181383 0.191497 0.192569
0.192488 0.204619 0.205943
0.203306 0.217524 0.219100
0.214077 0.230564 0.232392
0.224093 0.242805 0.244885
0.234118 0.255126 0.257552
0.244808 0.268550 0.271292
0.254902 0.281460 0.284428
0.264766 0.294087 0.297419
0.274260 0.306480 0.310064
0.284078 0.319377 0.323234
0.294491 0.333067 0.337337
0.304596 0.346473 0.351247
0.314743 0.360095 0.365322
0.325078 0.374112 0.379564
0.335066 0.387723 0.393533
0.344202 0.400218 0.406339
0.354328 0.413999 0.420750
0.364709 0.428327 0.435440
0.374839 0.442106 0.449677
0.383996 0.454620 0.462660
0.394568 0.469136 0.477490
0.405102 0.483401 0.492047
0.415135 0.497134 0.506233
0.424971 0.510260 0.519863
0.120414 0.122998 0.123290
0.132194 0.135927 0.136225
0.142138 0.146836 0.147340
0.152340 0.158142 0.158898
0.164038 0.171401 0.172384
0.175177 0.184134 0.185197
0.184924 0.195663 0.196932
0.194729 0.207365 0.208688
0.205144 0.219808 0.221396
0.215452 0.232238 0.234113
0.225705 0.244775 0.246887
0.235902 0.257446 0.259795
0.246196 0.270514 0.273221
0.256875 0.284005 0.287085
0.267042 0.297111 0.300464
0.276320 0.309176 0.312808
0.286000 0.321805 0.325713
0.296270 0.335423 0.339714
0.306326 0.348750 0.353523
0.316239 0.362099 0.367348
0.326355 0.375920 0.381370
0.336673 0.389854 0.395785
0.346662 0.403545 0.409904
0.356020 0.416356 0.423016
0.365991 0.429958 0.437224
0.376305 0.444043 0.451660
0.386475 0.458034 0.466108
0.396435 0.471611 0.479977
0.406855 0.485836 0.494675
0.416887 0.499243 0.508586
0.426538 0.512173 0.521784
0.436409 0.525322 0.535381
0.132703 0.136209 0.136752
0.145061 0.150248 0.150791
0.154307 0.160384 0.160944
0.163480 0.170819 0.171625
0.175452 0.184613 0.185629
0.186969 0.197951 0.199266
0.197290 0.210166 0.211687
0.206975 0.222021 0.223596
0.216960 0.234114 0.236005
0.227406 0.246943 0.249267
0.237434 0.259414 0.261929
0.247737 0.272343 0.275068
0.258338 0.285723 0.288858
0.268786 0.299217 0.302604
0.279011 0.312608 0.316357
0.288148 0.324614 0.328723
0.297869 0.337543 0.342030
0.308485 0.351810 0.356694
0.318477 0.365136 0.370381
0.328172 0.378284 0.383895
0.337933 0.391712 0.397597
0.348141 0.405534 0.411873
0.358265 0.419417 0.426239
0.367881 0.432649 0.439918
0.377706 0.446003 0.453762
0.388000 0.460023 0.468134
0.398299 0.474263 0.482841
0.408386 0.488064 0.496934
0.418365 0.501199 0.510541
0.428135 0.514405 0.524200
0.438121 0.527733 0.537793
0.448312 0.541148 0.551514
0.146126 0.151144 0.151877
0.157293 0.163880 0.164615
0.166742 0.174643 0.175454
0.176057 0.185173 0.186219
0.186607 0.197683 0.198840
0.198093 0.211195 0.212753
0.208206 0.223403 0.225124
0.217645 0.234960 0.236802
0.227663 0.247200 0.249389
0.238770 0.261108 0.263684
0.249155 0.274221 0.277069
0.259325 0.287144 0.290352
0.269657 0.300378 0.303955
0.280014 0.313973 0.317802
0.290222 0.327405 0.331624
0.299977 0.340373 0.344925
0.310056 0.353822 0.358720
0.320597 0.367996 0.373321
0.330702 0.381777 0.387391
0.340012 0.394454 0.400496
0.349285 0.407101 0.413490
0.359358 0.420850 0.427778
0.369706 0.435062 0.442425
0.379226 0.448217 0.455850
0.389425 0.462042 0.470117
0.399898 0.476219 0.484798
0.409946 0.489983 0.499013
0.419268 0.502595 0.511961
0.428914 0.515567 0.525357
0.439249 0.529127 0.539245
0.449825 0.543151 0.553525
0.460475 0.556777 0.567647
0.157942 0.164473 0.165276
0.169655 0.178015 0.178829
0.180399 0.190349 0.191479
0.190130 0.201749 0.203064
0.199348 0.212763 0.214331
0.209700 0.225183 0.226974
0.220651 0.238522 0.240435
0.230855 0.251194 0.253439
0.240466 0.263093 0.265687
0.251161 0.276785 0.279663
0.261468 0.289842 0.293001
0.271587 0.302883 0.306459
0.281492 0.315924 0.319780
0.291364 0.328953 0.333105
0.301832 0.342850 0.347442
0.312157 0.356654 0.361727
0.321862 0.369672 0.375034
0.331522 0.382843 0.388530
0.341545 0.396689 0.402761
0.351136 0.409685 0.416232
0.361297 0.423528 0.430467
0.371461 0.437560 0.444893
0.381141 0.450849 0.458663
0.390668 0.463852 0.471989
0.401253 0.478271 0.486849
0.411525 0.492166 0.501249
0.421317 0.505428 0.514810
0.431042 0.518307 0.528154
0.441145 0.531757 0.541887
0.451559 0.545296 0.555840
0.462206 0.559071 0.569948
0.473252 0.572973 0.584277
0.169506 0.177707 0.178762
0.181501 0.191715 0.192784
0.192711 0.204858 0.206328
0.203017 0.217164 0.218732
0.212245 0.228260 0.230079
0.221776 0.239912 0.241984
0.233179 0.254015 0.256386
0.243477 0.266921 0.269703
0.252410 0.278185 0.281134
0.263703 0.292778 0.296054
0.274245 0.306546 0.310035
0.284157 0.319425 0.323332
0.293613 0.331905 0.336129
0.303231 0.344753 0.349362
0.313585 0.358636 0.363654
0.324096 0.372794 0.378236
0.333841 0.386024 0.391844
0.343491 0.399177 0.405463
0.353752 0.413360 0.420009
0.363440 0.426633 0.433683
0.373732 0.440675 0.448229
0.384210 0.455020 0.462967
0.394053 0.468471 0.476813
0.403415 0.481181 0.489823
0.413484 0.494783 0.503866
0.423624 0.508472 0.517995
0.433840 0.522012 0.531885
0.444154 0.535672 0.545954
0.454417 0.548930 0.559557
0.464516 0.562128 0.573014
0.475308 0.575638 0.587013
0.488219 0.590067 0.601544
0.183323 0.193800 0.195108
0.194614 0.207112 0.208431
0.205237 0.219905 0.221560
0.215479 0.232171 0.234078
0.224885 0.243684 0.245842
0.234045 0.255080 0.257477
0.245017 0.268974 0.271580
0.255393 0.282085 0.285090
0.264429 0.293632 0.296956
0.275242 0.307703 0.311280
0.285979 0.321857 0.325765
0.296046 0.335204 0.339559
0.305555 0.347861 0.352525
0.315256 0.360862 0.365880
0.325402 0.374525 0.380008
0.335358 0.388093 0.394032
0.345324 0.401758 0.408120
0.355634 0.415857 0.422647
0.365679 0.429674 0.436826
0.374924 0.442341 0.449843
0.385494 0.456795 0.464767
0.396498 0.471700 0.480176
0.406532 0.485314 0.494183
0.415923 0.498053 0.507199
0.425542 0.510949 0.520536
0.435481 0.524222 0.534116
0.445884 0.537916 0.548267
0.457048 0.552494 0.563136
0.467281 0.565584 0.576620
0.477364 0.578358 0.589744
0.489330 0.591262 0.602890
0.505613 0.605081 0.616385
0.197282 0.210249 0.211714
0.207422 0.222408 0.224075
0.217539 0.234652 0.236710
0.227528 0.246945 0.249176
0.237060 0.258758 0.261327
0.246247 0.270391 0.273187
0.256867 0.283929 0.286851
0.267195 0.297281 0.300511
0.276597 0.309446 0.313141
0.286337 0.322336 0.326354
0.296972 0.336462 0.340810
0.307440 0.350405 0.355191
0.317263 0.363661 0.368771
0.327015 0.376839 0.382361
0.336867 0.390147 0.396063
0.346513 0.403377 0.409709
0.356820 0.417514 0.424350
0.367208 0.431770 0.439065
0.376761 0.444790 0.452447
0.386143 0.457571 0.465538
0.397176 0.472695 0.481048
0.408229 0.487610 0.496432
0.418110 0.500953 0.510280
0.427759 0.513852 0.523502
0.437363 0.526708 0.536726
0.447139 0.539564 0.549868
0.457458 0.552955 0.563716
0.469215 0.567959 0.579093
0.479709 0.581118 0.592516
0.491225 0.593215 0.604740
0.505698 0.605126 0.616423
0.523006 0.618441 0.629241
0.208027 0.223215 0.224885
0.217978 0.235193 0.237257
0.228351 0.247966 0.250272
0.238682 0.261042 0.263482
0.248838 0.273696 0.276516
0.258267 0.285814 0.288887
0.268986 0.299586 0.302930
0.279064 0.312739 0.316450
0.288125 0.324632 0.328767
0.298501 0.338292 0.342890
0.308983 0.352436 0.357405
0.319140 0.366192 0.371495
0.328883 0.379424 0.385048
0.338744 0.392735 0.398778
0.348347 0.405890 0.412254
0.358542 0.419740 0.426648
0.368686 0.433632 0.440992
0.378213 0.446748 0.454444
0.388035 0.460154 0.468272
0.398637 0.474608 0.483170
0.409491 0.489323 0.498232
0.419812 0.503204 0.512531
0.429694 0.516481 0.526239
0.439665 0.529654 0.539782
0.449439 0.542510 0.552916
0.459238 0.555343 0.566001
0.469684 0.568608 0.579638
0.481780 0.583279 0.594707
0.493979 0.595837 0.607350
0.508200 0.607130 0.618190
0.523381 0.618800 0.629493
0.540399 0.631801 0.642097
0.219481 0.237189 0.239253
0.229674 0.249529 0.251845
0.239766 0.262264 0.264832
0.250032 0.275314 0.278145
0.260562 0.288730 0.291898
0.269975 0.301034 0.304376
0.279897 0.313889 0.317622
0.289953 0.327044 0.331227
0.299884 0.340290 0.344788
0.309992 0.353664 0.358666
0.320135 0.367415 0.372842
0.330339 0.381353 0.387119
0.340435 0.395041 0.401268
0.350441 0.408663 0.415215
0.360450 0.422453 0.429304
0.370364 0.435977 0.443337
0.379899 0.448927 0.456721
0.389549 0.462174 0.470283
0.399892 0.476301 0.484864
0.410281 0.490413 0.499413
0.420449 0.504092 0.513466
0.430541 0.517582 0.527339
0.440859 0.531230 0.541359
0.451465 0.545201 0.555796
0.461507 0.558171 0.569081
0.471516 0.570972 0.582134
0.482466 0.584145 0.595467
0.496614 0.597878 0.609146
0.511024 0.609432 0.620468
0.526056 0.620868 0.631527
0.541629 0.632798 0.642853
0.557903 0.645051 0.654843
0.230249 0.250479 0.252795
0.240950 0.263704 0.266276
0.251628 0.277284 0.280215
0.262068 0.290719 0.293826
0.272291 0.303769 0.307439
0.281637 0.316222 0.320036
0.291180 0.328708 0.332828
0.301407 0.342247 0.346843
0.312178 0.356731 0.361703
0.321746 0.369554 0.374942
0.331655 0.383033 0.388885
0.341786 0.396823 0.403094
0.352044 0.410832 0.417512
0.362171 0.424813 0.431847
0.372015 0.438331 0.445759
0.381843 0.451745 0.459544
0.391719 0.465142 0.473445
0.401802 0.478897 0.487570
0.412093 0.492815 0.501882
0.421986 0.506115 0.515537
0.431722 0.519101 0.528932
0.441799 0.532498 0.542668
0.452440 0.546368 0.556879
0.463548 0.560722 0.571703
0.473725 0.573800 0.585096
0.484903 0.586505 0.597958
0.498182 0.599147 0.610525
0.514048 0.611657 0.622591
0.528547 0.622817 0.633360
0.543818 0.634353 0.644523
0.559553 0.646307 0.655973
0.575430 0.658159 0.667447
0.241593 0.264595 0.267163
0.252424 0.278333 0.281283
0.263240 0.292181 0.295490
0.273891 0.305957 0.309443
0.283887 0.318910 0.322975
0.293314 0.331595 0.335893
0.303329 0.344812 0.349310
0.313645 0.358616 0.363618
0.323993 0.372677 0.378121
0.333394 0.385577 0.391307
0.343084 0.398707 0.404851
0.353219 0.412505 0.419153
0.363591 0.426692 0.433799
0.373535 0.440283 0.447822
0.383233 0.453581 0.461514
0.393365 0.467484 0.475787
0.403891 0.481791 0.490598
0.414004 0.495428 0.504536
0.423555 0.508290 0.517808
0.433309 0.521346 0.531194
0.443436 0.534641 0.544850
0.453817 0.548127 0.558760
0.464540 0.561996 0.572922
0.475835 0.576257 0.587617
0.487150 0.588912 0.600294
0.500674 0.601097 0.612347
0.516132 0.613218 0.624239
0.531775 0.625208 0.635764
0.545737 0.635734 0.645899
0.560606 0.646974 0.656647
0.576438 0.658911 0.668195
0.592950 0.671141 0.679924
0.253779 0.279940 0.282894
0.264363 0.293683 0.296999
0.274843 0.307197 0.310774
0.285433 0.320973 0.324951
0.295849 0.334788 0.339238
0.305057 0.347273 0.351975
0.315142 0.360681 0.365684
0.325259 0.374358 0.379834
0.335096 0.387856 0.393704
0.344881 0.401219 0.407458
0.354555 0.414388 0.421052
0.364629 0.428199 0.435320
0.374860 0.442182 0.449668
0.384679 0.455601 0.463510
0.394759 0.469337 0.477700
0.405022 0.483297 0.492039
0.415264 0.497181 0.506358
0.425061 0.510373 0.519860
0.434539 0.522987 0.532882
0.444613 0.536303 0.546531
0.455158 0.550010 0.560605
0.466017 0.563894 0.574903
0.477097 0.577904 0.589296
0.489651 0.591276 0.602742
0.503109 0.603046 0.614225
0.518199 0.614886 0.625680
0.533898 0.626852 0.637256
0.548516 0.637901 0.647935
0.562733 0.648468 0.658236
0.577438 0.659506 0.668794
0.592967 0.671024 0.679937
0.609390 0.683194 0.691473
0.265375 0.294813 0.298129
0.276104 0.308957 0.312668
0.286682 0.322722 0.326701
0.297160 0.336620 0.341103
0.307747 0.350577 0.355532
0.316682 0.362789 0.367996
0.326295 0.375726 0.381232
0.336273 0.389320 0.395307
0.346350 0.403225 0.409600
0.356380 0.416867 0.423600
0.366605 0.430900 0.438037
0.376513 0.444503 0.452058
0.386246 0.457804 0.465721
0.396412 0.471606 0.480050
0.406560 0.485406 0.494291
0.416484 0.498800 0.507993
0.426222 0.511847 0.521418
0.436006 0.524958 0.534899
0.446101 0.538189 0.548524
0.456560 0.551822 0.562511
0.467239 0.565528 0.576536
0.478565 0.579829 0.591125
0.491912 0.593512 0.604932
0.506106 0.605406 0.616587
0.520767 0.616786 0.627578
0.536216 0.628615 0.638926
0.551370 0.640125 0.649933
0.564958 0.650292 0.659808
0.580277 0.661623 0.670887
0.595218 0.672756 0.681407
0.609916 0.683573 0.691947
0.625334 0.694962 0.702737
0.277419 0.310434 0.314152
0.288536 0.325076 0.329290
0.298634 0.338593 0.343065
0.308355 0.351539 0.356376
0.318054 0.364534 0.369844
0.327419 0.377331 0.382916
0.337275 0.390666 0.396647
0.347491 0.404608 0.411007
0.357662 0.418570 0.425487
0.367131 0.431667 0.438768
0.377466 0.445850 0.453388
0.388256 0.460547 0.468556
0.398692 0.474840 0.483329
0.408626 0.488149 0.497138
0.418500 0.501440 0.510803
0.428130 0.514405 0.524103
0.437786 0.527213 0.537211
0.447706 0.540336 0.550632
0.458072 0.553751 0.564441
0.468751 0.567359 0.578495
0.479651 0.581008 0.592453
0.493030 0.594737 0.606030
0.508799 0.607606 0.618717
0.523526 0.618898 0.629689
0.539441 0.631000 0.641311
0.554057 0.642029 0.651957
0.567824 0.652403 0.661856
0.583370 0.664005 0.673036
0.598391 0.675041 0.683800
0.612986 0.685836 0.694027
0.627801 0.696870 0.704642
0.644413 0.709008 0.716279
0.290086 0.327039 0.331262
0.301215 0.341854 0.346421
0.310709 0.354857 0.359827
0.320089 0.367463 0.372694
0.329877 0.380803 0.386385
0.339123 0.393304 0.399315
0.349254 0.407041 0.413509
0.359537 0.421233 0.428027
0.369521 0.434935 0.442256
0.379394 0.448409 0.456105
0.389965 0.462811 0.470961
0.400712 0.477482 0.486029
0.411058 0.491486 0.500477
0.420770 0.504475 0.513837
0.430470 0.517524 0.527268
0.440517 0.530858 0.540977
0.450791 0.544283 0.554736
0.460995 0.557549 0.568341
0.471341 0.570655 0.581820
0.482205 0.583550 0.595057
0.495560 0.596654 0.608141
0.511249 0.609610 0.620520
0.527247 0.621873 0.632435
0.542332 0.633280 0.643550
0.557239 0.644438 0.654245
0.571640 0.655194 0.664567
0.586019 0.665971 0.674989
0.601649 0.677484 0.686023
0.616126 0.688125 0.696381
0.631075 0.699146 0.706921
0.646193 0.710321 0.717591
0.661082 0.721234 0.728000
0.302777 0.343928 0.348655
0.313322 0.358242 0.363228
0.322798 0.371071 0.376546
0.332017 0.383598 0.389341
0.341822 0.397004 0.403159
0.351562 0.410307 0.416821
0.361660 0.424103 0.431107
0.371714 0.437831 0.445276
0.381566 0.451358 0.459264
0.392107 0.465793 0.474080
0.402867 0.480478 0.489190
0.413223 0.494463 0.503514
0.423040 0.507502 0.517027
0.432668 0.520406 0.530318
0.442432 0.533408 0.543617
0.452666 0.546754 0.557333
0.463424 0.560663 0.571535
0.474170 0.574418 0.585596
0.485348 0.587075 0.598519
0.497953 0.598746 0.610170
0.513629 0.611293 0.622368
0.530111 0.623904 0.634535
0.545546 0.635647 0.645857
0.560300 0.646668 0.656455
0.574674 0.657450 0.666754
0.589421 0.668471 0.677270
0.604359 0.679489 0.687989
0.619245 0.690498 0.698533
0.633676 0.701138 0.708740
0.648649 0.712101 0.719362
0.663768 0.723187 0.729954
0.678010 0.733719 0.739982
0.314861 0.360124 0.365355
0.324993 0.373860 0.379345
0.334384 0.386853 0.392669
0.343635 0.399242 0.405480
0.353053 0.412243 0.418819
0.363712 0.426834 0.433853
0.373583 0.440439 0.447928
0.383354 0.453739 0.461632
0.393409 0.467449 0.475917
0.403989 0.481962 0.490753
0.414873 0.496554 0.505826
0.425200 0.510464 0.520131
0.435003 0.523431 0.533424
0.444689 0.536287 0.546575
0.454488 0.549175 0.559715
0.464606 0.562139 0.573049
0.475534 0.576040 0.587291
0.487879 0.589599 0.601013
0.501282 0.601516 0.612792
0.515581 0.612832 0.623813
0.531611 0.625046 0.635617
0.547758 0.637277 0.647392
0.562913 0.648678 0.658312
0.577166 0.659299 0.668557
0.592439 0.670622 0.679555
0.607212 0.681551 0.690019
0.621581 0.692225 0.700249
0.636672 0.703400 0.710931
0.651148 0.714073 0.721100
0.665487 0.724564 0.731153
0.680395 0.735450 0.741707
0.696412 0.747332 0.753090
0.325803 0.374918 0.380472
0.335862 0.388690 0.394677
0.345212 0.401622 0.407877
0.355012 0.414886 0.421639
0.365625 0.429512 0.436712
0.375169 0.442547 0.450193
0.384532 0.455492 0.463326
0.394572 0.469143 0.477444
0.405279 0.483692 0.492484
0.415371 0.497407 0.506521
0.426294 0.511879 0.521497
0.436995 0.526065 0.536101
0.446990 0.539312 0.549600
0.456683 0.552092 0.562708
0.466670 0.564925 0.575898
0.477291 0.578231 0.589574
0.489846 0.591628 0.603069
0.504115 0.603841 0.615038
0.518824 0.615293 0.626124
0.534719 0.627379 0.637856
0.550390 0.639229 0.649297
0.565115 0.650338 0.660023
0.580002 0.661502 0.670613
0.595681 0.673177 0.681779
0.609657 0.683338 0.691641
0.624090 0.694002 0.701856
0.639083 0.705115 0.712617
0.653620 0.715797 0.722824
0.668489 0.726713 0.733235
0.682342 0.736937 0.743125
0.696443 0.747207 0.753139
0.711552 0.758588 0.763843
0.337146 0.390421 0.396416
0.347029 0.404077 0.410385
0.356753 0.417330 0.424089
0.366634 0.430775 0.438038
0.377011 0.445043 0.452786
0.387330 0.459172 0.467237
0.397022 0.472394 0.480833
0.406971 0.485939 0.494730
0.417190 0.499821 0.509102
0.427044 0.512924 0.522613
0.437243 0.526530 0.536589
0.447757 0.540230 0.550707
0.458297 0.554047 0.564776
0.468716 0.567538 0.578542
0.478987 0.580497 0.591785
0.491350 0.593307 0.604691
0.506410 0.605760 0.616852
0.521526 0.617481 0.628202
0.536296 0.628722 0.639049
0.551417 0.640096 0.650069
0.567300 0.651947 0.661510
0.582510 0.663299 0.672396
0.597235 0.674260 0.682831
0.612495 0.685517 0.693708
0.626211 0.695564 0.703342
0.640855 0.706330 0.713616
0.655857 0.717309 0.724296
0.669286 0.727246 0.733769
0.683992 0.737999 0.744188
0.697727 0.748336 0.754090
0.711393 0.758431 0.763738
0.725795 0.769113 0.774052
0.348348 0.405908 0.412210
0.358573 0.419906 0.426665
0.368404 0.433266 0.440529
0.378277 0.446693 0.454460
0.388607 0.460836 0.469075
0.399118 0.475300 0.483832
0.408949 0.488622 0.497610
0.418790 0.501801 0.511096
0.428709 0.515108 0.524856
0.438743 0.528487 0.538580
0.448872 0.541707 0.552207
0.459503 0.555450 0.566304
0.470490 0.569638 0.580871
0.481251 0.582938 0.594340
0.493442 0.595262 0.606536
0.508475 0.607437 0.618402
0.524206 0.619460 0.630148
0.539147 0.630872 0.641178
0.553878 0.641959 0.651782
0.568044 0.652606 0.662074
0.584020 0.664510 0.673569
0.599842 0.676175 0.684730
0.614465 0.686953 0.695004
0.628952 0.697624 0.705352
0.643211 0.708126 0.715413
0.657651 0.718758 0.725699
0.672291 0.729403 0.735918
0.686117 0.739833 0.745851
0.699950 0.749905 0.755640
0.713216 0.759843 0.765097
0.726612 0.769916 0.774857
0.741148 0.780685 0.785175
0.359849 0.421490 0.428453
0.370168 0.435787 0.443050
0.379999 0.449147 0.456914
0.389917 0.462638 0.470889
0.400548 0.477214 0.485779
0.410304 0.490534 0.499536
0.420095 0.503635 0.512962
0.429761 0.516578 0.526331
0.439814 0.529971 0.540007
0.450412 0.543956 0.554315
0.460851 0.557355 0.568205
0.472101 0.571577 0.582833
0.484007 0.585793 0.597247
0.496332 0.597602 0.608908
0.510579 0.609051 0.619991
0.526568 0.621318 0.631885
0.541900 0.632974 0.643183
0.556290 0.643710 0.653645
0.571232 0.654796 0.664320
0.585215 0.665297 0.674340
0.600979 0.676996 0.685551
0.616949 0.688760 0.696811
0.631620 0.699571 0.707263
0.645988 0.710158 0.717434
0.660515 0.720745 0.727686
0.674435 0.731167 0.737517
0.688545 0.741543 0.747528
0.703710 0.752633 0.758325
0.716429 0.762082 0.767333
0.729274 0.771662 0.776604
0.742605 0.781915 0.786404
0.756777 0.792532 0.796723
0.372508 0.438820 0.446327
0.381558 0.451256 0.459024
0.391622 0.465069 0.473341
0.401884 0.479065 0.487817
0.411962 0.492702 0.501710
0.421361 0.505371 0.514693
0.431007 0.518116 0.527915
0.440909 0.531295 0.541543
0.451267 0.544937 0.555438
0.461930 0.558768 0.569592
0.472862 0.572564 0.583823
0.485264 0.586924 0.598381
0.499445 0.600120 0.611515
0.513416 0.611228 0.622288
0.528413 0.622663 0.633233
0.544305 0.634659 0.644742
0.558238 0.645157 0.654972
0.571829 0.655289 0.664838
