gsg/05_BW/GSG_LUT_BW_Kodalith.cube
# GSG LUTs 1.0
# Copyright (c) 2016-2020 Greyscalegorilla
# See EULA for licensing and distribution information
# Converted by Briz LUT Converter
LUT_3D_SIZE 32
0.092063 0.092063 0.092063
0.092071 0.092071 0.092071
0.092308 0.092308 0.092308
0.092331 0.092331 0.092331
0.092615 0.092615 0.092615
0.093080 0.093080 0.093080
0.093332 0.093332 0.093332
0.093694 0.093694 0.093694
0.094324 0.094324 0.094324
0.094718 0.094718 0.094718
0.095396 0.095396 0.095396
0.096073 0.096073 0.096073
0.096987 0.096987 0.096987
0.097846 0.097846 0.097846
0.098854 0.098854 0.098854
0.099980 0.099980 0.099980
0.101241 0.101241 0.101241
0.102635 0.102635 0.102635
0.104289 0.104289 0.104289
0.106054 0.106054 0.106054
0.107818 0.107818 0.107818
0.109914 0.109914 0.109914
0.112182 0.112182 0.112182
0.114814 0.114814 0.114814
0.117775 0.117775 0.117775
0.120800 0.120800 0.120800
0.124235 0.124235 0.124235
0.128189 0.128189 0.128189
0.132884 0.132884 0.132884
0.139044 0.139044 0.139044
0.147237 0.147237 0.147237
0.158974 0.158974 0.158974
0.092331 0.092331 0.092331
0.092591 0.092591 0.092591
0.093310 0.093310 0.093310
0.093562 0.093562 0.093562
0.093645 0.093645 0.093645
0.094096 0.094096 0.094096
0.094349 0.094349 0.094349
0.094715 0.094715 0.094715
0.095335 0.095335 0.095335
0.095732 0.095732 0.095732
0.096406 0.096406 0.096406
0.097086 0.097086 0.097086
0.097995 0.097995 0.097995
0.098854 0.098854 0.098854
0.099862 0.099862 0.099862
0.100989 0.100989 0.100989
0.102375 0.102375 0.102375
0.103758 0.103758 0.103758
0.105164 0.105164 0.105164
0.106971 0.106971 0.106971
0.108984 0.108984 0.108984
0.111006 0.111006 0.111006
0.113372 0.113372 0.113372
0.115893 0.115893 0.115893
0.118786 0.118786 0.118786
0.121815 0.121815 0.121815
0.125251 0.125251 0.125251
0.129212 0.129212 0.129212
0.134136 0.134136 0.134136
0.140564 0.140564 0.140564
0.149032 0.149032 0.149032
0.161038 0.161038 0.161038
0.093072 0.093072 0.093072
0.093119 0.093119 0.093119
0.093639 0.093639 0.093639
0.094627 0.094627 0.094627
0.095325 0.095325 0.095325
0.095419 0.095419 0.095419
0.095716 0.095716 0.095716
0.096152 0.096152 0.096152
0.096463 0.096463 0.096463
0.096955 0.096955 0.096955
0.097538 0.097538 0.097538
0.098295 0.098295 0.098295
0.099057 0.099057 0.099057
0.099919 0.099919 0.099919
0.100925 0.100925 0.100925
0.102052 0.102052 0.102052
0.103431 0.103431 0.103431
0.104934 0.104934 0.104934
0.106449 0.106449 0.106449
0.108127 0.108127 0.108127
0.110056 0.110056 0.110056
0.112227 0.112227 0.112227
0.114664 0.114664 0.114664
0.117185 0.117185 0.117185
0.119907 0.119907 0.119907
0.123077 0.123077 0.123077
0.126572 0.126572 0.126572
0.130755 0.130755 0.130755
0.135953 0.135953 0.135953
0.142893 0.142893 0.142893
0.152143 0.152143 0.152143
0.164709 0.164709 0.164709
0.093623 0.093623 0.093623
0.094120 0.094120 0.094120
0.094416 0.094416 0.094416
0.095404 0.095404 0.095404
0.096638 0.096638 0.096638
0.097585 0.097585 0.097585
0.097921 0.097921 0.097921
0.098192 0.098192 0.098192
0.098450 0.098450 0.098450
0.098791 0.098791 0.098791
0.099366 0.099366 0.099366
0.100106 0.100106 0.100106
0.100957 0.100957 0.100957
0.101873 0.101873 0.101873
0.102853 0.102853 0.102853
0.103993 0.103993 0.103993
0.105266 0.105266 0.105266
0.106645 0.106645 0.106645
0.108175 0.108175 0.108175
0.110079 0.110079 0.110079
0.112096 0.112096 0.112096
0.114128 0.114128 0.114128
0.116499 0.116499 0.116499
0.119038 0.119038 0.119038
0.121943 0.121943 0.121943
0.125164 0.125164 0.125164
0.128871 0.128871 0.128871
0.133356 0.133356 0.133356
0.139069 0.139069 0.139069
0.146790 0.146790 0.146790
0.157088 0.157088 0.157088
0.170767 0.170767 0.170767
0.094663 0.094663 0.094663
0.095158 0.095158 0.095158
0.095394 0.095394 0.095394
0.095936 0.095936 0.095936
0.097200 0.097200 0.097200
0.098683 0.098683 0.098683
0.099879 0.099879 0.099879
0.100465 0.100465 0.100465
0.100910 0.100910 0.100910
0.101428 0.101428 0.101428
0.101910 0.101910 0.101910
0.102501 0.102501 0.102501
0.103352 0.103352 0.103352
0.104360 0.104360 0.104360
0.105368 0.105368 0.105368
0.106480 0.106480 0.106480
0.107850 0.107850 0.107850
0.109246 0.109246 0.109246
0.110680 0.110680 0.110680
0.112486 0.112486 0.112486
0.114511 0.114511 0.114511
0.116725 0.116725 0.116725
0.119267 0.119267 0.119267
0.122029 0.122029 0.122029
0.125048 0.125048 0.125048
0.128386 0.128386 0.128386
0.132407 0.132407 0.132407
0.137689 0.137689 0.137689
0.144337 0.144337 0.144337
0.153267 0.153267 0.153267
0.165075 0.165075 0.165075
0.180755 0.180755 0.180755
0.096002 0.096002 0.096002
0.096413 0.096413 0.096413
0.096470 0.096470 0.096470
0.096818 0.096818 0.096818
0.097783 0.097783 0.097783
0.099334 0.099334 0.099334
0.101067 0.101067 0.101067
0.102661 0.102661 0.102661
0.104096 0.104096 0.104096
0.104902 0.104902 0.104902
0.105358 0.105358 0.105358
0.105961 0.105961 0.105961
0.106786 0.106786 0.106786
0.107795 0.107795 0.107795
0.108803 0.108803 0.108803
0.109830 0.109830 0.109830
0.111111 0.111111 0.111111
0.112624 0.112624 0.112624
0.114278 0.114278 0.114278
0.116067 0.116067 0.116067
0.118161 0.118161 0.118161
0.120622 0.120622 0.120622
0.123793 0.123793 0.123793
0.126966 0.126966 0.126966
0.130471 0.130471 0.130471
0.134744 0.134744 0.134744
0.139840 0.139840 0.139840
0.146608 0.146608 0.146608
0.155273 0.155273 0.155273
0.166682 0.166682 0.166682
0.181461 0.181461 0.181461
0.200354 0.200354 0.200354
0.097719 0.097719 0.097719
0.097775 0.097775 0.097775
0.098039 0.098039 0.098039
0.098476 0.098476 0.098476
0.098867 0.098867 0.098867
0.100295 0.100295 0.100295
0.102116 0.102116 0.102116
0.104182 0.104182 0.104182
0.106259 0.106259 0.106259
0.108216 0.108216 0.108216
0.109611 0.109611 0.109611
0.110523 0.110523 0.110523
0.111308 0.111308 0.111308
0.112297 0.112297 0.112297
0.113299 0.113299 0.113299
0.114451 0.114451 0.114451
0.115813 0.115813 0.115813
0.117329 0.117329 0.117329
0.119004 0.119004 0.119004
0.120919 0.120919 0.120919
0.123123 0.123123 0.123123
0.125739 0.125739 0.125739
0.128719 0.128719 0.128719
0.132079 0.132079 0.132079
0.136308 0.136308 0.136308
0.141614 0.141614 0.141614
0.148090 0.148090 0.148090
0.156484 0.156484 0.156484
0.167178 0.167178 0.167178
0.180756 0.180756 0.180756
0.197913 0.197913 0.197913
0.219150 0.219150 0.219150
0.099287 0.099287 0.099287
0.099594 0.099594 0.099594
0.099846 0.099846 0.099846
0.100098 0.100098 0.100098
0.100406 0.100406 0.100406
0.101254 0.101254 0.101254
0.103010 0.103010 0.103010
0.105235 0.105235 0.105235
0.107595 0.107595 0.107595
0.110284 0.110284 0.110284
0.113010 0.113010 0.113010
0.115257 0.115257 0.115257
0.116850 0.116850 0.116850
0.117971 0.117971 0.117971
0.118987 0.118987 0.118987
0.120217 0.120217 0.120217
0.121506 0.121506 0.121506
0.123061 0.123061 0.123061
0.124858 0.124858 0.124858
0.126829 0.126829 0.126829
0.129253 0.129253 0.129253
0.132090 0.132090 0.132090
0.135420 0.135420 0.135420
0.139731 0.139731 0.139731
0.145157 0.145157 0.145157
0.151878 0.151878 0.151878
0.160321 0.160321 0.160321
0.170893 0.170893 0.170893
0.183832 0.183832 0.183832
0.200032 0.200032 0.200032
0.219741 0.219741 0.219741
0.243326 0.243326 0.243326
0.101241 0.101241 0.101241
0.101672 0.101672 0.101672
0.101863 0.101863 0.101863
0.102121 0.102121 0.102121
0.102462 0.102462 0.102462
0.103064 0.103064 0.103064
0.104348 0.104348 0.104348
0.106369 0.106369 0.106369
0.108827 0.108827 0.108827
0.111870 0.111870 0.111870
0.115039 0.115039 0.115039
0.118490 0.118490 0.118490
0.121823 0.121823 0.121823
0.124308 0.124308 0.124308
0.126068 0.126068 0.126068
0.127432 0.127432 0.127432
0.128916 0.128916 0.128916
0.130658 0.130658 0.130658
0.132666 0.132666 0.132666
0.135040 0.135040 0.135040
0.138001 0.138001 0.138001
0.141637 0.141637 0.141637
0.146056 0.146056 0.146056
0.151865 0.151865 0.151865
0.159113 0.159113 0.159113
0.167924 0.167924 0.167924
0.178619 0.178619 0.178619
0.191742 0.191742 0.191742
0.207511 0.207511 0.207511
0.226455 0.226455 0.226455
0.248591 0.248591 0.248591
0.274457 0.274457 0.274457
0.103832 0.103832 0.103832
0.104008 0.104008 0.104008
0.104092 0.104092 0.104092
0.104368 0.104368 0.104368
0.104863 0.104863 0.104863
0.105345 0.105345 0.105345
0.106249 0.106249 0.106249
0.107952 0.107952 0.107952
0.110410 0.110410 0.110410
0.113506 0.113506 0.113506
0.116907 0.116907 0.116907
0.120731 0.120731 0.120731
0.124987 0.124987 0.124987
0.129640 0.129640 0.129640
0.134059 0.134059 0.134059
0.137390 0.137390 0.137390
0.139997 0.139997 0.139997
0.142375 0.142375 0.142375
0.144968 0.144968 0.144968
0.148187 0.148187 0.148187
0.152135 0.152135 0.152135
0.157017 0.157017 0.157017
0.163090 0.163090 0.163090
0.170762 0.170762 0.170762
0.180154 0.180154 0.180154
0.191339 0.191339 0.191339
0.204694 0.204694 0.204694
0.220437 0.220437 0.220437
0.238844 0.238844 0.238844
0.260158 0.260158 0.260158
0.284674 0.284674 0.284674
0.312490 0.312490 0.312490
0.106684 0.106684 0.106684
0.106692 0.106692 0.106692
0.106944 0.106944 0.106944
0.107220 0.107220 0.107220
0.107702 0.107702 0.107702
0.108089 0.108089 0.108089
0.108811 0.108811 0.108811
0.109979 0.109979 0.109979
0.112253 0.112253 0.112253
0.115372 0.115372 0.115372
0.118941 0.118941 0.118941
0.123201 0.123201 0.123201
0.128207 0.128207 0.128207
0.134248 0.134248 0.134248
0.141654 0.141654 0.141654
0.149831 0.149831 0.149831
0.157259 0.157259 0.157259
0.162958 0.162958 0.162958
0.167277 0.167277 0.167277
0.171561 0.171561 0.171561
0.176819 0.176819 0.176819
0.183394 0.183394 0.183394
0.191585 0.191585 0.191585
0.201448 0.201448 0.201448
0.213149 0.213149 0.213149
0.226819 0.226819 0.226819
0.242418 0.242418 0.242418
0.260422 0.260422 0.260422
0.280792 0.280792 0.280792
0.304040 0.304040 0.304040
0.330156 0.330156 0.330156
0.359297 0.359297 0.359297
0.109969 0.109969 0.109969
0.109977 0.109977 0.109977
0.110229 0.110229 0.110229
0.110505 0.110505 0.110505
0.111020 0.111020 0.111020
0.111600 0.111600 0.111600
0.112151 0.112151 0.112151
0.113033 0.113033 0.113033
0.114723 0.114723 0.114723
0.117697 0.117697 0.117697
0.121411 0.121411 0.121411
0.126023 0.126023 0.126023
0.132081 0.132081 0.132081
0.139614 0.139614 0.139614
0.149307 0.149307 0.149307
0.162127 0.162127 0.162127
0.177373 0.177373 0.177373
0.191876 0.191876 0.191876
0.202468 0.202468 0.202468
0.209657 0.209657 0.209657
0.216381 0.216381 0.216381
0.224647 0.224647 0.224647
0.234677 0.234677 0.234677
0.246540 0.246540 0.246540
0.260058 0.260058 0.260058
0.275658 0.275658 0.275658
0.292963 0.292963 0.292963
0.312390 0.312390 0.312390
0.334064 0.334064 0.334064
0.358377 0.358377 0.358377
0.385366 0.385366 0.385366
0.415030 0.415030 0.415030
0.113939 0.113939 0.113939
0.113947 0.113947 0.113947
0.114199 0.114199 0.114199
0.114475 0.114475 0.114475
0.114998 0.114998 0.114998
0.115633 0.115633 0.115633
0.116184 0.116184 0.116184
0.117017 0.117017 0.117017
0.118316 0.118316 0.118316
0.120604 0.120604 0.120604
0.124265 0.124265 0.124265
0.129082 0.129082 0.129082
0.135481 0.135481 0.135481
0.144198 0.144198 0.144198
0.155869 0.155869 0.155869
0.171341 0.171341 0.171341
0.191125 0.191125 0.191125
0.214227 0.214227 0.214227
0.236325 0.236325 0.236325
0.252484 0.252484 0.252484
0.264095 0.264095 0.264095
0.274232 0.274232 0.274232
0.285317 0.285317 0.285317
0.298332 0.298332 0.298332
0.313095 0.313095 0.313095
0.329836 0.329836 0.329836
0.348168 0.348168 0.348168
0.368466 0.368466 0.368466
0.390844 0.390844 0.390844
0.415810 0.415810 0.415810
0.442870 0.442870 0.442870
0.472063 0.472063 0.472063
0.118224 0.118224 0.118224
0.118335 0.118335 0.118335
0.118587 0.118587 0.118587
0.118862 0.118862 0.118862
0.119353 0.119353 0.119353
0.119785 0.119785 0.119785
0.120422 0.120422 0.120422
0.121289 0.121289 0.121289
0.122549 0.122549 0.122549
0.124157 0.124157 0.124157
0.127291 0.127291 0.127291
0.132371 0.132371 0.132371
0.139282 0.139282 0.139282
0.148996 0.148996 0.148996
0.162550 0.162550 0.162550
0.180190 0.180190 0.180190
0.202316 0.202316 0.202316
0.228993 0.228993 0.228993
0.258801 0.258801 0.258801
0.287773 0.287773 0.287773
0.312204 0.312204 0.312204
0.330231 0.330231 0.330231
0.343536 0.343536 0.343536
0.357010 0.357010 0.357010
0.372303 0.372303 0.372303
0.389448 0.389448 0.389448
0.408098 0.408098 0.408098
0.428705 0.428705 0.428705
0.451115 0.451115 0.451115
0.475505 0.475505 0.475505
0.501497 0.501497 0.501497
0.528985 0.528985 0.528985
0.122951 0.122951 0.122951
0.123199 0.123199 0.123199
0.123352 0.123352 0.123352
0.123731 0.123731 0.123731
0.124218 0.124218 0.124218
0.124645 0.124645 0.124645
0.125422 0.125422 0.125422
0.126353 0.126353 0.126353
0.127556 0.127556 0.127556
0.129040 0.129040 0.129040
0.131458 0.131458 0.131458
0.136358 0.136358 0.136358
0.144232 0.144232 0.144232
0.155227 0.155227 0.155227
0.170325 0.170325 0.170325
0.190184 0.190184 0.190184
0.214709 0.214709 0.214709
0.243195 0.243195 0.243195
0.275579 0.275579 0.275579
0.311423 0.311423 0.311423
0.348618 0.348618 0.348618
0.381814 0.381814 0.381814
0.404860 0.404860 0.404860
0.421775 0.421775 0.421775
0.437414 0.437414 0.437414
0.454135 0.454135 0.454135
0.472323 0.472323 0.472323
0.492187 0.492187 0.492187
0.513415 0.513415 0.513415
0.535965 0.535965 0.535965
0.559841 0.559841 0.559841
0.584552 0.584552 0.584552
0.128717 0.128717 0.128717
0.128851 0.128851 0.128851
0.129103 0.129103 0.129103
0.129497 0.129497 0.129497
0.130016 0.130016 0.130016
0.130682 0.130682 0.130682
0.131585 0.131585 0.131585
0.132646 0.132646 0.132646
0.133994 0.133994 0.133994
0.135734 0.135734 0.135734
0.137984 0.137984 0.137984
0.142112 0.142112 0.142112
0.150404 0.150404 0.150404
0.162981 0.162981 0.162981
0.179715 0.179715 0.179715
0.201208 0.201208 0.201208
0.227899 0.227899 0.227899
0.258719 0.258719 0.258719
0.292780 0.292780 0.292780
0.330496 0.330496 0.330496
0.372406 0.372406 0.372406
0.415984 0.415984 0.415984
0.454558 0.454558 0.454558
0.482978 0.482978 0.482978
0.503311 0.503311 0.503311
0.519819 0.519819 0.519819
0.536550 0.536550 0.536550
0.554432 0.554432 0.554432
0.573382 0.573382 0.573382
0.593372 0.593372 0.593372
0.614059 0.614059 0.614059
0.635157 0.635157 0.635157
0.136027 0.136027 0.136027
0.136185 0.136185 0.136185
0.137170 0.137170 0.137170
0.137576 0.137576 0.137576
0.138241 0.138241 0.138241
0.139167 0.139167 0.139167
0.140330 0.140330 0.140330
0.141709 0.141709 0.141709
0.143545 0.143545 0.143545
0.145748 0.145748 0.145748
0.148526 0.148526 0.148526
0.152378 0.152378 0.152378
0.159906 0.159906 0.159906
0.173511 0.173511 0.173511
0.192530 0.192530 0.192530
0.215808 0.215808 0.215808
0.244061 0.244061 0.244061
0.276909 0.276909 0.276909
0.313109 0.313109 0.313109
0.352365 0.352365 0.352365
0.394958 0.394958 0.394958
0.440549 0.440549 0.440549
0.486816 0.486816 0.486816
0.527835 0.527835 0.527835
0.559585 0.559585 0.559585
0.581171 0.581171 0.581171
0.596658 0.596658 0.596658
0.611979 0.611979 0.611979
0.627985 0.627985 0.627985
0.644747 0.644747 0.644747
0.661938 0.661938 0.661938
0.679271 0.679271 0.679271
0.146623 0.146623 0.146623
0.147057 0.147057 0.147057
0.148782 0.148782 0.148782
0.149574 0.149574 0.149574
0.150517 0.150517 0.150517
0.151841 0.151841 0.151841
0.153425 0.153425 0.153425
0.155355 0.155355 0.155355
0.157884 0.157884 0.157884
0.160879 0.160879 0.160879
0.164520 0.164520 0.164520
0.168940 0.168940 0.168940
0.175610 0.175610 0.175610
0.188408 0.188408 0.188408
0.209039 0.209039 0.209039
0.234966 0.234966 0.234966
0.264865 0.264865 0.264865
0.298932 0.298932 0.298932
0.336825 0.336825 0.336825
0.377637 0.377637 0.377637
0.420718 0.420718 0.420718
0.465705 0.465705 0.465705
0.511595 0.511595 0.511595
0.556313 0.556313 0.556313
0.596387 0.596387 0.596387
0.628135 0.628135 0.628135
0.647499 0.647499 0.647499
0.661825 0.661825 0.661825
0.675018 0.675018 0.675018
0.688449 0.688449 0.688449
0.702258 0.702258 0.702258
0.716090 0.716090 0.716090
0.162771 0.162771 0.162771
0.163446 0.163446 0.163446
0.164869 0.164869 0.164869
0.166170 0.166170 0.166170
0.167516 0.167516 0.167516
0.169237 0.169237 0.169237
0.171369 0.171369 0.171369
0.173958 0.173958 0.173958
0.177186 0.177186 0.177186
0.181086 0.181086 0.181086
0.185734 0.185734 0.185734
0.191213 0.191213 0.191213
0.197842 0.197842 0.197842
0.208398 0.208398 0.208398
0.227353 0.227353 0.227353
0.255089 0.255089 0.255089
0.287379 0.287379 0.287379
0.322492 0.322492 0.322492
0.361128 0.361128 0.361128
0.402702 0.402702 0.402702
0.445960 0.445960 0.445960
0.490118 0.490118 0.490118
0.534206 0.534206 0.534206
0.577146 0.577146 0.577146
0.617720 0.617720 0.617720
0.654055 0.654055 0.654055
0.681736 0.681736 0.681736
0.700111 0.700111 0.700111
0.712984 0.712984 0.712984
0.723775 0.723775 0.723775
0.734510 0.734510 0.734510
0.745252 0.745252 0.745252
0.185718 0.185718 0.185718
0.186787 0.186787 0.186787
0.187981 0.187981 0.187981
0.189662 0.189662 0.189662
0.191515 0.191515 0.191515
0.193668 0.193668 0.193668
0.196369 0.196369 0.196369
0.199715 0.199715 0.199715
0.203645 0.203645 0.203645
0.208354 0.208354 0.208354
0.213971 0.213971 0.213971
0.220613 0.220613 0.220613
0.228044 0.228044 0.228044
0.237137 0.237137 0.237137
0.251891 0.251891 0.251891
0.277484 0.277484 0.277484
0.311966 0.311966 0.311966
0.349466 0.349466 0.349466
0.388640 0.388640 0.388640
0.430074 0.430074 0.430074
0.472706 0.472706 0.472706
0.515405 0.515405 0.515405
0.557298 0.557298 0.557298
0.597882 0.597882 0.597882
0.635846 0.635846 0.635846
0.670548 0.670548 0.670548
0.700873 0.700873 0.700873
0.724724 0.724724 0.724724
0.741172 0.741172 0.741172
0.751870 0.751870 0.751870
0.760184 0.760184 0.760184
0.768222 0.768222 0.768222
0.218205 0.218205 0.218205
0.219628 0.219628 0.219628
0.221082 0.221082 0.221082
0.223033 0.223033 0.223033
0.225244 0.225244 0.225244
0.227779 0.227779 0.227779
0.231019 0.231019 0.231019
0.234984 0.234984 0.234984
0.239572 0.239572 0.239572
0.245108 0.245108 0.245108
0.251596 0.251596 0.251596
0.259100 0.259100 0.259100
0.267596 0.267596 0.267596
0.277011 0.277011 0.277011
0.288718 0.288718 0.288718
0.308312 0.308312 0.308312
0.340631 0.340631 0.340631
0.380633 0.380633 0.380633
0.421719 0.421719 0.421719
0.462844 0.462844 0.462844
0.503980 0.503980 0.503980
0.544377 0.544377 0.544377
0.583231 0.583231 0.583231
0.620516 0.620516 0.620516
0.655431 0.655431 0.655431
0.687199 0.687199 0.687199
0.715257 0.715257 0.715257
0.739491 0.739491 0.739491
0.758663 0.758663 0.758663
0.772206 0.772206 0.772206
0.780331 0.780331 0.780331
0.786467 0.786467 0.786467
0.262200 0.262200 0.262200
0.263547 0.263547 0.263547
0.265081 0.265081 0.265081
0.266982 0.266982 0.266982
0.269453 0.269453 0.269453
0.272263 0.272263 0.272263
0.275852 0.275852 0.275852
0.280241 0.280241 0.280241
0.285500 0.285500 0.285500
0.291671 0.291671 0.291671
0.298856 0.298856 0.298856
0.307112 0.307112 0.307112
0.316479 0.316479 0.316479
0.326727 0.326727 0.326727
0.338087 0.338087 0.338087
0.352861 0.352861 0.352861
0.377553 0.377553 0.377553
0.414805 0.414805 0.414805
0.457544 0.457544 0.457544
0.498874 0.498874 0.498874
0.537858 0.537858 0.537858
0.575090 0.575090 0.575090
0.610150 0.610150 0.610150
0.642896 0.642896 0.642896
0.673578 0.673578 0.673578
0.702152 0.702152 0.702152
0.727542 0.727542 0.727542
0.749613 0.749613 0.749613
0.767878 0.767878 0.767878
0.782567 0.782567 0.782567
0.793429 0.793429 0.793429
0.799464 0.799464 0.799464
0.314947 0.314947 0.314947
0.316216 0.316216 0.316216
0.317755 0.317755 0.317755
0.319753 0.319753 0.319753
0.322327 0.322327 0.322327
0.325369 0.325369 0.325369
0.329074 0.329074 0.329074
0.333719 0.333719 0.333719
0.339291 0.339291 0.339291
0.345932 0.345932 0.345932
0.353485 0.353485 0.353485
0.362102 0.362102 0.362102
0.371779 0.371779 0.371779
0.382451 0.382451 0.382451
0.394162 0.394162 0.394162
0.407306 0.407306 0.407306
0.424996 0.424996 0.424996
0.453428 0.453428 0.453428
0.492906 0.492906 0.492906
0.534825 0.534825 0.534825
0.572541 0.572541 0.572541
0.606611 0.606611 0.606611
0.637973 0.637973 0.637973
0.666293 0.666293 0.666293
0.691759 0.691759 0.691759
0.716077 0.716077 0.716077
0.738615 0.738615 0.738615
0.758221 0.758221 0.758221
0.774672 0.774672 0.774672
0.788227 0.788227 0.788227
0.799327 0.799327 0.799327
0.807610 0.807610 0.807610
0.376060 0.376060 0.376060
0.377691 0.377691 0.377691
0.379235 0.379235 0.379235
0.381281 0.381281 0.381281
0.383678 0.383678 0.383678
0.386624 0.386624 0.386624
0.390342 0.390342 0.390342
0.395045 0.395045 0.395045
0.400560 0.400560 0.400560
0.407058 0.407058 0.407058
0.414625 0.414625 0.414625
0.423103 0.423103 0.423103
0.432621 0.432621 0.432621
0.443103 0.443103 0.443103
0.454432 0.454432 0.454432
0.466813 0.466813 0.466813
0.480763 0.480763 0.480763
0.499827 0.499827 0.499827
0.529798 0.529798 0.529798
0.568495 0.568495 0.568495
0.605945 0.605945 0.605945
0.637697 0.637697 0.637697
0.665368 0.665368 0.665368
0.690104 0.690104 0.690104
0.711807 0.711807 0.711807
0.731534 0.731534 0.731534
0.749843 0.749843 0.749843
0.766613 0.766613 0.766613
0.781045 0.781045 0.781045
0.793174 0.793174 0.793174
0.803143 0.803143 0.803143
0.811698 0.811698 0.811698
0.441286 0.441286 0.441286
0.442859 0.442859 0.442859
0.444586 0.444586 0.444586
0.446645 0.446645 0.446645
0.449172 0.449172 0.449172
0.452258 0.452258 0.452258
0.456135 0.456135 0.456135
0.460837 0.460837 0.460837
0.466418 0.466418 0.466418
0.473048 0.473048 0.473048
0.480460 0.480460 0.480460
0.488739 0.488739 0.488739
0.497802 0.497802 0.497802
0.507722 0.507722 0.507722
0.518307 0.518307 0.518307
0.529725 0.529725 0.529725
0.541886 0.541886 0.541886
0.555364 0.555364 0.555364
0.574417 0.574417 0.574417
0.603672 0.603672 0.603672
0.638178 0.638178 0.638178
0.668579 0.668579 0.668579
0.692997 0.692997 0.692997
0.713970 0.713970 0.713970
0.732404 0.732404 0.732404
0.748348 0.748348 0.748348
0.762424 0.762424 0.762424
0.775340 0.775340 0.775340
0.787479 0.787479 0.787479
0.798233 0.798233 0.798233
0.807146 0.807146 0.807146
0.814912 0.814912 0.814912
0.510426 0.510426 0.510426
0.511933 0.511933 0.511933
0.513320 0.513320 0.513320
0.515180 0.515180 0.515180
0.517561 0.517561 0.517561
0.520501 0.520501 0.520501
0.524220 0.524220 0.524220
0.528720 0.528720 0.528720
0.534024 0.534024 0.534024
0.540167 0.540167 0.540167
0.547070 0.547070 0.547070
0.554700 0.554700 0.554700
0.562963 0.562963 0.562963
0.571851 0.571851 0.571851
0.581159 0.581159 0.581159
0.591038 0.591038 0.591038
0.601463 0.601463 0.601463
0.612433 0.612433 0.612433
0.624747 0.624747 0.624747
0.642432 0.642432 0.642432
0.668665 0.668665 0.668665
0.696469 0.696469 0.696469
0.718839 0.718839 0.718839
0.736601 0.736601 0.736601
0.751515 0.751515 0.751515
0.764317 0.764317 0.764317
0.775268 0.775268 0.775268
0.784865 0.784865 0.784865
0.794053 0.794053 0.794053
0.802988 0.802988 0.802988
0.811008 0.811008 0.811008
0.817992 0.817992 0.817992
0.578046 0.578046 0.578046
0.579141 0.579141 0.579141
0.580419 0.580419 0.580419
0.582020 0.582020 0.582020
0.584140 0.584140 0.584140
0.586853 0.586853 0.586853
0.590484 0.590484 0.590484
0.594723 0.594723 0.594723
0.599742 0.599742 0.599742
0.605541 0.605541 0.605541
0.611988 0.611988 0.611988
0.618910 0.618910 0.618910
0.626347 0.626347 0.626347
0.633963 0.633963 0.633963
0.641950 0.641950 0.641950
0.650257 0.650257 0.650257
0.658755 0.658755 0.658755
0.667554 0.667554 0.667554
0.676797 0.676797 0.676797
0.687408 0.687408 0.687408
0.702716 0.702716 0.702716
0.723686 0.723686 0.723686
0.743600 0.743600 0.743600
0.758616 0.758616 0.758616
0.770321 0.770321 0.770321
0.780183 0.780183 0.780183
0.788615 0.788615 0.788615
0.795910 0.795910 0.795910
0.802266 0.802266 0.802266
0.808511 0.808511 0.808511
0.815236 0.815236 0.815236
0.821222 0.821222 0.821222
0.642546 0.642546 0.642546
0.643336 0.643336 0.643336
0.644187 0.644187 0.644187
0.645506 0.645506 0.645506
0.647119 0.647119 0.647119
0.649105 0.649105 0.649105
0.651809 0.651809 0.651809
0.654910 0.654910 0.654910
0.658681 0.658681 0.658681
0.662902 0.662902 0.662902
0.667746 0.667746 0.667746
0.672948 0.672948 0.672948
0.678584 0.678584 0.678584
0.684371 0.684371 0.684371
0.690301 0.690301 0.690301
0.696597 0.696597 0.696597
0.703253 0.703253 0.703253
0.710169 0.710169 0.710169
