gsg/05_BW/GSG_LUT_BW_Contrasty.cube
# GSG LUTs 1.0
# Copyright (c) 2016-2020 Greyscalegorilla
# See EULA for licensing and distribution information
# Converted by Briz LUT Converter
LUT_3D_SIZE 8
DOMAIN_MIN 0.000000 0.000000 0.000000
DOMAIN_MAX 0.903226 0.903226 0.903226
0.050794 0.050794 0.050794
0.055047 0.055047 0.055047
0.069503 0.069503 0.069503
0.099768 0.099768 0.099768
0.143881 0.143881 0.143881
0.191256 0.191256 0.191256
0.244886 0.244886 0.244886
0.304274 0.304274 0.304274
0.055047 0.055047 0.055047
0.066580 0.066580 0.066580
0.094081 0.094081 0.094081
0.138725 0.138725 0.138725
0.185857 0.185857 0.185857
0.239310 0.239310 0.239310
0.296663 0.296663 0.296663
0.357876 0.357876 0.357876
0.065840 0.065840 0.065840
0.090379 0.090379 0.090379
0.131279 0.131279 0.131279
0.179534 0.179534 0.179534
0.232274 0.232274 0.232274
0.289105 0.289105 0.289105
0.350959 0.350959 0.350959
0.414758 0.414758 0.414758
0.087684 0.087684 0.087684
0.127339 0.127339 0.127339
0.174412 0.174412 0.174412
0.229005 0.229005 0.229005
0.282905 0.282905 0.282905
0.344393 0.344393 0.344393
0.410197 0.410197 0.410197
0.477312 0.477312 0.477312
0.122612 0.122612 0.122612
0.167355 0.167355 0.167355
0.220928 0.220928 0.220928
0.278365 0.278365 0.278365
0.337548 0.337548 0.337548
0.401598 0.401598 0.401598
0.470025 0.470025 0.470025
0.541708 0.541708 0.541708
0.163787 0.163787 0.163787
0.216726 0.216726 0.216726
0.269762 0.269762 0.269762
0.331343 0.331343 0.331343
0.394270 0.394270 0.394270
0.462563 0.462563 0.462563
0.535070 0.535070 0.535070
0.608701 0.608701 0.608701
0.210808 0.210808 0.210808
0.264998 0.264998 0.264998
0.324155 0.324155 0.324155
0.388253 0.388253 0.388253
0.455216 0.455216 0.455216
0.526016 0.526016 0.526016
0.601140 0.601140 0.601140
0.671212 0.671212 0.671212
0.260357 0.260357 0.260357
0.315993 0.315993 0.315993
0.379406 0.379406 0.379406
0.447661 0.447661 0.447661
0.517821 0.517821 0.517821
0.592402 0.592402 0.592402
0.664664 0.664664 0.664664
0.728262 0.728262 0.728262
0.054858 0.054858 0.054858
0.066180 0.066180 0.066180
0.090890 0.090890 0.090890
0.132596 0.132596 0.132596
0.183137 0.183137 0.183137
0.234465 0.234465 0.234465
0.290078 0.290078 0.290078
0.351941 0.351941 0.351941
0.063082 0.063082 0.063082
0.088815 0.088815 0.088815
0.127796 0.127796 0.127796
0.177557 0.177557 0.177557
0.227887 0.227887 0.227887
0.284611 0.284611 0.284611
0.344926 0.344926 0.344926
0.410919 0.410919 0.410919
0.082762 0.082762 0.082762
0.122018 0.122018 0.122018
0.167760 0.167760 0.167760
0.221465 0.221465 0.221465
0.277720 0.277720 0.277720
0.338072 0.338072 0.338072
0.403120 0.403120 0.403120
0.470217 0.470217 0.470217
0.119150 0.119150 0.119150
0.166564 0.166564 0.166564
0.216588 0.216588 0.216588
0.273443 0.273443 0.273443
0.332365 0.332365 0.332365
0.396338 0.396338 0.396338
0.464966 0.464966 0.464966
0.535197 0.535197 0.535197
0.161836 0.161836 0.161836
0.210369 0.210369 0.210369
0.264934 0.264934 0.264934
0.325233 0.325233 0.325233
0.388634 0.388634 0.388634
0.456662 0.456662 0.456662
0.527218 0.527218 0.527218
0.601280 0.601280 0.601280
0.206717 0.206717 0.206717
0.259968 0.259968 0.259968
0.317791 0.317791 0.317791
0.382108 0.382108 0.382108
0.448574 0.448574 0.448574
0.519254 0.519254 0.519254
0.594496 0.594496 0.594496
0.665184 0.665184 0.665184
0.255957 0.255957 0.255957
0.311229 0.311229 0.311229
0.374565 0.374565 0.374565
0.443117 0.443117 0.443117
0.511093 0.511093 0.511093
0.586819 0.586819 0.586819
0.658241 0.658241 0.658241
0.723007 0.723007 0.723007
0.306130 0.306130 0.306130
0.366923 0.366923 0.366923
0.433571 0.433571 0.433571
0.502892 0.502892 0.502892
0.577612 0.577612 0.577612
0.650164 0.650164 0.650164
0.717506 0.717506 0.717506
0.773818 0.773818 0.773818
0.062783 0.062783 0.062783
0.082856 0.082856 0.082856
0.125570 0.125570 0.125570
0.173120 0.173120 0.173120
0.222924 0.222924 0.222924
0.280043 0.280043 0.280043
0.340187 0.340187 0.340187
0.406181 0.406181 0.406181
0.081381 0.081381 0.081381
0.120104 0.120104 0.120104
0.165973 0.165973 0.165973
0.218379 0.218379 0.218379
0.273388 0.273388 0.273388
0.333456 0.333456 0.333456
0.397292 0.397292 0.397292
0.465007 0.465007 0.465007
0.114450 0.114450 0.114450
0.161724 0.161724 0.161724
0.209826 0.209826 0.209826
0.267963 0.267963 0.267963
0.325674 0.325674 0.325674
0.389565 0.389565 0.389565
0.457243 0.457243 0.457243
0.527482 0.527482 0.527482
0.155663 0.155663 0.155663
0.205758 0.205758 0.205758
0.259523 0.259523 0.259523
0.320453 0.320453 0.320453
0.383398 0.383398 0.383398
0.450772 0.450772 0.450772
0.522261 0.522261 0.522261
0.594697 0.594697 0.594697
0.201211 0.201211 0.201211
0.255068 0.255068 0.255068
0.311768 0.311768 0.311768
0.376130 0.376130 0.376130
0.442848 0.442848 0.442848
0.512801 0.512801 0.512801
0.587967 0.587967 0.587967
0.658699 0.658699 0.658699
0.250484 0.250484 0.250484
0.306278 0.306278 0.306278
0.367958 0.367958 0.367958
0.435748 0.435748 0.435748
0.504928 0.504928 0.504928
0.579918 0.579918 0.579918
0.652178 0.652178 0.652178
0.717159 0.717159 0.717159
0.302024 0.302024 0.302024
0.362690 0.362690 0.362690
0.428188 0.428188 0.428188
0.498502 0.498502 0.498502
0.571541 0.571541 0.571541
0.644991 0.644991 0.644991
0.711266 0.711266 0.711266
0.769614 0.769614 0.769614
0.354332 0.354332 0.354332
0.420970 0.420970 0.420970
0.487345 0.487345 0.487345
0.563090 0.563090 0.563090
0.636028 0.636028 0.636028
0.703497 0.703497 0.703497
0.763099 0.763099 0.763099
0.814988 0.814988 0.814988
0.080830 0.080830 0.080830
0.115927 0.115927 0.115927
0.162430 0.162430 0.162430
0.215684 0.215684 0.215684
0.269773 0.269773 0.269773
0.329795 0.329795 0.329795
0.393369 0.393369 0.393369
0.461112 0.461112 0.461112
0.112377 0.112377 0.112377
0.156096 0.156096 0.156096
0.207877 0.207877 0.207877
0.263961 0.263961 0.263961
0.323139 0.323139 0.323139
0.385760 0.385760 0.385760
0.453581 0.453581 0.453581
0.523384 0.523384 0.523384
0.151955 0.151955 0.151955
0.203372 0.203372 0.203372
0.255549 0.255549 0.255549
0.315982 0.315982 0.315982
0.377475 0.377475 0.377475
0.445044 0.445044 0.445044
0.515501 0.515501 0.515501
0.590271 0.590271 0.590271
0.199327 0.199327 0.199327
0.251474 0.251474 0.251474
0.309728 0.309728 0.309728
0.373419 0.373419 0.373419
0.438505 0.438505 0.438505
0.508411 0.508411 0.508411
0.583522 0.583522 0.583522
0.655122 0.655122 0.655122
0.245600 0.245600 0.245600
0.302201 0.302201 0.302201
0.363661 0.363661 0.363661
0.431885 0.431885 0.431885
0.499571 0.499571 0.499571
0.574876 0.574876 0.574876
0.647497 0.647497 0.647497
0.713603 0.713603 0.713603
0.296788 0.296788 0.296788
0.357887 0.357887 0.357887
0.423089 0.423089 0.423089
0.493080 0.493080 0.493080
0.566669 0.566669 0.566669
0.639570 0.639570 0.639570
0.707105 0.707105 0.707105
0.764864 0.764864 0.764864
0.352490 0.352490 0.352490
0.416490 0.416490 0.416490
0.483741 0.483741 0.483741
0.559008 0.559008 0.559008
0.631923 0.631923 0.631923
0.700165 0.700165 0.700165
0.759834 0.759834 0.759834
0.811589 0.811589 0.811589
0.409394 0.409394 0.409394
0.476711 0.476711 0.476711
0.548982 0.548982 0.548982
0.624379 0.624379 0.624379
0.692455 0.692455 0.692455
0.753317 0.753317 0.753317
0.806102 0.806102 0.806102
0.851570 0.851570 0.851570
0.108480 0.108480 0.108480
0.154173 0.154173 0.154173
0.204666 0.204666 0.204666
0.258227 0.258227 0.258227
0.316525 0.316525 0.316525
0.379999 0.379999 0.379999
0.447715 0.447715 0.447715
0.517061 0.517061 0.517061
0.148239 0.148239 0.148239
0.198436 0.198436 0.198436
0.251568 0.251568 0.251568
0.311223 0.311223 0.311223
0.373165 0.373165 0.373165
0.440109 0.440109 0.440109
0.509630 0.509630 0.509630
0.583091 0.583091 0.583091
0.193989 0.193989 0.193989
0.244600 0.244600 0.244600
0.302224 0.302224 0.302224
0.365207 0.365207 0.365207
0.431322 0.431322 0.431322
0.500570 0.500570 0.500570
0.576014 0.576014 0.576014
0.647403 0.647403 0.647403
0.241158 0.241158 0.241158
0.297455 0.297455 0.297455
0.358958 0.358958 0.358958
0.426373 0.426373 0.426373
0.494067 0.494067 0.494067
0.568784 0.568784 0.568784
0.641667 0.641667 0.641667
0.707870 0.707870 0.707870
0.290854 0.290854 0.290854
0.352152 0.352152 0.352152
0.416080 0.416080 0.416080
0.486716 0.486716 0.486716
0.558782 0.558782 0.558782
0.633160 0.633160 0.633160
0.700967 0.700967 0.700967
0.760330 0.760330 0.760330
0.345850 0.345850 0.345850
0.410184 0.410184 0.410184
0.477893 0.477893 0.477893
0.551711 0.551711 0.551711
0.624946 0.624946 0.624946
0.693989 0.693989 0.693989
0.754870 0.754870 0.754870
0.807240 0.807240 0.807240
0.403742 0.403742 0.403742
0.471320 0.471320 0.471320
0.543180 0.543180 0.543180
0.618416 0.618416 0.618416
0.686795 0.686795 0.686795
0.749295 0.749295 0.749295
0.802752 0.802752 0.802752
0.848114 0.848114 0.848114
0.463951 0.463951 0.463951
0.534112 0.534112 0.534112
0.608016 0.608016 0.608016
0.680329 0.680329 0.680329
0.741802 0.741802 0.741802
0.796121 0.796121 0.796121
0.843536 0.843536 0.843536
0.882582 0.882582 0.882582
0.144590 0.144590 0.144590
0.194336 0.194336 0.194336
0.246440 0.246440 0.246440
0.306302 0.306302 0.306302
0.368265 0.368265 0.368265
0.435253 0.435253 0.435253
0.504226 0.504226 0.504226
0.577856 0.577856 0.577856
0.189656 0.189656 0.189656
0.241611 0.241611 0.241611
0.298260 0.298260 0.298260
0.361214 0.361214 0.361214
0.426913 0.426913 0.426913
0.496109 0.496109 0.496109
0.570900 0.570900 0.570900
0.643024 0.643024 0.643024
0.236369 0.236369 0.236369
0.292854 0.292854 0.292854
0.352805 0.352805 0.352805
0.420354 0.420354 0.420354
0.487930 0.487930 0.487930
0.561028 0.561028 0.561028
0.635603 0.635603 0.635603
0.701679 0.701679 0.701679
0.287831 0.287831 0.287831
0.347235 0.347235 0.347235
0.412464 0.412464 0.412464
0.481700 0.481700 0.481700
0.553981 0.553981 0.553981
0.627986 0.627986 0.627986
0.697290 0.697290 0.697290
0.756660 0.756660 0.756660
0.340788 0.340788 0.340788
0.404522 0.404522 0.404522
0.472163 0.472163 0.472163
0.546226 0.546226 0.546226
0.619162 0.619162 0.619162
0.688685 0.688685 0.688685
0.750596 0.750596 0.750596
0.803377 0.803377 0.803377
0.398496 0.398496 0.398496
0.466164 0.466164 0.466164
0.536306 0.536306 0.536306
0.612572 0.612572 0.612572
0.681853 0.681853 0.681853
0.744133 0.744133 0.744133
0.798917 0.798917 0.798917
0.845117 0.845117 0.845117
0.459971 0.459971 0.459971
0.529777 0.529777 0.529777
0.603365 0.603365 0.603365
0.675354 0.675354 0.675354
0.737047 0.737047 0.737047
0.792687 0.792687 0.792687
0.840868 0.840868 0.840868
0.879960 0.879960 0.879960
0.521864 0.521864 0.521864
0.595469 0.595469 0.595469
0.666346 0.666346 0.666346
0.731290 0.731290 0.731290
0.786858 0.786858 0.786858
0.835055 0.835055 0.835055
0.876083 0.876083 0.876083
0.910204 0.910204 0.910204
0.183197 0.183197 0.183197
0.239077 0.239077 0.239077
0.293332 0.293332 0.293332
0.355998 0.355998 0.355998
0.421986 0.421986 0.421986
0.491551 0.491551 0.491551
0.565993 0.565993 0.565993
0.638234 0.638234 0.638234
0.231227 0.231227 0.231227
0.288167 0.288167 0.288167
0.347770 0.347770 0.347770
0.414386 0.414386 0.414386
0.482828 0.482828 0.482828
0.556129 0.556129 0.556129
0.629802 0.629802 0.629802
0.697819 0.697819 0.697819
0.281848 0.281848 0.281848
0.342200 0.342200 0.342200
0.406021 0.406021 0.406021
0.475307 0.475307 0.475307
0.546871 0.546871 0.546871
0.621719 0.621719 0.621719
0.690499 0.690499 0.690499
0.750780 0.750780 0.750780
0.337456 0.337456 0.337456
0.399797 0.399797 0.399797
0.467756 0.467756 0.467756
0.541129 0.541129 0.541129
0.614582 0.614582 0.614582
0.684225 0.684225 0.684225
0.746544 0.746544 0.746544
0.799730 0.799730 0.799730
0.393375 0.393375 0.393375
0.460463 0.460463 0.460463
0.530410 0.530410 0.530410
0.606531 0.606531 0.606531
0.676310 0.676310 0.676310
0.739269 0.739269 0.739269
0.794319 0.794319 0.794319
0.841486 0.841486 0.841486
0.453803 0.453803 0.453803
0.523893 0.523893 0.523893
0.597725 0.597725 0.597725
0.669728 0.669728 0.669728
0.732656 0.732656 0.732656
0.788077 0.788077 0.788077
0.836540 0.836540 0.836540
0.876695 0.876695 0.876695
0.517327 0.517327 0.517327
0.591453 0.591453 0.591453
0.661495 0.661495 0.661495
0.727382 0.727382 0.727382
0.783100 0.783100 0.783100
0.831893 0.831893 0.831893
0.873344 0.873344 0.873344
0.907161 0.907161 0.907161
0.582693 0.582693 0.582693
0.654060 0.654060 0.654060
0.718576 0.718576 0.718576
0.777641 0.777641 0.777641
0.826863 0.826863 0.826863
0.868519 0.868519 0.868519
0.903778 0.903778 0.903778
0.932971 0.932971 0.932971
0.227610 0.227610 0.227610
0.283989 0.283989 0.283989
0.343080 0.343080 0.343080
0.409278 0.409278 0.409278
0.477350 0.477350 0.477350
0.549540 0.549540 0.549540
0.624515 0.624515 0.624515
0.692413 0.692413 0.692413
0.277617 0.277617 0.277617
0.336942 0.336942 0.336942
0.399930 0.399930 0.399930
0.469554 0.469554 0.469554
0.541223 0.541223 0.541223
0.615488 0.615488 0.615488
0.685093 0.685093 0.685093
0.746892 0.746892 0.746892
0.329787 0.329787 0.329787
0.393028 0.393028 0.393028
0.460259 0.460259 0.460259
0.532966 0.532966 0.532966
0.606005 0.606005 0.606005
0.677280 0.677280 0.677280
0.740246 0.740246 0.740246
0.794251 0.794251 0.794251
0.388039 0.388039 0.388039
0.454379 0.454379 0.454379
0.524262 0.524262 0.524262
0.600897 0.600897 0.600897
0.670827 0.670827 0.670827
0.734835 0.734835 0.734835
0.789904 0.789904 0.789904
0.837774 0.837774 0.837774
0.446942 0.446942 0.446942
0.516688 0.516688 0.516688
0.590895 0.590895 0.590895
0.663471 0.663471 0.663471
0.727333 0.727333 0.727333
0.783951 0.783951 0.783951
0.832901 0.832901 0.832901
0.873479 0.873479 0.873479
0.509491 0.509491 0.509491
0.584508 0.584508 0.584508
0.655428 0.655428 0.655428
0.722064 0.722064 0.722064
0.777594 0.777594 0.777594
0.828466 0.828466 0.828466
0.869984 0.869984 0.869984
0.903753 0.903753 0.903753
0.578208 0.578208 0.578208
0.648650 0.648650 0.648650
0.713956 0.713956 0.713956
0.773470 0.773470 0.773470
0.822674 0.822674 0.822674
0.865804 0.865804 0.865804
0.901140 0.901140 0.901140
0.931423 0.931423 0.931423
0.640411 0.640411 0.640411
0.706686 0.706686 0.706686
0.765347 0.765347 0.765347
0.817994 0.817994 0.817994
0.861501 0.861501 0.861501
0.897522 0.897522 0.897522
0.928030 0.928030 0.928030
0.953576 0.953576 0.953576
