gsg/05_BW/GSG_LUT_BW_Dimmer.cube
# GSG LUTs 1.0
# Copyright (c) 2016-2020 Greyscalegorilla
# See EULA for licensing and distribution information
# Converted by Briz LUT Converter
LUT_3D_SIZE 5
DOMAIN_MIN 0.000000 0.000000 0.000000
DOMAIN_MAX 0.903226 0.903226 0.903226
0.050794 0.050794 0.050794
0.066005 0.066005 0.066005
0.128717 0.128717 0.128717
0.267013 0.267013 0.267013
0.470219 0.470219 0.470219
0.103824 0.103824 0.103824
0.134539 0.134539 0.134539
0.208755 0.208755 0.208755
0.339610 0.339610 0.339610
0.525012 0.525012 0.525012
0.222963 0.222963 0.222963
0.246501 0.246501 0.246501
0.313711 0.313711 0.313711
0.433321 0.433321 0.433321
0.590589 0.590589 0.590589
0.400906 0.400906 0.400906
0.418626 0.418626 0.418626
0.475916 0.475916 0.475916
0.567492 0.567492 0.567492
0.675383 0.675383 0.675383
0.619071 0.619071 0.619071
0.627802 0.627802 0.627802
0.657161 0.657161 0.657161
0.705387 0.705387 0.705387
0.776974 0.776974 0.776974
0.057797 0.057797 0.057797
0.101556 0.101556 0.101556
0.177620 0.177620 0.177620
0.315983 0.315983 0.315983
0.512249 0.512249 0.512249
0.136144 0.136144 0.136144
0.170067 0.170067 0.170067
0.246526 0.246526 0.246526
0.375132 0.375132 0.375132
0.552861 0.552861 0.552861
0.254071 0.254071 0.254071
0.277895 0.277895 0.277895
0.344056 0.344056 0.344056
0.461852 0.461852 0.461852
0.609381 0.609381 0.609381
0.427061 0.427061 0.427061
0.445526 0.445526 0.445526
0.501141 0.501141 0.501141
0.586002 0.586002 0.586002
0.688482 0.688482 0.688482
0.634637 0.634637 0.634637
0.643405 0.643405 0.643405
0.671141 0.671141 0.671141
0.717086 0.717086 0.717086
0.785359 0.785359 0.785359
0.082429 0.082429 0.082429
0.146599 0.146599 0.146599
0.227679 0.227679 0.227679
0.362948 0.362948 0.362948
0.549480 0.549480 0.549480
0.188866 0.188866 0.188866
0.224619 0.224619 0.224619
0.299362 0.299362 0.299362
0.425797 0.425797 0.425797
0.588729 0.588729 0.588729
0.312112 0.312112 0.312112
0.335570 0.335570 0.335570
0.400950 0.400950 0.400950
0.512254 0.512254 0.512254
0.641509 0.641509 0.641509
0.485840 0.485840 0.485840
0.502198 0.502198 0.502198
0.551499 0.551499 0.551499
0.623288 0.623288 0.623288
0.714743 0.714743 0.714743
0.668518 0.668518 0.668518
0.676428 0.676428 0.676428
0.700246 0.700246 0.700246
0.741900 0.741900 0.741900
0.804801 0.804801 0.804801
0.148293 0.148293 0.148293
0.220584 0.220584 0.220584
0.302159 0.302159 0.302159
0.433839 0.433839 0.433839
0.599042 0.599042 0.599042
0.274467 0.274467 0.274467
0.308359 0.308359 0.308359
0.381141 0.381141 0.381141
0.499467 0.499467 0.499467
0.634778 0.634778 0.634778
0.401457 0.401457 0.401457
0.424114 0.424114 0.424114
0.485196 0.485196 0.485196
0.578134 0.578134 0.578134
0.683995 0.683995 0.683995
0.561853 0.561853 0.561853
0.575378 0.575378 0.575378
0.613282 0.613282 0.613282
0.671478 0.671478 0.671478
0.749174 0.749174 0.749174
0.712702 0.712702 0.712702
0.720270 0.720270 0.720270
0.740419 0.740419 0.740419
0.775726 0.775726 0.775726
0.832319 0.832319 0.832319
0.259585 0.259585 0.259585
0.329073 0.329073 0.329073
0.408401 0.408401 0.408401
0.525444 0.525444 0.525444
0.653170 0.653170 0.653170
0.392876 0.392876 0.392876
0.424354 0.424354 0.424354
0.491207 0.491207 0.491207
0.585144 0.585144 0.585144
0.688795 0.688795 0.688795
0.520225 0.520225 0.520225
0.538960 0.538960 0.538960
0.584559 0.584559 0.584559
0.651664 0.651664 0.651664
0.734358 0.734358 0.734358
0.647807 0.647807 0.647807
0.658818 0.658818 0.658818
0.686371 0.686371 0.686371
0.730854 0.730854 0.730854
0.794175 0.794175 0.794175
0.773012 0.773012 0.773012
0.777932 0.777932 0.777932
0.793965 0.793965 0.793965
0.823471 0.823471 0.823471
0.871507 0.871507 0.871507
