gsg/05_BW/GSG_LUT_BW_Xerox_Copy.cube
# GSG LUTs 1.0
# Copyright (c) 2016-2020 Greyscalegorilla
# See EULA for licensing and distribution information
# Converted by Briz LUT Converter
LUT_3D_SIZE 8
DOMAIN_MIN 0.000000 0.000000 0.000000
DOMAIN_MAX 0.903226 0.903226 0.903226
0.181441 0.181441 0.181441
0.183245 0.183245 0.183245
0.186396 0.186396 0.186396
0.192115 0.192115 0.192115
0.201512 0.201512 0.201512
0.215219 0.215219 0.215219
0.234873 0.234873 0.234873
0.265036 0.265036 0.265036
0.187648 0.187648 0.187648
0.191031 0.191031 0.191031
0.200665 0.200665 0.200665
0.206184 0.206184 0.206184
0.215565 0.215565 0.215565
0.229532 0.229532 0.229532
0.250141 0.250141 0.250141
0.282349 0.282349 0.282349
0.202544 0.202544 0.202544
0.204805 0.204805 0.204805
0.212531 0.212531 0.212531
0.234330 0.234330 0.234330
0.258473 0.258473 0.258473
0.273093 0.273093 0.273093
0.296089 0.296089 0.296089
0.332951 0.332951 0.332951
0.229438 0.229438 0.229438
0.231612 0.231612 0.231612
0.237631 0.237631 0.237631
0.254796 0.254796 0.254796
0.293924 0.293924 0.293924
0.346250 0.346250 0.346250
0.387312 0.387312 0.387312
0.430568 0.430568 0.430568
0.273961 0.273961 0.273961
0.277050 0.277050 0.277050
0.283524 0.283524 0.283524
0.295835 0.295835 0.295835
0.323591 0.323591 0.323591
0.381286 0.381286 0.381286
0.467275 0.467275 0.467275
0.568045 0.568045 0.568045
0.341928 0.341928 0.341928
0.345591 0.345591 0.345591
0.352611 0.352611 0.352611
0.365891 0.365891 0.365891
0.386146 0.386146 0.386146
0.432659 0.432659 0.432659
0.521903 0.521903 0.521903
0.636748 0.636748 0.636748
0.456725 0.456725 0.456725
0.460515 0.460515 0.460515
0.468480 0.468480 0.468480
0.483566 0.483566 0.483566
0.505770 0.505770 0.505770
0.536689 0.536689 0.536689
0.598096 0.598096 0.598096
0.692617 0.692617 0.692617
0.630769 0.630769 0.630769
0.633860 0.633860 0.633860
0.641969 0.641969 0.641969
0.656703 0.656703 0.656703
0.672236 0.672236 0.672236
0.699665 0.699665 0.699665
0.732501 0.732501 0.732501
0.786215 0.786215 0.786215
0.184285 0.184285 0.184285
0.187101 0.187101 0.187101
0.191870 0.191870 0.191870
0.201197 0.201197 0.201197
0.214842 0.214842 0.214842
0.230520 0.230520 0.230520
0.250148 0.250148 0.250148
0.279441 0.279441 0.279441
0.193852 0.193852 0.193852
0.198784 0.198784 0.198784
0.204675 0.204675 0.204675
0.213623 0.213623 0.213623
0.227284 0.227284 0.227284
0.244639 0.244639 0.244639
0.265240 0.265240 0.265240
0.295892 0.295892 0.295892
0.214512 0.214512 0.214512
0.214246 0.214246 0.214246
0.221329 0.221329 0.221329
0.242864 0.242864 0.242864
0.264675 0.264675 0.264675
0.285032 0.285032 0.285032
0.308969 0.308969 0.308969
0.343640 0.343640 0.343640
0.241740 0.241740 0.241740
0.241252 0.241252 0.241252
0.247103 0.247103 0.247103
0.263352 0.263352 0.263352
0.301127 0.301127 0.301127
0.350159 0.350159 0.350159
0.394177 0.394177 0.394177
0.436774 0.436774 0.436774
0.286329 0.286329 0.286329
0.286364 0.286364 0.286364
0.292610 0.292610 0.292610
0.304212 0.304212 0.304212
0.330604 0.330604 0.330604
0.387599 0.387599 0.387599
0.469906 0.469906 0.469906
0.570638 0.570638 0.570638
0.352605 0.352605 0.352605
0.353501 0.353501 0.353501
0.360439 0.360439 0.360439
0.373546 0.373546 0.373546
0.393884 0.393884 0.393884
0.439493 0.439493 0.439493
0.527204 0.527204 0.527204
0.636202 0.636202 0.636202
0.465030 0.465030 0.465030
0.466677 0.466677 0.466677
0.474537 0.474537 0.474537
0.489716 0.489716 0.489716
0.512196 0.512196 0.512196
0.543134 0.543134 0.543134
0.602514 0.602514 0.602514
0.694887 0.694887 0.694887
0.634445 0.634445 0.634445
0.637738 0.637738 0.637738
0.645447 0.645447 0.645447
0.659998 0.659998 0.659998
0.680159 0.680159 0.680159
0.705598 0.705598 0.705598
0.736481 0.736481 0.736481
0.788564 0.788564 0.788564
0.189759 0.189759 0.189759
0.194376 0.194376 0.194376
0.201041 0.201041 0.201041
0.209818 0.209818 0.209818
0.219889 0.219889 0.219889
0.237846 0.237846 0.237846
0.268489 0.268489 0.268489
0.307886 0.307886 0.307886
0.199291 0.199291 0.199291
0.205809 0.205809 0.205809
0.212732 0.212732 0.212732
0.220641 0.220641 0.220641
0.231302 0.231302 0.231302
0.252755 0.252755 0.252755
0.283249 0.283249 0.283249
0.324103 0.324103 0.324103
0.221536 0.221536 0.221536
0.226815 0.226815 0.226815
0.238302 0.238302 0.238302
0.251171 0.251171 0.251171
0.267983 0.267983 0.267983
0.290914 0.290914 0.290914
0.323106 0.323106 0.323106
0.370482 0.370482 0.370482
0.266897 0.266897 0.266897
0.270035 0.270035 0.270035
0.271447 0.271447 0.271447
0.286017 0.286017 0.286017
0.323683 0.323683 0.323683
0.362997 0.362997 0.362997
0.401590 0.401590 0.401590
0.459874 0.459874 0.459874
0.321117 0.321117 0.321117
0.320001 0.320001 0.320001
0.318511 0.318511 0.318511
0.329655 0.329655 0.329655
0.355272 0.355272 0.355272
0.412741 0.412741 0.412741
0.495051 0.495051 0.495051
0.583759 0.583759 0.583759
0.389503 0.389503 0.389503
0.388459 0.388459 0.388459
0.387548 0.387548 0.387548
0.400217 0.400217 0.400217
0.420749 0.420749 0.420749
0.464583 0.464583 0.464583
0.549407 0.549407 0.549407
0.652697 0.652697 0.652697
0.502656 0.502656 0.502656
0.501142 0.501142 0.501142
0.501007 0.501007 0.501007
0.515001 0.515001 0.515001
0.536309 0.536309 0.536309
0.565427 0.565427 0.565427
0.620768 0.620768 0.620768
0.710304 0.710304 0.710304
0.660222 0.660222 0.660222
0.659306 0.659306 0.659306
0.661151 0.661151 0.661151
0.675115 0.675115 0.675115
0.694315 0.694315 0.694315
0.718934 0.718934 0.718934
0.748250 0.748250 0.748250
0.796933 0.796933 0.796933
0.200252 0.200252 0.200252
0.206972 0.206972 0.206972
0.214070 0.214070 0.214070
0.225446 0.225446 0.225446
0.238172 0.238172 0.238172
0.256243 0.256243 0.256243
0.275621 0.275621 0.275621
0.311360 0.311360 0.311360
0.210781 0.210781 0.210781
0.217510 0.217510 0.217510
0.227338 0.227338 0.227338
0.237735 0.237735 0.237735
0.250805 0.250805 0.250805
0.267693 0.267693 0.267693
0.288266 0.288266 0.288266
0.328104 0.328104 0.328104
0.230153 0.230153 0.230153
0.235967 0.235967 0.235967
0.253144 0.253144 0.253144
0.267684 0.267684 0.267684
0.281781 0.281781 0.281781
0.298042 0.298042 0.298042
0.326908 0.326908 0.326908
0.373066 0.373066 0.373066
0.275204 0.275204 0.275204
0.281150 0.281150 0.281150
0.296100 0.296100 0.296100
0.318806 0.318806 0.318806
0.340491 0.340491 0.340491
0.365731 0.365731 0.365731
0.402935 0.402935 0.402935
0.458496 0.458496 0.458496
0.353126 0.353126 0.353126
0.357870 0.357870 0.357870
0.368225 0.368225 0.368225
0.373186 0.373186 0.373186
0.395743 0.395743 0.395743
0.453314 0.453314 0.453314
0.520766 0.520766 0.520766
0.583003 0.583003 0.583003
0.449168 0.449168 0.449168
0.450539 0.450539 0.450539
0.448905 0.448905 0.448905
0.446311 0.446311 0.446311
0.464848 0.464848 0.464848
0.503936 0.503936 0.503936
0.583427 0.583427 0.583427
0.679446 0.679446 0.679446
0.559952 0.559952 0.559952
0.558702 0.558702 0.558702
0.555561 0.555561 0.555561
0.554371 0.554371 0.554371
0.573058 0.573058 0.573058
0.599829 0.599829 0.599829
0.648085 0.648085 0.648085
0.731590 0.731590 0.731590
0.699958 0.699958 0.699958
0.699138 0.699138 0.699138
0.697201 0.697201 0.697201
0.698328 0.698328 0.698328
0.715348 0.715348 0.715348
0.738189 0.738189 0.738189
0.765211 0.765211 0.765211
0.809148 0.809148 0.809148
0.217173 0.217173 0.217173
0.224452 0.224452 0.224452
0.234913 0.234913 0.234913
0.247715 0.247715 0.247715
0.265631 0.265631 0.265631
0.281766 0.281766 0.281766
0.314434 0.314434 0.314434
0.344948 0.344948 0.344948
0.228533 0.228533 0.228533
0.235432 0.235432 0.235432
0.250041 0.250041 0.250041
0.261588 0.261588 0.261588
0.278603 0.278603 0.278603
0.295035 0.295035 0.295035
0.326817 0.326817 0.326817
0.356788 0.356788 0.356788
0.248587 0.248587 0.248587
0.255390 0.255390 0.255390
0.275011 0.275011 0.275011
0.294065 0.294065 0.294065
0.310555 0.310555 0.310555
0.328748 0.328748 0.328748
0.357956 0.357956 0.357956
0.387281 0.387281 0.387281
0.288476 0.288476 0.288476
0.294604 0.294604 0.294604
0.310614 0.310614 0.310614
0.343103 0.343103 0.343103
0.366708 0.366708 0.366708
0.387243 0.387243 0.387243
0.411821 0.411821 0.411821
0.450046 0.450046 0.450046
0.360658 0.360658 0.360658
0.366938 0.366938 0.366938
0.382578 0.382578 0.382578
0.410512 0.410512 0.410512
0.445654 0.445654 0.445654
0.477899 0.477899 0.477899
0.515888 0.515888 0.515888
0.568347 0.568347 0.568347
0.480185 0.480185 0.480185
0.485760 0.485760 0.485760
0.497591 0.497591 0.497591
0.515062 0.515062 0.515062
0.522577 0.522577 0.522577
0.553827 0.553827 0.553827
0.625942 0.625942 0.625942
0.703092 0.703092 0.703092
0.614962 0.614962 0.614962
0.617805 0.617805 0.617805
0.622455 0.622455 0.622455
0.622782 0.622782 0.622782
0.620030 0.620030 0.620030
0.642142 0.642142 0.642142
0.682990 0.682990 0.682990
0.758962 0.758962 0.758962
0.748126 0.748126 0.748126
0.747096 0.747096 0.747096
0.744962 0.744962 0.744962
0.742985 0.742985 0.742985
0.742725 0.742725 0.742725
0.761987 0.761987 0.761987
0.786289 0.786289 0.786289
0.824199 0.824199 0.824199
0.244184 0.244184 0.244184
0.252298 0.252298 0.252298
0.269916 0.269916 0.269916
0.282130 0.282130 0.282130
0.301850 0.301850 0.301850
0.327089 0.327089 0.327089
0.346656 0.346656 0.346656
0.402589 0.402589 0.402589
0.255445 0.255445 0.255445
0.263114 0.263114 0.263114
0.282781 0.282781 0.282781
0.296082 0.296082 0.296082
0.315050 0.315050 0.315050
0.339877 0.339877 0.339877
0.360096 0.360096 0.360096
0.415377 0.415377 0.415377
0.277262 0.277262 0.277262
0.284934 0.284934 0.284934
0.305288 0.305288 0.305288
0.331112 0.331112 0.331112
0.349010 0.349010 0.349010
0.373498 0.373498 0.373498
0.395959 0.395959 0.395959
0.452188 0.452188 0.452188
0.313829 0.313829 0.313829
0.320226 0.320226 0.320226
0.337264 0.337264 0.337264
0.376494 0.376494 0.376494
0.409402 0.409402 0.409402
0.434034 0.434034 0.434034
0.460409 0.460409 0.460409
0.507459 0.507459 0.507459
0.381850 0.381850 0.381850
0.388344 0.388344 0.388344
0.403787 0.403787 0.403787
0.430951 0.430951 0.430951
0.479890 0.479890 0.479890
0.514164 0.514164 0.514164
0.542091 0.542091 0.542091
0.572855 0.572855 0.572855
0.488113 0.488113 0.488113
0.493925 0.493925 0.493925
0.507754 0.507754 0.507754
0.531959 0.531959 0.531959
0.568280 0.568280 0.568280
0.612356 0.612356 0.612356
0.649178 0.649178 0.649178
0.690354 0.690354 0.690354
0.640925 0.640925 0.640925
0.645187 0.645187 0.645187
0.654683 0.654683 0.654683
0.670893 0.670893 0.670893
0.690229 0.690229 0.690229
0.698481 0.698481 0.698481
0.728518 0.728518 0.728518
0.793581 0.793581 0.793581
0.781502 0.781502 0.781502
0.783095 0.783095 0.783095
0.787491 0.787491 0.787491
0.794758 0.794758 0.794758
0.796392 0.796392 0.796392
0.794472 0.794472 0.794472
0.813852 0.813852 0.813852
0.844585 0.844585 0.844585
0.288653 0.288653 0.288653
0.298027 0.298027 0.298027
0.321455 0.321455 0.321455
0.340100 0.340100 0.340100
0.361246 0.361246 0.361246
0.390819 0.390819 0.390819
0.427651 0.427651 0.427651
0.450505 0.450505 0.450505
0.297662 0.297662 0.297662
0.306595 0.306595 0.306595
0.329102 0.329102 0.329102
0.352992 0.352992 0.352992
0.373053 0.373053 0.373053
0.401686 0.401686 0.401686
0.437309 0.437309 0.437309
0.459255 0.459255 0.459255
0.319110 0.319110 0.319110
0.327503 0.327503 0.327503
0.349887 0.349887 0.349887
0.389403 0.389403 0.389403
0.409973 0.409973 0.409973
0.438128 0.438128 0.438128
0.473739 0.473739 0.473739
0.496358 0.496358 0.496358
0.348123 0.348123 0.348123
0.355216 0.355216 0.355216
0.377271 0.377271 0.377271
0.423881 0.423881 0.423881
0.473372 0.473372 0.473372
0.500183 0.500183 0.500183
0.532227 0.532227 0.532227
0.554668 0.554668 0.554668
0.414086 0.414086 0.414086
0.419656 0.419656 0.419656
0.432395 0.432395 0.432395
0.457652 0.457652 0.457652
0.524963 0.524963 0.524963
0.570658 0.570658 0.570658
0.598451 0.598451 0.598451
0.626609 0.626609 0.626609
0.521592 0.521592 0.521592
0.526542 0.526542 0.526542
0.538288 0.538288 0.538288
0.559474 0.559474 0.559474
0.589908 0.589908 0.589908
0.648012 0.648012 0.648012
0.685635 0.685635 0.685635
0.714163 0.714163 0.714163
0.647179 0.647179 0.647179
0.651391 0.651391 0.651391
0.660997 0.660997 0.660997
0.678837 0.678837 0.678837
0.704350 0.704350 0.704350
0.739256 0.739256 0.739256
0.778841 0.778841 0.778841
0.809518 0.809518 0.809518
0.794940 0.794940 0.794940
0.797782 0.797782 0.797782
0.805139 0.805139 0.805139
0.817016 0.817016 0.817016
0.829994 0.829994 0.829994
0.844645 0.844645 0.844645
0.850075 0.850075 0.850075
0.871292 0.871292 0.871292
0.359904 0.359904 0.359904
0.371441 0.371441 0.371441
0.399572 0.399572 0.399572
0.441926 0.441926 0.441926
0.466560 0.466560 0.466560
0.498318 0.498318 0.498318
0.537023 0.537023 0.537023
0.578726 0.578726 0.578726
0.366408 0.366408 0.366408
0.377234 0.377234 0.377234
0.405367 0.405367 0.405367
0.453665 0.453665 0.453665
0.478349 0.478349 0.478349
0.508587 0.508587 0.508587
0.545865 0.545865 0.545865
0.585997 0.585997 0.585997
0.381035 0.381035 0.381035
0.391583 0.391583 0.391583
0.419384 0.419384 0.419384
0.477529 0.477529 0.477529
0.512688 0.512688 0.512688
0.539679 0.539679 0.539679
0.573915 0.573915 0.573915
0.611310 0.611310 0.611310
0.395716 0.395716 0.395716
0.406294 0.406294 0.406294
0.435710 0.435710 0.435710
0.495509 0.495509 0.495509
0.564090 0.564090 0.564090
0.589864 0.589864 0.589864
0.619944 0.619944 0.619944
0.652820 0.652820 0.652820
0.445942 0.445942 0.445942
0.450632 0.450632 0.450632
0.461849 0.461849 0.461849
0.505495 0.505495 0.505495
0.588040 0.588040 0.588040
0.647462 0.647462 0.647462
0.674212 0.674212 0.674212
0.704599 0.704599 0.704599
0.563605 0.563605 0.563605
0.566708 0.566708 0.566708
0.574521 0.574521 0.574521
0.589285 0.589285 0.589285
0.614930 0.614930 0.614930
0.696404 0.696404 0.696404
0.745619 0.745619 0.745619
0.771872 0.771872 0.771872
0.695977 0.695977 0.695977
0.698677 0.698677 0.698677
0.705379 0.705379 0.705379
0.717800 0.717800 0.717800
0.736193 0.736193 0.736193
0.761228 0.761228 0.761228
0.808664 0.808664 0.808664
0.837381 0.837381 0.837381
0.803861 0.803861 0.803861
0.805697 0.805697 0.805697
0.810782 0.810782 0.810782
0.820406 0.820406 0.820406
0.834387 0.834387 0.834387
0.852650 0.852650 0.852650
0.875598 0.875598 0.875598
0.901160 0.901160 0.901160
