gsg/05_BW/GSG_LUT_BW_Contrasty.cube
# GSG LUTs 1.0
# Copyright (c) 2016-2020 Greyscalegorilla
# See EULA for licensing and distribution information
# Converted by Briz LUT Converter
LUT_3D_SIZE 5
DOMAIN_MIN 0.000000 0.000000 0.000000
DOMAIN_MAX 0.903226 0.903226 0.903226
0.050794 0.050794 0.050794
0.065028 0.065028 0.065028
0.121399 0.121399 0.121399
0.204616 0.204616 0.204616
0.304274 0.304274 0.304274
0.063256 0.063256 0.063256
0.109858 0.109858 0.109858
0.194988 0.194988 0.194988
0.292549 0.292549 0.292549
0.400249 0.400249 0.400249
0.103958 0.103958 0.103958
0.184980 0.184980 0.184980
0.281547 0.281547 0.281547
0.390441 0.390441 0.390441
0.508154 0.508154 0.508154
0.176927 0.176927 0.176927
0.269709 0.269709 0.269709
0.377281 0.377281 0.377281
0.497712 0.497712 0.497712
0.625453 0.625453 0.625453
0.260357 0.260357 0.260357
0.362960 0.362960 0.362960
0.481704 0.481704 0.481704
0.611280 0.611280 0.611280
0.728262 0.728262 0.728262
0.060136 0.060136 0.060136
0.104718 0.104718 0.104718
0.187409 0.187409 0.187409
0.283825 0.283825 0.283825
0.392148 0.392148 0.392148
0.096997 0.096997 0.096997
0.176783 0.176783 0.176783
0.270396 0.270396 0.270396
0.378377 0.378377 0.378377
0.496784 0.496784 0.496784
0.167499 0.167499 0.167499
0.260166 0.260166 0.260166
0.367180 0.367180 0.367180
0.485319 0.485319 0.485319
0.613005 0.613005 0.613005
0.251003 0.251003 0.251003
0.354854 0.354854 0.354854
0.472098 0.472098 0.472098
0.601154 0.601154 0.601154
0.719444 0.719444 0.719444
0.341776 0.341776 0.341776
0.456971 0.456971 0.456971
0.585744 0.585744 0.585744
0.707213 0.707213 0.707213
0.804873 0.804873 0.804873
0.092536 0.092536 0.092536
0.170119 0.170119 0.170119
0.264511 0.264511 0.264511
0.371121 0.371121 0.371121
0.488762 0.488762 0.488762
0.161655 0.161655 0.161655
0.251883 0.251883 0.251883
0.357442 0.357442 0.357442
0.475551 0.475551 0.475551
0.602266 0.602266 0.602266
0.243090 0.243090 0.243090
0.345854 0.345854 0.345854
0.462615 0.462615 0.462615
0.590970 0.590970 0.590970
0.710678 0.710678 0.710678
0.335905 0.335905 0.335905
0.449388 0.449388 0.449388
0.576899 0.576899 0.576899
0.699478 0.699478 0.699478
0.798497 0.798497 0.798497
0.436854 0.436854 0.436854
0.560357 0.560357 0.560357
0.686332 0.686332 0.686332
0.788592 0.788592 0.788592
0.867185 0.867185 0.867185
0.155839 0.155839 0.155839
0.245370 0.245370 0.245370
0.350171 0.350171 0.350171
0.466832 0.466832 0.466832
0.593398 0.593398 0.593398
0.235929 0.235929 0.235929
0.337170 0.337170 0.337170
0.452644 0.452644 0.452644
0.580378 0.580378 0.580378
0.701291 0.701291 0.701291
0.326106 0.326106 0.326106
0.439406 0.439406 0.439406
0.566074 0.566074 0.566074
0.690345 0.690345 0.690345
0.791549 0.791549 0.791549
0.428311 0.428311 0.428311
0.550977 0.550977 0.550977
0.677722 0.677722 0.677722
0.782944 0.782944 0.782944
0.862503 0.862503 0.862503
0.537335 0.537335 0.537335
0.663749 0.663749 0.663749
0.771467 0.771467 0.771467
0.855604 0.855604 0.855604
0.916550 0.916550 0.916550
0.227610 0.227610 0.227610
0.327990 0.327990 0.327990
0.442449 0.442449 0.442449
0.568940 0.568940 0.568940
0.692413 0.692413 0.692413
0.316838 0.316838 0.316838
0.428822 0.428822 0.428822
0.553372 0.553372 0.553372
0.679644 0.679644 0.679644
0.782781 0.782781 0.782781
0.418068 0.418068 0.418068
0.539066 0.539066 0.539066
0.667516 0.667516 0.667516
0.774115 0.774115 0.774115
0.856483 0.856483 0.856483
0.526748 0.526748 0.526748
0.654253 0.654253 0.654253
0.764253 0.764253 0.764253
0.849460 0.849460 0.849460
0.911377 0.911377 0.911377
0.640411 0.640411 0.640411
0.751724 0.751724 0.751724
0.840719 0.840719 0.840719
0.906101 0.906101 0.906101
0.953576 0.953576 0.953576
