gsg/05_BW/GSG_LUT_BW_Ultra_Contrasty.cube
# GSG LUTs 1.0
# Copyright (c) 2016-2020 Greyscalegorilla
# See EULA for licensing and distribution information
# Converted by Briz LUT Converter
LUT_3D_SIZE 5
DOMAIN_MIN 0.000000 0.000000 0.000000
DOMAIN_MAX 0.903226 0.903226 0.903226
0.050794 0.050794 0.050794
0.050794 0.050794 0.050794
0.050794 0.050794 0.050794
0.054701 0.054701 0.054701
0.054701 0.054701 0.054701
0.054701 0.054701 0.054701
0.089903 0.089903 0.089903
0.104331 0.104331 0.104331
0.118532 0.118532 0.118532
0.131613 0.131613 0.131613
0.064729 0.064729 0.064729
0.146237 0.146237 0.146237
0.317921 0.317921 0.317921
0.358210 0.358210 0.358210
0.385162 0.385162 0.385162
0.093670 0.093670 0.093670
0.224711 0.224711 0.224711
0.444575 0.444575 0.444575
0.677745 0.677745 0.677745
0.715900 0.715900 0.715900
0.146260 0.146260 0.146260
0.322820 0.322820 0.322820
0.565888 0.565888 0.565888
0.790824 0.790824 0.790824
0.922802 0.922802 0.922802
0.054701 0.054701 0.054701
0.078981 0.078981 0.078981
0.090036 0.090036 0.090036
0.101867 0.101867 0.101867
0.113213 0.113213 0.113213
0.088757 0.088757 0.088757
0.119241 0.119241 0.119241
0.138313 0.138313 0.138313
0.154727 0.154727 0.154727
0.172657 0.172657 0.172657
0.143249 0.143249 0.143249
0.189413 0.189413 0.189413
0.377571 0.377571 0.377571
0.418714 0.418714 0.418714
0.447018 0.447018 0.447018
0.217844 0.217844 0.217844
0.281684 0.281684 0.281684
0.508562 0.508562 0.508562
0.735800 0.735800 0.735800
0.770118 0.770118 0.770118
0.314910 0.314910 0.314910
0.389549 0.389549 0.389549
0.628923 0.628923 0.628923
0.836459 0.836459 0.836459
0.943489 0.943489 0.943489
0.073402 0.073402 0.073402
0.143136 0.143136 0.143136
0.256019 0.256019 0.256019
0.286703 0.286703 0.286703
0.313124 0.313124 0.313124
0.160128 0.160128 0.160128
0.207245 0.207245 0.207245
0.344238 0.344238 0.344238
0.380076 0.380076 0.380076
0.409703 0.409703 0.409703
0.308717 0.308717 0.308717
0.375725 0.375725 0.375725
0.454061 0.454061 0.454061
0.495043 0.495043 0.495043
0.525328 0.525328 0.525328
0.427043 0.427043 0.427043
0.499150 0.499150 0.499150
0.584362 0.584362 0.584362
0.789180 0.789180 0.789180
0.819674 0.819674 0.819674
0.547877 0.547877 0.547877
0.619733 0.619733 0.619733
0.699114 0.699114 0.699114
0.874902 0.874902 0.874902
0.960414 0.960414 0.960414
0.131230 0.131230 0.131230
0.241573 0.241573 0.241573
0.398148 0.398148 0.398148
0.568683 0.568683 0.568683
0.607003 0.607003 0.607003
0.266101 0.266101 0.266101
0.330944 0.330944 0.330944
0.499340 0.499340 0.499340
0.667663 0.667663 0.667663
0.703650 0.703650 0.703650
0.457588 0.457588 0.457588
0.530547 0.530547 0.530547
0.610512 0.610512 0.610512
0.760933 0.760933 0.760933
0.791069 0.791069 0.791069
0.659528 0.659528 0.659528
0.726721 0.726721 0.726721
0.787786 0.787786 0.787786
0.844667 0.844667 0.844667
0.868601 0.868601 0.868601
0.770760 0.770760 0.770760
0.824464 0.824464 0.824464
0.870157 0.870157 0.870157
0.910330 0.910330 0.910330
0.972917 0.972917 0.972917
0.220127 0.220127 0.220127
0.370730 0.370730 0.370730
0.547791 0.547791 0.547791
0.718801 0.718801 0.718801
0.847999 0.847999 0.847999
0.400626 0.400626 0.400626
0.475552 0.475552 0.475552
0.649663 0.649663 0.649663
0.802697 0.802697 0.802697
0.902843 0.902843 0.902843
0.608508 0.608508 0.608508
0.677660 0.677660 0.677660
0.748952 0.748952 0.748952
0.869829 0.869829 0.869829
0.941093 0.941093 0.941093
0.792998 0.792998 0.792998
0.844401 0.844401 0.844401
0.886069 0.886069 0.886069
0.921027 0.921027 0.921027
0.966734 0.966734 0.966734
0.911158 0.911158 0.911158
0.938021 0.938021 0.938021
0.957615 0.957615 0.957615
0.972823 0.972823 0.972823
0.983519 0.983519 0.983519
