gsg/05_BW/GSG_LUT_BW_Simple.cube
# GSG LUTs 1.0
# Copyright (c) 2016-2020 Greyscalegorilla
# See EULA for licensing and distribution information
# Converted by Briz LUT Converter
LUT_3D_SIZE 5
DOMAIN_MIN 0.000000 0.000000 0.000000
DOMAIN_MAX 0.903226 0.903226 0.903226
0.050794 0.050794 0.050794
0.120911 0.123518 0.123762
0.198259 0.211351 0.212927
0.267517 0.297507 0.301012
0.336051 0.389176 0.395014
0.132703 0.136209 0.136752
0.206975 0.222021 0.223596
0.279011 0.312608 0.316357
0.348141 0.405534 0.411873
0.418365 0.501199 0.510541
0.219481 0.237189 0.239253
0.289953 0.327044 0.331227
0.360450 0.422453 0.429304
0.430541 0.517582 0.527339
0.511024 0.609432 0.620468
0.302777 0.343928 0.348655
0.371714 0.437831 0.445276
0.442432 0.533408 0.543617
0.530111 0.623904 0.634535
0.633676 0.701138 0.708740
0.382717 0.452936 0.460727
0.452897 0.546982 0.557564
0.546991 0.636717 0.646800
0.651009 0.713854 0.720920
0.745772 0.784216 0.788661
0.088613 0.089346 0.089401
0.166990 0.174855 0.175685
0.238811 0.261160 0.263548
0.309924 0.353628 0.358488
0.378620 0.447364 0.454965
0.179476 0.189216 0.190290
0.249785 0.274858 0.277719
0.320427 0.367910 0.373180
0.390990 0.464218 0.472312
0.461262 0.557962 0.568832
0.263539 0.292594 0.295800
0.331933 0.383339 0.389095
0.403011 0.480560 0.489262
0.474541 0.574720 0.585871
0.574689 0.657402 0.666771
0.345126 0.401426 0.407710
0.414614 0.496297 0.505529
0.489060 0.590770 0.602119
0.593974 0.671786 0.680581
0.695024 0.746355 0.752121
0.426513 0.512290 0.521840
0.503105 0.603070 0.614261
0.609605 0.683365 0.691592
0.710647 0.757855 0.763170
0.799632 0.825458 0.828402
0.136358 0.140486 0.140841
0.210208 0.225774 0.227538
0.282503 0.317137 0.321021
0.352684 0.411867 0.418414
0.422251 0.506574 0.515940
0.223278 0.241689 0.243808
0.293157 0.331304 0.335688
0.363204 0.426211 0.433298
0.434444 0.522837 0.532739
0.515643 0.612851 0.623783
0.305972 0.348484 0.353211
0.375073 0.442402 0.450028
0.445646 0.537585 0.547905
0.535391 0.627917 0.638364
0.638344 0.704531 0.712038
0.387932 0.460038 0.468215
0.458377 0.554194 0.564881
0.553093 0.641316 0.651270
0.656905 0.718176 0.725154
0.753250 0.789816 0.794034
0.470894 0.570247 0.581310
0.568239 0.652684 0.662155
0.672042 0.729345 0.735899
0.768396 0.801372 0.805125
0.848862 0.864694 0.866563
0.185419 0.196093 0.197479
0.254848 0.281352 0.284375
0.325700 0.375064 0.380578
0.395246 0.470043 0.478407
0.467013 0.565324 0.576297
0.267452 0.297576 0.300971
0.335628 0.388532 0.394480
0.406666 0.485530 0.494433
0.478751 0.579721 0.591029
0.580337 0.661596 0.670859
0.348982 0.406637 0.413128
0.418948 0.502201 0.511471
0.493856 0.595134 0.606463
0.599695 0.676082 0.684659
0.700212 0.750120 0.755795
0.432134 0.519648 0.529450
0.511209 0.609466 0.620499
0.617231 0.688982 0.697068
0.717819 0.763225 0.768441
0.806672 0.831004 0.833823
0.529852 0.623829 0.634361
0.632028 0.699902 0.707506
0.732318 0.774021 0.778767
0.819670 0.841239 0.843809
0.891832 0.900626 0.901620
0.226886 0.246256 0.248430
0.298124 0.337792 0.342274
0.367957 0.432768 0.440047
0.438347 0.527976 0.538051
0.523450 0.618969 0.629561
0.308916 0.352381 0.357181
0.378035 0.446494 0.454249
0.448730 0.541633 0.551993
0.540139 0.631621 0.641871
0.642848 0.707804 0.715244
0.391813 0.465346 0.473601
0.461444 0.558068 0.568966
0.557934 0.644910 0.654728
0.661432 0.721549 0.728348
0.756715 0.792493 0.796571
0.474765 0.575092 0.586246
0.575035 0.657631 0.666976
0.678781 0.734310 0.740620
0.772762 0.804698 0.808372
0.853952 0.868888 0.870480
0.591658 0.669997 0.678859
0.693671 0.745317 0.751188
0.787261 0.815840 0.819097
0.865103 0.877997 0.879550
0.930066 0.933930 0.934438
