gsg/05_BW/GSG_LUT_BW_PhotographyClass.cube
# GSG LUTs 1.0
# Copyright (c) 2016-2020 Greyscalegorilla
# See EULA for licensing and distribution information
# Converted by Briz LUT Converter
LUT_3D_SIZE 8
DOMAIN_MIN 0.000000 0.000000 0.000000
DOMAIN_MAX 0.903226 0.903226 0.903226
0.092063 0.092063 0.092063
0.089771 0.089771 0.089771
0.086683 0.086683 0.086683
0.085265 0.085265 0.085265
0.098027 0.098027 0.098027
0.144291 0.144291 0.144291
0.244311 0.244311 0.244311
0.387522 0.387522 0.387522
0.085801 0.085801 0.085801
0.085616 0.085616 0.085616
0.097076 0.097076 0.097076
0.109869 0.109869 0.109869
0.143483 0.143483 0.143483
0.211250 0.211250 0.211250
0.317784 0.317784 0.317784
0.454572 0.454572 0.454572
0.098751 0.098751 0.098751
0.104629 0.104629 0.104629
0.153858 0.153858 0.153858
0.286134 0.286134 0.286134
0.351947 0.351947 0.351947
0.416639 0.416639 0.416639
0.506595 0.506595 0.506595
0.600044 0.600044 0.600044
0.203899 0.203899 0.203899
0.215432 0.215432 0.215432
0.249893 0.249893 0.249893
0.402490 0.402490 0.402490
0.576288 0.576288 0.576288
0.652067 0.652067 0.652067
0.683693 0.683693 0.683693
0.718865 0.718865 0.718865
0.404403 0.404403 0.404403
0.417920 0.417920 0.417920
0.446535 0.446535 0.446535
0.509069 0.509069 0.509069
0.637307 0.637307 0.637307
0.720761 0.720761 0.720761
0.767894 0.767894 0.767894
0.783596 0.783596 0.783596
0.610737 0.610737 0.610737
0.618585 0.618585 0.618585
0.632787 0.632787 0.632787
0.655587 0.655587 0.655587
0.698154 0.698154 0.698154
0.754087 0.754087 0.754087
0.789563 0.789563 0.789563
0.813724 0.813724 0.813724
0.736161 0.736161 0.736161
0.738571 0.738571 0.738571
0.743730 0.743730 0.743730
0.752390 0.752390 0.752390
0.763663 0.763663 0.763663
0.785825 0.785825 0.785825
0.807081 0.807081 0.807081
0.822343 0.822343 0.822343
0.798228 0.798228 0.798228
0.799018 0.799018 0.799018
0.800936 0.800936 0.800936
0.804594 0.804594 0.804594
0.808213 0.808213 0.808213
0.814313 0.814313 0.814313
0.825363 0.825363 0.825363
0.833073 0.833073 0.833073
0.089771 0.089771 0.089771
0.087262 0.087262 0.087262
0.085171 0.085171 0.085171
0.098943 0.098943 0.098943
0.135230 0.135230 0.135230
0.200673 0.200673 0.200673
0.300381 0.300381 0.300381
0.429138 0.429138 0.429138
0.085597 0.085597 0.085597
0.089800 0.089800 0.089800
0.111259 0.111259 0.111259
0.145915 0.145915 0.145915
0.195028 0.195028 0.195028
0.269736 0.269736 0.269736
0.368100 0.368100 0.368100
0.489078 0.489078 0.489078
0.114005 0.114005 0.114005
0.121621 0.121621 0.121621
0.174393 0.174393 0.174393
0.301545 0.301545 0.301545
0.390341 0.390341 0.390341
0.452621 0.452621 0.452621
0.531313 0.531313 0.531313
0.613380 0.613380 0.613380
0.228199 0.228199 0.228199
0.239800 0.239800 0.239800
0.274890 0.274890 0.274890
0.410313 0.410313 0.410313
0.567957 0.567957 0.567957
0.655154 0.655154 0.655154
0.686790 0.686790 0.686790
0.720948 0.720948 0.720948
0.427420 0.427420 0.427420
0.438501 0.438501 0.438501
0.464850 0.464850 0.464850
0.522806 0.522806 0.522806
0.637074 0.637074 0.637074
0.718381 0.718381 0.718381
0.768022 0.768022 0.768022
0.784009 0.784009 0.784009
0.619456 0.619456 0.619456
0.625195 0.625195 0.625195
0.638544 0.638544 0.638544
0.660204 0.660204 0.660204
0.701061 0.701061 0.701061
0.753175 0.753175 0.753175
0.788908 0.788908 0.788908
0.813617 0.813617 0.813617
0.738073 0.738073 0.738073
0.740004 0.740004 0.740004
0.744847 0.744847 0.744847
0.753522 0.753522 0.753522
0.764814 0.764814 0.764814
0.785742 0.785742 0.785742
0.806761 0.806761 0.806761
0.822064 0.822064 0.822064
0.798568 0.798568 0.798568
0.799333 0.799333 0.799333
0.801259 0.801259 0.801259
0.804681 0.804681 0.804681
0.809273 0.809273 0.809273
0.814720 0.814720 0.814720
0.825324 0.825324 0.825324
0.833075 0.833075 0.833075
0.086258 0.086258 0.086258
0.085148 0.085148 0.085148
0.088341 0.088341 0.088341
0.104454 0.104454 0.104454
0.169731 0.169731 0.169731
0.277054 0.277054 0.277054
0.396039 0.396039 0.396039
0.507690 0.507690 0.507690
0.090914 0.090914 0.090914
0.100174 0.100174 0.100174
0.114251 0.114251 0.114251
0.157577 0.157577 0.157577
0.246867 0.246867 0.246867
0.358276 0.358276 0.358276
0.459294 0.459294 0.459294
0.555643 0.555643 0.555643
0.156823 0.156823 0.156823
0.165281 0.165281 0.165281
0.228893 0.228893 0.228893
0.342169 0.342169 0.342169
0.434927 0.434927 0.434927
0.521240 0.521240 0.521240
0.587929 0.587929 0.587929
0.648567 0.648567 0.648567
0.290839 0.290839 0.290839
0.304771 0.304771 0.304771
0.340612 0.340612 0.340612
0.464393 0.464393 0.464393
0.595357 0.595357 0.595357
0.675896 0.675896 0.675896
0.706833 0.706833 0.706833
0.734330 0.734330 0.734330
0.484904 0.484904 0.484904
0.494570 0.494570 0.494570
0.517792 0.517792 0.517792
0.568045 0.568045 0.568045
0.660178 0.660178 0.660178
0.725152 0.725152 0.725152
0.771908 0.771908 0.771908
0.788208 0.788208 0.788208
0.646809 0.646809 0.646809
0.651671 0.651671 0.651671
0.662666 0.662666 0.662666
0.680592 0.680592 0.680592
0.715082 0.715082 0.715082
0.758930 0.758930 0.758930
0.790335 0.790335 0.790335
0.814530 0.814530 0.814530
0.747187 0.747187 0.747187
0.749032 0.749032 0.749032
0.753219 0.753219 0.753219
0.760807 0.760807 0.760807
0.770717 0.770717 0.770717
0.789300 0.789300 0.789300
0.807664 0.807664 0.807664
0.822764 0.822764 0.822764
0.800977 0.800977 0.800977
0.801692 0.801692 0.801692
0.803538 0.803538 0.803538
0.806771 0.806771 0.806771
0.811010 0.811010 0.811010
0.816083 0.816083 0.816083
0.825535 0.825535 0.825535
0.833293 0.833293 0.833293
0.086132 0.086132 0.086132
0.090225 0.090225 0.090225
0.104136 0.104136 0.104136
0.138807 0.138807 0.138807
0.187253 0.187253 0.187253
0.297083 0.297083 0.297083
0.454154 0.454154 0.454154
0.568452 0.568452 0.568452
0.109093 0.109093 0.109093
0.125279 0.125279 0.125279
0.145848 0.145848 0.145848
0.187482 0.187482 0.187482
0.250272 0.250272 0.250272
0.374275 0.374275 0.374275
0.516942 0.516942 0.516942
0.609171 0.609171 0.609171
0.207011 0.207011 0.207011
0.238228 0.238228 0.238228
0.287240 0.287240 0.287240
0.348568 0.348568 0.348568
0.437961 0.437961 0.437961
0.538208 0.538208 0.538208
0.628837 0.628837 0.628837
0.680814 0.680814 0.680814
0.400901 0.400901 0.400901
0.401943 0.401943 0.401943
0.434048 0.434048 0.434048
0.536123 0.536123 0.536123
0.631567 0.631567 0.631567
0.683056 0.683056 0.683056
0.721008 0.721008 0.721008
0.747140 0.747140 0.747140
0.556127 0.556127 0.556127
0.564574 0.564574 0.564574
0.583748 0.583748 0.583748
0.622022 0.622022 0.622022
0.689079 0.689079 0.689079
0.740831 0.740831 0.740831
0.777342 0.777342 0.777342
0.792780 0.792780 0.792780
0.680957 0.680957 0.680957
0.685077 0.685077 0.685077
0.693284 0.693284 0.693284
0.706936 0.706936 0.706936
0.733380 0.733380 0.733380
0.768377 0.768377 0.768377
0.794769 0.794769 0.794769
0.815853 0.815859 0.815859
0.759062 0.759062 0.759062
0.760466 0.760466 0.760466
0.764221 0.764221 0.764221
0.770632 0.770632 0.770632
0.779058 0.779058 0.779058
0.794282 0.794282 0.794282
0.810244 0.810244 0.810244
0.823747 0.823747 0.823747
0.804594 0.804594 0.804594
0.805125 0.805125 0.805125
0.806727 0.806727 0.806727
0.809617 0.809617 0.809617
0.813484 0.813484 0.813484
0.818231 0.818231 0.818231
0.826257 0.826257 0.826257
0.833625 0.833625 0.833625
0.106739 0.106739 0.106739
0.120099 0.120099 0.120099
0.146791 0.146791 0.146791
0.191851 0.191851 0.191851
0.278238 0.278238 0.278238
0.351874 0.351874 0.351874
0.457781 0.457781 0.457781
0.600236 0.600236 0.600236
0.151746 0.151746 0.151746
0.178251 0.178251 0.178251
0.208660 0.208660 0.208660
0.252759 0.252759 0.252759
0.333503 0.333503 0.333503
0.400681 0.400681 0.400681
0.516519 0.516519 0.516519
0.633717 0.633717 0.633717
0.263724 0.263724 0.263724
0.302013 0.302013 0.302013
0.356178 0.356178 0.356178
0.399958 0.399958 0.399958
0.454828 0.454828 0.454828
0.534703 0.534703 0.534703
0.626061 0.626061 0.626061
0.693596 0.693596 0.693596
0.475402 0.475402 0.475402
0.498824 0.498824 0.498824
0.537737 0.537737 0.537737
0.595550 0.595550 0.595550
0.642220 0.642220 0.642220
0.683075 0.683075 0.683075
0.720196 0.720196 0.720196
0.750126 0.750126 0.750126
0.640088 0.640088 0.640088
0.638903 0.638903 0.638903
0.646690 0.646690 0.646690
0.671872 0.671872 0.671872
0.718101 0.718101 0.718101
0.756298 0.756298 0.756298
0.777773 0.777773 0.777773
0.791980 0.791980 0.791980
0.715392 0.715392 0.715392
0.717800 0.717800 0.717800
0.723520 0.723520 0.723520
0.732842 0.732842 0.732842
0.750870 0.750870 0.750870
0.778893 0.778893 0.778893
0.801084 0.801084 0.801084
0.817998 0.817998 0.817998
0.773400 0.773400 0.773400
0.774278 0.774278 0.774278
0.776377 0.776377 0.776377
0.780985 0.780985 0.780985
0.787935 0.787935 0.787935
0.799584 0.799584 0.799584
0.814009 0.814009 0.814009
0.825838 0.825838 0.825838
0.808524 0.808524 0.808524
0.809017 0.809017 0.809017
0.810355 0.810355 0.810355
0.812991 0.812991 0.812991
0.816488 0.816488 0.816488
0.820702 0.820702 0.820702
0.827512 0.827512 0.827512
0.834203 0.834203 0.834203
0.171901 0.171901 0.171901
0.201493 0.201493 0.201493
0.234386 0.234386 0.234386
0.298793 0.298793 0.298793
0.359993 0.359993 0.359993
0.475537 0.475537 0.475537
0.550062 0.550062 0.550062
0.618835 0.618835 0.618835
0.231009 0.231009 0.231009
0.269294 0.269294 0.269294
0.300991 0.300991 0.300991
0.359204 0.359204 0.359204
0.414976 0.414976 0.414976
0.516361 0.516361 0.516361
0.578431 0.578431 0.578431
0.639492 0.639492 0.639492
0.348143 0.348143 0.348143
0.388047 0.388047 0.388047
0.446941 0.446941 0.446941
0.491809 0.491809 0.491809
0.538477 0.538477 0.538477
0.595776 0.595776 0.595776
0.637963 0.637963 0.637963
0.692090 0.692090 0.692090
0.523942 0.523942 0.523942
0.544363 0.544363 0.544363
0.595786 0.595786 0.595786
0.633469 0.633469 0.633469
0.658785 0.658785 0.658785
0.685008 0.685008 0.685008
0.718565 0.718565 0.718565
0.749141 0.749141 0.749141
0.683017 0.683017 0.683017
0.690936 0.690936 0.690936
0.704562 0.704562 0.704562
0.717986 0.717986 0.717986
0.743231 0.743231 0.743231
0.761382 0.761382 0.761382
0.775664 0.775664 0.775664
0.788811 0.788811 0.788811
0.756815 0.756815 0.756815
0.756930 0.756930 0.756930
0.755748 0.755748 0.755748
0.759909 0.759909 0.759909
0.770909 0.770909 0.770909
0.791211 0.791211 0.791211
0.807997 0.807997 0.807997
0.816961 0.816961 0.816961
0.793238 0.793238 0.793238
0.792962 0.792962 0.792962
0.792266 0.792266 0.792266
0.794698 0.794698 0.794698
0.798813 0.798813 0.798813
0.806461 0.806461 0.806461
0.818800 0.818800 0.818800
0.829208 0.829208 0.829208
0.819276 0.819276 0.819276
0.819013 0.819013 0.819013
0.818424 0.818424 0.818424
0.818465 0.818465 0.818465
0.820489 0.820489 0.820489
0.824055 0.824055 0.824055
0.829417 0.829417 0.829417
0.835903 0.835903 0.835903
0.301154 0.301154 0.301154
0.345982 0.345982 0.345982
0.381983 0.381983 0.381983
0.442726 0.442726 0.442726
0.518499 0.518499 0.518499
0.565787 0.565787 0.565787
0.650646 0.650646 0.650646
0.689064 0.689064 0.689064
0.350916 0.350916 0.350916
0.394046 0.394046 0.394046
0.438169 0.438169 0.438169
0.489698 0.489698 0.489698
0.553105 0.553105 0.553105
0.594164 0.594164 0.594164
0.665532 0.665532 0.665532
0.697096 0.697096 0.697096
0.450941 0.450941 0.450941
0.487887 0.487887 0.487887
0.555072 0.555072 0.555072
0.589611 0.589611 0.589611
0.628244 0.628244 0.628244
0.657921 0.657921 0.657921
0.702241 0.702241 0.702241
0.724393 0.724393 0.724393
0.572548 0.572548 0.572548
0.589813 0.589813 0.589813
0.642137 0.642137 0.642137
0.684859 0.684859 0.684859
0.704114 0.704114 0.704114
0.724194 0.724194 0.724194
0.742236 0.742236 0.742236
0.755779 0.755779 0.755779
0.700124 0.700124 0.700124
0.705854 0.705854 0.705854
0.718619 0.718619 0.718619
0.739781 0.739781 0.739781
0.756435 0.756435 0.756435
0.766221 0.766221 0.766221
0.775541 0.775541 0.775541
0.788057 0.788057 0.788057
0.772937 0.772937 0.772937
0.775169 0.775169 0.775169
0.779760 0.779760 0.779760
0.786676 0.786676 0.786676
0.791979 0.791979 0.791979
0.802312 0.802312 0.802312
0.809756 0.809756 0.809756
0.815463 0.815463 0.815463
0.808766 0.808766 0.808766
0.809445 0.809445 0.809445
0.810536 0.810536 0.810536
0.810899 0.810899 0.810899
0.811391 0.811391 0.811391
0.815628 0.815628 0.815628
0.824680 0.824680 0.824680
0.832510 0.832510 0.832510
0.828535 0.828535 0.828535
0.828479 0.828479 0.828479
0.828551 0.828551 0.828551
0.828159 0.828159 0.828159
0.827763 0.827763 0.827763
0.829412 0.829412 0.829412
0.832475 0.832475 0.832475
0.838180 0.838180 0.838180
0.481516 0.481516 0.481516
0.522933 0.522933 0.522933
0.571438 0.571438 0.571438
0.607416 0.607416 0.607416
0.649671 0.649671 0.649671
0.689501 0.689501 0.689501
0.708522 0.708522 0.708522
0.748797 0.748797 0.748797
0.509538 0.509538 0.509538
0.547507 0.547507 0.547507
0.602927 0.602927 0.602927
0.631910 0.631910 0.631910
0.667079 0.667079 0.667079
0.701071 0.701071 0.701071
0.718468 0.718468 0.718468
0.754481 0.754481 0.754481
0.563868 0.563868 0.563868
0.595326 0.595326 0.595326
0.654781 0.654781 0.654781
0.682421 0.682421 0.682421
0.705296 0.705296 0.705296
0.728353 0.728353 0.728353
0.742449 0.742449 0.742449
0.769480 0.769480 0.769480
0.617548 0.617548 0.617548
0.639639 0.639639 0.639639
0.687004 0.687004 0.687004
0.732374 0.732374 0.732374
0.746825 0.746825 0.746825
0.760974 0.760974 0.760974
0.771128 0.771128 0.771128
0.787190 0.787190 0.787190
0.713320 0.713320 0.713320
0.717752 0.717752 0.717752
0.726969 0.726969 0.726969
0.753054 0.753054 0.753054
0.779772 0.779772 0.779772
0.788481 0.788481 0.788481
0.795643 0.795643 0.795643
0.803032 0.803032 0.803032
0.780566 0.780566 0.780566
0.782005 0.782005 0.782005
0.785281 0.785281 0.785281
0.790891 0.790891 0.790891
0.799052 0.799052 0.799052
0.809743 0.809743 0.809743
0.814627 0.814627 0.814627
0.817818 0.817818 0.817818
0.814027 0.814027 0.814027
0.814602 0.814602 0.814602
0.816003 0.816003 0.816003
0.818662 0.818662 0.818662
0.822224 0.822224 0.822224
0.826031 0.826031 0.826031
0.829432 0.829432 0.829432
0.832461 0.832461 0.832461
0.832542 0.832542 0.832542
0.832615 0.832615 0.832615
0.833309 0.833309 0.833309
0.834279 0.834279 0.834279
0.835749 0.835749 0.835749
0.836462 0.836462 0.836462
0.837672 0.837672 0.837672
0.841474 0.841474 0.841474
