gsg/05_BW/GSG_LUT_BW_SilverTone.cube
# GSG LUTs 1.0
# Copyright (c) 2016-2020 Greyscalegorilla
# See EULA for licensing and distribution information
# Converted by Briz LUT Converter
LUT_3D_SIZE 5
DOMAIN_MIN 0.000000 0.000000 0.000000
DOMAIN_MAX 0.903226 0.903226 0.903226
0.050794 0.050794 0.050794
0.050794 0.050794 0.050794
0.050794 0.050794 0.050794
0.051621 0.051621 0.051621
0.054701 0.054701 0.054701
0.142014 0.142014 0.142014
0.143482 0.143482 0.143482
0.150214 0.150214 0.150214
0.156910 0.156910 0.156910
0.164226 0.164226 0.164226
0.259798 0.259798 0.259798
0.261373 0.261373 0.261373
0.265479 0.265479 0.265479
0.271575 0.271575 0.271575
0.276613 0.276613 0.276613
0.425310 0.425310 0.425310
0.428529 0.428529 0.428529
0.432880 0.432880 0.432880
0.440022 0.440022 0.440022
0.447382 0.447382 0.447382
0.772988 0.772988 0.772988
0.775953 0.775953 0.775953
0.779728 0.779728 0.779728
0.783930 0.783930 0.783930
0.790831 0.790831 0.790831
0.145677 0.145677 0.145677
0.153247 0.153247 0.153247
0.158797 0.158797 0.158797
0.164481 0.164481 0.164481
0.171807 0.171807 0.171807
0.232695 0.232695 0.232695
0.236672 0.236672 0.236672
0.241958 0.241958 0.241958
0.248312 0.248312 0.248312
0.255280 0.255280 0.255280
0.334517 0.334517 0.334517
0.337512 0.337512 0.337512
0.342920 0.342920 0.342920
0.350150 0.350150 0.350150
0.357506 0.357506 0.357506
0.514997 0.514997 0.514997
0.518708 0.518708 0.518708
0.527098 0.527098 0.527098
0.539711 0.539711 0.539711
0.552965 0.552965 0.552965
0.818238 0.818238 0.818238
0.819095 0.819095 0.819095
0.821988 0.821988 0.821988
0.825990 0.825990 0.825990
0.830601 0.830601 0.830601
0.262255 0.262255 0.262255
0.272043 0.272043 0.272043
0.279730 0.279730 0.279730
0.288278 0.288278 0.288278
0.296320 0.296320 0.296320
0.361269 0.361269 0.361269
0.366413 0.366413 0.366413
0.375374 0.375374 0.375374
0.384754 0.384754 0.384754
0.394925 0.394925 0.394925
0.491881 0.491881 0.491881
0.496827 0.496827 0.496827
0.509363 0.509363 0.509363
0.525950 0.525950 0.525950
0.544723 0.544723 0.544723
0.750970 0.750970 0.750970
0.752332 0.752332 0.752332
0.759478 0.759478 0.759478
0.767513 0.767513 0.767513
0.776448 0.776448 0.776448
0.885063 0.885063 0.885063
0.885886 0.885886 0.885886
0.887849 0.887849 0.887849
0.891202 0.891202 0.891202
0.894855 0.894855 0.894855
0.440411 0.440411 0.440411
0.457411 0.457411 0.457411
0.473594 0.473594 0.473594
0.492416 0.492416 0.492416
0.510379 0.510379 0.510379
0.636845 0.636845 0.636845
0.648686 0.648686 0.648686
0.668959 0.668959 0.668959
0.688251 0.688251 0.688251
0.706520 0.706520 0.706520
0.787161 0.787161 0.787161
0.790093 0.790093 0.790093
0.796974 0.796974 0.796974
0.805742 0.805742 0.805742
0.813992 0.813992 0.813992
0.876028 0.876028 0.876028
0.877044 0.877044 0.877044
0.880373 0.880373 0.880373
0.884398 0.884398 0.884398
0.889970 0.889970 0.889970
0.945647 0.945647 0.945647
0.945870 0.945870 0.945870
0.947659 0.947659 0.947659
0.950142 0.950142 0.950142
0.953482 0.953482 0.953482
0.780582 0.780582 0.780582
0.792611 0.792611 0.792611
0.803856 0.803856 0.803856
0.814000 0.814000 0.814000
0.824658 0.824658 0.824658
0.858787 0.858787 0.858787
0.862458 0.862458 0.862458
0.869560 0.869560 0.869560
0.875675 0.875675 0.875675
0.881580 0.881580 0.881580
0.910252 0.910252 0.910252
0.913716 0.913716 0.913716
0.917248 0.917248 0.917248
0.920982 0.920982 0.920982
0.926380 0.926380 0.926380
0.956935 0.956935 0.956935
0.957226 0.957226 0.957226
0.960456 0.960456 0.960456
0.963693 0.963693 0.963693
0.967203 0.967203 0.967203
0.992938 0.992938 0.992938
0.992981 0.992981 0.992981
0.993771 0.993771 0.993771
0.995840 0.995840 0.995840
0.996650 0.996650 0.996650
