gsg/05_BW/GSG_LUT_BW_Xerox_Copy.cube
# GSG LUTs 1.0
# Copyright (c) 2016-2020 Greyscalegorilla
# See EULA for licensing and distribution information
# Converted by Briz LUT Converter
LUT_3D_SIZE 5
DOMAIN_MIN 0.000000 0.000000 0.000000
DOMAIN_MAX 0.903226 0.903226 0.903226
0.181441 0.181441 0.181441
0.185513 0.185513 0.185513
0.196353 0.196353 0.196353
0.219418 0.219418 0.219418
0.265036 0.265036 0.265036
0.198007 0.198007 0.198007
0.205860 0.205860 0.205860
0.238760 0.238760 0.238760
0.263508 0.263508 0.263508
0.317523 0.317523 0.317523
0.249407 0.249407 0.249407
0.255819 0.255819 0.255819
0.286069 0.286069 0.286069
0.379346 0.379346 0.379346
0.496900 0.496900 0.496900
0.365584 0.365584 0.365584
0.373827 0.373827 0.373827
0.399783 0.399783 0.399783
0.470462 0.470462 0.470462
0.650258 0.650258 0.650258
0.630769 0.630769 0.630769
0.639379 0.639379 0.639379
0.662359 0.662359 0.662359
0.707566 0.707566 0.707566
0.786215 0.786215 0.786215
0.187932 0.187932 0.187932
0.196658 0.196658 0.196658
0.210940 0.210940 0.210940
0.244364 0.244364 0.244364
0.300250 0.300250 0.300250
0.212851 0.212851 0.212851
0.225319 0.225319 0.225319
0.246298 0.246298 0.246298
0.283701 0.283701 0.283701
0.348659 0.348659 0.348659
0.284845 0.284845 0.284845
0.282840 0.282840 0.282840
0.310125 0.310125 0.310125
0.401505 0.401505 0.401505
0.518998 0.518998 0.518998
0.402871 0.402871 0.402871
0.402006 0.402006 0.402006
0.427542 0.427542 0.427542
0.494461 0.494461 0.494461
0.662741 0.662741 0.662741
0.653861 0.653861 0.653861
0.655390 0.655390 0.655390
0.680589 0.680589 0.680589
0.722981 0.722981 0.722981
0.795732 0.795732 0.795732
0.207846 0.207846 0.207846
0.221182 0.221182 0.221182
0.243291 0.243291 0.243291
0.276969 0.276969 0.276969
0.321459 0.321459 0.321459
0.231801 0.231801 0.231801
0.251418 0.251418 0.251418
0.277556 0.277556 0.277556
0.310107 0.310107 0.310107
0.359137 0.359137 0.359137
0.314060 0.314060 0.314060
0.330150 0.330150 0.330150
0.375873 0.375873 0.375873
0.425729 0.425729 0.425729
0.511973 0.511973 0.511973
0.498480 0.498480 0.498480
0.506826 0.506826 0.506826
0.506205 0.506205 0.506205
0.559792 0.559792 0.559792
0.706724 0.706724 0.706724
0.721437 0.721437 0.721437
0.719737 0.719737 0.719737
0.718762 0.718762 0.718762
0.754705 0.754705 0.754705
0.815507 0.815507 0.815507
0.252921 0.252921 0.252921
0.275769 0.275769 0.275769
0.302611 0.302611 0.302611
0.346985 0.346985 0.346985
0.411351 0.411351 0.411351
0.280111 0.280111 0.280111
0.301849 0.301849 0.301849
0.340686 0.340686 0.340686
0.383979 0.383979 0.383979
0.452251 0.452251 0.452251
0.349395 0.349395 0.349395
0.366050 0.366050 0.366050
0.432606 0.432606 0.432606
0.489235 0.489235 0.489235
0.553654 0.553654 0.553654
0.527173 0.527173 0.527173
0.541016 0.541016 0.541016
0.583439 0.583439 0.583439
0.656726 0.656726 0.656726
0.722197 0.722197 0.722197
0.787854 0.787854 0.787854
0.792522 0.792522 0.792522
0.806858 0.806858 0.806858
0.808555 0.808555 0.808555
0.850835 0.850835 0.850835
0.359904 0.359904 0.359904
0.390282 0.390282 0.390282
0.453123 0.453123 0.453123
0.507480 0.507480 0.507480
0.578726 0.578726 0.578726
0.377754 0.377754 0.377754
0.406863 0.406863 0.406863
0.491451 0.491451 0.491451
0.539286 0.539286 0.539286
0.604878 0.604878 0.604878
0.406650 0.406650 0.406650
0.431306 0.431306 0.431306
0.539092 0.539092 0.539092
0.621722 0.621722 0.621722
0.676053 0.676053 0.676053
0.598028 0.598028 0.598028
0.606058 0.606058 0.606058
0.632851 0.632851 0.632851
0.726455 0.726455 0.726455
0.789101 0.789101 0.789101
0.803861 0.803861 0.803861
0.809159 0.809159 0.809159
0.826915 0.826915 0.826915
0.857955 0.857955 0.857955
0.901160 0.901160 0.901160
