gsg/05_BW/GSG_LUT_BW_Ultra_Contrasty.cube
# GSG LUTs 1.0
# Copyright (c) 2016-2020 Greyscalegorilla
# See EULA for licensing and distribution information
# Converted by Briz LUT Converter
LUT_3D_SIZE 8
DOMAIN_MIN 0.000000 0.000000 0.000000
DOMAIN_MAX 0.903226 0.903226 0.903226
0.050794 0.050794 0.050794
0.050794 0.050794 0.050794
0.050794 0.050794 0.050794
0.050794 0.050794 0.050794
0.052306 0.052306 0.052306
0.054701 0.054701 0.054701
0.054701 0.054701 0.054701
0.054701 0.054701 0.054701
0.051172 0.051172 0.051172
0.058905 0.058905 0.058905
0.062202 0.062202 0.062202
0.063788 0.063788 0.063788
0.066549 0.066549 0.066549
0.070406 0.070406 0.070406
0.070974 0.070974 0.070974
0.074845 0.074845 0.074845
0.054701 0.054701 0.054701
0.069978 0.069978 0.069978
0.110664 0.110664 0.110664
0.121197 0.121197 0.121197
0.129483 0.129483 0.129483
0.138782 0.138782 0.138782
0.147472 0.147472 0.147472
0.155764 0.155764 0.155764
0.059404 0.059404 0.059404
0.088040 0.088040 0.088040
0.146366 0.146366 0.146366
0.234827 0.234827 0.234827
0.254225 0.254225 0.254225
0.268964 0.268964 0.268964
0.282743 0.282743 0.282743
0.297783 0.297783 0.297783
0.068526 0.068526 0.068526
0.113567 0.113567 0.113567
0.186288 0.186288 0.186288
0.298009 0.298009 0.298009
0.418208 0.418208 0.418208
0.443852 0.443852 0.443852
0.461704 0.461704 0.461704
0.477898 0.477898 0.477898
0.087613 0.087613 0.087613
0.145841 0.145841 0.145841
0.237572 0.237572 0.237572
0.359558 0.359558 0.359558
0.495797 0.495797 0.495797
0.626649 0.626649 0.626649
0.653544 0.653544 0.653544
0.669729 0.669729 0.669729
0.113175 0.113175 0.113175
0.184998 0.184998 0.184998
0.293023 0.293023 0.293023
0.426518 0.426518 0.426518
0.566454 0.566454 0.566454
0.702892 0.702892 0.702892
0.810413 0.810413 0.810413
0.829152 0.829152 0.829152
0.146260 0.146260 0.146260
0.233424 0.233424 0.233424
0.354671 0.354671 0.354671
0.493761 0.493761 0.493761
0.633768 0.633768 0.633768
0.761751 0.761751 0.761751
0.861619 0.861619 0.861619
0.922802 0.922802 0.922802
0.054701 0.054701 0.054701
0.058133 0.058133 0.058133
0.058932 0.058932 0.058932
0.062137 0.062137 0.062137
0.062941 0.062941 0.062941
0.066094 0.066094 0.066094
0.068488 0.068488 0.068488
0.070590 0.070590 0.070590
0.059018 0.059018 0.059018
0.063228 0.063228 0.063228
0.067559 0.067559 0.067559
0.071394 0.071394 0.071394
0.073375 0.073375 0.073375
0.076566 0.076566 0.076566
0.083491 0.083491 0.083491
0.089799 0.089799 0.089799
0.067032 0.067032 0.067032
0.076927 0.076927 0.076927
0.126599 0.126599 0.126599
0.139839 0.139839 0.139839
0.147717 0.147717 0.147717
0.156777 0.156777 0.156777
0.167402 0.167402 0.167402
0.177550 0.177550 0.177550
0.083741 0.083741 0.083741
0.101752 0.101752 0.101752
0.168663 0.168663 0.168663
0.264020 0.264020 0.264020
0.284168 0.284168 0.284168
0.299671 0.299671 0.299671
0.315053 0.315053 0.315053
0.329294 0.329294 0.329294
0.111647 0.111647 0.111647
0.132075 0.132075 0.132075
0.212032 0.212032 0.212032
0.329057 0.329057 0.329057
0.454000 0.454000 0.454000
0.480657 0.480657 0.480657
0.497418 0.497418 0.497418
0.514587 0.514587 0.514587
0.144062 0.144062 0.144062
0.170010 0.170010 0.170010
0.264844 0.264844 0.264844
0.394449 0.394449 0.394449
0.533214 0.533214 0.533214
0.661967 0.661967 0.661967
0.688783 0.688783 0.688783
0.703568 0.703568 0.703568
0.184581 0.184581 0.184581
0.213454 0.213454 0.213454
0.326296 0.326296 0.326296
0.462799 0.462799 0.462799
0.603383 0.603383 0.603383
0.735623 0.735623 0.735623
0.835223 0.835223 0.835223
0.853391 0.853391 0.853391
0.230607 0.230607 0.230607
0.265878 0.265878 0.265878
0.388957 0.388957 0.388957
0.531143 0.531143 0.531143
0.669123 0.669123 0.669123
0.790704 0.790704 0.790704
0.881036 0.881036 0.881036
0.935829 0.935829 0.935829
0.055394 0.055394 0.055394
0.067265 0.067265 0.067265
0.093256 0.093256 0.093256
0.102046 0.102046 0.102046
0.109859 0.109859 0.109859
0.117087 0.117087 0.117087
0.124757 0.124757 0.124757
0.131755 0.131755 0.131755
0.070656 0.070656 0.070656
0.082137 0.082137 0.082137
0.118614 0.118614 0.118614
0.128399 0.128399 0.128399
0.136126 0.136126 0.136126
0.144606 0.144606 0.144606
0.154448 0.154448 0.154448
0.164996 0.164996 0.164996
0.107537 0.107537 0.107537
0.126947 0.126947 0.126947
0.149367 0.149367 0.149367
0.162365 0.162365 0.162365
0.172567 0.172567 0.172567
0.183896 0.183896 0.183896
0.194856 0.194856 0.194856
0.207734 0.207734 0.207734
0.141871 0.141871 0.141871
0.164331 0.164331 0.164331
0.193845 0.193845 0.193845
0.294145 0.294145 0.294145
0.317330 0.317330 0.317330
0.332167 0.332167 0.332167
0.348923 0.348923 0.348923
0.363976 0.363976 0.363976
0.180361 0.180361 0.180361
0.208800 0.208800 0.208800
0.243735 0.243735 0.243735
0.363699 0.363699 0.363699
0.489851 0.489851 0.489851
0.517302 0.517302 0.517302
0.535012 0.535012 0.535012
0.552243 0.552243 0.552243
0.229103 0.229103 0.229103
0.261573 0.261573 0.261573
0.301907 0.301907 0.301907
0.430971 0.430971 0.430971
0.570102 0.570102 0.570102
0.696019 0.696019 0.696019
0.720954 0.720954 0.720954
0.736538 0.736538 0.736538
0.284364 0.284364 0.284364
0.321284 0.321284 0.321284
0.364357 0.364357 0.364357
0.499432 0.499432 0.499432
0.638851 0.638851 0.638851
0.765630 0.765630 0.765630
0.858583 0.858583 0.858583
0.874170 0.874170 0.874170
0.344948 0.344948 0.344948
0.384901 0.384901 0.384901
0.430108 0.430108 0.430108
0.568604 0.568604 0.568604
0.703115 0.703115 0.703115
0.817474 0.817474 0.817474
0.899416 0.899416 0.899416
0.946018 0.946018 0.946018
0.066824 0.066824 0.066824
0.091380 0.091380 0.091380
0.133364 0.133364 0.133364
0.189143 0.189143 0.189143
0.205523 0.205523 0.205523
0.218744 0.218744 0.218744
0.229857 0.229857 0.229857
0.242685 0.242685 0.242685
0.097027 0.097027 0.097027
0.114402 0.114402 0.114402
0.165072 0.165072 0.165072
0.230752 0.230752 0.230752
0.248030 0.248030 0.248030
0.262435 0.262435 0.262435
0.276835 0.276835 0.276835
0.292120 0.292120 0.292120
0.152060 0.152060 0.152060
0.176008 0.176008 0.176008
0.204490 0.204490 0.204490
0.276806 0.276806 0.276806
0.296827 0.296827 0.296827
0.311534 0.311534 0.311534
0.327471 0.327471 0.327471
0.342983 0.342983 0.342983
0.225710 0.225710 0.225710
0.259408 0.259408 0.259408
0.294342 0.294342 0.294342
0.334251 0.334251 0.334251
0.359017 0.359017 0.359017
0.374908 0.374908 0.374908
0.392925 0.392925 0.392925
0.408986 0.408986 0.408986
0.283857 0.283857 0.283857
0.321045 0.321045 0.321045
0.358756 0.358756 0.358756
0.406447 0.406447 0.406447
0.528176 0.528176 0.528176
0.556030 0.556030 0.556030
0.572751 0.572751 0.572751
0.590328 0.590328 0.590328
0.345474 0.345474 0.345474
0.384874 0.384874 0.384874
0.426030 0.426030 0.426030
0.473937 0.473937 0.473937
0.607945 0.607945 0.607945
0.729697 0.729697 0.729697
0.753940 0.753940 0.753940
0.767530 0.767530 0.767530
0.413680 0.413680 0.413680
0.453191 0.453191 0.453191
0.493797 0.493797 0.493797
0.544664 0.544664 0.544664
0.675266 0.675266 0.675266
0.794975 0.794975 0.794975
0.879272 0.879272 0.879272
0.892596 0.892596 0.892596
0.479645 0.479645 0.479645
0.520695 0.520695 0.520695
0.564054 0.564054 0.564054
0.612273 0.612273 0.612273
0.736982 0.736982 0.736982
0.842684 0.842684 0.842684
0.915342 0.915342 0.915342
0.956537 0.956537 0.956537
0.087392 0.087392 0.087392
0.127820 0.127820 0.127820
0.181047 0.181047 0.181047
0.255920 0.255920 0.255920
0.336961 0.336961 0.336961
0.357751 0.357751 0.357751
0.374706 0.374706 0.374706
0.392120 0.392120 0.392120
0.133879 0.133879 0.133879
0.157729 0.157729 0.157729
0.221853 0.221853 0.221853
0.304739 0.304739 0.304739
0.391454 0.391454 0.391454
0.414265 0.414265 0.414265
0.431421 0.431421 0.431421
0.448325 0.448325 0.448325
0.204497 0.204497 0.204497
0.234649 0.234649 0.234649
0.269611 0.269611 0.269611
0.358455 0.358455 0.358455
0.449088 0.449088 0.449088
0.472658 0.472658 0.472658
0.489780 0.489780 0.489780
0.506614 0.506614 0.506614
0.299324 0.299324 0.299324
0.336093 0.336093 0.336093
0.375457 0.375457 0.375457
0.420461 0.420461 0.420461
0.508898 0.508898 0.508898
0.533668 0.533668 0.533668
0.551102 0.551102 0.551102
0.568147 0.568147 0.568147
0.405424 0.405424 0.405424
0.444638 0.444638 0.444638
0.485663 0.485663 0.485663
0.529377 0.529377 0.529377
0.574918 0.574918 0.574918
0.602267 0.602267 0.602267
0.619750 0.619750 0.619750
0.636004 0.636004 0.636004
0.476224 0.476224 0.476224
0.517710 0.517710 0.517710
0.560221 0.560221 0.560221
0.602903 0.602903 0.602903
0.650957 0.650957 0.650957
0.760899 0.760899 0.760899
0.783237 0.783237 0.783237
0.796061 0.796061 0.796061
0.546504 0.546504 0.546504
0.588402 0.588402 0.588402
0.629685 0.629685 0.629685
0.669878 0.669878 0.669878
0.714888 0.714888 0.714888
0.822570 0.822570 0.822570
0.897251 0.897251 0.897251
0.909294 0.909294 0.909294
0.615347 0.615347 0.615347
0.654659 0.654659 0.654659
0.693601 0.693601 0.693601
0.732211 0.732211 0.732211
0.773249 0.773249 0.773249
0.864847 0.864847 0.864847
0.928721 0.928721 0.928721
0.964367 0.964367 0.964367
0.121029 0.121029 0.121029
0.173842 0.173842 0.173842
0.243087 0.243087 0.243087
0.330558 0.330558 0.330558
0.425027 0.425027 0.425027
0.520040 0.520040 0.520040
0.544153 0.544153 0.544153
0.562458 0.562458 0.562458
0.186036 0.186036 0.186036
0.212099 0.212099 0.212099
0.290491 0.290491 0.290491
0.384330 0.384330 0.384330
0.483223 0.483223 0.483223
0.578510 0.578510 0.578510
0.603307 0.603307 0.603307
0.620153 0.620153 0.620153
0.270684 0.270684 0.270684
0.306307 0.306307 0.306307
0.345600 0.345600 0.345600
0.442114 0.442114 0.442114
0.542130 0.542130 0.542130
0.635749 0.635749 0.635749
0.659896 0.659896 0.659896
0.676434 0.676434 0.676434
0.378571 0.378571 0.378571
0.419108 0.419108 0.419108
0.459573 0.459573 0.459573
0.506161 0.506161 0.506161
0.602953 0.602953 0.602953
0.692971 0.692971 0.692971
0.715739 0.715739 0.715739
0.730514 0.730514 0.730514
0.493442 0.493442 0.493442
0.535758 0.535758 0.535758
0.577483 0.577483 0.577483
0.620178 0.620178 0.620178
0.664167 0.664167 0.664167
0.745253 0.745253 0.745253
0.765098 0.765098 0.765098
0.779201 0.779201 0.779201
0.608650 0.608650 0.608650
0.649283 0.649283 0.649283
0.688054 0.688054 0.688054
0.727149 0.727149 0.727149
0.762535 0.762535 0.762535
0.799314 0.799314 0.799314
0.819504 0.819504 0.819504
0.831349 0.831349 0.831349
0.680983 0.680983 0.680983
0.717241 0.717241 0.717241
0.753574 0.753574 0.753574
0.788117 0.788117 0.788117
0.818582 0.818582 0.818582
0.851683 0.851683 0.851683
0.913268 0.913268 0.913268
0.923826 0.923826 0.923826
0.741697 0.741697 0.741697
0.775117 0.775117 0.775117
0.807348 0.807348 0.807348
0.836376 0.836376 0.836376
0.862123 0.862123 0.862123
0.889093 0.889093 0.889093
0.941169 0.941169 0.941169
0.971709 0.971709 0.971709
0.165079 0.165079 0.165079
0.230879 0.230879 0.230879
0.315447 0.315447 0.315447
0.413297 0.413297 0.413297
0.511314 0.511314 0.511314
0.614671 0.614671 0.614671
0.705332 0.705332 0.705332
0.724657 0.724657 0.724657
0.245023 0.245023 0.245023
0.280841 0.280841 0.280841
0.368974 0.368974 0.368974
0.469662 0.469662 0.469662
0.571618 0.571618 0.571618
0.671162 0.671162 0.671162
0.754775 0.754775 0.754775
0.773831 0.773831 0.773831
0.346033 0.346033 0.346033
0.385785 0.385785 0.385785
0.428564 0.428564 0.428564
0.528997 0.528997 0.528997
0.629710 0.629710 0.629710
0.724010 0.724010 0.724010
0.801342 0.801342 0.801342
0.818804 0.818804 0.818804
0.463558 0.463558 0.463558
0.504020 0.504020 0.504020
0.546950 0.546950 0.546950
0.594446 0.594446 0.594446
0.686682 0.686682 0.686682
0.775000 0.775000 0.775000
0.843254 0.843254 0.843254
0.857790 0.857790 0.857790
0.583023 0.583023 0.583023
0.622684 0.622684 0.622684
0.661792 0.661792 0.661792
0.702368 0.702368 0.702368
0.743362 0.743362 0.743362
0.818664 0.818664 0.818664
0.876767 0.876767 0.876767
0.888775 0.888775 0.888775
0.695963 0.695963 0.695963
0.733650 0.733650 0.733650
0.768126 0.768126 0.768126
0.801437 0.801437 0.801437
0.829732 0.829732 0.829732
0.860356 0.860356 0.860356
0.905573 0.905573 0.905573
0.915416 0.915416 0.915416
0.793655 0.793655 0.793655
0.822869 0.822869 0.822869
0.850387 0.850387 0.850387
0.874585 0.874585 0.874585
0.895167 0.895167 0.895167
0.913620 0.913620 0.913620
0.931038 0.931038 0.931038
0.940273 0.940273 0.940273
0.844567 0.844567 0.844567
0.868387 0.868387 0.868387
0.890397 0.890397 0.890397
0.909268 0.909268 0.909268
0.925614 0.925614 0.925614
0.939898 0.939898 0.939898
0.953967 0.953967 0.953967
0.977082 0.977082 0.977082
0.220127 0.220127 0.220127
0.303989 0.303989 0.303989
0.393625 0.393625 0.393625
0.496458 0.496458 0.496458
0.598272 0.598272 0.598272
0.694996 0.694996 0.694996
0.782843 0.782843 0.782843
0.847999 0.847999 0.847999
0.316740 0.316740 0.316740
0.357851 0.357851 0.357851
0.452933 0.452933 0.452933
0.556936 0.556936 0.556936
0.655188 0.655188 0.655188
0.747016 0.747016 0.747016
0.824492 0.824492 0.824492
0.880875 0.880875 0.880875
0.429471 0.429471 0.429471
0.469316 0.469316 0.469316
0.513677 0.513677 0.513677
0.615474 0.615474 0.615474
0.709715 0.709715 0.709715
0.794053 0.794053 0.794053
0.861735 0.861735 0.861735
0.909057 0.909057 0.909057
0.549331 0.549331 0.549331
0.591613 0.591613 0.591613
0.632592 0.632592 0.632592
0.676662 0.676662 0.676662
0.761773 0.761773 0.761773
0.837184 0.837184 0.837184
0.893719 0.893719 0.893719
0.931160 0.931160 0.931160
0.665120 0.665120 0.665120
0.703390 0.703390 0.703390
0.740755 0.740755 0.740755
0.775674 0.775674 0.775674
0.810562 0.810562 0.810562
0.872061 0.872061 0.872061
0.918817 0.918817 0.918817
0.949662 0.949662 0.949662
0.769292 0.769292 0.769292
0.802233 0.802233 0.802233
0.831167 0.831167 0.831167
0.856896 0.856896 0.856896
0.880913 0.880913 0.880913
0.903610 0.903610 0.903610
0.939650 0.939650 0.939650
0.963348 0.963348 0.963348
0.854743 0.854743 0.854743
0.876578 0.876578 0.876578
0.897559 0.897559 0.897559
0.916304 0.916304 0.916304
0.930909 0.930909 0.930909
0.944635 0.944635 0.944635
0.957046 0.957046 0.957046
0.974405 0.974405 0.974405
0.911158 0.911158 0.911158
0.926949 0.926949 0.926949
0.941524 0.941524 0.941524
0.953272 0.953272 0.953272
0.962289 0.962289 0.962289
0.970859 0.970859 0.970859
0.977872 0.977872 0.977872
0.983519 0.983519 0.983519
