gsg/05_BW/GSG_LUT_BW_Simple.cube
# GSG LUTs 1.0
# Copyright (c) 2016-2020 Greyscalegorilla
# See EULA for licensing and distribution information
# Converted by Briz LUT Converter
LUT_3D_SIZE 8
DOMAIN_MIN 0.000000 0.000000 0.000000
DOMAIN_MAX 0.903226 0.903226 0.903226
0.050794 0.050794 0.050794
0.085801 0.086384 0.086415
0.131120 0.134609 0.134917
0.175344 0.184403 0.185474
0.217110 0.234235 0.236189
0.256347 0.283146 0.286234
0.295774 0.334806 0.339147
0.336051 0.389176 0.395014
0.094167 0.095025 0.095270
0.138839 0.143124 0.143616
0.181780 0.191973 0.193044
0.222685 0.240957 0.243049
0.262422 0.291002 0.294224
0.303909 0.345552 0.350250
0.342682 0.398164 0.404294
0.382014 0.452106 0.459960
0.146126 0.151144 0.151877
0.186607 0.197683 0.198840
0.227663 0.247200 0.249389
0.269657 0.300378 0.303955
0.310056 0.353822 0.358720
0.349285 0.407101 0.413490
0.389425 0.462042 0.470117
0.428914 0.515567 0.525357
0.197282 0.210249 0.211714
0.237060 0.258758 0.261327
0.276597 0.309446 0.313141
0.317263 0.363661 0.368771
0.356820 0.417514 0.424350
0.397176 0.472695 0.481048
0.437363 0.526708 0.536726
0.479709 0.581118 0.592516
0.241593 0.264595 0.267163
0.283887 0.318910 0.322975
0.323993 0.372677 0.378121
0.363591 0.426692 0.433799
0.403891 0.481791 0.490598
0.443436 0.534641 0.544850
0.487150 0.588912 0.600294
0.545737 0.635734 0.645899
0.290086 0.327039 0.331262
0.329877 0.380803 0.386385
0.369521 0.434935 0.442256
0.411058 0.491486 0.500477
0.450791 0.544283 0.554736
0.495560 0.596654 0.608141
0.557239 0.644438 0.654245
0.616126 0.688125 0.696381
0.337146 0.390421 0.396416
0.377011 0.445043 0.452786
0.417190 0.499821 0.509102
0.458297 0.554047 0.564776
0.506410 0.605760 0.616852
0.567300 0.651947 0.661510
0.626211 0.695564 0.703342
0.683992 0.737999 0.744188
0.382717 0.452936 0.460727
0.423550 0.508291 0.517635
0.463466 0.560658 0.571662
0.516633 0.613557 0.624499
0.575093 0.657728 0.667162
0.635854 0.702606 0.710176
0.693357 0.745138 0.750912
0.745772 0.784216 0.788661
0.074465 0.074741 0.074741
0.116337 0.118480 0.118751
0.158579 0.165243 0.165984
0.202885 0.216942 0.218513
0.240529 0.263099 0.265596
0.280295 0.314331 0.318184
0.321525 0.369257 0.374606
0.361723 0.424100 0.431146
0.123965 0.126808 0.127084
0.163465 0.170873 0.171649
0.207637 0.222676 0.224412
0.246876 0.271287 0.273998
0.287846 0.324338 0.328333
0.327982 0.378140 0.383680
0.368277 0.433270 0.440413
0.407825 0.487110 0.495972
0.171011 0.179456 0.180338
0.212318 0.228364 0.230175
0.253122 0.279182 0.282048
0.294096 0.332617 0.336981
0.334264 0.386557 0.392354
0.373805 0.440774 0.448275
0.414023 0.495421 0.504505
0.454952 0.549779 0.560398
0.220897 0.238901 0.240819
0.261413 0.289877 0.292977
0.301483 0.342354 0.346945
0.341555 0.396527 0.402703
0.380945 0.450470 0.458201
0.421819 0.505837 0.515330
0.461876 0.558665 0.569509
0.511909 0.609957 0.620990
0.267699 0.297996 0.301438
0.306850 0.349581 0.354323
0.346518 0.403312 0.409676
0.387597 0.459556 0.467609
0.427770 0.513915 0.523539
0.469395 0.568173 0.579246
0.523170 0.618655 0.629362
0.581473 0.662511 0.671667
0.315131 0.360700 0.365773
0.354153 0.413804 0.420552
0.393571 0.467679 0.476065
0.434998 0.523439 0.533414
0.476170 0.576732 0.588014
0.533222 0.626346 0.636776
0.592483 0.670738 0.679506
0.651051 0.713844 0.721012
0.361563 0.423927 0.430930
0.401758 0.478849 0.487565
0.441140 0.531633 0.541851
0.484220 0.585938 0.597387
0.542867 0.633553 0.643785
0.602771 0.678250 0.686802
0.662056 0.721939 0.728684
0.717595 0.763057 0.768238
0.408649 0.488141 0.497160
0.447313 0.539847 0.550147
0.491248 0.593631 0.605013
0.554009 0.642066 0.651934
0.612404 0.685419 0.693623
0.671002 0.728592 0.735131
0.727180 0.770212 0.775167
0.778496 0.809130 0.812573
0.095608 0.096467 0.096711
0.139672 0.143957 0.144508
0.182549 0.192876 0.193963
0.225946 0.245072 0.247183
0.265508 0.295056 0.298420
0.306448 0.348952 0.353749
0.346015 0.402630 0.408946
0.384353 0.455133 0.463044
0.149988 0.155683 0.156266
0.191779 0.203722 0.205010
0.231888 0.252376 0.254736
0.271250 0.302568 0.306027
0.311001 0.355060 0.360067
0.352025 0.410995 0.417526
0.391836 0.465475 0.473665
0.431376 0.518903 0.528721
0.196782 0.209677 0.211024
0.236857 0.258650 0.261027
0.278210 0.311519 0.315214
0.318319 0.364960 0.370245
0.357650 0.418605 0.425461
0.398076 0.473855 0.482284
0.437652 0.527069 0.537007
0.479871 0.581301 0.592622
0.245825 0.269939 0.272609
0.285807 0.321603 0.325664
0.324590 0.373496 0.378978
0.365930 0.429878 0.437087
0.405508 0.483992 0.492799
0.445964 0.537932 0.548291
0.490436 0.592153 0.603645
0.549511 0.638645 0.648749
0.290985 0.328421 0.332643
0.331156 0.382406 0.388175
0.371126 0.437062 0.444452
0.412304 0.493194 0.502233
0.452526 0.546568 0.557124
0.497636 0.598410 0.609704
0.559292 0.645936 0.655729
0.617737 0.689337 0.697479
0.338537 0.392438 0.398455
0.378666 0.447436 0.455192
0.417972 0.500851 0.510093
0.459609 0.555705 0.566435
0.508579 0.607409 0.618480
0.569657 0.653699 0.663198
0.628651 0.697407 0.705198
0.686133 0.739769 0.745824
0.386129 0.457682 0.465679
0.426272 0.511981 0.521527
0.465636 0.563475 0.574444
0.520214 0.616443 0.627175
0.578997 0.660705 0.669877
0.638786 0.704872 0.712259
0.696858 0.747595 0.753370
0.749387 0.787006 0.791234
0.432392 0.520186 0.529970
0.472603 0.572288 0.583519
0.527482 0.621928 0.632546
0.588622 0.667867 0.676824
0.647583 0.711347 0.718568
0.704030 0.752899 0.758433
0.758725 0.794081 0.798027
0.807275 0.831518 0.834269
0.126338 0.129458 0.129702
0.168502 0.176538 0.177527
0.209025 0.224294 0.225955
0.249514 0.274543 0.277360
0.290253 0.327397 0.331602
0.330719 0.381711 0.387432
0.370345 0.435885 0.443217
0.410312 0.490450 0.499547
0.174563 0.183578 0.184469
0.217131 0.234176 0.236180
0.255537 0.282182 0.285176
0.297023 0.336426 0.340829
0.336344 0.389337 0.395304
0.376639 0.444635 0.452233
0.416745 0.499192 0.508391
0.457965 0.553576 0.564327
0.221931 0.240215 0.242232
0.262657 0.291283 0.294577
0.302280 0.343357 0.348002
0.342626 0.398083 0.404258
0.382395 0.452434 0.460278
0.422840 0.507317 0.516779
0.464355 0.561787 0.572777
0.515243 0.612526 0.623503
0.270674 0.301869 0.305269
0.309881 0.353648 0.358535
0.349667 0.407608 0.414055
0.390745 0.463903 0.472060
0.430703 0.517821 0.527540
0.472328 0.571914 0.583126
0.527453 0.621984 0.632580
0.586061 0.665993 0.674896
0.317162 0.363469 0.368528
0.356152 0.416634 0.423370
0.395761 0.470786 0.479107
0.437512 0.526916 0.536939
0.478460 0.579269 0.590597
0.535790 0.628179 0.638612
0.596470 0.673662 0.682367
0.654376 0.716283 0.723302
0.363571 0.426789 0.433792
0.404249 0.482232 0.490980
0.443104 0.534182 0.544431
0.487565 0.589066 0.600500
0.546833 0.636636 0.646719
0.606631 0.681145 0.689530
0.665102 0.724285 0.730916
0.720662 0.765443 0.770503
0.411548 0.492219 0.501238
0.450459 0.543814 0.554267
0.495627 0.596891 0.608225
0.557183 0.644366 0.654172
0.615915 0.688004 0.696082
0.674994 0.731521 0.737868
0.730860 0.772962 0.777689
0.782253 0.812052 0.815480
0.456568 0.551869 0.562440
0.504569 0.604330 0.615557
0.565358 0.650509 0.660161
0.626192 0.695548 0.703423
0.682976 0.737413 0.743519
0.738084 0.778338 0.783017
0.789451 0.817611 0.820783
0.835996 0.854267 0.856295
0.151168 0.156918 0.157533
0.193539 0.205782 0.207144
0.233871 0.254944 0.257298
0.275103 0.307473 0.311158
0.314729 0.360053 0.365071
0.354939 0.414744 0.421534
0.394666 0.469128 0.477565
0.434345 0.522714 0.532572
0.200036 0.213655 0.215152
0.240017 0.262703 0.265211
0.280508 0.314581 0.318473
0.321360 0.369142 0.374467
0.359965 0.421725 0.428698
0.401055 0.478015 0.486620
0.440643 0.530947 0.541052
0.483090 0.585012 0.596471
0.246850 0.271075 0.273950
0.286471 0.322435 0.326405
0.326593 0.376201 0.381707
0.366710 0.430991 0.438236
0.407456 0.486593 0.495487
0.448044 0.540649 0.550995
0.491809 0.593457 0.604866
0.552276 0.640720 0.650669
0.295463 0.334356 0.338745
0.334854 0.387416 0.393317
0.373498 0.440283 0.447782
0.415014 0.496827 0.506026
0.455566 0.550544 0.561219
0.502311 0.602308 0.613518
0.563863 0.649390 0.659019
0.622306 0.692634 0.700613
0.340683 0.395360 0.401473
0.380206 0.449482 0.457249
0.420554 0.504219 0.513602
0.462090 0.558817 0.569725
0.511954 0.610004 0.621039
0.571855 0.655294 0.664776
0.632032 0.699881 0.707522
0.689355 0.742089 0.748096
0.388877 0.461525 0.469536
0.427972 0.514197 0.523846
0.468600 0.567354 0.578370
0.523240 0.618657 0.629432
0.582097 0.662933 0.672110
0.642580 0.707602 0.715013
0.699798 0.749821 0.755533
0.752926 0.789623 0.793780
0.435354 0.524125 0.534055
0.476311 0.576861 0.588177
0.532875 0.626052 0.636549
0.593128 0.671187 0.680000
0.651637 0.714306 0.721378
0.708845 0.756563 0.761898
0.762269 0.796775 0.800637
0.810732 0.834302 0.836870
0.484158 0.586699 0.598267
0.543139 0.633815 0.643960
0.601259 0.677204 0.685735
0.660695 0.720969 0.727827
0.717154 0.762677 0.767890
0.769663 0.802376 0.806047
0.817866 0.839914 0.842354
0.861300 0.874943 0.876352
0.177920 0.187499 0.188633
0.218193 0.235484 0.237394
0.258702 0.286223 0.289374
0.299653 0.339785 0.344379
0.339273 0.393488 0.399470
0.377966 0.446415 0.454000
0.419477 0.502907 0.512289
0.459852 0.556216 0.566993
0.225644 0.244685 0.246827
0.265007 0.294388 0.297676
0.304092 0.345882 0.350546
0.345685 0.402211 0.408527
0.384820 0.455811 0.463733
0.425335 0.510680 0.520182
0.467013 0.565286 0.576361
0.519057 0.615591 0.626406
0.271682 0.303020 0.306478
0.311312 0.355552 0.360534
0.350190 0.408449 0.414984
0.392105 0.465777 0.474001
0.431659 0.519088 0.528831
0.472893 0.572611 0.583798
0.528857 0.622993 0.633540
0.587427 0.666942 0.675812
0.319162 0.366170 0.371401
0.358632 0.420000 0.426859
0.398903 0.475055 0.483561
0.440061 0.530201 0.540329
0.481715 0.582950 0.594337
0.540508 0.631866 0.642097
0.600137 0.676398 0.685000
0.658064 0.719066 0.725890
0.365219 0.428971 0.436050
0.405206 0.483630 0.492395
0.444879 0.536551 0.546793
0.490134 0.591528 0.602943
0.549326 0.638472 0.648555
0.609401 0.683228 0.691568
0.667872 0.726198 0.732875
0.723064 0.767196 0.772129
0.412767 0.493700 0.502877
0.452644 0.546702 0.557219
0.498212 0.598883 0.610144
0.560088 0.646536 0.656335
0.619030 0.690332 0.698399
0.677387 0.733264 0.739589
0.733271 0.774794 0.779553
0.784269 0.813613 0.816942
0.459498 0.555556 0.566348
0.508800 0.607606 0.618696
0.569016 0.653270 0.662729
0.629651 0.698102 0.705876
0.687458 0.740723 0.746672
0.741914 0.781265 0.785754
0.792991 0.820251 0.823405
0.838610 0.856398 0.858430
0.519327 0.615810 0.626523
0.578569 0.660341 0.669603
0.637243 0.703719 0.711297
0.696258 0.747240 0.753046
0.749534 0.786936 0.791283
0.799824 0.825638 0.828710
0.845573 0.862044 0.863929
0.885690 0.895322 0.896362
0.201875 0.215763 0.217417
0.243759 0.267187 0.269849
0.283332 0.318338 0.322253
0.324171 0.372929 0.378414
0.363437 0.426526 0.433652
0.404199 0.482237 0.491044
0.443602 0.534849 0.544995
0.486009 0.588880 0.600504
0.248714 0.273554 0.276296
0.289851 0.326901 0.331070
0.329781 0.380429 0.386154
0.369970 0.435479 0.442773
0.410596 0.490868 0.499905
0.450975 0.544550 0.555113
0.496053 0.597260 0.608694
0.556732 0.644108 0.653921
0.296944 0.336331 0.340643
0.335577 0.388458 0.394399
0.375699 0.443294 0.450921
0.416958 0.499468 0.508644
0.456214 0.551439 0.562106
0.505181 0.604596 0.615836
0.565408 0.650613 0.660173
0.624619 0.694471 0.702439
0.344509 0.400517 0.406905
0.382795 0.453078 0.460956
0.423563 0.508244 0.517729
0.465049 0.562724 0.573637
0.516422 0.613488 0.624363
0.576047 0.658541 0.667793
0.636482 0.703181 0.710703
0.693262 0.744935 0.750833
0.390046 0.462844 0.471071
0.429501 0.516309 0.526073
0.471340 0.570679 0.581831
0.526207 0.620954 0.631605
0.585711 0.665606 0.674619
0.645021 0.709412 0.716705
0.702893 0.752171 0.757703
0.756201 0.792076 0.796183
0.437745 0.527264 0.537292
0.478841 0.579877 0.591272
0.536204 0.628532 0.638913
0.596727 0.673824 0.682566
0.654904 0.716729 0.723711
0.712035 0.758997 0.764293
0.765577 0.799199 0.802984
0.813557 0.836401 0.838980
0.487940 0.590239 0.601704
0.547455 0.637060 0.647164
0.605366 0.680182 0.688587
0.665684 0.724637 0.731280
0.720711 0.765432 0.770453
0.773371 0.805275 0.808839
0.821221 0.842479 0.844878
0.864755 0.877818 0.879373
0.556611 0.643974 0.653826
0.615495 0.687817 0.695922
0.673416 0.730391 0.736793
0.729474 0.772029 0.776912
0.781310 0.811329 0.814804
0.828791 0.848522 0.850820
0.871574 0.883417 0.884761
0.908610 0.915049 0.915826
0.226886 0.246256 0.248430
0.268631 0.299198 0.302461
0.308207 0.351310 0.356234
0.348251 0.405857 0.412277
0.387591 0.459700 0.467743
0.427886 0.514151 0.523722
0.470188 0.569483 0.580411
0.523450 0.618969 0.629561
0.274144 0.306191 0.309862
0.314055 0.359234 0.364406
0.352650 0.411657 0.418242
0.394707 0.469352 0.477726
0.434647 0.523111 0.532962
0.475487 0.575816 0.587006
0.533029 0.626251 0.636618
0.592035 0.670306 0.679297
0.321331 0.369081 0.374499
0.359882 0.421584 0.428420
0.400050 0.476589 0.485132
0.440832 0.531334 0.541408
0.483557 0.585148 0.596611
0.542643 0.633524 0.643686
0.602149 0.677871 0.686426
0.660260 0.720601 0.727389
0.368644 0.433706 0.440953
0.408492 0.488072 0.497003
0.447768 0.540301 0.550613
0.493461 0.594693 0.606088
0.553420 0.641536 0.651535
0.612911 0.685749 0.694050
0.671853 0.729107 0.735636
0.726716 0.769781 0.774746
0.414416 0.496085 0.505219
0.453809 0.548356 0.558897
0.500396 0.600984 0.612250
0.562962 0.648674 0.658371
0.621514 0.692102 0.700054
0.680078 0.735206 0.741454
0.735047 0.776132 0.780860
0.786171 0.814993 0.818230
0.462571 0.559463 0.570357
0.511974 0.610127 0.621166
0.572303 0.655682 0.665039
0.632581 0.700272 0.707945
0.689130 0.741981 0.747954
0.744643 0.783331 0.787816
0.795482 0.822281 0.825255
0.841384 0.858624 0.860547
0.523306 0.618804 0.629614
0.582839 0.663599 0.672708
0.641740 0.707048 0.714404
0.700012 0.750102 0.755714
0.753711 0.790260 0.794391
0.803002 0.828214 0.831073
0.848705 0.864657 0.866487
0.888735 0.897903 0.898975
0.591658 0.669997 0.678859
0.650778 0.713649 0.720764
0.706638 0.754873 0.760417
0.761316 0.795953 0.799827
0.810899 0.834251 0.837068
0.854194 0.869027 0.870847
0.894706 0.902998 0.903981
0.930066 0.933930 0.934438
