gsg/05_BW/GSG_LUT_BW_PhotographyClass.cube
# GSG LUTs 1.0
# Copyright (c) 2016-2020 Greyscalegorilla
# See EULA for licensing and distribution information
# Converted by Briz LUT Converter
LUT_3D_SIZE 5
DOMAIN_MIN 0.000000 0.000000 0.000000
DOMAIN_MAX 0.903226 0.903226 0.903226
0.092063 0.092063 0.092063
0.087692 0.087692 0.087692
0.088747 0.088747 0.088747
0.164244 0.164244 0.164244
0.387522 0.387522 0.387522
0.090433 0.090433 0.090433
0.122172 0.122172 0.122172
0.257043 0.257043 0.257043
0.377587 0.377587 0.377587
0.565314 0.565314 0.565314
0.297846 0.297846 0.297846
0.330441 0.330441 0.330441
0.536312 0.536312 0.536312
0.715591 0.715591 0.715591
0.756349 0.756349 0.756349
0.651117 0.651117 0.651117
0.664178 0.664178 0.664178
0.696830 0.696830 0.696830
0.771538 0.771538 0.771538
0.816251 0.816251 0.816251
0.798228 0.798228 0.798228
0.800344 0.800344 0.800344
0.806019 0.806019 0.806019
0.816418 0.816418 0.816418
0.833073 0.833073 0.833073
0.087203 0.087203 0.087203
0.085551 0.085551 0.085551
0.128745 0.128745 0.128745
0.289172 0.289172 0.289172
0.486983 0.486983 0.486983
0.123840 0.123840 0.123840
0.169914 0.169914 0.169914
0.327832 0.327832 0.327832
0.474503 0.474503 0.474503
0.613068 0.613068 0.613068
0.366596 0.366596 0.366596
0.398047 0.398047 0.398047
0.565745 0.565745 0.565745
0.719653 0.719653 0.719653
0.763213 0.763213 0.763213
0.673320 0.673320 0.673320
0.683691 0.683691 0.683691
0.711040 0.711040 0.711040
0.773466 0.773466 0.773466
0.816743 0.816743 0.816743
0.800562 0.800562 0.800562
0.802493 0.802493 0.802493
0.808401 0.808401 0.808401
0.817323 0.817323 0.817323
0.833449 0.833449 0.833449
0.092536 0.092536 0.092536
0.114693 0.114693 0.114693
0.198730 0.198730 0.198730
0.337363 0.337363 0.337363
0.595283 0.595283 0.595283
0.194057 0.194057 0.194057
0.263954 0.263954 0.263954
0.345584 0.345584 0.345584
0.520746 0.520746 0.520746
0.676822 0.676822 0.676822
0.538034 0.538034 0.538034
0.547892 0.547892 0.547892
0.648957 0.648957 0.648957
0.735763 0.735763 0.735763
0.774653 0.774653 0.774653
0.718749 0.718749 0.718749
0.724893 0.724893 0.724893
0.742598 0.742598 0.742598
0.785579 0.785579 0.785579
0.818862 0.818862 0.818862
0.806045 0.806045 0.806045
0.807780 0.807780 0.807780
0.812836 0.812836 0.812836
0.820450 0.820450 0.820450
0.833783 0.833783 0.833783
0.196928 0.196928 0.196928
0.252282 0.252282 0.252282
0.367228 0.367228 0.367228
0.525610 0.525610 0.525610
0.637049 0.637049 0.637049
0.340398 0.340398 0.340398
0.423998 0.423998 0.423998
0.506463 0.506463 0.506463
0.609389 0.609389 0.609389
0.682684 0.682684 0.682684
0.619651 0.619651 0.619651
0.650178 0.650178 0.650178
0.700006 0.700006 0.700006
0.731877 0.731877 0.731877
0.769658 0.769658 0.769658
0.774571 0.774571 0.774571
0.774369 0.774369 0.774369
0.778419 0.778419 0.778419
0.802182 0.802182 0.802182
0.821633 0.821633 0.821633
0.821923 0.821923 0.821923
0.821362 0.821362 0.821362
0.821265 0.821265 0.821265
0.826111 0.826111 0.826111
0.836423 0.836423 0.836423
0.481516 0.481516 0.481516
0.564384 0.564384 0.564384
0.628132 0.628132 0.628132
0.694679 0.694679 0.694679
0.748797 0.748797 0.748797
0.550870 0.550870 0.550870
0.630366 0.630366 0.630366
0.681993 0.681993 0.681993
0.724561 0.724561 0.724561
0.765685 0.765685 0.765685
0.661914 0.661914 0.661914
0.688765 0.688765 0.688765
0.758262 0.758262 0.758262
0.776118 0.776118 0.776118
0.795169 0.795169 0.795169
0.791091 0.791091 0.791091
0.794107 0.794107 0.794107
0.802236 0.802236 0.802236
0.815264 0.815264 0.815264
0.821439 0.821439 0.821439
0.832542 0.832542 0.832542
0.833125 0.833125 0.833125
0.835042 0.835042 0.835042
0.836502 0.836502 0.836502
0.841474 0.841474 0.841474
