gsg/05_BW/GSG_LUT_BW_Dimmer.cube
# GSG LUTs 1.0
# Copyright (c) 2016-2020 Greyscalegorilla
# See EULA for licensing and distribution information
# Converted by Briz LUT Converter
LUT_3D_SIZE 32
0.050794 0.050794 0.050794
0.050794 0.050794 0.050794
0.051014 0.051014 0.051014
0.054260 0.054260 0.054260
0.055174 0.055174 0.055174
0.058955 0.058955 0.058955
0.062594 0.062594 0.062594
0.066005 0.066005 0.066005
0.071236 0.071236 0.071236
0.078073 0.078073 0.078073
0.086423 0.086423 0.086423
0.096073 0.096073 0.096073
0.105274 0.105274 0.105274
0.115719 0.115719 0.115719
0.128717 0.128717 0.128717
0.143842 0.143842 0.143842
0.159975 0.159975 0.159975
0.178053 0.178053 0.178053
0.196959 0.196959 0.196959
0.218260 0.218260 0.218260
0.241987 0.241987 0.241987
0.267013 0.267013 0.267013
0.291433 0.291433 0.291433
0.317374 0.317374 0.317374
0.344283 0.344283 0.344283
0.374209 0.374209 0.374209
0.404963 0.404963 0.404963
0.435716 0.435716 0.435716
0.470219 0.470219 0.470219
0.505030 0.505030 0.505030
0.540053 0.540053 0.540053
0.578755 0.578755 0.578755
0.050920 0.050920 0.050920
0.054921 0.054921 0.054921
0.058246 0.058246 0.058246
0.058846 0.058846 0.058846
0.062720 0.062720 0.062720
0.066997 0.066997 0.066997
0.073330 0.073330 0.073330
0.077837 0.077837 0.077837
0.085399 0.085399 0.085399
0.092962 0.092962 0.092962
0.101324 0.101324 0.101324
0.111099 0.111099 0.111099
0.121045 0.121045 0.121045
0.133280 0.133280 0.133280
0.147513 0.147513 0.147513
0.162641 0.162641 0.162641
0.177920 0.177920 0.177920
0.196102 0.196102 0.196102
0.215796 0.215796 0.215796
0.237083 0.237083 0.237083
0.259994 0.259994 0.259994
0.283761 0.283761 0.283761
0.308832 0.308832 0.308832
0.333383 0.333383 0.333383
0.359477 0.359477 0.359477
0.389350 0.389350 0.389350
0.417427 0.417427 0.417427
0.450569 0.450569 0.450569
0.482278 0.482278 0.482278
0.516419 0.516419 0.516419
0.547974 0.547974 0.547974
0.586199 0.586199 0.586199
0.055158 0.055158 0.055158
0.058482 0.058482 0.058482
0.061835 0.061835 0.061835
0.063126 0.063126 0.063126
0.069618 0.069618 0.069618
0.073588 0.073588 0.073588
0.078021 0.078021 0.078021
0.085399 0.085399 0.085399
0.092962 0.092962 0.092962
0.100528 0.100528 0.100528
0.109284 0.109284 0.109284
0.120222 0.120222 0.120222
0.130828 0.130828 0.130828
0.142231 0.142231 0.142231
0.155254 0.155254 0.155254
0.170428 0.170428 0.170428
0.186569 0.186569 0.186569
0.204546 0.204546 0.204546
0.224717 0.224717 0.224717
0.245521 0.245521 0.245521
0.267623 0.267623 0.267623
0.291471 0.291471 0.291471
0.316613 0.316613 0.316613
0.341135 0.341135 0.341135
0.367261 0.367261 0.367261
0.397123 0.397123 0.397123
0.424825 0.424825 0.424825
0.455603 0.455603 0.455603
0.489563 0.489563 0.489563
0.521093 0.521093 0.521093
0.555208 0.555208 0.555208
0.590011 0.590011 0.590011
0.062444 0.062444 0.062444
0.062823 0.062823 0.062823
0.066391 0.066391 0.066391
0.070200 0.070200 0.070200
0.074641 0.074641 0.074641
0.081167 0.081167 0.081167
0.085730 0.085730 0.085730
0.093239 0.093239 0.093239
0.100655 0.100655 0.100655
0.108421 0.108421 0.108421
0.117413 0.117413 0.117413
0.128722 0.128722 0.128722
0.139983 0.139983 0.139983
0.152223 0.152223 0.152223
0.165592 0.165592 0.165592
0.179791 0.179791 0.179791
0.196123 0.196123 0.196123
0.214416 0.214416 0.214416
0.234328 0.234328 0.234328
0.254133 0.254133 0.254133
0.276414 0.276414 0.276414
0.301246 0.301246 0.301246
0.324988 0.324988 0.324988
0.350627 0.350627 0.350627
0.375639 0.375639 0.375639
0.404433 0.404433 0.404433
0.432344 0.432344 0.432344
0.462791 0.462791 0.462791
0.496785 0.496785 0.496785
0.528442 0.528442 0.528442
0.559471 0.559471 0.559471
0.594273 0.594273 0.594273
0.069629 0.069629 0.069629
0.070642 0.070642 0.070642
0.074335 0.074335 0.074335
0.078426 0.078426 0.078426
0.084600 0.084600 0.084600
0.089291 0.089291 0.089291
0.096443 0.096443 0.096443
0.103525 0.103525 0.103525
0.109770 0.109770 0.109770
0.118671 0.118671 0.118671
0.128439 0.128439 0.128439
0.139474 0.139474 0.139474
0.150076 0.150076 0.150076
0.162009 0.162009 0.162009
0.175163 0.175163 0.175163
0.189719 0.189719 0.189719
0.206605 0.206605 0.206605
0.225507 0.225507 0.225507
0.244542 0.244542 0.244542
0.264677 0.264677 0.264677
0.286654 0.286654 0.286654
0.309809 0.309809 0.309809
0.333730 0.333730 0.333730
0.358969 0.358969 0.358969
0.385616 0.385616 0.385616
0.413128 0.413128 0.413128
0.440626 0.440626 0.440626
0.470639 0.470639 0.470639
0.501579 0.501579 0.501579
0.535570 0.535570 0.535570
0.566781 0.566781 0.566781
0.598684 0.598684 0.598684
0.078207 0.078207 0.078207
0.081850 0.081850 0.081850
0.085063 0.085063 0.085063
0.089255 0.089255 0.089255
0.093329 0.093329 0.093329
0.097869 0.097869 0.097869
0.105007 0.105007 0.105007
0.112497 0.112497 0.112497
0.120049 0.120049 0.120049
0.128319 0.128319 0.128319
0.138651 0.138651 0.138651
0.149994 0.149994 0.149994
0.161338 0.161338 0.161338
0.172783 0.172783 0.172783
0.185941 0.185941 0.185941
0.201186 0.201186 0.201186
0.217173 0.217173 0.217173
0.235149 0.235149 0.235149
0.254307 0.254307 0.254307
0.274469 0.274469 0.274469
0.296096 0.296096 0.296096
0.320020 0.320020 0.320020
0.344114 0.344114 0.344114
0.368084 0.368084 0.368084
0.393962 0.393962 0.393962
0.421342 0.421342 0.421342
0.451180 0.451180 0.451180
0.478680 0.478680 0.478680
0.509181 0.509181 0.509181
0.540187 0.540187 0.540187
0.571154 0.571154 0.571154
0.605349 0.605349 0.605349
0.090118 0.090118 0.090118
0.092738 0.092738 0.092738
0.096425 0.096425 0.096425
0.100200 0.100200 0.100200
0.104412 0.104412 0.104412
0.109213 0.109213 0.109213
0.116262 0.116262 0.116262
0.123348 0.123348 0.123348
0.130896 0.130896 0.130896
0.139441 0.139441 0.139441
0.149738 0.149738 0.149738
0.161187 0.161187 0.161187
0.172402 0.172402 0.172402
0.184119 0.184119 0.184119
0.197339 0.197339 0.197339
0.212539 0.212539 0.212539
0.228518 0.228518 0.228518
0.246384 0.246384 0.246384
0.265414 0.265414 0.265414
0.284717 0.284717 0.284717
0.306055 0.306055 0.306055
0.329201 0.329201 0.329201
0.353003 0.353003 0.353003
0.378014 0.378014 0.378014
0.402771 0.402771 0.402771
0.430995 0.430995 0.430995
0.459340 0.459340 0.459340
0.486906 0.486906 0.486906
0.517041 0.517041 0.517041
0.547957 0.547957 0.547957
0.578083 0.578083 0.578083
0.609792 0.609792 0.609792
0.103824 0.103824 0.103824
0.105305 0.105305 0.105305
0.108111 0.108111 0.108111
0.111576 0.111576 0.111576
0.115675 0.115675 0.115675
0.121045 0.121045 0.121045
0.127700 0.127700 0.127700
0.134539 0.134539 0.134539
0.142290 0.142290 0.142290
0.150595 0.150595 0.150595
0.160313 0.160313 0.160313
0.172077 0.172077 0.172077
0.182909 0.182909 0.182909
0.195602 0.195602 0.195602
0.208755 0.208755 0.208755
0.223540 0.223540 0.223540
0.239868 0.239868 0.239868
0.257247 0.257247 0.257247
0.275718 0.275718 0.275718
0.295455 0.295455 0.295455
0.316138 0.316138 0.316138
0.339610 0.339610 0.339610
0.363342 0.363342 0.363342
0.387044 0.387044 0.387044
0.412687 0.412687 0.412687
0.439694 0.439694 0.439694
0.467190 0.467190 0.467190
0.496572 0.496572 0.496572
0.525012 0.525012 0.525012
0.555532 0.555532 0.555532
0.582977 0.582977 0.582977
0.614431 0.614431 0.614431
0.116113 0.116113 0.116113
0.118885 0.118885 0.118885
0.120698 0.120698 0.120698
0.123965 0.123965 0.123965
0.128487 0.128487 0.128487
0.134263 0.134263 0.134263
0.140142 0.140142 0.140142
0.146671 0.146671 0.146671
0.154016 0.154016 0.154016
0.162969 0.162969 0.162969
0.172890 0.172890 0.172890
0.184277 0.184277 0.184277
0.195645 0.195645 0.195645
0.207872 0.207872 0.207872
0.221155 0.221155 0.221155
0.235235 0.235235 0.235235
0.251530 0.251530 0.251530
0.268686 0.268686 0.268686
0.286872 0.286872 0.286872
0.306030 0.306030 0.306030
0.327119 0.327119 0.327119
0.350632 0.350632 0.350632
0.372973 0.372973 0.372973
0.397818 0.397818 0.397818
0.422225 0.422225 0.422225
0.448655 0.448655 0.448655
0.475716 0.475716 0.475716
0.505072 0.505072 0.505072
0.532723 0.532723 0.532723
0.562273 0.562273 0.562273
0.589901 0.589901 0.589901
0.620733 0.620733 0.620733
0.131238 0.131238 0.131238
0.131356 0.131356 0.131356
0.135122 0.135122 0.135122
0.138674 0.138674 0.138674
0.142509 0.142509 0.142509
0.147178 0.147178 0.147178
0.154198 0.154198 0.154198
0.160513 0.160513 0.160513
0.167110 0.167110 0.167110
0.176544 0.176544 0.176544
0.185879 0.185879 0.185879
0.197145 0.197145 0.197145
0.208464 0.208464 0.208464
0.220628 0.220628 0.220628
0.233720 0.233720 0.233720
0.247845 0.247845 0.247845
0.264169 0.264169 0.264169
0.280913 0.280913 0.280913
0.298659 0.298659 0.298659
0.317728 0.317728 0.317728
0.338705 0.338705 0.338705
0.361116 0.361116 0.361116
0.383717 0.383717 0.383717
0.408683 0.408683 0.408683
0.433141 0.433141 0.433141
0.459516 0.459516 0.459516
0.486112 0.486112 0.486112
0.513524 0.513524 0.513524
0.540573 0.540573 0.540573
0.567545 0.567545 0.567545
0.595356 0.595356 0.595356
0.626090 0.626090 0.626090
0.147229 0.147229 0.147229
0.147741 0.147741 0.147741
0.151481 0.151481 0.151481
0.154665 0.154665 0.154665
0.158519 0.158519 0.158519
0.163173 0.163173 0.163173
0.169208 0.169208 0.169208
0.174802 0.174802 0.174802
0.182407 0.182407 0.182407
0.191037 0.191037 0.191037
0.201055 0.201055 0.201055
0.211998 0.211998 0.211998
0.223037 0.223037 0.223037
0.234506 0.234506 0.234506
0.247591 0.247591 0.247591
0.262404 0.262404 0.262404
0.277695 0.277695 0.277695
0.294277 0.294277 0.294277
0.312348 0.312348 0.312348
0.331199 0.331199 0.331199
0.351464 0.351464 0.351464
0.374220 0.374220 0.374220
0.396411 0.396411 0.396411
0.420412 0.420412 0.420412
0.444606 0.444606 0.444606
0.470665 0.470665 0.470665
0.496329 0.496329 0.496329
0.522588 0.522588 0.522588
0.549490 0.549490 0.549490
0.576462 0.576462 0.576462
0.602367 0.602367 0.602367
0.633132 0.633132 0.633132
0.164607 0.164607 0.164607
0.166770 0.166770 0.166770
0.169233 0.169233 0.169233
0.172130 0.172130 0.172130
0.176012 0.176012 0.176012
0.180631 0.180631 0.180631
0.185709 0.185709 0.185709
0.192446 0.192446 0.192446
0.200008 0.200008 0.200008
0.207746 0.207746 0.207746
0.216804 0.216804 0.216804
0.227933 0.227933 0.227933
0.238948 0.238948 0.238948
0.250202 0.250202 0.250202
0.263256 0.263256 0.263256
0.277695 0.277695 0.277695
0.293027 0.293027 0.293027
0.309282 0.309282 0.309282
0.327168 0.327168 0.327168
0.346055 0.346055 0.346055
0.366057 0.366057 0.366057
0.388112 0.388112 0.388112
0.410140 0.410140 0.410140
0.433013 0.433013 0.433013
0.457702 0.457702 0.457702
0.482602 0.482602 0.482602
0.508519 0.508519 0.508519
0.534055 0.534055 0.534055
0.559816 0.559816 0.559816
0.586598 0.586598 0.586598
0.610173 0.610173 0.610173
0.640781 0.640781 0.640781
0.182032 0.182032 0.182032
0.185146 0.185146 0.185146
0.185931 0.185931 0.185931
0.189648 0.189648 0.189648
0.192905 0.192905 0.192905
0.197412 0.197412 0.197412
0.202804 0.202804 0.202804
0.208955 0.208955 0.208955
0.216078 0.216078 0.216078
0.224109 0.224109 0.224109
0.233465 0.233465 0.233465
0.243540 0.243540 0.243540
0.254303 0.254303 0.254303
0.265831 0.265831 0.265831
0.278892 0.278892 0.278892
0.293026 0.293026 0.293026
0.308277 0.308277 0.308277
0.324035 0.324035 0.324035
0.341573 0.341573 0.341573
0.360487 0.360487 0.360487
0.380590 0.380590 0.380590
0.402594 0.402594 0.402594
0.423833 0.423833 0.423833
0.446288 0.446288 0.446288
0.470522 0.470522 0.470522
0.494792 0.494792 0.494792
0.519636 0.519636 0.519636
0.545017 0.545017 0.545017
0.569273 0.569273 0.569273
0.594508 0.594508 0.594508
0.618658 0.618658 0.618658
0.648501 0.648501 0.648501
0.202009 0.202009 0.202009
0.203362 0.203362 0.203362
0.205849 0.205849 0.205849
0.208622 0.208622 0.208622
0.211233 0.211233 0.211233
0.216429 0.216429 0.216429
0.221334 0.221334 0.221334
0.227411 0.227411 0.227411
0.234235 0.234235 0.234235
0.242045 0.242045 0.242045
0.250795 0.250795 0.250795
0.260510 0.260510 0.260510
0.271109 0.271109 0.271109
0.282879 0.282879 0.282879
0.295581 0.295581 0.295581
0.309160 0.309160 0.309160
0.324305 0.324305 0.324305
0.340359 0.340359 0.340359
0.357535 0.357535 0.357535
0.375982 0.375982 0.375982
0.395967 0.395967 0.395967
0.417464 0.417464 0.417464
0.438355 0.438355 0.438355
0.460766 0.460766 0.460766
0.484037 0.484037 0.484037
0.508052 0.508052 0.508052
0.532505 0.532505 0.532505
0.556026 0.556026 0.556026
0.580004 0.580004 0.580004
0.603948 0.603948 0.603948
0.628420 0.628420 0.628420
0.656166 0.656166 0.656166
0.222963 0.222963 0.222963
0.224020 0.224020 0.224020
0.226123 0.226123 0.226123
0.228690 0.228690 0.228690
0.231771 0.231771 0.231771
0.236439 0.236439 0.236439
0.241366 0.241366 0.241366
0.246501 0.246501 0.246501
0.253333 0.253333 0.253333
0.260814 0.260814 0.260814
0.269184 0.269184 0.269184
0.279374 0.279374 0.279374
0.289721 0.289721 0.289721
0.301003 0.301003 0.301003
0.313711 0.313711 0.313711
0.326954 0.326954 0.326954
0.341668 0.341668 0.341668
0.358008 0.358008 0.358008
0.374958 0.374958 0.374958
0.392780 0.392780 0.392780
0.411987 0.411987 0.411987
0.433321 0.433321 0.433321
0.453970 0.453970 0.453970
0.476253 0.476253 0.476253
0.499378 0.499378 0.499378
0.521393 0.521393 0.521393
0.544307 0.544307 0.544307
0.567498 0.567498 0.567498
0.590589 0.590589 0.590589
0.613924 0.613924 0.613924
0.637020 0.637020 0.637020
0.663870 0.663870 0.663870
0.243869 0.243869 0.243869
0.246776 0.246776 0.246776
0.247005 0.247005 0.247005
0.250651 0.250651 0.250651
0.254205 0.254205 0.254205
0.258026 0.258026 0.258026
0.262235 0.262235 0.262235
0.267493 0.267493 0.267493
0.274005 0.274005 0.274005
0.280966 0.280966 0.280966
0.289195 0.289195 0.289195
0.299284 0.299284 0.299284
0.309299 0.309299 0.309299
0.320358 0.320358 0.320358
0.332687 0.332687 0.332687
0.346103 0.346103 0.346103
0.360959 0.360959 0.360959
0.376889 0.376889 0.376889
0.393439 0.393439 0.393439
0.410764 0.410764 0.410764
0.429473 0.429473 0.429473
0.450257 0.450257 0.450257
0.471016 0.471016 0.471016
0.492191 0.492191 0.492191
0.514486 0.514486 0.514486
0.535075 0.535075 0.535075
0.557575 0.557575 0.557575
0.579307 0.579307 0.579307
0.601317 0.601317 0.601317
0.623579 0.623579 0.623579
0.645676 0.645676 0.645676
0.671551 0.671551 0.671551
0.267817 0.267817 0.267817
0.269589 0.269589 0.269589
0.269826 0.269826 0.269826
0.273590 0.273590 0.273590
0.277144 0.277144 0.277144
0.280925 0.280925 0.280925
0.284752 0.284752 0.284752
0.289497 0.289497 0.289497
0.296236 0.296236 0.296236
0.301926 0.301926 0.301926
0.310365 0.310365 0.310365
0.320353 0.320353 0.320353
0.329962 0.329962 0.329962
0.341195 0.341195 0.341195
0.353459 0.353459 0.353459
0.366969 0.366969 0.366969
0.381370 0.381370 0.381370
0.396502 0.396502 0.396502
0.412744 0.412744 0.412744
0.429865 0.429865 0.429865
0.448460 0.448460 0.448460
0.468691 0.468691 0.468691
0.488629 0.488629 0.488629
0.508649 0.508649 0.508649
0.529936 0.529936 0.529936
0.550326 0.550326 0.550326
0.571346 0.571346 0.571346
0.591915 0.591915 0.591915
0.612201 0.612201 0.612201
0.634174 0.634174 0.634174
0.655410 0.655410 0.655410
0.681256 0.681256 0.681256
0.292528 0.292528 0.292528
0.292558 0.292558 0.292558
0.293657 0.293657 0.293657
0.296756 0.296756 0.296756
0.300199 0.300199 0.300199
0.303864 0.303864 0.303864
0.307645 0.307645 0.307645
0.312284 0.312284 0.312284
0.319004 0.319004 0.319004
0.323881 0.323881 0.323881
0.332782 0.332782 0.332782
0.343039 0.343039 0.343039
0.352200 0.352200 0.352200
0.363795 0.363795 0.363795
0.375789 0.375789 0.375789
0.388601 0.388601 0.388601
0.402640 0.402640 0.402640
0.417803 0.417803 0.417803
0.433756 0.433756 0.433756
0.450350 0.450350 0.450350
0.468180 0.468180 0.468180
0.487375 0.487375 0.487375
0.506364 0.506364 0.506364
0.525792 0.525792 0.525792
0.545788 0.545788 0.545788
0.565525 0.565525 0.565525
0.585070 0.585070 0.585070
0.604471 0.604471 0.604471
0.624602 0.624602 0.624602
0.644812 0.644812 0.644812
0.666056 0.666056 0.666056
0.690709 0.690709 0.690709
0.316460 0.316460 0.316460
0.317759 0.317759 0.317759
0.318567 0.318567 0.318567
0.320501 0.320501 0.320501
0.323536 0.323536 0.323536
0.327228 0.327228 0.327228
0.331174 0.331174 0.331174
0.336236 0.336236 0.336236
0.342639 0.342639 0.342639
0.348796 0.348796 0.348796
0.356439 0.356439 0.356439
0.366310 0.366310 0.366310
0.375597 0.375597 0.375597
0.386845 0.386845 0.386845
0.398696 0.398696 0.398696
0.411274 0.411274 0.411274
0.425549 0.425549 0.425549
0.440528 0.440528 0.440528
0.455520 0.455520 0.455520
0.471409 0.471409 0.471409
0.488476 0.488476 0.488476
0.506371 0.506371 0.506371
0.525160 0.525160 0.525160
0.543073 0.543073 0.543073
0.561552 0.561552 0.561552
0.580262 0.580262 0.580262
0.598465 0.598465 0.598465
0.617134 0.617134 0.617134
0.636892 0.636892 0.636892
0.656215 0.656215 0.656215
0.676408 0.676408 0.676408
0.700540 0.700540 0.700540
0.342361 0.342361 0.342361
0.343260 0.343260 0.343260
0.344803 0.344803 0.344803
0.346395 0.346395 0.346395
0.348919 0.348919 0.348919
0.352594 0.352594 0.352594
0.356726 0.356726 0.356726
0.361699 0.361699 0.361699
0.367232 0.367232 0.367232
0.374178 0.374178 0.374178
0.381200 0.381200 0.381200
0.390677 0.390677 0.390677
0.400641 0.400641 0.400641
0.411541 0.411541 0.411541
0.423047 0.423047 0.423047
0.435178 0.435178 0.435178
0.448908 0.448908 0.448908
0.462561 0.462561 0.462561
0.476687 0.476687 0.476687
0.492300 0.492300 0.492300
0.508600 0.508600 0.508600
0.526318 0.526318 0.526318
0.543536 0.543536 0.543536
0.560688 0.560688 0.560688
0.577543 0.577543 0.577543
0.594410 0.594410 0.594410
0.612262 0.612262 0.612262
0.630811 0.630811 0.630811
0.648687 0.648687 0.648687
0.667714 0.667714 0.667714
0.686964 0.686964 0.686964
0.710638 0.710638 0.710638
0.370026 0.370026 0.370026
0.371630 0.371630 0.371630
0.372563 0.372563 0.372563
0.374238 0.374238 0.374238
0.377416 0.377416 0.377416
0.380313 0.380313 0.380313
0.384233 0.384233 0.384233
0.388602 0.388602 0.388602
0.394095 0.394095 0.394095
0.400656 0.400656 0.400656
0.408271 0.408271 0.408271
0.417525 0.417525 0.417525
0.427282 0.427282 0.427282
0.437638 0.437638 0.437638
0.448809 0.448809 0.448809
0.460488 0.460488 0.460488
0.473405 0.473405 0.473405
0.486108 0.486108 0.486108
0.499659 0.499659 0.499659
0.514650 0.514650 0.514650
0.530169 0.530169 0.530169
0.546488 0.546488 0.546488
0.562340 0.562340 0.562340
0.578405 0.578405 0.578405
0.594072 0.594072 0.594072
0.609805 0.609805 0.609805
0.627529 0.627529 0.627529
0.644172 0.644172 0.644172
0.662418 0.662418 0.662418
0.679452 0.679452 0.679452
0.698315 0.698315 0.698315
0.721131 0.721131 0.721131
0.400906 0.400906 0.400906
0.402521 0.402521 0.402521
0.402647 0.402647 0.402647
0.404693 0.404693 0.404693
0.407068 0.407068 0.407068
0.410384 0.410384 0.410384
0.413984 0.413984 0.413984
0.418626 0.418626 0.418626
0.424340 0.424340 0.424340
0.430227 0.430227 0.430227
0.438004 0.438004 0.438004
0.446551 0.446551 0.446551
0.456015 0.456015 0.456015
0.465727 0.465727 0.465727
0.475916 0.475916 0.475916
0.487266 0.487266 0.487266
0.499614 0.499614 0.499614
0.511434 0.511434 0.511434
0.524297 0.524297 0.524297
0.538096 0.538096 0.538096
0.552600 0.552600 0.552600
0.567492 0.567492 0.567492
0.581826 0.581826 0.581826
0.596473 0.596473 0.596473
0.611722 0.611722 0.611722
0.627162 0.627162 0.627162
0.643215 0.643215 0.643215
0.658718 0.658718 0.658718
0.675383 0.675383 0.675383
0.692519 0.692519 0.692519
0.711476 0.711476 0.711476
0.732475 0.732475 0.732475
0.430399 0.430399 0.430399
0.433353 0.433353 0.433353
0.433394 0.433394 0.433394
0.434301 0.434301 0.434301
0.437617 0.437617 0.437617
0.441074 0.441074 0.441074
0.444777 0.444777 0.444777
0.448874 0.448874 0.448874
0.453938 0.453938 0.453938
0.460467 0.460467 0.460467
0.467107 0.467107 0.467107
0.475988 0.475988 0.475988
0.484422 0.484422 0.484422
0.493529 0.493529 0.493529
0.503249 0.503249 0.503249
0.513812 0.513812 0.513812
0.524875 0.524875 0.524875
0.535648 0.535648 0.535648
0.547297 0.547297 0.547297
0.560148 0.560148 0.560148
0.573401 0.573401 0.573401
0.586591 0.586591 0.586591
0.600390 0.600390 0.600390
0.613700 0.613700 0.613700
0.628082 0.628082 0.628082
0.643342 0.643342 0.643342
0.658137 0.658137 0.658137
0.673402 0.673402 0.673402
0.688843 0.688843 0.688843
0.705538 0.705538 0.705538
0.723711 0.723711 0.723711
0.743818 0.743818 0.743818
0.460443 0.460443 0.460443
0.464112 0.464112 0.464112
0.464288 0.464288 0.464288
0.464648 0.464648 0.464648
0.468447 0.468447 0.468447
0.471960 0.471960 0.471960
0.475741 0.475741 0.475741
0.479523 0.479523 0.479523
0.483751 0.483751 0.483751
0.489504 0.489504 0.489504
0.496327 0.496327 0.496327
0.504360 0.504360 0.504360
0.512223 0.512223 0.512223
0.520326 0.520326 0.520326
0.529533 0.529533 0.529533
0.539254 0.539254 0.539254
0.549187 0.549187 0.549187
0.559525 0.559525 0.559525
0.570170 0.570170 0.570170
0.581329 0.581329 0.581329
0.593492 0.593492 0.593492
0.605546 0.605546 0.605546
0.618814 0.618814 0.618814
0.631359 0.631359 0.631359
0.643916 0.643916 0.643916
0.658718 0.658718 0.658718
0.671604 0.671604 0.671604
0.686502 0.686502 0.686502
0.701715 0.701715 0.701715
0.717310 0.717310 0.717310
0.735242 0.735242 0.735242
0.755162 0.755162 0.755162
0.494411 0.494411 0.494411
0.495240 0.495240 0.495240
0.495464 0.495464 0.495464
0.498038 0.498038 0.498038
0.499397 0.499397 0.499397
0.502966 0.502966 0.502966
0.506747 0.506747 0.506747
0.510528 0.510528 0.510528
0.514366 0.514366 0.514366
0.519217 0.519217 0.519217
0.525905 0.525905 0.525905
0.532194 0.532194 0.532194
0.539399 0.539399 0.539399
0.547213 0.547213 0.547213
0.555302 0.555302 0.555302
0.564508 0.564508 0.564508
0.573823 0.573823 0.573823
0.582714 0.582714 0.582714
0.592644 0.592644 0.592644
0.602353 0.602353 0.602353
0.613215 0.613215 0.613215
0.624871 0.624871 0.624871
0.636801 0.636801 0.636801
0.648441 0.648441 0.648441
0.661405 0.661405 0.661405
0.674534 0.674534 0.674534
0.686400 0.686400 0.686400
0.701021 0.701021 0.701021
0.716323 0.716323 0.716323
0.731518 0.731518 0.731518
0.747287 0.747287 0.747287
0.766505 0.766505 0.766505
0.526299 0.526299 0.526299
0.526311 0.526311 0.526311
0.526901 0.526901 0.526901
0.529919 0.529919 0.529919
0.530454 0.530454 0.530454
0.534270 0.534270 0.534270
0.537594 0.537594 0.537594
0.541534 0.541534 0.541534
0.545315 0.545315 0.545315
0.549503 0.549503 0.549503
0.555021 0.555021 0.555021
0.560965 0.560965 0.560965
0.566975 0.566975 0.566975
0.573938 0.573938 0.573938
0.581409 0.581409 0.581409
0.589380 0.589380 0.589380
0.597361 0.597361 0.597361
0.605305 0.605305 0.605305
0.614072 0.614072 0.614072
0.623821 0.623821 0.623821
0.633436 0.633436 0.633436
0.644130 0.644130 0.644130
0.655662 0.655662 0.655662
0.666346 0.666346 0.666346
0.678411 0.678411 0.678411
0.690191 0.690191 0.690191
0.702107 0.702107 0.702107
0.716400 0.716400 0.716400
0.731339 0.731339 0.731339
0.744054 0.744054 0.744054
0.761301 0.761301 0.761301
0.780606 0.780606 0.780606
0.557100 0.557100 0.557100
0.557201 0.557201 0.557201
0.560297 0.560297 0.560297
0.560967 0.560967 0.560967
0.561472 0.561472 0.561472
0.565281 0.565281 0.565281
0.567716 0.567716 0.567716
0.569923 0.569923 0.569923
0.573863 0.573863 0.573863
0.578284 0.578284 0.578284
0.583890 0.583890 0.583890
0.588663 0.588663 0.588663
0.594138 0.594138 0.594138
0.600818 0.600818 0.600818
0.607057 0.607057 0.607057
0.612970 0.612970 0.612970
0.620552 0.620552 0.620552
0.628367 0.628367 0.628367
0.636176 0.636176 0.636176
0.644857 0.644857 0.644857
0.654379 0.654379 0.654379
0.663898 0.663898 0.663898
0.674238 0.674238 0.674238
0.685117 0.685117 0.685117
0.696479 0.696479 0.696479
0.708023 0.708023 0.708023
0.719677 0.719677 0.719677
0.731875 0.731875 0.731875
0.743836 0.743836 0.743836
0.758180 0.758180 0.758180
0.773729 0.773729 0.773729
0.792611 0.792611 0.792611
0.588066 0.588066 0.588066
0.588170 0.588170 0.588170
0.591347 0.591347 0.591347
0.591973 0.591973 0.591973
0.592395 0.592395 0.592395
0.595361 0.595361 0.595361
0.596630 0.596630 0.596630
0.599973 0.599973 0.599973
0.603119 0.603119 0.603119
0.606992 0.606992 0.606992
0.611086 0.611086 0.611086
0.615562 0.615562 0.615562
0.621119 0.621119 0.621119
0.626446 0.626446 0.626446
0.631956 0.631956 0.631956
0.637821 0.637821 0.637821
0.643846 0.643846 0.643846
0.651441 0.651441 0.651441
