gsg/05_BW/GSG_LUT_BW_SilverTone.cube
# GSG LUTs 1.0
# Copyright (c) 2016-2020 Greyscalegorilla
# See EULA for licensing and distribution information
# Converted by Briz LUT Converter
LUT_3D_SIZE 32
0.050794 0.050794 0.050794
0.050794 0.050794 0.050794
0.050794 0.050794 0.050794
0.050794 0.050794 0.050794
0.050794 0.050794 0.050794
0.050794 0.050794 0.050794
0.050794 0.050794 0.050794
0.050794 0.050794 0.050794
0.050794 0.050794 0.050794
0.050794 0.050794 0.050794
0.050794 0.050794 0.050794
0.050794 0.050794 0.050794
0.050794 0.050794 0.050794
0.050794 0.050794 0.050794
0.050794 0.050794 0.050794
0.050794 0.050794 0.050794
0.050794 0.050794 0.050794
0.050794 0.050794 0.050794
0.050794 0.050794 0.050794
0.050794 0.050794 0.050794
0.050794 0.050794 0.050794
0.051621 0.051621 0.051621
0.053921 0.053921 0.053921
0.054701 0.054701 0.054701
0.054701 0.054701 0.054701
0.054701 0.054701 0.054701
0.054701 0.054701 0.054701
0.054701 0.054701 0.054701
0.054701 0.054701 0.054701
0.054701 0.054701 0.054701
0.054701 0.054701 0.054701
0.054701 0.054701 0.054701
0.054693 0.054693 0.054693
0.054693 0.054693 0.054693
0.054693 0.054693 0.054693
0.054716 0.054716 0.054716
0.055356 0.055356 0.055356
0.058257 0.058257 0.058257
0.058356 0.058356 0.058356
0.058356 0.058356 0.058356
0.058356 0.058356 0.058356
0.058356 0.058356 0.058356
0.058394 0.058394 0.058394
0.059313 0.059313 0.059313
0.061389 0.061389 0.061389
0.062263 0.062263 0.062263
0.062288 0.062288 0.062288
0.062345 0.062345 0.062345
0.062378 0.062378 0.062378
0.062381 0.062381 0.062381
0.063205 0.063205 0.063205
0.065026 0.065026 0.065026
0.065953 0.065953 0.065953
0.066842 0.066842 0.066842
0.068288 0.068288 0.068288
0.069453 0.069453 0.069453
0.069707 0.069707 0.069707
0.069720 0.069720 0.069720
0.069730 0.069730 0.069730
0.072901 0.072901 0.072901
0.073370 0.073370 0.073370
0.073370 0.073370 0.073370
0.073378 0.073378 0.073378
0.073489 0.073489 0.073489
0.062476 0.062476 0.062476
0.062476 0.062476 0.062476
0.062476 0.062476 0.062476
0.062477 0.062477 0.062477
0.062492 0.062492 0.062492
0.063080 0.063080 0.063080
0.066139 0.066139 0.066139
0.066146 0.066146 0.066146
0.066170 0.066170 0.066170
0.066234 0.066234 0.066234
0.067496 0.067496 0.067496
0.069818 0.069818 0.069818
0.069998 0.069998 0.069998
0.070282 0.070282 0.070282
0.071005 0.071005 0.071005
0.072655 0.072655 0.072655
0.073721 0.073721 0.073721
0.073945 0.073945 0.073945
0.073945 0.073945 0.073945
0.075964 0.075964 0.075964
0.077330 0.077330 0.077330
0.077535 0.077535 0.077535
0.079230 0.079230 0.079230
0.080927 0.080927 0.080927
0.081287 0.081287 0.081287
0.081656 0.081656 0.081656
0.081962 0.081962 0.081962
0.084570 0.084570 0.084570
0.084950 0.084950 0.084950
0.084950 0.084950 0.084950
0.085171 0.085171 0.085171
0.088597 0.088597 0.088597
0.073945 0.073945 0.073945
0.073945 0.073945 0.073945
0.073945 0.073945 0.073945
0.073967 0.073967 0.073967
0.074212 0.074212 0.074212
0.075019 0.075019 0.075019
0.077608 0.077608 0.077608
0.077783 0.077783 0.077783
0.078393 0.078393 0.078393
0.079324 0.079324 0.079324
0.081615 0.081615 0.081615
0.081823 0.081823 0.081823
0.083122 0.083122 0.083122
0.085179 0.085179 0.085179
0.085317 0.085317 0.085317
0.085486 0.085486 0.085486
0.087218 0.087218 0.087218
0.088919 0.088919 0.088919
0.088983 0.088983 0.088983
0.089925 0.089925 0.089925
0.091800 0.091800 0.091800
0.092585 0.092585 0.092585
0.092807 0.092807 0.092807
0.095501 0.095501 0.095501
0.096467 0.096467 0.096467
0.096673 0.096673 0.096673
0.097129 0.097129 0.097129
0.099705 0.099705 0.099705
0.100075 0.100075 0.100075
0.100362 0.100362 0.100362
0.100382 0.100382 0.100382
0.103517 0.103517 0.103517
0.089480 0.089480 0.089480
0.089543 0.089543 0.089543
0.089543 0.089543 0.089543
0.089543 0.089543 0.089543
0.089954 0.089954 0.089954
0.092789 0.092789 0.092789
0.093104 0.093104 0.093104
0.093885 0.093885 0.093885
0.096398 0.096398 0.096398
0.096970 0.096970 0.096970
0.097984 0.097984 0.097984
0.099878 0.099878 0.099878
0.100140 0.100140 0.100140
0.100635 0.100635 0.100635
0.102007 0.102007 0.102007
0.103541 0.103541 0.103541
0.103858 0.103858 0.103858
0.105011 0.105011 0.105011
0.105715 0.105715 0.105715
0.106985 0.106985 0.106985
0.107949 0.107949 0.107949
0.108823 0.108823 0.108823
0.110924 0.110924 0.110924
0.111771 0.111771 0.111771
0.112460 0.112460 0.112460
0.114362 0.114362 0.114362
0.115184 0.115184 0.115184
0.115263 0.115263 0.115263
0.115633 0.115633 0.115633
0.118259 0.118259 0.118259
0.118437 0.118437 0.118437
0.119272 0.119272 0.119272
0.107960 0.107960 0.107960
0.108374 0.108374 0.108374
0.108488 0.108488 0.108488
0.108488 0.108488 0.108488
0.108488 0.108488 0.108488
0.108851 0.108851 0.108851
0.110899 0.110899 0.110899
0.111740 0.111740 0.111740
0.112831 0.112831 0.112831
0.114496 0.114496 0.114496
0.115467 0.115467 0.115467
0.115993 0.115993 0.115993
0.116653 0.116653 0.116653
0.118173 0.118173 0.118173
0.119228 0.119228 0.119228
0.119680 0.119680 0.119680
0.120355 0.120355 0.120355
0.121961 0.121961 0.121961
0.123068 0.123068 0.123068
0.123966 0.123966 0.123966
0.125465 0.125465 0.125465
0.126463 0.126463 0.126463
0.127516 0.127516 0.127516
0.128778 0.128778 0.128778
0.130047 0.130047 0.130047
0.130324 0.130324 0.130324
0.130833 0.130833 0.130833
0.131274 0.131274 0.131274
0.133729 0.133729 0.133729
0.133987 0.133987 0.133987
0.133987 0.133987 0.133987
0.137280 0.137280 0.137280
0.126299 0.126299 0.126299
0.126318 0.126318 0.126318
0.126890 0.126890 0.126890
0.126890 0.126890 0.126890
0.126890 0.126890 0.126890
0.126890 0.126890 0.126890
0.126890 0.126890 0.126890
0.127717 0.127717 0.127717
0.130553 0.130553 0.130553
0.130553 0.130553 0.130553
0.131503 0.131503 0.131503
0.133753 0.133753 0.133753
0.134216 0.134216 0.134216
0.134216 0.134216 0.134216
0.135653 0.135653 0.135653
0.137749 0.137749 0.137749
0.138123 0.138123 0.138123
0.138123 0.138123 0.138123
0.139495 0.139495 0.139495
0.141283 0.141283 0.141283
0.141786 0.141786 0.141786
0.141786 0.141786 0.141786
0.144016 0.144016 0.144016
0.145315 0.145315 0.145315
0.145449 0.145449 0.145449
0.145449 0.145449 0.145449
0.146314 0.146314 0.146314
0.148361 0.148361 0.148361
0.149109 0.149109 0.149109
0.149159 0.149159 0.149159
0.149159 0.149159 0.149159
0.152452 0.152452 0.152452
0.142014 0.142014 0.142014
0.142014 0.142014 0.142014
0.142014 0.142014 0.142014
0.142014 0.142014 0.142014
0.142014 0.142014 0.142014
0.142014 0.142014 0.142014
0.142174 0.142174 0.142174
0.143482 0.143482 0.143482
0.145677 0.145677 0.145677
0.145677 0.145677 0.145677
0.146135 0.146135 0.146135
0.147911 0.147911 0.147911
0.149395 0.149395 0.149395
0.149395 0.149395 0.149395
0.150214 0.150214 0.150214
0.152194 0.152194 0.152194
0.153247 0.153247 0.153247
0.153247 0.153247 0.153247
0.153247 0.153247 0.153247
0.155493 0.155493 0.155493
0.156910 0.156910 0.156910
0.156910 0.156910 0.156910
0.157447 0.157447 0.157447
0.159864 0.159864 0.159864
0.160629 0.160629 0.160629
0.160629 0.160629 0.160629
0.160787 0.160787 0.160787
0.161716 0.161716 0.161716
0.164226 0.164226 0.164226
0.164481 0.164481 0.164481
0.164481 0.164481 0.164481
0.165048 0.165048 0.165048
0.157139 0.157139 0.157139
0.157139 0.157139 0.157139
0.157139 0.157139 0.157139
0.157139 0.157139 0.157139
0.157139 0.157139 0.157139
0.157230 0.157230 0.157230
0.158317 0.158317 0.158317
0.160865 0.160865 0.160865
0.160865 0.160865 0.160865
0.160865 0.160865 0.160865
0.161770 0.161770 0.161770
0.164038 0.164038 0.164038
0.164709 0.164709 0.164709
0.164709 0.164709 0.164709
0.164873 0.164873 0.164873
0.166669 0.166669 0.166669
0.168372 0.168372 0.168372
0.168372 0.168372 0.168372
0.168372 0.168372 0.168372
0.170656 0.170656 0.170656
0.172098 0.172098 0.172098
0.172098 0.172098 0.172098
0.172098 0.172098 0.172098
0.174389 0.174389 0.174389
0.175772 0.175772 0.175772
0.175942 0.175942 0.175942
0.175942 0.175942 0.175942
0.176731 0.176731 0.176731
0.179339 0.179339 0.179339
0.179605 0.179605 0.179605
0.179605 0.179605 0.179605
0.179605 0.179605 0.179605
0.172334 0.172334 0.172334
0.172334 0.172334 0.172334
0.172334 0.172334 0.172334
0.172334 0.172334 0.172334
0.172426 0.172426 0.172426
0.173352 0.173352 0.173352
0.175192 0.175192 0.175192
0.176171 0.176171 0.176171
0.176171 0.176171 0.176171
0.176315 0.176315 0.176315
0.177409 0.177409 0.177409
0.179275 0.179275 0.179275
0.179834 0.179834 0.179834
0.179834 0.179834 0.179834
0.179834 0.179834 0.179834
0.181641 0.181641 0.181641
0.183568 0.183568 0.183568
0.183568 0.183568 0.183568
0.183568 0.183568 0.183568
0.185615 0.185615 0.185615
0.187228 0.187228 0.187228
0.187404 0.187404 0.187404
0.187404 0.187404 0.187404
0.188000 0.188000 0.188000
0.190421 0.190421 0.190421
0.191067 0.191067 0.191067
0.191067 0.191067 0.191067
0.191067 0.191067 0.191067
0.194119 0.194119 0.194119
0.194712 0.194712 0.194712
0.194730 0.194730 0.194730
0.194730 0.194730 0.194730
0.188814 0.188814 0.188814
0.188814 0.188814 0.188814
0.188814 0.188814 0.188814
0.188814 0.188814 0.188814
0.189028 0.189028 0.189028
0.190703 0.190703 0.190703
0.191956 0.191956 0.191956
0.192190 0.192190 0.192190
0.192556 0.192556 0.192556
0.192892 0.192892 0.192892
0.194141 0.194141 0.194141
0.195289 0.195289 0.195289
0.195929 0.195929 0.195929
0.196219 0.196219 0.196219
0.196219 0.196219 0.196219
0.197500 0.197500 0.197500
0.199354 0.199354 0.199354
0.199941 0.199941 0.199941
0.200047 0.200047 0.200047
0.200858 0.200858 0.200858
0.202118 0.202118 0.202118
0.203382 0.203382 0.203382
0.203789 0.203789 0.203789
0.204280 0.204280 0.204280
0.205860 0.205860 0.205860
0.206397 0.206397 0.206397
0.207287 0.207287 0.207287
0.207452 0.207452 0.207452
0.209096 0.209096 0.209096
0.209891 0.209891 0.209891
0.209933 0.209933 0.209933
0.211115 0.211115 0.211115
0.206507 0.206507 0.206507
0.206507 0.206507 0.206507
0.206507 0.206507 0.206507
0.206574 0.206574 0.206574
0.207211 0.207211 0.207211
0.207574 0.207574 0.207574
0.209128 0.209128 0.209128
0.209595 0.209595 0.209595
0.210327 0.210327 0.210327
0.210327 0.210327 0.210327
0.210691 0.210691 0.210691
0.212018 0.212018 0.212018
0.213411 0.213411 0.213411
0.213990 0.213990 0.213990
0.213990 0.213990 0.213990
0.214326 0.214326 0.214326
0.216017 0.216017 0.216017
0.217527 0.217527 0.217527
0.217740 0.217740 0.217740
0.217740 0.217740 0.217740
0.218355 0.218355 0.218355
0.220636 0.220636 0.220636
0.221561 0.221561 0.221561
0.221561 0.221561 0.221561
0.221695 0.221695 0.221695
0.222896 0.222896 0.222896
0.224893 0.224893 0.224893
0.225224 0.225224 0.225224
0.225224 0.225224 0.225224
0.225305 0.225305 0.225305
0.226065 0.226065 0.226065
0.228973 0.228973 0.228973
0.222640 0.222640 0.222640
0.222640 0.222640 0.222640
0.222676 0.222676 0.222676
0.223323 0.223323 0.223323
0.224424 0.224424 0.224424
0.224699 0.224699 0.224699
0.225452 0.225452 0.225452
0.225601 0.225601 0.225601
0.226162 0.226162 0.226162
0.226495 0.226495 0.226495
0.227592 0.227592 0.227592
0.229016 0.229016 0.229016
0.229210 0.229210 0.229210
0.229566 0.229566 0.229566
0.230316 0.230316 0.230316
0.231207 0.231207 0.231207
0.232443 0.232443 0.232443
0.233022 0.233022 0.233022
0.233516 0.233516 0.233516
0.234047 0.234047 0.234047
0.235402 0.235402 0.235402
0.236492 0.236492 0.236492
0.236886 0.236886 0.236886
0.237460 0.237460 0.237460
0.238301 0.238301 0.238301
0.240066 0.240066 0.240066
0.240443 0.240443 0.240443
0.240525 0.240525 0.240525
0.241220 0.241220 0.241220
0.241964 0.241964 0.241964
0.243314 0.243314 0.243314
0.244255 0.244255 0.244255
0.240750 0.240750 0.240750
0.240750 0.240750 0.240750
0.240805 0.240805 0.240805
0.241601 0.241601 0.241601
0.241601 0.241601 0.241601
0.241683 0.241683 0.241683
0.242133 0.242133 0.242133
0.242439 0.242439 0.242439
0.243281 0.243281 0.243281
0.244047 0.244047 0.244047
0.245405 0.245405 0.245405
0.245551 0.245551 0.245551
0.245934 0.245934 0.245934
0.246657 0.246657 0.246657
0.247783 0.247783 0.247783
0.248646 0.248646 0.248646
0.249227 0.249227 0.249227
0.249600 0.249600 0.249600
0.250526 0.250526 0.250526
0.251510 0.251510 0.251510
0.252465 0.252465 0.252465
0.253250 0.253250 0.253250
0.253750 0.253750 0.253750
0.254610 0.254610 0.254610
0.256238 0.256238 0.256238
0.256639 0.256639 0.256639
0.257240 0.257240 0.257240
0.257479 0.257479 0.257479
0.258522 0.258522 0.258522
0.260194 0.260194 0.260194
0.260302 0.260302 0.260302
0.260302 0.260302 0.260302
0.259798 0.259798 0.259798
0.259798 0.259798 0.259798
0.259798 0.259798 0.259798
0.259798 0.259798 0.259798
0.259798 0.259798 0.259798
0.259906 0.259906 0.259906
0.260642 0.260642 0.260642
0.261373 0.261373 0.261373
0.261373 0.261373 0.261373
0.261915 0.261915 0.261915
0.263311 0.263311 0.263311
0.263651 0.263651 0.263651
0.264493 0.264493 0.264493
0.265280 0.265280 0.265280
0.265479 0.265479 0.265479
0.266453 0.266453 0.266453
0.267441 0.267441 0.267441
0.268353 0.268353 0.268353
0.268943 0.268943 0.268943
0.269392 0.269392 0.269392
0.270550 0.270550 0.270550
0.271575 0.271575 0.271575
0.272382 0.272382 0.272382
0.272606 0.272606 0.272606
0.274308 0.274308 0.274308
0.274804 0.274804 0.274804
0.275683 0.275683 0.275683
0.276428 0.276428 0.276428
0.276613 0.276613 0.276613
0.278348 0.278348 0.278348
0.278467 0.278467 0.278467
0.278467 0.278467 0.278467
0.278822 0.278822 0.278822
0.278822 0.278822 0.278822
0.278822 0.278822 0.278822
0.278822 0.278822 0.278822
0.278928 0.278928 0.278928
0.279649 0.279649 0.279649
0.279957 0.279957 0.279957
0.281293 0.281293 0.281293
0.281476 0.281476 0.281476
0.281696 0.281696 0.281696
0.282314 0.282314 0.282314
0.282820 0.282820 0.282820
0.284003 0.284003 0.284003
0.285059 0.285059 0.285059
0.285493 0.285493 0.285493
0.286013 0.286013 0.286013
0.286518 0.286518 0.286518
0.287748 0.287748 0.287748
0.288848 0.288848 0.288848
0.289278 0.289278 0.289278
0.289831 0.289831 0.289831
0.290695 0.290695 0.290695
0.292213 0.292213 0.292213
0.292709 0.292709 0.292709
0.293588 0.293588 0.293588
0.294034 0.294034 0.294034
0.294780 0.294780 0.294780
0.296397 0.296397 0.296397
0.296730 0.296730 0.296730
0.297568 0.297568 0.297568
0.298425 0.298425 0.298425
0.298452 0.298452 0.298452
0.299870 0.299870 0.299870
0.299870 0.299870 0.299870
0.299870 0.299870 0.299870
0.299870 0.299870 0.299870
0.299977 0.299977 0.299977
0.300697 0.300697 0.300697
0.300834 0.300834 0.300834
0.301459 0.301459 0.301459
0.301903 0.301903 0.301903
0.302907 0.302907 0.302907
0.303533 0.303533 0.303533
0.303868 0.303868 0.303868
0.304661 0.304661 0.304661
0.305100 0.305100 0.305100
0.305988 0.305988 0.305988
0.307062 0.307062 0.307062
0.307566 0.307566 0.307566
0.308313 0.308313 0.308313
0.309234 0.309234 0.309234
0.310209 0.310209 0.310209
0.310924 0.310924 0.310924
0.311744 0.311744 0.311744
0.312636 0.312636 0.312636
0.313811 0.313811 0.313811
0.314722 0.314722 0.314722
0.315083 0.315083 0.315083
0.315723 0.315723 0.315723
0.316771 0.316771 0.316771
0.318503 0.318503 0.318503
0.318673 0.318673 0.318673
0.319474 0.319474 0.319474
0.319501 0.319501 0.319501
0.322809 0.322809 0.322809
0.322809 0.322809 0.322809
0.322809 0.322809 0.322809
0.322809 0.322809 0.322809
0.322809 0.322809 0.322809
0.322809 0.322809 0.322809
0.322809 0.322809 0.322809
0.322809 0.322809 0.322809
0.323037 0.323037 0.323037
0.324343 0.324343 0.324343
0.326109 0.326109 0.326109
0.326472 0.326472 0.326472
0.326472 0.326472 0.326472
0.326472 0.326472 0.326472
0.327070 0.327070 0.327070
0.329046 0.329046 0.329046
0.330379 0.330379 0.330379
0.330379 0.330379 0.330379
0.330571 0.330571 0.330571
0.331743 0.331743 0.331743
0.333458 0.333458 0.333458
0.334042 0.334042 0.334042
0.334042 0.334042 0.334042
0.335258 0.335258 0.335258
0.337437 0.337437 0.337437
0.337950 0.337950 0.337950
0.337950 0.337950 0.337950
0.338046 0.338046 0.338046
0.340301 0.340301 0.340301
0.341543 0.341543 0.341543
0.341613 0.341613 0.341613
0.341613 0.341613 0.341613
0.345748 0.345748 0.345748
0.345748 0.345748 0.345748
0.345748 0.345748 0.345748
0.345748 0.345748 0.345748
0.345748 0.345748 0.345748
0.345748 0.345748 0.345748
0.345748 0.345748 0.345748
0.345908 0.345908 0.345908
0.346530 0.346530 0.346530
0.347438 0.347438 0.347438
0.349275 0.349275 0.349275
0.349553 0.349553 0.349553
0.349553 0.349553 0.349553
0.349731 0.349731 0.349731
0.350491 0.350491 0.350491
0.352180 0.352180 0.352180
0.353318 0.353318 0.353318
0.353318 0.353318 0.353318
0.353895 0.353895 0.353895
0.355470 0.355470 0.355470
0.356796 0.356796 0.356796
0.357123 0.357123 0.357123
0.357324 0.357324 0.357324
0.359078 0.359078 0.359078
0.360611 0.360611 0.360611
0.360889 0.360889 0.360889
0.360889 0.360889 0.360889
0.361877 0.361877 0.361877
0.363695 0.363695 0.363695
0.364641 0.364641 0.364641
0.364693 0.364693 0.364693
0.365544 0.365544 0.365544
0.368837 0.368837 0.368837
0.369735 0.369735 0.369735
0.369735 0.369735 0.369735
0.369735 0.369735 0.369735
0.369735 0.369735 0.369735
0.369735 0.369735 0.369735
0.369996 0.369996 0.369996
0.371189 0.371189 0.371189
0.371603 0.371603 0.371603
0.371991 0.371991 0.371991
0.372788 0.372788 0.372788
0.373299 0.373299 0.373299
0.373840 0.373840 0.373840
0.374760 0.374760 0.374760
0.375614 0.375614 0.375614
0.376429 0.376429 0.376429
0.377088 0.377088 0.377088
0.378126 0.378126 0.378126
0.379186 0.379186 0.379186
0.379985 0.379985 0.379985
0.380797 0.380797 0.380797
0.381367 0.381367 0.381367
0.382389 0.382389 0.382389
0.383771 0.383771 0.383771
0.384706 0.384706 0.384706
0.385117 0.385117 0.385117
0.386179 0.386179 0.386179
0.387031 0.387031 0.387031
0.388487 0.388487 0.388487
0.388773 0.388773 0.388773
0.390086 0.390086 0.390086
0.390697 0.390697 0.390697
0.395337 0.395337 0.395337
0.395882 0.395882 0.395882
0.396644 0.396644 0.396644
0.396644 0.396644 0.396644
0.396644 0.396644 0.396644
0.396644 0.396644 0.396644
0.396795 0.396795 0.396795
0.397780 0.397780 0.397780
0.399000 0.399000 0.399000
0.399000 0.399000 0.399000
0.399315 0.399315 0.399315
0.400094 0.400094 0.400094
0.400508 0.400508 0.400508
0.401699 0.401699 0.401699
0.402907 0.402907 0.402907
0.403185 0.403185 0.403185
0.403860 0.403860 0.403860
0.405035 0.405035 0.405035
0.406260 0.406260 0.406260
0.406850 0.406850 0.406850
0.407556 0.407556 0.407556
0.408480 0.408480 0.408480
0.409981 0.409981 0.409981
0.411126 0.411126 0.411126
0.411687 0.411687 0.411687
0.412179 0.412179 0.412179
0.414044 0.414044 0.414044
0.415070 0.415070 0.415070
0.415563 0.415563 0.415563
0.415686 0.415686 0.415686
0.417971 0.417971 0.417971
0.418835 0.418835 0.418835
0.425310 0.425310 0.425310
0.425323 0.425323 0.425323
0.425747 0.425747 0.425747
0.426382 0.426382 0.426382
0.426766 0.426766 0.426766
0.428351 0.428351 0.428351
0.428351 0.428351 0.428351
0.428529 0.428529 0.428529
0.429139 0.429139 0.429139
0.429139 0.429139 0.429139
0.429454 0.429454 0.429454
0.430789 0.430789 0.430789
0.432014 0.432014 0.432014
0.432377 0.432377 0.432377
0.432880 0.432880 0.432880
0.433757 0.433757 0.433757
0.435326 0.435326 0.435326
0.436094 0.436094 0.436094
0.436703 0.436703 0.436703
0.437846 0.437846 0.437846
0.439148 0.439148 0.439148
0.440022 0.440022 0.440022
0.440974 0.440974 0.440974
0.442920 0.442920 0.442920
0.443491 0.443491 0.443491
0.444285 0.444285 0.444285
0.445209 0.445209 0.445209
0.446990 0.446990 0.446990
0.447382 0.447382 0.447382
0.448017 0.448017 0.448017
0.450584 0.450584 0.450584
0.451061 0.451061 0.451061
0.459703 0.459703 0.459703
0.459703 0.459703 0.459703
0.459721 0.459721 0.459721
0.459993 0.459993 0.459993
0.460158 0.460158 0.460158
0.460837 0.460837 0.460837
0.461106 0.461106 0.461106
0.462498 0.462498 0.462498
0.463437 0.463437 0.463437
0.463437 0.463437 0.463437
0.463528 0.463528 0.463528
0.463997 0.463997 0.463997
0.465574 0.465574 0.465574
0.467273 0.467273 0.467273
0.467273 0.467273 0.467273
0.467616 0.467616 0.467616
0.469007 0.469007 0.469007
0.470538 0.470538 0.470538
0.471291 0.471291 0.471291
0.472543 0.472543 0.472543
0.474262 0.474262 0.474262
0.475057 0.475057 0.475057
0.476170 0.476170 0.476170
0.478192 0.478192 0.478192
0.478885 0.478885 0.478885
0.479909 0.479909 0.479909
0.481513 0.481513 0.481513
0.483086 0.483086 0.483086
0.483501 0.483501 0.483501
0.485411 0.485411 0.485411
0.486967 0.486967 0.486967
0.487014 0.487014 0.487014
0.499011 0.499011 0.499011
0.499076 0.499076 0.499076
0.501016 0.501016 0.501016
0.501186 0.501186 0.501186
0.501186 0.501186 0.501186
0.501273 0.501273 0.501273
0.501862 0.501862 0.501862
0.502514 0.502514 0.502514
0.503230 0.503230 0.503230
0.504463 0.504463 0.504463
0.505082 0.505082 0.505082
0.505573 0.505573 0.505573
0.506455 0.506455 0.506455
0.508382 0.508382 0.508382
0.509282 0.509282 0.509282
0.509480 0.509480 0.509480
0.510989 0.510989 0.510989
0.512809 0.512809 0.512809
0.513427 0.513427 0.513427
0.515457 0.515457 0.515457
0.516894 0.516894 0.516894
0.517953 0.517953 0.517953
0.519852 0.519852 0.519852
0.521634 0.521634 0.521634
0.523356 0.523356 0.523356
0.524577 0.524577 0.524577
0.527078 0.527078 0.527078
0.528425 0.528425 0.528425
0.528780 0.528780 0.528780
0.531258 0.531258 0.531258
0.532197 0.532197 0.532197
0.534397 0.534397 0.534397
0.553964 0.553964 0.553964
0.553984 0.553984 0.553984
0.554574 0.554574 0.554574
0.554626 0.554626 0.554626
0.554626 0.554626 0.554626
0.554653 0.554653 0.554653
0.554802 0.554802 0.554802
0.555530 0.555530 0.555530
0.557985 0.557985 0.557985
0.558361 0.558361 0.558361
0.559159 0.559159 0.559159
0.560992 0.560992 0.560992
0.561873 0.561873 0.561873
0.563064 0.563064 0.563064
0.564863 0.564863 0.564863
0.565442 0.565442 0.565442
0.567373 0.567373 0.567373
0.569244 0.569244 0.569244
0.571004 0.571004 0.571004
0.572713 0.572713 0.572713
0.573988 0.573988 0.573988
0.575810 0.575810 0.575810
0.578788 0.578788 0.578788
0.580000 0.580000 0.580000
0.582812 0.582812 0.582812
0.583785 0.583785 0.583785
0.586920 0.586920 0.586920
0.587706 0.587706 0.587706
0.590346 0.590346 0.590346
0.591193 0.591193 0.591193
0.593588 0.593588 0.593588
0.595084 0.595084 0.595084
0.620796 0.620796 0.620796
0.620796 0.620796 0.620796
0.620835 0.620835 0.620835
0.621387 0.621387 0.621387
0.621387 0.621387 0.621387
0.621387 0.621387 0.621387
0.621768 0.621768 0.621768
0.623661 0.623661 0.623661
0.624704 0.624704 0.624704
0.624875 0.624875 0.624875
0.625955 0.625955 0.625955
0.627723 0.627723 0.627723
0.628414 0.628414 0.628414
0.629438 0.629438 0.629438
0.631496 0.631496 0.631496
0.632274 0.632274 0.632274
0.634189 0.634189 0.634189
0.635984 0.635984 0.635984
0.637196 0.637196 0.637196
0.639158 0.639158 0.639158
0.640596 0.640596 0.640596
0.642734 0.642734 0.642734
0.644057 0.644057 0.644057
0.646163 0.646163 0.646163
0.647866 0.647866 0.647866
0.650235 0.650235 0.650235
0.651365 0.651365 0.651365
0.652173 0.652173 0.652173
0.654872 0.654872 0.654872
0.655703 0.655703 0.655703
0.658577 0.658577 0.658577
0.658860 0.658860 0.658860
0.683264 0.683264 0.683264
0.683264 0.683264 0.683264
0.683272 0.683272 0.683272
0.683383 0.683383 0.683383
0.683383 0.683383 0.683383
0.683383 0.683383 0.683383
0.683974 0.683974 0.683974
0.686466 0.686466 0.686466
0.686663 0.686663 0.686663
0.687001 0.687001 0.687001
0.687187 0.687187 0.687187
0.688037 0.688037 0.688037
0.689593 0.689593 0.689593
0.690557 0.690557 0.690557
0.691223 0.691223 0.691223
0.692753 0.692753 0.692753
0.694432 0.694432 0.694432
0.694831 0.694831 0.694831
0.695797 0.695797 0.695797
0.697649 0.697649 0.697649
0.698522 0.698522 0.698522
0.699843 0.699843 0.699843
0.701608 0.701608 0.701608
0.702463 0.702463 0.702463
0.703638 0.703638 0.703638
0.706007 0.706007 0.706007
0.706503 0.706503 0.706503
0.706818 0.706818 0.706818
0.709846 0.709846 0.709846
0.710276 0.710276 0.710276
0.710940 0.710940 0.710940
0.713419 0.713419 0.713419
0.733633 0.733633 0.733633
0.733633 0.733633 0.733633
0.733660 0.733660 0.733660
0.734058 0.734058 0.734058
0.734058 0.734058 0.734058
0.734058 0.734058 0.734058
0.734137 0.734137 0.734137
0.734468 0.734468 0.734468
0.735252 0.735252 0.735252
0.737508 0.737508 0.737508
0.737508 0.737508 0.737508
0.737598 0.737598 0.737598
0.737986 0.737986 0.737986
0.738370 0.738370 0.738370
0.739669 0.739669 0.739669
0.741401 0.741401 0.741401
0.741613 0.741613 0.741613
0.741746 0.741746 0.741746
