gsg/05_BW/GSG_LUT_BW_Old_Timey.cube
# GSG LUTs 1.0
# Copyright (c) 2016-2020 Greyscalegorilla
# See EULA for licensing and distribution information
# Converted by Briz LUT Converter
LUT_3D_SIZE 32
0.000000 0.000000 0.000000
0.004498 0.004498 0.004498
0.012541 0.012541 0.012541
0.023884 0.023884 0.023884
0.039813 0.039781 0.039718
0.059412 0.059207 0.058474
0.079838 0.079200 0.078223
0.101193 0.100351 0.099074
0.124329 0.122864 0.120966
0.148529 0.146575 0.143432
0.174060 0.171295 0.166907
0.200701 0.197022 0.190728
0.228776 0.223514 0.214983
0.257915 0.251014 0.239797
0.288156 0.279168 0.264611
0.319406 0.308315 0.289543
0.351538 0.337721 0.314609
0.384308 0.367632 0.339675
0.417315 0.397763 0.364599
0.450321 0.427689 0.389413
0.483012 0.457316 0.413825
0.514940 0.486352 0.437977
0.546032 0.514814 0.462043
0.576194 0.542321 0.485620
0.604726 0.568994 0.508764
0.632124 0.594415 0.531403
0.658065 0.619071 0.553783
0.682737 0.642475 0.575659
0.706361 0.665335 0.597495
0.728733 0.687219 0.618859
0.749852 0.708338 0.639718
0.769963 0.728449 0.660562
0.016456 0.016448 0.016432
0.022986 0.022971 0.022948
0.032841 0.032825 0.032795
0.047066 0.046830 0.046577
0.063298 0.062949 0.062664
0.080799 0.080142 0.079164
0.099104 0.098126 0.097042
0.119272 0.117988 0.116154
0.140516 0.138804 0.136159
0.163344 0.160999 0.157349
0.187790 0.184532 0.179311
0.213431 0.209012 0.201809
0.240747 0.234836 0.225213
0.268984 0.261576 0.248881
0.298720 0.289224 0.273181
0.329462 0.317622 0.297491
0.360975 0.346288 0.321805
0.392973 0.375682 0.346347
0.425460 0.405065 0.370660
0.457957 0.434582 0.394969
0.490047 0.463697 0.419126
0.521226 0.492066 0.442774
0.551816 0.520165 0.466511
0.581285 0.547097 0.489716
0.609248 0.573081 0.512354
0.636142 0.598182 0.534728
0.661783 0.622340 0.556808
0.685966 0.645492 0.578636
0.709308 0.668085 0.600001
0.731215 0.689701 0.621112
0.752089 0.710339 0.641955
0.771948 0.730442 0.662791
0.042680 0.042436 0.041932
0.051825 0.051588 0.051305
0.061859 0.061615 0.061309
0.075501 0.074812 0.074248
0.088944 0.088607 0.087583
0.104045 0.103244 0.101761
0.120695 0.119284 0.117435
0.138947 0.137170 0.134406
0.158616 0.156394 0.152987
0.180094 0.176910 0.172243
0.203248 0.199323 0.192866
0.228038 0.222863 0.214552
0.254106 0.247581 0.236555
0.281824 0.273553 0.259453
0.310891 0.300295 0.282744
0.340762 0.328024 0.306385
0.371499 0.356170 0.329938
0.402867 0.384559 0.353743
0.434596 0.413350 0.377548
0.466482 0.442347 0.401487
0.497914 0.470808 0.425142
0.528573 0.498744 0.448527
0.558238 0.526012 0.471591
0.586939 0.552424 0.494301
0.614321 0.577844 0.516617
0.640514 0.602300 0.538680
0.665603 0.626145 0.560353
0.689503 0.649000 0.581892
0.712371 0.671125 0.603003
0.733988 0.692474 0.623870
0.754595 0.712852 0.644697
0.774209 0.732695 0.665052
0.080523 0.079767 0.078790
0.088643 0.087697 0.086650
0.097669 0.097324 0.096056
0.110833 0.109809 0.108294
0.124056 0.122753 0.120892
0.135941 0.134409 0.132042
0.150067 0.148066 0.144788
0.165568 0.163055 0.159181
0.183187 0.180247 0.175306
0.203066 0.199191 0.192714
0.224791 0.219773 0.211525
0.248139 0.241797 0.231477
0.273172 0.265383 0.252343
0.299819 0.290187 0.273943
0.327659 0.315903 0.296075
0.356600 0.342274 0.318465
0.386435 0.369628 0.341246
0.416674 0.397230 0.364161
0.447491 0.425115 0.387207
0.478485 0.453120 0.410494
0.509000 0.481036 0.433613
0.538635 0.507952 0.456245
0.567419 0.534278 0.478554
0.595035 0.559674 0.500664
0.621466 0.584489 0.522452
0.647033 0.608323 0.544020
0.671397 0.631462 0.565383
0.694564 0.653814 0.586454
0.716882 0.675434 0.607305
0.738014 0.696294 0.627880
0.758139 0.716595 0.648241
0.777455 0.735964 0.668345
0.121084 0.119800 0.117964
0.127998 0.126446 0.124185
0.135692 0.134347 0.131809
0.146861 0.145057 0.142229
0.161298 0.159218 0.155421
0.175246 0.172486 0.167894
0.186133 0.183036 0.177893
0.199381 0.195568 0.189580
0.214683 0.210280 0.203009
0.232391 0.227017 0.218281
0.252270 0.245803 0.235042
0.274241 0.266285 0.253198
0.297841 0.288302 0.272361
0.323009 0.311573 0.292444
0.349539 0.335919 0.313050
0.377204 0.361118 0.334192
0.405750 0.387182 0.355910
0.434848 0.413540 0.377792
0.464309 0.440398 0.399738
0.494112 0.467384 0.422238
0.523411 0.494044 0.444519
0.551611 0.519920 0.466377
0.578961 0.544962 0.487905
0.605278 0.569349 0.509094
0.630659 0.593155 0.530291
0.655187 0.616194 0.551150
0.678577 0.638541 0.571961
0.701134 0.660168 0.592528
0.722718 0.681227 0.612872
0.743308 0.701566 0.632959
0.762884 0.721163 0.653023
0.781512 0.740242 0.672843
0.163457 0.160896 0.157241
0.169088 0.166688 0.162581
0.175788 0.172967 0.168527
0.185372 0.182115 0.176951
0.197587 0.193948 0.187854
0.212716 0.208400 0.201208
0.227183 0.222048 0.213784
0.238250 0.232540 0.223268
0.251611 0.245041 0.234280
0.267274 0.259853 0.247522
0.285327 0.276669 0.262384
0.305600 0.295376 0.278471
0.327363 0.315634 0.295790
0.351056 0.337349 0.314213
0.375867 0.360050 0.333323
0.401994 0.383868 0.353126
0.429024 0.408416 0.373393
0.456690 0.433396 0.394139
0.484841 0.458947 0.415267
0.513048 0.484627 0.436567
0.540862 0.510052 0.458031
0.567397 0.534244 0.478677
0.592988 0.557946 0.499129
0.617957 0.581041 0.519456
0.642012 0.603601 0.539753
0.665319 0.625617 0.560022
0.687666 0.647169 0.580053
0.709249 0.667977 0.599903
0.729824 0.688310 0.619713
0.749621 0.707913 0.639524
0.768468 0.726954 0.659050
0.786758 0.745528 0.678412
0.207476 0.203379 0.196652
0.212587 0.208193 0.201016
0.218065 0.213420 0.205744
0.225797 0.220874 0.212639
0.236445 0.230845 0.221785
0.249589 0.243201 0.232692
0.265245 0.257880 0.245797
0.280593 0.272348 0.258396
0.292674 0.283438 0.268163
0.306731 0.296467 0.279406
0.323054 0.311561 0.292348
0.341216 0.328345 0.306635
0.361466 0.346885 0.322260
0.383335 0.366796 0.338942
0.406574 0.387913 0.356584
0.430888 0.410085 0.374746
0.456252 0.432919 0.393831
0.482246 0.456676 0.413313
0.508764 0.480657 0.433318
0.535221 0.504885 0.453569
0.560986 0.528451 0.473585
0.585347 0.550797 0.492914
0.609163 0.572953 0.512173
0.632290 0.594715 0.531628
0.655019 0.615973 0.551087
0.676852 0.636774 0.570428
0.698090 0.657308 0.589696
0.718585 0.677102 0.608955
0.738194 0.696637 0.628064
0.757181 0.715470 0.647323
0.775274 0.733806 0.666147
0.792800 0.751822 0.684958
0.253346 0.246666 0.235858
0.257511 0.250770 0.239466
0.262457 0.255285 0.243472
0.269340 0.261727 0.249113
0.278383 0.270182 0.256617
0.289951 0.280836 0.265948
0.303701 0.293670 0.277083
0.319625 0.308427 0.289688
0.336302 0.323761 0.302669
0.349474 0.335948 0.312970
0.363949 0.349126 0.324182
0.380693 0.364351 0.336985
0.399170 0.381256 0.350968
0.419246 0.399425 0.366057
0.440715 0.418911 0.382093
0.463302 0.439397 0.399015
0.486681 0.460596 0.416643
0.510805 0.482613 0.435001
0.535499 0.505107 0.453857
0.559734 0.527284 0.472649
0.582961 0.548588 0.491126
0.605217 0.569274 0.509112
0.627075 0.589571 0.527118
0.648522 0.609891 0.545509
0.669491 0.629888 0.563808
0.689971 0.649473 0.582266
0.709946 0.668716 0.600766
0.729228 0.687666 0.619150
0.747786 0.706198 0.637646
0.765804 0.724278 0.656146
0.783081 0.741811 0.674451
0.799606 0.759069 0.692757
0.301233 0.291449 0.275064
0.304896 0.294921 0.277984
0.309106 0.298696 0.281425
0.315294 0.304346 0.286141
0.323431 0.311930 0.292733
0.333463 0.321221 0.300655
0.345676 0.332379 0.310126
0.360088 0.345743 0.321219
0.376516 0.360636 0.333907
0.394046 0.376577 0.347000
0.407876 0.389188 0.357465
0.423011 0.402892 0.368876
0.439724 0.417998 0.381409
0.457949 0.434595 0.395066
0.477640 0.452419 0.409795
0.498235 0.471191 0.425438
0.519782 0.490729 0.441811
0.541840 0.510952 0.458788
0.564142 0.531307 0.476152
0.585649 0.551248 0.493269
0.606355 0.570261 0.509935
0.626425 0.589110 0.526658
0.646345 0.607778 0.543532
0.665959 0.626445 0.560755
0.685413 0.644923 0.577997
0.704380 0.663339 0.595448
0.722843 0.681368 0.613173
0.740864 0.699287 0.630730
0.758376 0.716787 0.648468
0.775332 0.733877 0.666206
0.791660 0.750626 0.683832
0.807421 0.767127 0.701564
0.351065 0.337311 0.314270
0.354293 0.340218 0.316680
0.358163 0.343672 0.319627
0.363614 0.348789 0.323817
0.370623 0.355279 0.329283
0.379783 0.363508 0.336197
0.390724 0.373597 0.344610
0.403623 0.385253 0.354248
0.418294 0.398690 0.365392
0.434861 0.413618 0.377789
0.452433 0.429629 0.390976
0.467191 0.443033 0.401951
0.482319 0.456737 0.413408
0.498887 0.471710 0.425832
0.516507 0.487809 0.439276
0.535273 0.504911 0.453640
0.554603 0.522542 0.468610
0.574022 0.540416 0.483911
0.593512 0.558370 0.499504
0.612363 0.575977 0.514924
0.630599 0.593014 0.530185
0.648429 0.609790 0.545401
0.666503 0.626943 0.561182
0.684449 0.644077 0.577150
0.702139 0.661248 0.593438
0.719693 0.678213 0.609918
0.736708 0.695135 0.626614
0.753415 0.711892 0.643494
0.769827 0.728377 0.660316
0.785609 0.744406 0.677290
0.800932 0.760387 0.694327
0.815928 0.775950 0.711135
0.402088 0.383796 0.353153
0.404986 0.386611 0.355311
0.408324 0.389620 0.357898
0.413195 0.393919 0.361511
0.419573 0.399785 0.366227
0.427747 0.407041 0.372424
0.437583 0.416086 0.379842
0.449096 0.426506 0.388473
0.462333 0.438623 0.398420
0.477287 0.452072 0.409564
0.493651 0.467090 0.421907
0.511038 0.482876 0.435158
0.526009 0.496476 0.446557
0.540696 0.509903 0.457896
0.556390 0.524250 0.470030
0.572527 0.538937 0.482810
0.589047 0.554331 0.496015
0.605849 0.569932 0.509638
0.622739 0.585658 0.523614
0.639212 0.601039 0.537436
0.655083 0.616134 0.551172
0.671082 0.631277 0.565239
0.687335 0.646838 0.579840
0.703519 0.662477 0.594739
0.719654 0.678178 0.609967
0.735546 0.693835 0.625444
0.751233 0.709540 0.641164
0.766728 0.725193 0.657108
0.781732 0.740517 0.673150
0.796626 0.755752 0.689367
0.810952 0.770727 0.705584
0.824861 0.785458 0.721880
0.453945 0.430856 0.392107
0.456431 0.433334 0.394005
0.459437 0.435860 0.396266
0.463791 0.439931 0.399449
0.469499 0.444989 0.403735
0.476633 0.451599 0.409083
0.485397 0.459497 0.415612
0.495719 0.468908 0.423518
0.507512 0.479587 0.432456
0.520829 0.491753 0.442592
0.535565 0.505174 0.453893
0.551265 0.519573 0.466101
0.567738 0.534604 0.478902
0.581770 0.547539 0.490042
0.594943 0.559613 0.500627
0.608563 0.572408 0.511818
0.622726 0.585700 0.523584
0.637220 0.599243 0.535783
0.651706 0.612787 0.548176
0.665716 0.626234 0.560473
0.679608 0.639472 0.572862
0.693900 0.653161 0.585718
0.708278 0.667150 0.599222
0.722814 0.681341 0.613006
0.737315 0.695679 0.627181
0.751816 0.710144 0.641751
0.766149 0.724621 0.656536
0.780278 0.739008 0.671496
0.794265 0.753453 0.686762
0.807907 0.767685 0.702136
0.821232 0.781748 0.717668
0.834212 0.795715 0.733129
0.505463 0.477656 0.430816
0.507697 0.479740 0.432557
0.510357 0.482155 0.434568
0.514183 0.485588 0.437481
0.519221 0.490255 0.441412
0.525590 0.496129 0.446131
0.533331 0.503205 0.452204
0.542379 0.511360 0.459172
0.552671 0.520800 0.467217
0.564087 0.531293 0.476100
0.576512 0.542820 0.485961
0.589911 0.555173 0.496676
0.604044 0.568126 0.508118
0.618701 0.581858 0.520146
0.631397 0.593821 0.530896
0.643039 0.604769 0.540763
0.655107 0.616020 0.551119
0.667456 0.627790 0.561927
0.679602 0.639411 0.572808
0.691722 0.651032 0.583804
0.703748 0.662811 0.594935
0.716214 0.674928 0.606750
0.729044 0.687530 0.619087
0.742110 0.700391 0.631976
0.755083 0.713535 0.645159
0.768162 0.726666 0.658658
0.781290 0.740075 0.672590
0.794250 0.753307 0.686766
0.806981 0.766744 0.701052
0.819603 0.779966 0.715639
0.831922 0.793173 0.730185
0.843893 0.806231 0.744976
0.555477 0.523400 0.469321
0.557604 0.525275 0.470952
0.559746 0.527283 0.472701
0.562929 0.530212 0.475143
0.567122 0.534126 0.478546
0.572571 0.539092 0.482823
0.579014 0.545039 0.487916
0.586664 0.552051 0.494018
0.595160 0.560014 0.500883
0.604706 0.568888 0.508687
0.615241 0.578578 0.517284
0.626474 0.589104 0.526675
0.638402 0.600441 0.536878
0.651051 0.612242 0.547627
0.664085 0.624587 0.558944
0.675603 0.635667 0.569205
0.685837 0.645408 0.578426
0.696141 0.655385 0.587969
0.706514 0.665386 0.597456
0.716626 0.675253 0.607114
0.727230 0.685766 0.617324
0.738156 0.696642 0.628067
0.749504 0.707848 0.639401
0.761060 0.719509 0.651285
0.772736 0.731434 0.663563
0.784663 0.743468 0.676206
0.796504 0.755650 0.689149
0.808229 0.767865 0.702317
0.819932 0.780206 0.715974
0.831399 0.792507 0.729661
0.842750 0.804947 0.743451
0.853819 0.817149 0.757486
0.601536 0.565820 0.506109
0.603033 0.567313 0.507354
0.605027 0.569200 0.508985
0.607686 0.571602 0.511014
0.611225 0.575006 0.514057
0.615674 0.579076 0.517705
0.621004 0.584019 0.522147
0.627286 0.589939 0.527329
0.634514 0.596647 0.533431
0.642474 0.604143 0.540336
0.651337 0.612478 0.547804
0.660853 0.621411 0.556099
0.670917 0.631093 0.565060
0.681595 0.641326 0.574668
0.692838 0.652080 0.584728
0.704285 0.663218 0.595427
0.714561 0.673246 0.605191
0.723213 0.681760 0.613457
0.731812 0.690234 0.621812
0.740521 0.698845 0.630344
0.749679 0.708007 0.639655
0.759345 0.717787 0.649522
0.769389 0.727875 0.659893
0.779686 0.738282 0.670796
0.790107 0.749137 0.682172
0.800712 0.760083 0.693944
0.811363 0.771273 0.706079
0.822062 0.782559 0.718489
0.832639 0.793898 0.731154
0.843097 0.805324 0.744047
0.853546 0.816740 0.757213
0.863854 0.828178 0.770389
0.643034 0.604711 0.540880
0.644405 0.605952 0.541877
0.645910 0.607460 0.543251
0.648175 0.609477 0.545145
0.651078 0.612250 0.547670
0.654764 0.615786 0.550834
0.659279 0.619954 0.554752
0.664458 0.625003 0.559400
0.670511 0.630777 0.564678
0.677149 0.637126 0.570649
0.684605 0.644202 0.577346
0.692563 0.651947 0.584636
0.701179 0.660234 0.592676
0.710272 0.669151 0.601077
0.719770 0.678382 0.610132
0.729643 0.688129 0.619634
0.739637 0.697944 0.629503
0.748405 0.706772 0.638270
0.755597 0.713957 0.645650
0.763195 0.721555 0.653496
0.771255 0.729738 0.661801
0.779659 0.738349 0.670903
0.788478 0.747374 0.680384
0.797596 0.756870 0.690495
0.806975 0.766647 0.700984
0.816416 0.776556 0.711859
0.825983 0.786738 0.723132
0.835542 0.797148 0.734782
0.845228 0.807577 0.746673
0.854913 0.818118 0.758714
0.864358 0.828796 0.771117
0.873670 0.839348 0.783654
0.680499 0.640317 0.573634
0.681614 0.641313 0.574627
0.682871 0.642569 0.575879
0.684643 0.644330 0.577510
0.687258 0.646713 0.579755
0.690184 0.649619 0.582429
0.693945 0.653258 0.585844
0.698337 0.657521 0.589959
0.703383 0.662350 0.594635
0.709029 0.667788 0.599822
0.715214 0.673984 0.605764
0.721992 0.680555 0.612252
0.729226 0.687635 0.619282
0.737009 0.695319 0.626870
0.745116 0.703411 0.634982
0.753472 0.711840 0.643525
0.761901 0.720326 0.652137
0.770138 0.728694 0.660825
0.777853 0.736465 0.668971
0.784483 0.743290 0.676097
0.791495 0.750509 0.683769
0.798968 0.758275 0.691987
0.806698 0.766376 0.700715
0.814842 0.774864 0.709978
0.823120 0.783730 0.719682
0.831526 0.792682 0.729821
0.840203 0.802076 0.740336
0.848880 0.811588 0.751192
0.857557 0.821245 0.762220
0.866360 0.830919 0.773626
0.875037 0.840718 0.785395
0.883595 0.850518 0.797180
0.714199 0.673040 0.604884
0.715192 0.673898 0.605743
0.716200 0.674906 0.606744
0.717823 0.676419 0.608263
0.719839 0.678529 0.610263
0.722449 0.680933 0.612667
0.725472 0.683979 0.615692
0.729136 0.687707 0.619301
0.733499 0.691851 0.623475
0.738178 0.696531 0.628154
0.743444 0.701930 0.633401
0.749300 0.707661 0.639214
0.755488 0.713864 0.645621
0.762164 0.720642 0.652400
0.769194 0.727570 0.659706
0.776366 0.734917 0.667240
0.783469 0.742215 0.674908
0.790576 0.749574 0.682650
0.797606 0.756934 0.690567
0.804348 0.763959 0.698088
0.810627 0.770397 0.705227
0.817058 0.777368 0.712698
0.824041 0.784710 0.720879
0.831213 0.792346 0.729264
0.838574 0.800337 0.738272
0.846133 0.808502 0.747736
0.853801 0.817005 0.757389
0.861682 0.825666 0.767616
0.869503 0.834561 0.777904
0.877428 0.843491 0.788664
0.885467 0.852641 0.799559
0.893387 0.861798 0.810831
0.745646 0.703888 0.635511
0.746390 0.704735 0.636260
0.747245 0.705635 0.637252
0.748515 0.706863 0.638395
0.750265 0.708614 0.640149
0.752413 0.710860 0.642421
0.755130 0.713486 0.645138
0.758186 0.716617 0.648415
0.761766 0.720252 0.652054
0.765804 0.724391 0.656198
0.770406 0.728892 0.660974
0.775259 0.733845 0.666241
0.780637 0.739305 0.671897
0.786285 0.745216 0.678057
0.792263 0.751444 0.684658
0.798427 0.757685 0.691386
0.804537 0.764092 0.698245
0.810510 0.770398 0.705157
0.816613 0.776746 0.712069
0.822592 0.783158 0.719122
0.828496 0.789468 0.726146
0.834226 0.795649 0.732985
0.840287 0.802160 0.740456
0.846632 0.809143 0.748326
0.853189 0.816299 0.756690
0.859963 0.823794 0.765312
0.866871 0.831565 0.774405
0.873922 0.839453 0.783812
0.881065 0.847637 0.793564
0.888221 0.855885 0.803688
0.895518 0.864319 0.813959
0.902816 0.872717 0.824483
0.774438 0.733073 0.665241
0.775033 0.733669 0.665984
0.775785 0.734420 0.666738
0.776801 0.735437 0.667848
0.778384 0.737039 0.669499
0.780172 0.738832 0.671472
0.782423 0.741163 0.673772
0.785052 0.743944 0.676634
0.788050 0.747041 0.679980
0.791551 0.750569 0.683769
0.795296 0.754570 0.687943
0.799512 0.758872 0.692690
0.804109 0.763685 0.697748
0.808957 0.768782 0.703305
0.814175 0.774197 0.709216
0.819598 0.779920 0.715680
0.824830 0.785600 0.721810
0.829939 0.791004 0.727863
0.835094 0.796558 0.734011
0.840154 0.802019 0.740250
0.845248 0.807576 0.746552
0.850220 0.813031 0.752948
0.855481 0.818957 0.759735
0.861215 0.825216 0.766986
0.867094 0.831762 0.774713
0.873147 0.838581 0.782730
0.879295 0.845627 0.791232
0.885592 0.852897 0.799976
0.892119 0.860436 0.809089
0.898665 0.868063 0.818599
0.905302 0.875844 0.828214
0.911852 0.883635 0.838135
0.800867 0.760243 0.694120
0.801449 0.760744 0.694708
0.802043 0.761495 0.695459
0.802962 0.762488 0.696460
0.804065 0.763756 0.697826
0.805680 0.765371 0.699579
0.807665 0.767373 0.701825
0.809792 0.769727 0.704234
0.812423 0.772358 0.707234
0.815314 0.775448 0.710616
0.818571 0.778838 0.714475
0.822135 0.782701 0.718618
0.826090 0.786792 0.723205
0.830183 0.791198 0.728108
0.834597 0.796037 0.733514
0.839240 0.801079 0.739226
0.844163 0.806381 0.745223
0.848549 0.811170 0.750806
0.852908 0.815982 0.756197
0.857157 0.820757 0.761745
0.861460 0.825562 0.767324
0.865764 0.830261 0.772929
0.869972 0.835122 0.778676
0.874908 0.840600 0.785050
0.880047 0.846623 0.792268
0.885540 0.852667 0.799764
0.891088 0.859175 0.807744
0.896861 0.865926 0.815983
0.902674 0.872717 0.824498
0.908701 0.879751 0.833340
0.914587 0.886869 0.842362
0.920627 0.894151 0.851629
0.824948 0.785805 0.721919
0.825444 0.786301 0.722583
0.825951 0.786803 0.723171
0.826704 0.787640 0.724164
0.827729 0.788664 0.725267
0.829052 0.790153 0.726934
0.830652 0.791768 0.728795
0.832591 0.793869 0.731143
0.834779 0.796145 0.733688
0.837283 0.798755 0.736767
0.839978 0.801837 0.740124
0.842984 0.805199 0.743928
0.846351 0.808752 0.748008
0.849937 0.812651 0.752406
0.853645 0.816810 0.757308
0.857694 0.821356 0.762433
0.861869 0.826027 0.767931
0.866163 0.830781 0.773635
0.869911 0.835015 0.778581
0.873662 0.839112 0.783379
0.877265 0.843164 0.788313
0.880846 0.847406 0.793296
0.884455 0.851511 0.798338
0.888010 0.855642 0.803418
0.892345 0.860680 0.809492
0.897334 0.866281 0.816504
0.902378 0.872204 0.823916
0.907432 0.878307 0.831507
0.912710 0.884737 0.839505
0.918232 0.891108 0.847764
0.923526 0.897796 0.856268
0.929064 0.904407 0.865028
0.847012 0.809610 0.748868
0.847503 0.809933 0.749364
0.847843 0.810441 0.749876
0.848508 0.811194 0.750804
0.849344 0.812186 0.751893
0.850592 0.813435 0.753236
0.851879 0.814825 0.754988
0.853480 0.816566 0.756990
0.855292 0.818685 0.759337
0.857419 0.820943 0.762083
0.859844 0.823554 0.765134
0.862407 0.826556 0.768515
0.865127 0.829678 0.772201
0.868177 0.833046 0.776201
0.871551 0.836796 0.780598
0.874886 0.840705 0.785222
0.878606 0.844749 0.790256
0.882468 0.849170 0.795423
0.886177 0.853486 0.800729
0.889299 0.857103 0.805176
0.892347 0.860648 0.809466
0.895396 0.864193 0.813778
0.898444 0.867738 0.818239
0.901493 0.871283 0.822598
0.904407 0.874883 0.827145
0.908240 0.879304 0.832756
0.912746 0.884730 0.839671
0.917468 0.890321 0.846751
0.922243 0.896254 0.854237
0.927098 0.902103 0.861999
0.932049 0.908299 0.869997
0.937083 0.914333 0.878183
0.867139 0.831904 0.774808
0.867567 0.832217 0.775304
0.867888 0.832656 0.775812
0.868464 0.833399 0.776565
0.869219 0.834227 0.777557
0.870212 0.835230 0.778833
0.871251 0.836504 0.780334
0.872559 0.838056 0.782173
0.874292 0.839852 0.784268
0.876043 0.841900 0.786766
0.878021 0.844208 0.789389
0.880279 0.846753 0.792453
0.882603 0.849391 0.795771
0.885331 0.852432 0.799491
0.888122 0.855682 0.803384
0.891031 0.859088 0.807664
0.894285 0.862871 0.812163
0.897460 0.866654 0.816944
0.900996 0.870579 0.821944
0.904282 0.874568 0.826745
0.906897 0.877679 0.830668
0.909441 0.880700 0.834393
0.911986 0.883561 0.838234
0.914332 0.886604 0.842018
0.916879 0.889647 0.845990
0.919375 0.892639 0.849793
0.922722 0.896751 0.854974
0.926811 0.901831 0.861649
0.931254 0.907267 0.868660
0.935598 0.912785 0.875899
0.940069 0.918309 0.883406
0.944598 0.924077 0.891158
0.885683 0.852928 0.799929
0.885935 0.853181 0.800425
0.886239 0.853677 0.800922
0.886689 0.854173 0.801491
0.887431 0.854921 0.802434
0.888259 0.855749 0.803521
0.889251 0.856985 0.805010
0.890342 0.858277 0.806554
0.891599 0.859821 0.808553
0.893198 0.861625 0.810650
0.894955 0.863628 0.813149
0.896751 0.865792 0.815810
0.898864 0.868274 0.818882
0.901123 0.870913 0.822167
0.903629 0.873671 0.825751
0.906167 0.876797 0.829532
0.908803 0.880082 0.833586
0.911732 0.883367 0.837961
0.914624 0.887006 0.842460
0.917691 0.890764 0.847227
0.920631 0.894139 0.851656
0.922738 0.896725 0.855008
0.924778 0.899263 0.858293
0.926819 0.901802 0.861633
0.928859 0.904340 0.864918
0.930899 0.906878 0.868239
0.932939 0.909416 0.871518
0.935776 0.912861 0.876184
0.939606 0.917775 0.882637
0.943787 0.922793 0.889618
0.947826 0.928054 0.896623
0.951853 0.933507 0.903872
0.902667 0.872638 0.824349
0.902912 0.872890 0.824601
0.903205 0.873189 0.825097
0.903470 0.873643 0.825617
0.904039 0.874385 0.826413
0.904786 0.875198 0.827603
0.905542 0.876198 0.828690
0.906545 0.877283 0.830178
0.907783 0.878735 0.831974
0.909126 0.880271 0.833973
0.910418 0.882019 0.836071
0.912151 0.883888 0.838599
0.913902 0.886119 0.841343
0.915786 0.888479 0.844303
0.917909 0.890982 0.847532
0.920147 0.893632 0.851054
0.922431 0.896435 0.854701
0.924960 0.899439 0.858474
0.927488 0.902662 0.862716
0.930243 0.905933 0.866903
0.932900 0.909361 0.871400
0.935334 0.912395 0.875489
0.937101 0.914524 0.878270
0.938638 0.916558 0.881051
0.940384 0.918744 0.883876
0.942117 0.920832 0.886650
0.943692 0.922864 0.889637
0.945433 0.925135 0.892418
0.947633 0.927837 0.896417
0.951302 0.932535 0.902596
0.955029 0.937485 0.909337
0.958801 0.942298 0.916082
0.918193 0.891134 0.847966
0.918438 0.891385 0.848218
0.918492 0.891830 0.848472
0.918989 0.892134 0.849025
0.919485 0.892657 0.849777
0.919987 0.893411 0.850737
0.920729 0.894198 0.851810
0.921557 0.895237 0.853094
0.922549 0.896491 0.854646
0.923641 0.897920 0.856387
0.924897 0.899481 0.858477
0.926313 0.901083 0.860727
0.927890 0.903068 0.863224
0.929419 0.905093 0.865832
0.931285 0.907228 0.868605
0.933171 0.909709 0.871845
0.935177 0.912211 0.875214
0.937302 0.914733 0.878709
0.939486 0.917618 0.882382
0.941762 0.920415 0.886352
0.944244 0.923433 0.890362
0.946586 0.926656 0.894537
0.948576 0.929221 0.898047
0.949913 0.930962 0.900317
0.951349 0.932584 0.902745
0.952633 0.934318 0.905022
0.953917 0.936092 0.907371
0.955227 0.937839 0.909819
0.956690 0.939580 0.912301
0.958352 0.941815 0.915373
0.961588 0.946267 0.921541
0.965095 0.950774 0.927992
0.932451 0.908575 0.870621
0.932489 0.908826 0.870865
0.932711 0.909079 0.871125
0.932992 0.909523 0.871622
0.933459 0.909859 0.872177
0.933961 0.910568 0.873108
0.934483 0.911314 0.873969
0.935231 0.912135 0.875214
0.936059 0.913191 0.876703
0.937051 0.914435 0.878200
0.938054 0.915712 0.880035
0.939292 0.917287 0.882031
0.940644 0.918946 0.884131
0.941920 0.920800 0.886626
0.943519 0.922573 0.889235
0.945157 0.924802 0.892000
0.946906 0.926945 0.894994
0.948656 0.929309 0.898121
