gsg/05_BW/GSG_LUT_BW_Old_Timey.cube
# GSG LUTs 1.0
# Copyright (c) 2016-2020 Greyscalegorilla
# See EULA for licensing and distribution information
# Converted by Briz LUT Converter
LUT_3D_SIZE 5
DOMAIN_MIN 0.000000 0.000000 0.000000
DOMAIN_MAX 0.903226 0.903226 0.903226
0.000000 0.000000 0.000000
0.101193 0.100351 0.099074
0.288156 0.279168 0.264611
0.514940 0.486352 0.437977
0.706361 0.665335 0.597495
0.253346 0.246666 0.235858
0.319625 0.308427 0.289688
0.440715 0.418911 0.382093
0.605217 0.569274 0.509112
0.747786 0.706198 0.637646
0.601536 0.565820 0.506109
0.627286 0.589939 0.527329
0.692838 0.652080 0.584728
0.759345 0.717787 0.649522
0.832639 0.793898 0.731154
0.824948 0.785805 0.721919
0.832591 0.793869 0.731143
0.853645 0.816810 0.757308
0.880846 0.847406 0.793296
0.912710 0.884737 0.839505
0.945197 0.925007 0.892268
0.947718 0.928071 0.896535
0.954768 0.937141 0.908908
0.966032 0.951908 0.929536
0.973912 0.962559 0.944738
0.014605 0.014605 0.014605
0.122033 0.120769 0.118894
0.328103 0.316263 0.296437
0.551520 0.519741 0.466158
0.721683 0.680363 0.612011
0.271094 0.263382 0.250578
0.329539 0.317575 0.297557
0.463872 0.439925 0.399455
0.625000 0.587732 0.525471
0.757949 0.716386 0.648046
0.610816 0.574501 0.513679
0.634556 0.596718 0.533593
0.695941 0.655131 0.587716
0.763721 0.722093 0.653982
0.836292 0.797890 0.735637
0.827445 0.788381 0.724922
0.834739 0.796172 0.733719
0.855236 0.818558 0.759286
0.881591 0.848210 0.794323
0.913937 0.886069 0.841270
0.945441 0.925251 0.892518
0.947962 0.928315 0.896803
0.954881 0.937388 0.909276
0.966121 0.952206 0.930025
0.974007 0.963028 0.945226
0.073709 0.073087 0.072354
0.160180 0.157932 0.154262
0.348757 0.335213 0.312487
0.567159 0.534062 0.478491
0.737091 0.695577 0.626970
0.305736 0.295746 0.278772
0.355464 0.341427 0.317724
0.483734 0.458015 0.414390
0.643374 0.605004 0.540931
0.771016 0.729542 0.661537
0.624197 0.587089 0.524863
0.647669 0.609059 0.544770
0.704694 0.663615 0.595818
0.773043 0.731586 0.663714
0.841508 0.803541 0.741976
0.832242 0.793588 0.730679
0.839131 0.800983 0.739125
0.858603 0.822317 0.763571
0.883865 0.850823 0.797417
0.916318 0.888978 0.845027
0.945220 0.924920 0.892292
0.947760 0.928095 0.896580
0.954968 0.937463 0.909299
0.966537 0.952657 0.930537
0.974910 0.964022 0.946690
0.168089 0.165725 0.161731
0.230637 0.225539 0.216740
0.388109 0.371110 0.342589
0.595132 0.559872 0.500752
0.753500 0.711749 0.643349
0.357968 0.343576 0.319629
0.399950 0.381998 0.351553
0.515949 0.487326 0.438795
0.665298 0.625765 0.560030
0.786439 0.745389 0.678239
0.647867 0.609166 0.544811
0.668690 0.629021 0.563124
0.719699 0.678278 0.610010
0.785955 0.744819 0.677636
0.850970 0.813867 0.753849
0.841032 0.803056 0.741480
0.846997 0.809502 0.748755
0.864040 0.828337 0.770598
0.888433 0.856068 0.803962
0.917629 0.890567 0.847004
0.947119 0.927417 0.895600
0.949145 0.929877 0.898909
0.954981 0.937367 0.909323
0.966560 0.952681 0.930620
0.976398 0.966143 0.949789
0.279759 0.271503 0.257923
0.334423 0.322100 0.301461
0.480999 0.455599 0.412368
0.667832 0.628137 0.562322
0.792782 0.751932 0.685216
0.427608 0.407074 0.372356
0.469909 0.445480 0.404068
0.583658 0.549235 0.491575
0.719697 0.678319 0.610144
0.818291 0.778490 0.714031
0.669894 0.630123 0.564126
0.688979 0.648344 0.581294
0.742469 0.700834 0.632380
0.812640 0.772614 0.707555
0.871403 0.836735 0.780532
0.865406 0.829997 0.772523
0.868549 0.833479 0.776711
0.877572 0.843699 0.788869
0.898243 0.867502 0.817934
0.930798 0.906660 0.867953
0.954988 0.937485 0.909362
0.956532 0.939517 0.912149
0.961141 0.945589 0.920632
0.969081 0.956376 0.935571
0.980017 0.971103 0.956924
