gsg/05_BW/GSG_LUT_BW_Kodalith.cube
# GSG LUTs 1.0
# Copyright (c) 2016-2020 Greyscalegorilla
# See EULA for licensing and distribution information
# Converted by Briz LUT Converter
LUT_3D_SIZE 5
DOMAIN_MIN 0.000000 0.000000 0.000000
DOMAIN_MAX 0.903226 0.903226 0.903226
0.092063 0.092063 0.092063
0.093694 0.093694 0.093694
0.098854 0.098854 0.098854
0.109914 0.109914 0.109914
0.132884 0.132884 0.132884
0.099287 0.099287 0.099287
0.105235 0.105235 0.105235
0.118987 0.118987 0.118987
0.132090 0.132090 0.132090
0.183832 0.183832 0.183832
0.122951 0.122951 0.122951
0.126353 0.126353 0.126353
0.170325 0.170325 0.170325
0.381814 0.381814 0.381814
0.513415 0.513415 0.513415
0.262200 0.262200 0.262200
0.280241 0.280241 0.280241
0.338087 0.338087 0.338087
0.575090 0.575090 0.575090
0.767878 0.767878 0.767878
0.694001 0.694001 0.694001
0.703578 0.703578 0.703578
0.727514 0.727514 0.727514
0.767896 0.767896 0.767896
0.816583 0.816583 0.816583
0.093694 0.093694 0.093694
0.097236 0.097236 0.097236
0.105913 0.105913 0.105913
0.121962 0.121962 0.121962
0.151934 0.151934 0.151934
0.105345 0.105345 0.105345
0.110550 0.110550 0.110550
0.126097 0.126097 0.126097
0.149383 0.149383 0.149383
0.218160 0.218160 0.218160
0.130617 0.130617 0.130617
0.134802 0.134802 0.134802
0.184858 0.184858 0.184858
0.392122 0.392122 0.392122
0.540636 0.540636 0.540636
0.294638 0.294638 0.294638
0.312582 0.312582 0.312582
0.370467 0.370467 0.370467
0.583304 0.583304 0.583304
0.769343 0.769343 0.769343
0.704481 0.704481 0.704481
0.712940 0.712940 0.712940
0.737536 0.737536 0.737536
0.771124 0.771124 0.771124
0.817258 0.817258 0.817258
0.100051 0.100051 0.100051
0.104179 0.104179 0.104179
0.113317 0.113317 0.113317
0.126992 0.126992 0.126992
0.202515 0.202515 0.202515
0.112978 0.112978 0.112978
0.119574 0.119574 0.119574
0.127977 0.127977 0.127977
0.163718 0.163718 0.163718
0.297916 0.297916 0.297916
0.171078 0.171078 0.171078
0.175395 0.175395 0.175395
0.257506 0.257506 0.257506
0.440203 0.440203 0.440203
0.588466 0.588466 0.588466
0.389878 0.389878 0.389878
0.406800 0.406800 0.406800
0.462253 0.462253 0.462253
0.637067 0.637067 0.637067
0.776442 0.776442 0.776442
0.728033 0.728033 0.728033
0.735070 0.735070 0.735070
0.754887 0.754887 0.754887
0.781684 0.781684 0.781684
0.818192 0.818192 0.818192
0.113088 0.113088 0.113088
0.118463 0.118463 0.118463
0.130505 0.130505 0.130505
0.164895 0.164895 0.164895
0.241859 0.241859 0.241859
0.127378 0.127378 0.127378
0.138795 0.138795 0.138795
0.158449 0.158449 0.158449
0.215001 0.215001 0.215001
0.308285 0.308285 0.308285
0.226125 0.226125 0.226125
0.260214 0.260214 0.260214
0.344580 0.344580 0.344580
0.428120 0.428120 0.428120
0.567027 0.567027 0.567027
0.588207 0.588207 0.588207
0.587517 0.587517 0.587517
0.605060 0.605060 0.605060
0.711537 0.711537 0.711537
0.785364 0.785364 0.785364
0.786303 0.786303 0.786303
0.784571 0.784571 0.784571
0.784217 0.784217 0.784217
0.798709 0.798709 0.798709
0.824108 0.824108 0.824108
0.150538 0.150538 0.150538
0.183200 0.183200 0.183200
0.232462 0.232462 0.232462
0.331449 0.331449 0.331449
0.483293 0.483293 0.483293
0.175462 0.175462 0.175462
0.234703 0.234703 0.234703
0.307171 0.307171 0.307171
0.404283 0.404283 0.404283
0.549374 0.549374 0.549374
0.275982 0.275982 0.275982
0.319717 0.319717 0.319717
0.519692 0.519692 0.519692
0.594915 0.594915 0.594915
0.680411 0.680411 0.680411
0.662223 0.662223 0.662223
0.675323 0.675323 0.675323
0.711447 0.711447 0.711447
0.763922 0.763922 0.763922
0.784906 0.784906 0.784906
0.815120 0.815120 0.815120
0.816501 0.816501 0.816501
0.821002 0.821002 0.821002
0.824324 0.824324 0.824324
0.834839 0.834839 0.834839
