gsg/05_BW/GSG_LUT_BW_Ultra_Contrasty.cube
# GSG LUTs 1.0
# Copyright (c) 2016-2020 Greyscalegorilla
# See EULA for licensing and distribution information
# Converted by Briz LUT Converter
LUT_3D_SIZE 32
0.050794 0.050794 0.050794
0.050794 0.050794 0.050794
0.050794 0.050794 0.050794
0.050794 0.050794 0.050794
0.050794 0.050794 0.050794
0.050794 0.050794 0.050794
0.050794 0.050794 0.050794
0.050794 0.050794 0.050794
0.050794 0.050794 0.050794
0.050794 0.050794 0.050794
0.050794 0.050794 0.050794
0.050794 0.050794 0.050794
0.050794 0.050794 0.050794
0.050794 0.050794 0.050794
0.050794 0.050794 0.050794
0.050794 0.050794 0.050794
0.052306 0.052306 0.052306
0.054260 0.054260 0.054260
0.054701 0.054701 0.054701
0.054701 0.054701 0.054701
0.054701 0.054701 0.054701
0.054701 0.054701 0.054701
0.054701 0.054701 0.054701
0.054701 0.054701 0.054701
0.054701 0.054701 0.054701
0.054701 0.054701 0.054701
0.054701 0.054701 0.054701
0.054701 0.054701 0.054701
0.054701 0.054701 0.054701
0.054701 0.054701 0.054701
0.054701 0.054701 0.054701
0.054701 0.054701 0.054701
0.050794 0.050794 0.050794
0.052306 0.052306 0.052306
0.052787 0.052787 0.052787
0.052787 0.052787 0.052787
0.052787 0.052787 0.052787
0.052864 0.052864 0.052864
0.053362 0.053362 0.053362
0.053759 0.053759 0.053759
0.053771 0.053771 0.053771
0.053771 0.053771 0.053771
0.053771 0.053771 0.053771
0.053771 0.053771 0.053771
0.053784 0.053784 0.053784
0.053806 0.053806 0.053806
0.053811 0.053811 0.053811
0.053811 0.053811 0.053811
0.054185 0.054185 0.054185
0.054665 0.054665 0.054665
0.054772 0.054772 0.054772
0.054772 0.054772 0.054772
0.054772 0.054772 0.054772
0.054788 0.054788 0.054788
0.054818 0.054818 0.054818
0.055370 0.055370 0.055370
0.056121 0.056121 0.056121
0.056481 0.056481 0.056481
0.056528 0.056528 0.056528
0.056528 0.056528 0.056528
0.056528 0.056528 0.056528
0.057007 0.057007 0.057007
0.057536 0.057536 0.057536
0.057552 0.057552 0.057552
0.050794 0.050794 0.050794
0.053291 0.053291 0.053291
0.054017 0.054017 0.054017
0.054036 0.054036 0.054036
0.054081 0.054081 0.054081
0.054134 0.054134 0.054134
0.054433 0.054433 0.054433
0.054937 0.054937 0.054937
0.055315 0.055315 0.055315
0.055315 0.055315 0.055315
0.055315 0.055315 0.055315
0.055315 0.055315 0.055315
0.055724 0.055724 0.055724
0.056486 0.056486 0.056486
0.056647 0.056647 0.056647
0.056647 0.056647 0.056647
0.056899 0.056899 0.056899
0.057144 0.057144 0.057144
0.057160 0.057160 0.057160
0.057195 0.057195 0.057195
0.057214 0.057214 0.057214
0.057721 0.057721 0.057721
0.058667 0.058667 0.058667
0.059487 0.059487 0.059487
0.060025 0.060025 0.060025
0.060338 0.060338 0.060338
0.060415 0.060415 0.060415
0.060420 0.060420 0.060420
0.060420 0.060420 0.060420
0.061577 0.061577 0.061577
0.062869 0.062869 0.062869
0.063004 0.063004 0.063004
0.050794 0.050794 0.050794
0.053756 0.053756 0.053756
0.054721 0.054721 0.054721
0.055105 0.055105 0.055105
0.055984 0.055984 0.055984
0.056351 0.056351 0.056351
0.056714 0.056714 0.056714
0.057227 0.057227 0.057227
0.057568 0.057568 0.057568
0.057575 0.057575 0.057575
0.057599 0.057599 0.057599
0.057616 0.057616 0.057616
0.058475 0.058475 0.058475
0.060154 0.060154 0.060154
0.060593 0.060593 0.060593
0.060593 0.060593 0.060593
0.060821 0.060821 0.060821
0.061155 0.061155 0.061155
0.061424 0.061424 0.061424
0.062126 0.062126 0.062126
0.062492 0.062492 0.062492
0.063089 0.063089 0.063089
0.064157 0.064157 0.064157
0.064804 0.064804 0.064804
0.064918 0.064918 0.064918
0.065407 0.065407 0.065407
0.066053 0.066053 0.066053
0.066155 0.066155 0.066155
0.066155 0.066155 0.066155
0.067393 0.067393 0.067393
0.069132 0.069132 0.069132
0.071031 0.071031 0.071031
0.051172 0.051172 0.051172
0.053850 0.053850 0.053850
0.054865 0.054865 0.054865
0.056139 0.056139 0.056139
0.058905 0.058905 0.058905
0.060595 0.060595 0.060595
0.061597 0.061597 0.061597
0.062137 0.062137 0.062137
0.062202 0.062202 0.062202
0.062488 0.062488 0.062488
0.062797 0.062797 0.062797
0.062941 0.062941 0.062941
0.063788 0.063788 0.063788
0.065606 0.065606 0.065606
0.066379 0.066379 0.066379
0.066532 0.066532 0.066532
0.066549 0.066549 0.066549
0.066549 0.066549 0.066549
0.066992 0.066992 0.066992
0.069109 0.069109 0.069109
0.070406 0.070406 0.070406
0.070559 0.070559 0.070559
0.070612 0.070612 0.070612
0.070738 0.070738 0.070738
0.070974 0.070974 0.070974
0.072358 0.072358 0.072358
0.074236 0.074236 0.074236
0.074756 0.074756 0.074756
0.074845 0.074845 0.074845
0.074940 0.074940 0.074940
0.076570 0.076570 0.076570
0.081744 0.081744 0.081744
0.053882 0.053882 0.053882
0.054530 0.054530 0.054530
0.055677 0.055677 0.055677
0.057859 0.057859 0.057859
0.061727 0.061727 0.061727
0.065333 0.065333 0.065333
0.067097 0.067097 0.067097
0.067737 0.067737 0.067737
0.068465 0.068465 0.068465
0.070216 0.070216 0.070216
0.070881 0.070881 0.070881
0.070895 0.070895 0.070895
0.071155 0.071155 0.071155
0.072416 0.072416 0.072416
0.074493 0.074493 0.074493
0.075658 0.075658 0.075658
0.076008 0.076008 0.076008
0.076285 0.076285 0.076285
0.076900 0.076900 0.076900
0.078920 0.078920 0.078920
0.081412 0.081412 0.081412
0.082793 0.082793 0.082793
0.083269 0.083269 0.083269
0.084228 0.084228 0.084228
0.086137 0.086137 0.086137
0.087557 0.087557 0.087557
0.088843 0.088843 0.088843
0.091022 0.091022 0.091022
0.091756 0.091756 0.091756
0.092489 0.092489 0.092489
0.094030 0.094030 0.094030
0.097499 0.097499 0.097499
0.054701 0.054701 0.054701
0.054849 0.054849 0.054849
0.056664 0.056664 0.056664
0.060177 0.060177 0.060177
0.064591 0.064591 0.064591
0.069310 0.069310 0.069310
0.074291 0.074291 0.074291
0.078105 0.078105 0.078105
0.080557 0.080557 0.080557
0.082211 0.082211 0.082211
0.082743 0.082743 0.082743
0.083026 0.083026 0.083026
0.083894 0.083894 0.083894
0.085427 0.085427 0.085427
0.086989 0.086989 0.086989
0.087951 0.087951 0.087951
0.089683 0.089683 0.089683
0.091684 0.091684 0.091684
0.092587 0.092587 0.092587
0.093565 0.093565 0.093565
0.096583 0.096583 0.096583
0.099060 0.099060 0.099060
0.099943 0.099943 0.099943
0.100753 0.100753 0.100753
0.103134 0.103134 0.103134
0.104625 0.104625 0.104625
0.106101 0.106101 0.106101
0.109831 0.109831 0.109831
0.110745 0.110745 0.110745
0.111562 0.111562 0.111562
0.113643 0.113643 0.113643
0.117129 0.117129 0.117129
0.054701 0.054701 0.054701
0.055549 0.055549 0.055549
0.058328 0.058328 0.058328
0.062489 0.062489 0.062489
0.067403 0.067403 0.067403
0.073219 0.073219 0.073219
0.081471 0.081471 0.081471
0.089903 0.089903 0.089903
0.095788 0.095788 0.095788
0.096523 0.096523 0.096523
0.097291 0.097291 0.097291
0.098833 0.098833 0.098833
0.100955 0.100955 0.100955
0.102726 0.102726 0.102726
0.104331 0.104331 0.104331
0.105158 0.105158 0.105158
0.107634 0.107634 0.107634
0.110619 0.110619 0.110619
0.111696 0.111696 0.111696
0.112791 0.112791 0.112791
0.115825 0.115825 0.115825
0.118532 0.118532 0.118532
0.119799 0.119799 0.119799
0.120504 0.120504 0.120504
0.123287 0.123287 0.123287
0.125413 0.125413 0.125413
0.127173 0.127173 0.127173
0.130797 0.130797 0.130797
0.131613 0.131613 0.131613
0.133151 0.133151 0.133151
0.136014 0.136014 0.136014
0.139084 0.139084 0.139084
0.054701 0.054701 0.054701
0.056891 0.056891 0.056891
0.060227 0.060227 0.060227
0.064536 0.064536 0.064536
0.069978 0.069978 0.069978
0.077614 0.077614 0.077614
0.087326 0.087326 0.087326
0.099461 0.099461 0.099461
0.110664 0.110664 0.110664
0.113589 0.113589 0.113589
0.115536 0.115536 0.115536
0.118302 0.118302 0.118302
0.121197 0.121197 0.121197
0.122943 0.122943 0.122943
0.126028 0.126028 0.126028
0.127658 0.127658 0.127658
0.129483 0.129483 0.129483
0.131712 0.131712 0.131712
0.133130 0.133130 0.133130
0.136024 0.136024 0.136024
0.138782 0.138782 0.138782
0.140841 0.140841 0.140841
0.142689 0.142689 0.142689
0.144380 0.144380 0.144380
0.147472 0.147472 0.147472
0.150121 0.150121 0.150121
0.152267 0.152267 0.152267
0.154679 0.154679 0.154679
0.155764 0.155764 0.155764
0.158470 0.158470 0.158470
0.161838 0.161838 0.161838
0.163661 0.163661 0.163661
0.055197 0.055197 0.055197
0.058545 0.058545 0.058545
0.061869 0.061869 0.061869
0.066037 0.066037 0.066037
0.072106 0.072106 0.072106
0.082253 0.082253 0.082253
0.092392 0.092392 0.092392
0.105605 0.105605 0.105605
0.121755 0.121755 0.121755
0.134011 0.134011 0.134011
0.139976 0.139976 0.139976
0.143249 0.143249 0.143249
0.145697 0.145697 0.145697
0.147644 0.147644 0.147644
0.150719 0.150719 0.150719
0.153181 0.153181 0.153181
0.155185 0.155185 0.155185
0.157147 0.157147 0.157147
0.159223 0.159223 0.159223
0.162751 0.162751 0.162751
0.165839 0.165839 0.165839
0.168114 0.168114 0.168114
0.170496 0.170496 0.170496
0.173616 0.173616 0.173616
0.175541 0.175541 0.175541
0.177717 0.177717 0.177717
0.180919 0.180919 0.180919
0.184577 0.184577 0.184577
0.186400 0.186400 0.186400
0.188830 0.188830 0.188830
0.191960 0.191960 0.191960
0.194998 0.194998 0.194998
0.057040 0.057040 0.057040
0.060488 0.060488 0.060488
0.063980 0.063980 0.063980
0.068383 0.068383 0.068383
0.074821 0.074821 0.074821
0.086927 0.086927 0.086927
0.098986 0.098986 0.098986
0.113159 0.113159 0.113159
0.130325 0.130325 0.130325
0.147954 0.147954 0.147954
0.162610 0.162610 0.162610
0.171752 0.171752 0.171752
0.175139 0.175139 0.175139
0.176662 0.176662 0.176662
0.179377 0.179377 0.179377
0.183077 0.183077 0.183077
0.186382 0.186382 0.186382
0.188326 0.188326 0.188326
0.190030 0.190030 0.190030
0.192980 0.192980 0.192980
0.197036 0.197036 0.197036
0.200376 0.200376 0.200376
0.202828 0.202828 0.202828
0.205406 0.205406 0.205406
0.207332 0.207332 0.207332
0.210638 0.210638 0.210638
0.214891 0.214891 0.214891
0.218414 0.218414 0.218414
0.220962 0.220962 0.220962
0.223622 0.223622 0.223622
0.227098 0.227098 0.227098
0.231754 0.231754 0.231754
0.058364 0.058364 0.058364
0.062185 0.062185 0.062185
0.066325 0.066325 0.066325
0.072056 0.072056 0.072056
0.080553 0.080553 0.080553
0.093180 0.093180 0.093180
0.106225 0.106225 0.106225
0.120643 0.120643 0.120643
0.137841 0.137841 0.137841
0.158551 0.158551 0.158551
0.179523 0.179523 0.179523
0.197538 0.197538 0.197538
0.207175 0.207175 0.207175
0.208722 0.208722 0.208722
0.211210 0.211210 0.211210
0.215335 0.215335 0.215335
0.219315 0.219315 0.219315
0.221704 0.221704 0.221704
0.223854 0.223854 0.223854
0.227067 0.227067 0.227067
0.231553 0.231553 0.231553
0.235263 0.235263 0.235263
0.237980 0.237980 0.237980
0.240336 0.240336 0.240336
0.243201 0.243201 0.243201
0.247541 0.247541 0.247541
0.251964 0.251964 0.251964
0.255197 0.255197 0.255197
0.258080 0.258080 0.258080
0.261008 0.261008 0.261008
0.264417 0.264417 0.264417
0.269377 0.269377 0.269377
0.059404 0.059404 0.059404
0.064191 0.064191 0.064191
0.069072 0.069072 0.069072
0.076567 0.076567 0.076567
0.088040 0.088040 0.088040
0.100584 0.100584 0.100584
0.113679 0.113679 0.113679
0.128428 0.128428 0.128428
0.146366 0.146366 0.146366
0.168261 0.168261 0.168261
0.191357 0.191357 0.191357
0.215790 0.215790 0.215790
0.234827 0.234827 0.234827
0.242056 0.242056 0.242056
0.246211 0.246211 0.246211
0.250375 0.250375 0.250375
0.254225 0.254225 0.254225
0.257144 0.257144 0.257144
0.260593 0.260593 0.260593
0.264413 0.264413 0.264413
0.268964 0.268964 0.268964
0.273059 0.273059 0.273059
0.276352 0.276352 0.276352
0.279293 0.279293 0.279293
0.282743 0.282743 0.282743
0.286856 0.286856 0.286856
0.290771 0.290771 0.290771
0.293758 0.293758 0.293758
0.297783 0.297783 0.297783
0.301220 0.301220 0.301220
0.304593 0.304593 0.304593
0.308512 0.308512 0.308512
0.062177 0.062177 0.062177
0.066990 0.066990 0.066990
0.072711 0.072711 0.072711
0.081102 0.081102 0.081102
0.093566 0.093566 0.093566
0.107175 0.107175 0.107175
0.121494 0.121494 0.121494
0.137524 0.137524 0.137524
0.156084 0.156084 0.156084
0.178123 0.178123 0.178123
0.203245 0.203245 0.203245
0.228800 0.228800 0.228800
0.252928 0.252928 0.252928
0.272347 0.272347 0.272347
0.283635 0.283635 0.283635
0.290267 0.290267 0.290267
0.294268 0.294268 0.294268
0.297404 0.297404 0.297404
0.301075 0.301075 0.301075
0.304596 0.304596 0.304596
0.309920 0.309920 0.309920
0.314902 0.314902 0.314902
0.318461 0.318461 0.318461
0.321709 0.321709 0.321709
0.325024 0.325024 0.325024
0.328709 0.328709 0.328709
0.332200 0.332200 0.332200
0.335040 0.335040 0.335040
0.340583 0.340583 0.340583
0.345023 0.345023 0.345023
0.348798 0.348798 0.348798
0.352988 0.352988 0.352988
0.064729 0.064729 0.064729
0.069914 0.069914 0.069914
0.076934 0.076934 0.076934
0.086502 0.086502 0.086502
0.099395 0.099395 0.099395
0.114333 0.114333 0.114333
0.129629 0.129629 0.129629
0.146237 0.146237 0.146237
0.165216 0.165216 0.165216
0.188381 0.188381 0.188381
0.214420 0.214420 0.214420
0.241322 0.241322 0.241322
0.268326 0.268326 0.268326
0.295213 0.295213 0.295213
0.317921 0.317921 0.317921
0.331104 0.331104 0.331104
0.336422 0.336422 0.336422
0.340100 0.340100 0.340100
0.343771 0.343771 0.343771
0.347755 0.347755 0.347755
0.353341 0.353341 0.353341
0.358210 0.358210 0.358210
0.361802 0.361802 0.361802
0.365374 0.365374 0.365374
0.369462 0.369462 0.369462
0.373343 0.373343 0.373343
0.376807 0.376807 0.376807
0.380081 0.380081 0.380081
0.385162 0.385162 0.385162
0.389443 0.389443 0.389443
0.393592 0.393592 0.393592
0.398692 0.398692 0.398692
0.066761 0.066761 0.066761
0.073212 0.073212 0.073212
0.081420 0.081420 0.081420
0.092262 0.092262 0.092262
0.106160 0.106160 0.106160
0.122965 0.122965 0.122965
0.138957 0.138957 0.138957
0.155822 0.155822 0.155822
0.175347 0.175347 0.175347
0.199667 0.199667 0.199667
0.226174 0.226174 0.226174
0.254152 0.254152 0.254152
0.282852 0.282852 0.282852
0.312771 0.312771 0.312771
0.342918 0.342918 0.342918
0.368183 0.368183 0.368183
0.381100 0.381100 0.381100
0.385353 0.385353 0.385353
0.389116 0.389116 0.389116
0.392862 0.392862 0.392862
0.397994 0.397994 0.397994
0.402999 0.402999 0.402999
0.407005 0.407005 0.407005
0.410784 0.410784 0.410784
0.415322 0.415322 0.415322
0.419323 0.419323 0.419323
0.422801 0.422801 0.422801
0.426208 0.426208 0.426208
0.430824 0.430824 0.430824
0.435260 0.435260 0.435260
0.439781 0.439781 0.439781
0.444941 0.444941 0.444941
0.068526 0.068526 0.068526
0.077640 0.077640 0.077640
0.086360 0.086360 0.086360
0.097750 0.097750 0.097750
0.113567 0.113567 0.113567
0.131113 0.131113 0.131113
0.147674 0.147674 0.147674
0.165462 0.165462 0.165462
0.186288 0.186288 0.186288
0.211628 0.211628 0.211628
0.239396 0.239396 0.239396
0.268366 0.268366 0.268366
0.298009 0.298009 0.298009
0.328778 0.328778 0.328778
0.360461 0.360461 0.360461
0.393387 0.393387 0.393387
0.418208 0.418208 0.418208
0.430178 0.430178 0.430178
0.436022 0.436022 0.436022
0.439565 0.439565 0.439565
0.443852 0.443852 0.443852
0.448755 0.448755 0.448755
0.453241 0.453241 0.453241
0.457166 0.457166 0.457166
0.461704 0.461704 0.461704
0.465807 0.465807 0.465807
0.469520 0.469520 0.469520
0.473737 0.473737 0.473737
0.477898 0.477898 0.477898
0.482155 0.482155 0.482155
0.486668 0.486668 0.486668
0.491575 0.491575 0.491575
0.070558 0.070558 0.070558
0.082299 0.082299 0.082299
0.092091 0.092091 0.092091
0.104113 0.104113 0.104113
0.121018 0.121018 0.121018
0.138708 0.138708 0.138708
0.156048 0.156048 0.156048
0.175333 0.175333 0.175333
0.197974 0.197974 0.197974
0.224205 0.224205 0.224205
0.253464 0.253464 0.253464
0.283398 0.283398 0.283398
0.313301 0.313301 0.313301
0.344521 0.344521 0.344521
0.376557 0.376557 0.376557
0.409947 0.409947 0.409947
0.442270 0.442270 0.442270
0.466644 0.466644 0.466644
0.480638 0.480638 0.480638
0.487079 0.487079 0.487079
0.491079 0.491079 0.491079
0.495608 0.495608 0.495608
0.500320 0.500320 0.500320
0.504551 0.504551 0.504551
0.509054 0.509054 0.509054
0.513438 0.513438 0.513438
0.517748 0.517748 0.517748
0.522655 0.522655 0.522655
0.526612 0.526612 0.526612
0.530395 0.530395 0.530395
0.534519 0.534519 0.534519
0.539265 0.539265 0.539265
0.073961 0.073961 0.073961
0.086539 0.086539 0.086539
0.098382 0.098382 0.098382
0.111846 0.111846 0.111846
0.128838 0.128838 0.128838
0.147477 0.147477 0.147477
0.165906 0.165906 0.165906
0.186517 0.186517 0.186517
0.210703 0.210703 0.210703
0.237413 0.237413 0.237413
0.267374 0.267374 0.267374
0.297855 0.297855 0.297855
0.328087 0.328087 0.328087
0.359665 0.359665 0.359665
0.392417 0.392417 0.392417
0.426519 0.426519 0.426519
0.460622 0.460622 0.460622
0.492503 0.492503 0.492503
0.518520 0.518520 0.518520
0.532979 0.532979 0.532979
0.539046 0.539046 0.539046
0.543580 0.543580 0.543580
0.548223 0.548223 0.548223
0.552925 0.552925 0.552925
0.557399 0.557399 0.557399
0.562019 0.562019 0.562019
0.566703 0.566703 0.566703
0.570858 0.570858 0.570858
0.575279 0.575279 0.575279
0.579523 0.579523 0.579523
0.583568 0.583568 0.583568
0.587806 0.587806 0.587806
0.080492 0.080492 0.080492
0.091604 0.091604 0.091604
0.104489 0.104489 0.104489
0.119468 0.119468 0.119468
0.136671 0.136671 0.136671
0.156629 0.156629 0.156629
0.176184 0.176184 0.176184
0.197906 0.197906 0.197906
0.223291 0.223291 0.223291
0.250538 0.250538 0.250538
0.280522 0.280522 0.280522
0.311451 0.311451 0.311451
0.343177 0.343177 0.343177
0.376115 0.376115 0.376115
0.409532 0.409532 0.409532
0.443611 0.443611 0.443611
0.477768 0.477768 0.477768
0.512299 0.512299 0.512299
0.546000 0.546000 0.546000
0.574657 0.574657 0.574657
0.587030 0.587030 0.587030
0.591157 0.591157 0.591157
0.595443 0.595443 0.595443
0.600299 0.600299 0.600299
0.604890 0.604890 0.604890
0.609482 0.609482 0.609482
0.614117 0.614117 0.614117
0.617819 0.617819 0.617819
0.621910 0.621910 0.621910
0.626693 0.626693 0.626693
0.631646 0.631646 0.631646
0.636157 0.636157 0.636157
0.087613 0.087613 0.087613
0.099226 0.099226 0.099226
0.113002 0.113002 0.113002
0.128520 0.128520 0.128520
0.145841 0.145841 0.145841
0.166232 0.166232 0.166232
0.187276 0.187276 0.187276
0.210943 0.210943 0.210943
0.237572 0.237572 0.237572
0.264812 0.264812 0.264812
0.295177 0.295177 0.295177
0.326979 0.326979 0.326979
0.359558 0.359558 0.359558
0.393046 0.393046 0.393046
0.427312 0.427312 0.427312
0.461641 0.461641 0.461641
0.495797 0.495797 0.495797
0.530788 0.530788 0.530788
0.566455 0.566455 0.566455
0.601562 0.601562 0.601562
0.626649 0.626649 0.626649
0.639400 0.639400 0.639400
0.645256 0.645256 0.645256
0.649734 0.649734 0.649734
0.653544 0.653544 0.653544
0.657741 0.657741 0.657741
0.662247 0.662247 0.662247
0.666346 0.666346 0.666346
0.669729 0.669729 0.669729
0.674460 0.674460 0.674460
0.679659 0.679659 0.679659
0.683674 0.683674 0.683674
0.093670 0.093670 0.093670
0.106435 0.106435 0.106435
0.121495 0.121495 0.121495
0.137958 0.137958 0.137958
0.155513 0.155513 0.155513
0.176744 0.176744 0.176744
0.199522 0.199522 0.199522
0.224711 0.224711 0.224711
0.252066 0.252066 0.252066
0.280093 0.280093 0.280093
0.311297 0.311297 0.311297
0.343708 0.343708 0.343708
0.376513 0.376513 0.376513
0.410132 0.410132 0.410132
0.444575 0.444575 0.444575
0.479290 0.479290 0.479290
0.513959 0.513959 0.513959
0.549013 0.549013 0.549013
0.584392 0.584392 0.584392
0.619855 0.619855 0.619855
0.653368 0.653368 0.653368
0.677745 0.677745 0.677745
0.691350 0.691350 0.691350
0.696921 0.696921 0.696921
0.700219 0.700219 0.700219
0.704132 0.704132 0.704132
0.708452 0.708452 0.708452
0.712461 0.712461 0.712461
0.715900 0.715900 0.715900
0.720092 0.720092 0.720092
0.724445 0.724445 0.724445
0.728000 0.728000 0.728000
0.099642 0.099642 0.099642
0.113124 0.113124 0.113124
0.129479 0.129479 0.129479
0.147040 0.147040 0.147040
0.164918 0.164918 0.164918
0.188051 0.188051 0.188051
0.211984 0.211984 0.211984
0.237630 0.237630 0.237630
0.265509 0.265509 0.265509
0.295287 0.295287 0.295287
0.327246 0.327246 0.327246
0.360060 0.360060 0.360060
0.393269 0.393269 0.393269
0.427319 0.427319 0.427319
0.461524 0.461524 0.461524
0.496288 0.496288 0.496288
0.531648 0.531648 0.531648
0.566653 0.566653 0.566653
0.601197 0.601197 0.601197
0.636709 0.636709 0.636709
0.671626 0.671626 0.671626
0.703082 0.703082 0.703082
0.726990 0.726990 0.726990
0.738373 0.738373 0.738373
0.742857 0.742857 0.742857
0.746625 0.746625 0.746625
0.750393 0.750393 0.750393
0.753716 0.753716 0.753716
0.757523 0.757523 0.757523
0.761056 0.761056 0.761056
0.764553 0.764553 0.764553
0.768601 0.768601 0.768601
0.106054 0.106054 0.106054
0.122128 0.122128 0.122128
0.139159 0.139159 0.139159
0.156512 0.156512 0.156512
0.174917 0.174917 0.174917
0.199441 0.199441 0.199441
0.223589 0.223589 0.223589
0.249434 0.249434 0.249434
0.278599 0.278599 0.278599
0.309525 0.309525 0.309525
0.342312 0.342312 0.342312
0.375750 0.375750 0.375750
0.409415 0.409415 0.409415
0.443677 0.443677 0.443677
0.478648 0.478648 0.478648
0.513812 0.513812 0.513812
0.549355 0.549355 0.549355
0.584434 0.584434 0.584434
0.618401 0.618401 0.618401
0.652876 0.652876 0.652876
0.688084 0.688084 0.688084
0.720959 0.720959 0.720959
0.749908 0.749908 0.749908
0.774634 0.774634 0.774634
0.782745 0.782745 0.782745
0.785910 0.785910 0.785910
0.788925 0.788925 0.788925
0.791784 0.791784 0.791784
0.794849 0.794849 0.794849
0.798109 0.798109 0.798109
0.801562 0.801562 0.801562
0.806184 0.806184 0.806184
0.113175 0.113175 0.113175
0.129700 0.129700 0.129700
0.147085 0.147085 0.147085
0.165268 0.165268 0.165268
0.184998 0.184998 0.184998
0.210937 0.210937 0.210937
0.236049 0.236049 0.236049
0.262832 0.262832 0.262832
0.293023 0.293023 0.293023
0.324943 0.324943 0.324943
0.358730 0.358730 0.358730
0.392788 0.392788 0.392788
0.426518 0.426518 0.426518
0.460686 0.460686 0.460686
0.495445 0.495445 0.495445
0.530911 0.530911 0.530911
0.566454 0.566454 0.566454
0.600990 0.600990 0.600990
0.634676 0.634676 0.634676
0.668570 0.668570 0.668570
0.702892 0.702892 0.702892
0.735240 0.735240 0.735240
0.764938 0.764938 0.764938
0.792723 0.792723 0.792723
0.810413 0.810413 0.810413
0.819146 0.819146 0.819146
0.823210 0.823210 0.823210
0.825745 0.825745 0.825745
0.829152 0.829152 0.829152
0.832632 0.832632 0.832632
0.835426 0.835426 0.835426
0.837693 0.837693 0.837693
0.120682 0.120682 0.120682
0.136737 0.136737 0.136737
0.155248 0.155248 0.155248
0.175385 0.175385 0.175385
0.197260 0.197260 0.197260
0.223767 0.223767 0.223767
0.249646 0.249646 0.249646
0.277369 0.277369 0.277369
0.307999 0.307999 0.307999
0.340553 0.340553 0.340553
0.374974 0.374974 0.374974
0.409639 0.409639 0.409639
0.443659 0.443659 0.443659
0.477671 0.477671 0.477671
0.512374 0.512374 0.512374
0.548089 0.548089 0.548089
0.583327 0.583327 0.583327
0.617531 0.617531 0.617531
0.651231 0.651231 0.651231
0.684250 0.684250 0.684250
0.717569 0.717569 0.717569
0.749373 0.749373 0.749373
0.778524 0.778524 0.778524
0.805162 0.805162 0.805162
0.828123 0.828123 0.828123
0.844032 0.844032 0.844032
0.853033 0.853033 0.853033
0.856338 0.856338 0.856338
0.859421 0.859421 0.859421
0.862180 0.862180 0.862180
0.863951 0.863951 0.863951
0.864878 0.864878 0.864878
0.128449 0.128449 0.128449
0.145051 0.145051 0.145051
0.164502 0.164502 0.164502
0.186538 0.186538 0.186538
0.210354 0.210354 0.210354
0.237227 0.237227 0.237227
0.264028 0.264028 0.264028
0.292456 0.292456 0.292456
0.323358 0.323358 0.323358
0.356281 0.356281 0.356281
0.391157 0.391157 0.391157
0.426220 0.426220 0.426220
0.460498 0.460498 0.460498
0.494699 0.494699 0.494699
0.529991 0.529991 0.529991
0.565570 0.565570 0.565570
0.600312 0.600312 0.600312
0.634377 0.634377 0.634377
0.667974 0.667974 0.667974
0.700085 0.700085 0.700085
0.732705 0.732705 0.732705
0.763923 0.763923 0.763923
0.792018 0.792018 0.792018
0.817534 0.817534 0.817534
0.840955 0.840955 0.840955
0.861321 0.861321 0.861321
0.876124 0.876124 0.876124
0.882708 0.882708 0.882708
0.885459 0.885459 0.885459
0.887009 0.887009 0.887009
0.888122 0.888122 0.888122
0.889299 0.889299 0.889299
0.136051 0.136051 0.136051
0.155348 0.155348 0.155348
0.175521 0.175521 0.175521
0.197427 0.197427 0.197427
0.221560 0.221560 0.221560
0.250215 0.250215 0.250215
0.278543 0.278543 0.278543
0.307638 0.307638 0.307638
0.339074 0.339074 0.339074
0.373181 0.373181 0.373181
0.408647 0.408647 0.408647
0.443305 0.443305 0.443305
0.477098 0.477098 0.477098
0.512432 0.512432 0.512432
0.548080 0.548080 0.548080
0.583108 0.583108 0.583108
0.617220 0.617220 0.617220
0.651033 0.651033 0.651033
