gsg/05_BW/GSG_LUT_BW_Old_Timey.cube
# GSG LUTs 1.0
# Copyright (c) 2016-2020 Greyscalegorilla
# See EULA for licensing and distribution information
# Converted by Briz LUT Converter
LUT_3D_SIZE 8
DOMAIN_MIN 0.000000 0.000000 0.000000
DOMAIN_MAX 0.903226 0.903226 0.903226
0.000000 0.000000 0.000000
0.039813 0.039781 0.039718
0.124329 0.122864 0.120966
0.228776 0.223514 0.214983
0.351538 0.337721 0.314609
0.483012 0.457316 0.413825
0.604726 0.568994 0.508764
0.706361 0.665335 0.597495
0.121084 0.119800 0.117964
0.161298 0.159218 0.155421
0.214683 0.210280 0.203009
0.297841 0.288302 0.272361
0.405750 0.387182 0.355910
0.523411 0.494044 0.444519
0.630659 0.593155 0.530291
0.722718 0.681227 0.612872
0.301233 0.291449 0.275064
0.323431 0.311930 0.292733
0.376516 0.360636 0.333907
0.439724 0.417998 0.381409
0.519782 0.490729 0.441811
0.606355 0.570261 0.509935
0.685413 0.644923 0.577997
0.758376 0.716787 0.648468
0.505463 0.477656 0.430816
0.519221 0.490255 0.441412
0.552671 0.520800 0.467217
0.604044 0.568126 0.508118
0.655107 0.616020 0.551119
0.703748 0.662811 0.594935
0.755083 0.713535 0.645159
0.806981 0.766744 0.701052
0.680499 0.640317 0.573634
0.687258 0.646713 0.579755
0.703383 0.662350 0.594635
0.729226 0.687635 0.619282
0.761901 0.720326 0.652137
0.791495 0.750509 0.683769
0.823120 0.783730 0.719682
0.857557 0.821245 0.762220
0.800867 0.760243 0.694120
0.804065 0.763756 0.697826
0.812423 0.772358 0.707234
0.826090 0.786792 0.723205
0.844163 0.806381 0.745223
0.861460 0.825562 0.767324
0.880047 0.846623 0.792268
0.902674 0.872717 0.824498
0.885683 0.852928 0.799929
0.887431 0.854921 0.802434
0.891599 0.859821 0.808553
0.898864 0.868274 0.818882
0.908803 0.880082 0.833586
0.920631 0.894139 0.851656
0.928859 0.904340 0.864918
0.939606 0.917775 0.882637
0.945197 0.925007 0.892268
0.946205 0.926015 0.893768
0.948458 0.928843 0.897609
0.952271 0.933894 0.904439
0.957635 0.940770 0.914030
0.964141 0.949647 0.926283
0.970943 0.958756 0.939155
0.973912 0.962559 0.944738
0.004096 0.004096 0.004096
0.044606 0.044602 0.044543
0.143283 0.141565 0.138690
0.260187 0.253196 0.241546
0.381181 0.364764 0.337193
0.505151 0.477450 0.430643
0.618575 0.581677 0.519950
0.713892 0.672646 0.604537
0.130561 0.129249 0.126949
0.167466 0.164953 0.161018
0.232674 0.227321 0.218389
0.320897 0.309638 0.290735
0.426960 0.406513 0.371826
0.540360 0.509525 0.457566
0.641623 0.603341 0.539416
0.728964 0.687283 0.618885
0.311529 0.300981 0.283312
0.331398 0.319333 0.299090
0.380093 0.363840 0.336413
0.446755 0.424297 0.386570
0.529546 0.499632 0.449274
0.614813 0.578243 0.516965
0.691775 0.651102 0.583858
0.762525 0.720830 0.652675
0.511375 0.483060 0.435244
0.524526 0.495074 0.445319
0.556506 0.524368 0.470162
0.605858 0.570016 0.509636
0.657191 0.618013 0.552925
0.706763 0.665676 0.597705
0.757997 0.716438 0.648131
0.809168 0.768925 0.703619
0.683139 0.642837 0.576013
0.689637 0.649077 0.581906
0.705367 0.664326 0.596430
0.730723 0.689092 0.620739
0.762649 0.721066 0.652893
0.792281 0.751375 0.684603
0.824245 0.784912 0.721056
0.858565 0.822277 0.763603
0.802048 0.761495 0.695459
0.805317 0.764862 0.699100
0.813390 0.773453 0.708370
0.826863 0.787691 0.724201
0.844667 0.807003 0.745966
0.861817 0.825874 0.767786
0.880551 0.847080 0.792970
0.903179 0.873312 0.825249
0.886171 0.853417 0.800669
0.887776 0.855418 0.803003
0.892087 0.860318 0.809085
0.899245 0.868661 0.819390
0.909114 0.880338 0.834087
0.920753 0.894366 0.851964
0.929103 0.904584 0.865168
0.940021 0.918259 0.883159
0.945441 0.925007 0.892300
0.946208 0.926259 0.894010
0.948521 0.929064 0.897853
0.952280 0.933908 0.904669
0.957635 0.941002 0.914169
0.964284 0.949647 0.926296
0.970943 0.958762 0.939173
0.973934 0.962801 0.944942
0.019063 0.019063 0.019063
0.055615 0.055402 0.055141
0.152491 0.150411 0.147338
0.269605 0.262082 0.249454
0.394100 0.376675 0.347087
0.522627 0.493354 0.443893
0.635485 0.597555 0.534290
0.724440 0.682949 0.614597
0.148591 0.146787 0.143700
0.180127 0.177040 0.172340
0.243135 0.237246 0.227279
0.334723 0.322373 0.301539
0.443895 0.421753 0.384483
0.559459 0.527014 0.472477
0.656441 0.617263 0.552141
0.738228 0.696498 0.628094
0.320760 0.309511 0.290575
0.341283 0.328291 0.306624
0.387864 0.370902 0.342371
0.457819 0.434470 0.394971
0.543162 0.512079 0.459693
0.627199 0.589868 0.527368
0.701806 0.660919 0.593151
0.769259 0.727723 0.659858
0.519972 0.491000 0.441924
0.533386 0.503161 0.452178
0.563718 0.530958 0.475778
0.610250 0.573947 0.513130
0.661644 0.622337 0.556905
0.712487 0.671176 0.603121
0.763487 0.721923 0.653745
0.813294 0.773313 0.708299
0.688646 0.648068 0.581023
0.694765 0.654079 0.586627
0.709706 0.668469 0.600527
0.733820 0.692200 0.623804
0.764433 0.722904 0.654825
0.794262 0.753372 0.686730
0.826678 0.787552 0.724040
0.860833 0.824694 0.766395
0.804671 0.764322 0.698530
0.807885 0.767538 0.701952
0.815690 0.775799 0.711069
0.828636 0.789627 0.726339
0.845931 0.808389 0.747479
0.862640 0.826820 0.768853
0.881706 0.848328 0.794494
0.904289 0.874591 0.826854
0.887022 0.854498 0.802001
0.888726 0.856447 0.804303
0.892924 0.861313 0.810318
0.899992 0.869574 0.820546
0.909741 0.881097 0.835058
0.921227 0.894939 0.852624
0.929442 0.905076 0.865895
0.940767 0.919059 0.884404
0.945447 0.925251 0.892757
0.946449 0.926283 0.894262
0.948704 0.929308 0.898121
0.952524 0.934153 0.904927
0.957879 0.941250 0.914439
0.964386 0.949896 0.926629
0.971187 0.959006 0.939516
0.974178 0.963047 0.945426
0.049699 0.049699 0.049210
0.086908 0.086379 0.085431
0.169159 0.166591 0.162470
0.281117 0.272772 0.258829
0.406450 0.387821 0.356430
0.531703 0.501603 0.450920
0.642987 0.604590 0.540620
0.732757 0.691243 0.622782
0.176375 0.173606 0.168959
0.200251 0.196457 0.190160
0.256683 0.249851 0.238701
0.345657 0.332411 0.310046
0.454749 0.431655 0.392698
0.567390 0.534370 0.478675
0.665382 0.625896 0.560100
0.746520 0.704858 0.636398
0.333979 0.321658 0.301003
0.355043 0.340952 0.317264
0.400674 0.382524 0.352002
0.468801 0.444333 0.403135
0.554283 0.522350 0.468474
0.637952 0.599944 0.536351
0.711976 0.670747 0.602622
0.776210 0.734820 0.667153
0.529639 0.499786 0.449321
0.542647 0.511590 0.459386
0.572775 0.539346 0.482951
0.617324 0.580521 0.519014
0.669186 0.629479 0.563523
0.720468 0.679067 0.610776
0.770260 0.728762 0.660822
0.817687 0.777944 0.713373
0.694442 0.653699 0.586364
0.700703 0.659805 0.592130
0.715680 0.674290 0.606202
0.738742 0.697078 0.628607
0.767511 0.726015 0.657999
0.797553 0.756891 0.690438
0.830114 0.791166 0.728104
0.863284 0.827473 0.769707
0.808145 0.767870 0.702383
0.811238 0.771129 0.705983
0.818780 0.779141 0.714743
0.831313 0.792513 0.729557
0.847790 0.810392 0.749858
0.864084 0.828486 0.770736
0.883524 0.850445 0.797042
0.905929 0.876561 0.829232
0.888085 0.855691 0.803458
0.889767 0.857592 0.805818
0.893927 0.862451 0.811714
0.900926 0.870634 0.821889
0.910624 0.882136 0.836348
0.921846 0.895715 0.853683
0.930208 0.905938 0.867018
0.941892 0.920606 0.886449
0.945465 0.925266 0.892536
0.946470 0.926285 0.894203
0.948708 0.929332 0.898121
0.952539 0.934311 0.904951
0.957903 0.941270 0.914656
0.964582 0.950154 0.927039
0.971431 0.959491 0.940152
0.974530 0.963634 0.946177
0.099130 0.098271 0.097168
0.129606 0.128244 0.126118
0.198013 0.194375 0.188380
0.297080 0.287589 0.271733
0.417801 0.398176 0.364983
0.544934 0.513663 0.461071
0.652944 0.613912 0.549175
0.742286 0.700646 0.632151
0.206317 0.202284 0.195634
0.227393 0.222352 0.213929
0.278400 0.270207 0.256654
0.360016 0.345583 0.321204
0.466068 0.441884 0.401065
0.579000 0.544932 0.487844
0.674871 0.634899 0.568502
0.755415 0.713768 0.645395
0.362107 0.347370 0.322674
0.380209 0.363946 0.336525
0.418638 0.398944 0.365630
0.481979 0.456402 0.413063
0.564605 0.531708 0.476418
0.646925 0.608348 0.544090
0.719830 0.678459 0.610178
0.783651 0.742427 0.675067
0.540374 0.509504 0.457551
0.553563 0.521622 0.467880
0.584022 0.549648 0.491945
0.627234 0.589855 0.527314
0.676762 0.636706 0.570285
0.727524 0.686004 0.617609
0.776236 0.734862 0.667186
0.821294 0.781728 0.717580
0.701130 0.660097 0.592499
0.707156 0.666046 0.598086
0.721737 0.680310 0.612007
0.744470 0.702822 0.634336
0.771874 0.730395 0.662547
0.801465 0.760853 0.694779
0.832627 0.793874 0.731033
0.864065 0.828379 0.770687
0.811976 0.771830 0.706729
0.814920 0.775013 0.710171
0.822238 0.782738 0.718723
0.834137 0.795512 0.732930
0.849988 0.812735 0.752534
0.866237 0.830802 0.773551
0.885632 0.852940 0.800034
0.907049 0.877951 0.830958
0.889637 0.857371 0.805501
0.891134 0.859132 0.807547
0.894763 0.863453 0.812894
0.901460 0.871314 0.822600
0.911342 0.882970 0.837396
0.922752 0.896785 0.855061
0.931351 0.907407 0.868784
0.943478 0.922562 0.889127
0.944976 0.924554 0.891702
0.945857 0.925681 0.893214
0.948256 0.928717 0.897286
0.952217 0.933913 0.904385
0.957892 0.941203 0.914423
0.964634 0.950160 0.927059
0.971872 0.960092 0.940988
0.975167 0.964512 0.947318
0.153689 0.151664 0.148419
0.178766 0.175922 0.171169
0.236408 0.230793 0.221679
0.325456 0.313870 0.294334
0.437809 0.416264 0.380012
0.560692 0.528245 0.473434
0.665123 0.625551 0.559801
0.751002 0.709268 0.640868
0.242891 0.236854 0.227070
0.261985 0.254842 0.243039
0.308496 0.298232 0.280919
0.384657 0.368062 0.339990
0.484740 0.458928 0.415185
0.593666 0.558623 0.499693
0.685788 0.645350 0.578376
0.764197 0.722605 0.654462
0.391530 0.374263 0.345268
0.406176 0.387615 0.356213
0.442435 0.420455 0.383425
0.502428 0.474975 0.428541
0.580200 0.546085 0.488914
0.659214 0.619968 0.554683
0.729462 0.687841 0.619415
0.792999 0.752069 0.685360
0.563293 0.530517 0.475405
0.575045 0.541381 0.484793
0.602299 0.566591 0.506699
0.640177 0.601919 0.538307
0.687401 0.646966 0.579911
0.737182 0.695563 0.627047
0.784688 0.743469 0.676170
0.829996 0.791045 0.727924
0.712261 0.670983 0.602930
0.718059 0.676663 0.608452
0.731742 0.690196 0.621726
0.752657 0.711080 0.642649
0.777874 0.736488 0.668933
0.807138 0.766846 0.701243
0.837283 0.798887 0.736782
0.867616 0.832374 0.775342
0.818220 0.778487 0.713986
0.820968 0.781491 0.717273
0.827633 0.788586 0.725149
0.838596 0.800437 0.738391
0.853183 0.816331 0.756678
0.869398 0.834429 0.777830
0.887629 0.855158 0.802816
0.907337 0.878136 0.831333
0.892288 0.860546 0.809414
0.893683 0.862256 0.811328
0.897277 0.866407 0.816596
0.903468 0.873691 0.825665
0.912409 0.884258 0.839010
0.923853 0.898117 0.856844
0.933022 0.909477 0.871652
0.945299 0.924812 0.892180
0.946623 0.926677 0.894608
0.947387 0.927607 0.895860
0.949151 0.929981 0.899036
0.952461 0.934069 0.904629
0.957338 0.940542 0.913553
0.964557 0.950160 0.927004
0.972503 0.960761 0.942091
0.976076 0.965762 0.949292
0.212998 0.208657 0.201442
0.234835 0.229256 0.220268
0.286823 0.278057 0.263514
0.370176 0.354695 0.328857
0.477727 0.452473 0.409870
0.593222 0.558214 0.499279
0.688420 0.647950 0.580759
0.761952 0.720248 0.652038
0.287321 0.278514 0.263979
0.305334 0.295267 0.278369
0.350183 0.336547 0.313584
0.423801 0.403627 0.369510
0.521092 0.491991 0.442703
0.622516 0.585425 0.523386
0.707166 0.666036 0.598058
0.774103 0.732654 0.664923
0.423558 0.403384 0.369324
0.437979 0.416438 0.380050
0.473802 0.448914 0.406890
0.532895 0.502682 0.451808
0.607133 0.571182 0.510636
0.681333 0.641137 0.574351
0.746506 0.704907 0.636410
0.801138 0.760582 0.694459
0.587402 0.552775 0.494553
0.596746 0.561376 0.502185
0.619974 0.583007 0.521230
0.657070 0.618067 0.552904
0.703659 0.662622 0.594848
0.752015 0.710400 0.641983
0.797188 0.756446 0.690060
0.837991 0.799761 0.737681
0.729203 0.687589 0.619213
0.733554 0.692040 0.623623
0.744273 0.702580 0.634163
0.759853 0.718232 0.649971
0.786517 0.745376 0.678217
0.817674 0.777945 0.713289
0.848145 0.810694 0.750215
0.877417 0.843444 0.788585
0.831872 0.793060 0.730214
0.833975 0.795376 0.732813
0.839199 0.801044 0.739106
0.847792 0.810331 0.749777
0.859385 0.823240 0.764664
0.874584 0.840262 0.784769
0.893557 0.862019 0.811128
0.912615 0.884560 0.839464
0.898491 0.867678 0.818287
0.899617 0.869139 0.820040
0.902673 0.872724 0.824459
0.908048 0.879111 0.832423
0.915940 0.888558 0.844455
0.925972 0.900811 0.860215
0.935739 0.912887 0.876106
0.946800 0.926766 0.894887
0.949046 0.929657 0.898773
0.949632 0.930616 0.899854
0.951385 0.932868 0.902947
0.954461 0.936810 0.908456
0.958955 0.942596 0.916444
0.964851 0.950474 0.927494
0.972789 0.961304 0.942685
0.977549 0.967672 0.952046
0.279759 0.271503 0.257923
0.300324 0.290567 0.274453
0.349970 0.336240 0.313333
0.430816 0.410011 0.374706
0.535830 0.505467 0.454027
0.643286 0.604844 0.540785
0.728762 0.687253 0.618711
0.792782 0.751932 0.685216
0.341466 0.328497 0.306852
0.359514 0.345160 0.320818
0.404083 0.385731 0.354573
0.477556 0.452321 0.409809
0.572343 0.538842 0.482511
0.666956 0.627324 0.561546
0.743775 0.702088 0.633639
0.802681 0.762273 0.696297
0.462104 0.438324 0.398141
0.476843 0.451717 0.409278
0.513309 0.484845 0.436778
0.572130 0.538669 0.482417
0.643002 0.604652 0.540637
0.715469 0.674039 0.605935
0.776061 0.734588 0.666915
0.824678 0.785372 0.721659
0.606327 0.570234 0.510002
0.616074 0.579332 0.517974
0.639905 0.601731 0.537982
0.677389 0.637249 0.570884
0.724313 0.682884 0.614580
0.774600 0.733147 0.665433
0.818133 0.778436 0.713847
0.855036 0.818301 0.758896
0.738934 0.697187 0.628811
0.741723 0.700094 0.631682
0.748408 0.706687 0.638283
0.765733 0.724208 0.656136
0.796465 0.755631 0.689157
0.830361 0.791450 0.728376
0.861342 0.825347 0.767069
0.888583 0.856189 0.804072
0.844909 0.807278 0.746237
0.846290 0.808783 0.747998
0.849803 0.812576 0.752263
0.855554 0.818883 0.759566
0.862736 0.826898 0.768986
0.881353 0.847981 0.794001
0.903089 0.873258 0.825062
0.922517 0.896530 0.854779
0.913634 0.885667 0.840900
0.914403 0.886675 0.842207
0.916470 0.889235 0.845262
0.920002 0.893531 0.850824
0.925045 0.899563 0.858714
0.931324 0.907330 0.868848
0.940246 0.918591 0.883622
0.952816 0.934646 0.905390
0.954988 0.937485 0.909362
0.955529 0.938220 0.910373
0.957029 0.940087 0.912954
0.959535 0.943361 0.917544
0.963126 0.948076 0.924023
0.967797 0.954374 0.932835
0.974026 0.962864 0.945179
0.980017 0.971103 0.956924
