gsg/05_BW/GSG_LUT_BW_SilverTone.cube
# GSG LUTs 1.0
# Copyright (c) 2016-2020 Greyscalegorilla
# See EULA for licensing and distribution information
# Converted by Briz LUT Converter
LUT_3D_SIZE 8
DOMAIN_MIN 0.000000 0.000000 0.000000
DOMAIN_MAX 0.903226 0.903226 0.903226
0.050794 0.050794 0.050794
0.050794 0.050794 0.050794
0.050794 0.050794 0.050794
0.050794 0.050794 0.050794
0.050794 0.050794 0.050794
0.050794 0.050794 0.050794
0.054701 0.054701 0.054701
0.054701 0.054701 0.054701
0.089480 0.089480 0.089480
0.089954 0.089954 0.089954
0.096398 0.096398 0.096398
0.100140 0.100140 0.100140
0.103858 0.103858 0.103858
0.107949 0.107949 0.107949
0.112460 0.112460 0.112460
0.115633 0.115633 0.115633
0.157139 0.157139 0.157139
0.157139 0.157139 0.157139
0.160865 0.160865 0.160865
0.164709 0.164709 0.164709
0.168372 0.168372 0.168372
0.172098 0.172098 0.172098
0.175772 0.175772 0.175772
0.179339 0.179339 0.179339
0.222640 0.222640 0.222640
0.224424 0.224424 0.224424
0.226162 0.226162 0.226162
0.229210 0.229210 0.229210
0.232443 0.232443 0.232443
0.235402 0.235402 0.235402
0.238301 0.238301 0.238301
0.241220 0.241220 0.241220
0.299870 0.299870 0.299870
0.299977 0.299977 0.299977
0.301903 0.301903 0.301903
0.304661 0.304661 0.304661
0.307566 0.307566 0.307566
0.310924 0.310924 0.310924
0.314722 0.314722 0.314722
0.318503 0.318503 0.318503
0.395337 0.395337 0.395337
0.396644 0.396644 0.396644
0.399000 0.399000 0.399000
0.400508 0.400508 0.400508
0.403860 0.403860 0.403860
0.407556 0.407556 0.407556
0.411687 0.411687 0.411687
0.415563 0.415563 0.415563
0.553964 0.553964 0.553964
0.554626 0.554626 0.554626
0.557985 0.557985 0.557985
0.561873 0.561873 0.561873
0.567373 0.567373 0.567373
0.573988 0.573988 0.573988
0.582812 0.582812 0.582812
0.590346 0.590346 0.590346
0.772988 0.772988 0.772988
0.775903 0.775903 0.775903
0.776266 0.776266 0.776266
0.777376 0.777376 0.777376
0.780231 0.780231 0.780231
0.783780 0.783780 0.783780
0.787467 0.787467 0.787467
0.790831 0.790831 0.790831
0.096640 0.096640 0.096640
0.103966 0.103966 0.103966
0.107629 0.107629 0.107629
0.111536 0.111536 0.111536
0.115199 0.115199 0.115199
0.118862 0.118862 0.118862
0.122557 0.122557 0.122557
0.126433 0.126433 0.126433
0.159559 0.159559 0.159559
0.160762 0.160762 0.160762
0.164334 0.164334 0.164334
0.167819 0.167819 0.167819
0.171414 0.171414 0.171414
0.175076 0.175076 0.175076
0.178768 0.178768 0.178768
0.182151 0.182151 0.182151
0.203661 0.203661 0.203661
0.205661 0.205661 0.205661
0.208787 0.208787 0.208787
0.211297 0.211297 0.211297
0.214308 0.214308 0.214308
0.217830 0.217830 0.217830
0.221238 0.221238 0.221238
0.224356 0.224356 0.224356
0.259837 0.259837 0.259837
0.260197 0.260197 0.260197
0.263451 0.263451 0.263451
0.265359 0.265359 0.265359
0.268153 0.268153 0.268153
0.271607 0.271607 0.271607
0.275416 0.275416 0.275416
0.279052 0.279052 0.279052
0.331660 0.331660 0.331660
0.331994 0.331994 0.331994
0.334004 0.334004 0.334004
0.336889 0.336889 0.336889
0.340213 0.340213 0.340213
0.344075 0.344075 0.344075
0.347984 0.347984 0.347984
0.351679 0.351679 0.351679
0.427093 0.427093 0.427093
0.428185 0.428185 0.428185
0.430868 0.430868 0.430868
0.432974 0.432974 0.432974
0.436764 0.436764 0.436764
0.441438 0.441438 0.441438
0.446135 0.446135 0.446135
0.450166 0.450166 0.450166
0.606765 0.606765 0.606765
0.608260 0.608260 0.608260
0.611356 0.611356 0.611356
0.615864 0.615864 0.615864
0.622293 0.622293 0.622293
0.629638 0.629638 0.629638
0.636909 0.636909 0.636909
0.644510 0.644510 0.644510
0.791975 0.791975 0.791975
0.792223 0.792223 0.792223
0.795559 0.795559 0.795559
0.795643 0.795643 0.795643
0.799274 0.799274 0.799274
0.801971 0.801971 0.801971
0.804005 0.804005 0.804005
0.806924 0.806924 0.806924
0.160865 0.160865 0.160865
0.164709 0.164709 0.164709
0.169065 0.169065 0.169065
0.172098 0.172098 0.172098
0.175942 0.175942 0.175942
0.179605 0.179605 0.179605
0.183268 0.183268 0.183268
0.186994 0.186994 0.186994
0.214716 0.214716 0.214716
0.217846 0.217846 0.217846
0.221219 0.221219 0.221219
0.225014 0.225014 0.225014
0.228725 0.228725 0.228725
0.232492 0.232492 0.232492
0.236222 0.236222 0.236222
0.239842 0.239842 0.239842
0.259342 0.259342 0.259342
0.260924 0.260924 0.260924
0.264000 0.264000 0.264000
0.267518 0.267518 0.267518
0.271332 0.271332 0.271332
0.275195 0.275195 0.275195
0.279216 0.279216 0.279216
0.283186 0.283186 0.283186
0.317658 0.317658 0.317658
0.317901 0.317901 0.317901
0.320938 0.320938 0.320938
0.324086 0.324086 0.324086
0.328321 0.328321 0.328321
0.332217 0.332217 0.332217
0.336866 0.336866 0.336866
0.340883 0.340883 0.340883
0.390683 0.390683 0.390683
0.391244 0.391244 0.391244
0.394052 0.394052 0.394052
0.397287 0.397287 0.397287
0.401288 0.401288 0.401288
0.405403 0.405403 0.405403
0.410178 0.410178 0.410178
0.415243 0.415243 0.415243
0.498438 0.498438 0.498438
0.499569 0.499569 0.499569
0.502293 0.502293 0.502293
0.507252 0.507252 0.507252
0.512962 0.512962 0.512962
0.519760 0.519760 0.519760
0.527832 0.527832 0.527832
0.535594 0.535594 0.535594
0.699807 0.699807 0.699807
0.700870 0.700870 0.700870
0.702571 0.702571 0.702571
0.706339 0.706339 0.706339
0.711249 0.711249 0.711249
0.716405 0.716405 0.716405
0.722764 0.722764 0.722764
0.727919 0.727919 0.727919
0.826957 0.826957 0.826957
0.827128 0.827128 0.827128
0.828993 0.828993 0.828993
0.830063 0.830063 0.830063
0.832228 0.832228 0.832228
0.834094 0.834094 0.834094
0.837142 0.837142 0.837142
0.840479 0.840479 0.840479
0.226303 0.226303 0.226303
0.230782 0.230782 0.230782
0.234942 0.234942 0.234942
0.239877 0.239877 0.239877
0.244706 0.244706 0.244706
0.248466 0.248466 0.248466
0.253008 0.253008 0.253008
0.256859 0.256859 0.256859
0.284072 0.284072 0.284072
0.287552 0.287552 0.287552
0.291245 0.291245 0.291245
0.295678 0.295678 0.295678
0.300300 0.300300 0.300300
0.304869 0.304869 0.304869
0.309523 0.309523 0.309523
0.313885 0.313885 0.313885
0.332655 0.332655 0.332655
0.334781 0.334781 0.334781
0.338495 0.338495 0.338495
0.342645 0.342645 0.342645
0.347068 0.347068 0.347068
0.351984 0.351984 0.351984
0.357140 0.357140 0.357140
0.361642 0.361642 0.361642
0.394573 0.394573 0.394573
0.396153 0.396153 0.396153
0.399287 0.399287 0.399287
0.403792 0.403792 0.403792
0.408499 0.408499 0.408499
0.413984 0.413984 0.413984
0.419709 0.419709 0.419709
0.425169 0.425169 0.425169
0.482871 0.482871 0.482871
0.484469 0.484469 0.484469
0.488142 0.488142 0.488142
0.493785 0.493785 0.493785
0.500774 0.500774 0.500774
0.508698 0.508698 0.508698
0.517844 0.517844 0.517844
0.527382 0.527382 0.527382
0.648405 0.648405 0.648405
0.650077 0.650077 0.650077
0.654213 0.654213 0.654213
0.660599 0.660599 0.660599
0.668141 0.668141 0.668141
0.676193 0.676193 0.676193
0.685032 0.685032 0.685032
0.693228 0.693228 0.693228
0.784866 0.784866 0.784866
0.784973 0.784973 0.784973
0.786409 0.786409 0.786409
0.789034 0.789034 0.789034
0.792332 0.792332 0.792332
0.795980 0.795980 0.795980
0.800172 0.800172 0.800172
0.803934 0.803934 0.803934
0.866801 0.866801 0.866801
0.866801 0.866801 0.866801
0.867748 0.867748 0.867748
0.868589 0.868589 0.868589
0.870353 0.870353 0.870353
0.872221 0.872221 0.872221
0.874620 0.874620 0.874620
0.877471 0.877471 0.877471
0.303533 0.303533 0.303533
0.309354 0.309354 0.309354
0.315075 0.315075 0.315075
0.319661 0.319661 0.319661
0.326244 0.326244 0.326244
0.331818 0.331818 0.331818
0.337352 0.337352 0.337352
0.341266 0.341266 0.341266
0.368502 0.368502 0.368502
0.372375 0.372375 0.372375
0.377433 0.377433 0.377433
0.383260 0.383260 0.383260
0.388924 0.388924 0.388924
0.395496 0.395496 0.395496
0.401708 0.401708 0.401708
0.408855 0.408855 0.408855
0.426010 0.426010 0.426010
0.428830 0.428830 0.428830
0.433623 0.433623 0.433623
0.440161 0.440161 0.440161
0.447023 0.447023 0.447023
0.454492 0.454492 0.454492
0.462406 0.462406 0.462406
0.470374 0.470374 0.470374
0.514448 0.514448 0.514448
0.516919 0.516919 0.516919
0.523374 0.523374 0.523374
0.532038 0.532038 0.532038
0.542381 0.542381 0.542381
0.553932 0.553932 0.553932
0.566402 0.566402 0.566402
0.578789 0.578789 0.578789
0.661917 0.661917 0.661917
0.664136 0.664136 0.664136
0.669028 0.669028 0.669028
0.676580 0.676580 0.676580
0.684976 0.684976 0.684976
0.693710 0.693710 0.693710
0.702582 0.702582 0.702582
0.710922 0.710922 0.710922
0.773171 0.773171 0.773171
0.773859 0.773859 0.773859
0.776337 0.776337 0.776337
0.779656 0.779656 0.779656
0.783575 0.783575 0.783575
0.787844 0.787844 0.787844
0.792668 0.792668 0.792668
0.797593 0.797593 0.797593
0.845991 0.845991 0.845991
0.846504 0.846504 0.846504
0.847246 0.847246 0.847246
0.849423 0.849423 0.849423
0.851179 0.851179 0.851179
0.853784 0.853784 0.853784
0.856662 0.856662 0.856662
0.859671 0.859671 0.859671
0.903457 0.903457 0.903457
0.903457 0.903457 0.903457
0.903491 0.903491 0.903491
0.904589 0.904589 0.904589
0.906514 0.906514 0.906514
0.907559 0.907559 0.907559
0.910343 0.910343 0.910343
0.911459 0.911459 0.911459
0.406578 0.406578 0.406578
0.414496 0.414496 0.414496
0.422364 0.422364 0.422364
0.430406 0.430406 0.430406
0.437909 0.437909 0.437909
0.445828 0.445828 0.445828
0.454957 0.454957 0.454957
0.463203 0.463203 0.463203
0.495891 0.495891 0.495891
0.502501 0.502501 0.502501
0.511823 0.511823 0.511823
0.523229 0.523229 0.523229
0.535451 0.535451 0.535451
0.548074 0.548074 0.548074
0.562057 0.562057 0.562057
0.576037 0.576037 0.576037
0.603020 0.603020 0.603020
0.607819 0.607819 0.607819
0.617699 0.617699 0.617699
0.629855 0.629855 0.629855
0.642368 0.642368 0.642368
0.654986 0.654986 0.654986
0.666743 0.666743 0.666743
0.678385 0.678385 0.678385
0.716233 0.716233 0.716233
0.719081 0.719081 0.719081
0.723629 0.723629 0.723629
0.730547 0.730547 0.730547
0.737494 0.737494 0.737494
0.744803 0.744803 0.744803
0.752017 0.752017 0.752017
0.758495 0.758495 0.758495
0.792967 0.792967 0.792967
0.793667 0.793667 0.793667
0.796525 0.796525 0.796525
0.800158 0.800158 0.800158
0.804173 0.804173 0.804173
0.808291 0.808291 0.808291
0.813228 0.813228 0.813228
0.817494 0.817494 0.817494
0.848311 0.848311 0.848311
0.848530 0.848530 0.848530
0.850809 0.850809 0.850809
0.852256 0.852256 0.852256
0.855197 0.855197 0.855197
0.858378 0.858378 0.858378
0.861848 0.861848 0.861848
0.864908 0.864908 0.864908
0.895368 0.895368 0.895368
0.895368 0.895368 0.895368
0.896229 0.896229 0.896229
0.897673 0.897673 0.897673
0.899377 0.899377 0.899377
0.901788 0.901788 0.901788
0.903569 0.903569 0.903569
0.906268 0.906268 0.906268
0.936775 0.936775 0.936775
0.936799 0.936799 0.936799
0.937848 0.937848 0.937848
0.939167 0.939167 0.939167
0.939998 0.939998 0.939998
0.941460 0.941460 0.941460
0.942845 0.942845 0.942845
0.945058 0.945058 0.945058
0.590571 0.590571 0.590571
0.609843 0.609843 0.609843
0.623847 0.623847 0.623847
0.638631 0.638631 0.638631
0.653276 0.653276 0.653276
0.665891 0.665891 0.665891
0.678481 0.678481 0.678481
0.689889 0.689889 0.689889
0.718428 0.718428 0.718428
0.725074 0.725074 0.725074
0.732200 0.732200 0.732200
0.740495 0.740495 0.740495
0.748520 0.748520 0.748520
0.756151 0.756151 0.756151
0.763334 0.763334 0.763334
0.771042 0.771042 0.771042
0.779650 0.779650 0.779650
0.781764 0.781764 0.781764
0.786589 0.786589 0.786589
0.791483 0.791483 0.791483
0.797258 0.797258 0.797258
0.802835 0.802835 0.802835
0.808458 0.808458 0.808458
0.814046 0.814046 0.814046
0.828562 0.828562 0.828562
0.829823 0.829823 0.829823
0.832180 0.832180 0.832180
0.835862 0.835862 0.835862
0.839702 0.839702 0.839702
0.843767 0.843767 0.843767
0.848123 0.848123 0.848123
0.851897 0.851897 0.851897
0.869013 0.869013 0.869013
0.869724 0.869724 0.869724
0.871133 0.871133 0.871133
0.873557 0.873557 0.873557
0.876793 0.876793 0.876793
0.879872 0.879872 0.879872
0.883119 0.883119 0.883119
0.886000 0.886000 0.886000
0.904321 0.904321 0.904321
0.905364 0.905364 0.905364
0.906490 0.906490 0.906490
0.907644 0.907644 0.907644
0.910338 0.910338 0.910338
0.912516 0.912516 0.912516
0.914690 0.914690 0.914690
0.917631 0.917631 0.917631
0.938698 0.938698 0.938698
0.938741 0.938741 0.938741
0.938881 0.938881 0.938881
0.939960 0.939960 0.939960
0.942350 0.942350 0.942350
0.943401 0.943401 0.943401
0.945912 0.945912 0.945912
0.947153 0.947153 0.947153
0.968002 0.968002 0.968002
0.968002 0.968002 0.968002
0.968002 0.968002 0.968002
0.971354 0.971354 0.971354
0.971421 0.971421 0.971421
0.971421 0.971421 0.971421
0.974715 0.974715 0.974715
0.974839 0.974839 0.974839
0.780582 0.780582 0.780582
0.788481 0.788481 0.788481
0.795315 0.795315 0.795315
0.800691 0.800691 0.800691
0.806510 0.806510 0.806510
0.813082 0.813082 0.813082
0.818181 0.818181 0.818181
0.824658 0.824658 0.824658
0.833088 0.833088 0.833088
0.836726 0.836726 0.836726
0.840838 0.840838 0.840838
0.845321 0.845321 0.845321
0.849958 0.849958 0.849958
0.854712 0.854712 0.854712
0.858625 0.858625 0.858625
0.862382 0.862382 0.862382
0.866304 0.866304 0.866304
0.866947 0.866947 0.866947
0.870018 0.870018 0.870018
0.873546 0.873546 0.873546
0.877248 0.877248 0.877248
0.880920 0.880920 0.880920
0.884535 0.884535 0.884535
0.888098 0.888098 0.888098
0.895656 0.895656 0.895656
0.897733 0.897733 0.897733
0.899295 0.899295 0.899295
0.902873 0.902873 0.902873
0.905155 0.905155 0.905155
0.907499 0.907499 0.907499
0.910608 0.910608 0.910608
0.913617 0.913617 0.913617
0.924652 0.924652 0.924652
0.924949 0.924949 0.924949
0.926615 0.926615 0.926615
0.928394 0.928394 0.928394
0.931124 0.931124 0.931124
0.933081 0.933081 0.933081
0.935630 0.935630 0.935630
0.938658 0.938658 0.938658
0.950081 0.950081 0.950081
0.950707 0.950707 0.950707
0.952246 0.952246 0.952246
0.953245 0.953245 0.953245
0.954676 0.954676 0.954676
0.956840 0.956840 0.956840
0.959452 0.959452 0.959452
0.960939 0.960939 0.960939
0.974602 0.974602 0.974602
0.974834 0.974834 0.974834
0.975277 0.975277 0.975277
0.975542 0.975542 0.975542
0.977506 0.977506 0.977506
0.978803 0.978803 0.978803
0.979427 0.979427 0.979427
0.982104 0.982104 0.982104
0.992938 0.992938 0.992938
0.992938 0.992938 0.992938
0.992981 0.992981 0.992981
0.993028 0.993028 0.993028
0.995545 0.995545 0.995545
0.995673 0.995673 0.995673
0.996163 0.996163 0.996163
0.996650 0.996650 0.996650
