gsg/05_BW/GSG_LUT_BW_Xerox_Copy.cube
# GSG LUTs 1.0
# Copyright (c) 2016-2020 Greyscalegorilla
# See EULA for licensing and distribution information
# Converted by Briz LUT Converter
LUT_3D_SIZE 32
0.181441 0.181441 0.181441
0.181693 0.181693 0.181693
0.181961 0.181961 0.181961
0.182488 0.182488 0.182488
0.183245 0.183245 0.183245
0.184001 0.184001 0.184001
0.184757 0.184757 0.184757
0.185513 0.185513 0.185513
0.186396 0.186396 0.186396
0.187656 0.187656 0.187656
0.188916 0.188916 0.188916
0.190350 0.190350 0.190350
0.192115 0.192115 0.192115
0.194084 0.194084 0.194084
0.196353 0.196353 0.196353
0.198740 0.198740 0.198740
0.201512 0.201512 0.201512
0.204537 0.204537 0.204537
0.207846 0.207846 0.207846
0.211375 0.211375 0.211375
0.215219 0.215219 0.215219
0.219418 0.219418 0.219418
0.224050 0.224050 0.224050
0.229202 0.229202 0.229202
0.234873 0.234873 0.234873
0.241065 0.241065 0.241065
0.247981 0.247981 0.247981
0.255678 0.255678 0.255678
0.265036 0.265036 0.265036
0.275529 0.275529 0.275529
0.287061 0.287061 0.287061
0.300366 0.300366 0.300366
0.182465 0.182465 0.182465
0.183213 0.183213 0.183213
0.184215 0.184215 0.184215
0.185195 0.185195 0.185195
0.185743 0.185743 0.185743
0.186254 0.186254 0.186254
0.186805 0.186805 0.186805
0.187613 0.187613 0.187613
0.188611 0.188611 0.188611
0.189694 0.189694 0.189694
0.191028 0.191028 0.191028
0.192540 0.192540 0.192540
0.194242 0.194242 0.194242
0.196258 0.196258 0.196258
0.198492 0.198492 0.198492
0.201012 0.201012 0.201012
0.203663 0.203663 0.203663
0.206704 0.206704 0.206704
0.209985 0.209985 0.209985
0.213560 0.213560 0.213560
0.217496 0.217496 0.217496
0.221700 0.221700 0.221700
0.226334 0.226334 0.226334
0.231480 0.231480 0.231480
0.237156 0.237156 0.237156
0.243349 0.243349 0.243349
0.250272 0.250272 0.250272
0.258389 0.258389 0.258389
0.267375 0.267375 0.267375
0.277821 0.277821 0.277821
0.289361 0.289361 0.289361
0.302659 0.302659 0.302659
0.183977 0.183977 0.183977
0.184260 0.184260 0.184260
0.185047 0.185047 0.185047
0.186578 0.186578 0.186578
0.188464 0.188464 0.188464
0.189276 0.189276 0.189276
0.189893 0.189893 0.189893
0.190598 0.190598 0.190598
0.191295 0.191295 0.191295
0.192461 0.192461 0.192461
0.193627 0.193627 0.193627
0.195140 0.195140 0.195140
0.196835 0.196835 0.196835
0.198849 0.198849 0.198849
0.200985 0.200985 0.200985
0.203490 0.203490 0.203490
0.206263 0.206263 0.206263
0.209295 0.209295 0.209295
0.212706 0.212706 0.212706
0.216245 0.216245 0.216245
0.220095 0.220095 0.220095
0.224459 0.224459 0.224459
0.229170 0.229170 0.229170
0.234152 0.234152 0.234152
0.239942 0.239942 0.239942
0.246211 0.246211 0.246211
0.253338 0.253338 0.253338
0.261300 0.261300 0.261300
0.270486 0.270486 0.270486
0.280956 0.280956 0.280956
0.292725 0.292725 0.292725
0.305810 0.305810 0.305810
0.185537 0.185537 0.185537
0.186041 0.186041 0.186041
0.186575 0.186575 0.186575
0.187673 0.187673 0.187673
0.189881 0.189881 0.189881
0.192102 0.192102 0.192102
0.193774 0.193774 0.193774
0.194709 0.194709 0.194709
0.195557 0.195557 0.195557
0.196384 0.196384 0.196384
0.197550 0.197550 0.197550
0.199063 0.199063 0.199063
0.200670 0.200670 0.200670
0.202629 0.202629 0.202629
0.204895 0.204895 0.204895
0.207401 0.207401 0.207401
0.210174 0.210174 0.210174
0.213092 0.213092 0.213092
0.216401 0.216401 0.216401
0.220080 0.220080 0.220080
0.224018 0.224018 0.224018
0.228382 0.228382 0.228382
0.233093 0.233093 0.233093
0.238262 0.238262 0.238262
0.243959 0.243959 0.243959
0.250549 0.250549 0.250549
0.257785 0.257785 0.257785
0.265970 0.265970 0.265970
0.275395 0.275395 0.275395
0.285910 0.285910 0.285910
0.297680 0.297680 0.297680
0.311017 0.311017 0.311017
0.187648 0.187648 0.187648
0.188152 0.188152 0.188152
0.188670 0.188670 0.188670
0.189462 0.189462 0.189462
0.191031 0.191031 0.191031
0.193475 0.193475 0.193475
0.196081 0.196081 0.196081
0.198768 0.198768 0.198768
0.200665 0.200665 0.200665
0.201809 0.201809 0.201809
0.203064 0.203064 0.203064
0.204577 0.204577 0.204577
0.206184 0.206184 0.206184
0.208051 0.208051 0.208051
0.210274 0.210274 0.210274
0.212792 0.212792 0.212792
0.215565 0.215565 0.215565
0.218592 0.218592 0.218592
0.221915 0.221915 0.221915
0.225594 0.225594 0.225594
0.229532 0.229532 0.229532
0.233939 0.233939 0.233939
0.238782 0.238782 0.238782
0.244184 0.244184 0.244184
0.250141 0.250141 0.250141
0.256814 0.256814 0.256814
0.264293 0.264293 0.264293
0.272799 0.272799 0.272799
0.282349 0.282349 0.282349
0.293139 0.293139 0.293139
0.305019 0.305019 0.305019
0.318673 0.318673 0.318673
0.190539 0.190539 0.190539
0.191004 0.191004 0.191004
0.191508 0.191508 0.191508
0.192060 0.192060 0.192060
0.193147 0.193147 0.193147
0.194960 0.194960 0.194960
0.197794 0.197794 0.197794
0.201034 0.201034 0.201034
0.204309 0.204309 0.204309
0.207697 0.207697 0.207697
0.209973 0.209973 0.209973
0.211902 0.211902 0.211902
0.213636 0.213636 0.213636
0.215503 0.215503 0.215503
0.217630 0.217630 0.217630
0.220116 0.220116 0.220116
0.222889 0.222889 0.222889
0.225948 0.225948 0.225948
0.229367 0.229367 0.229367
0.233046 0.233046 0.233046
0.237010 0.237010 0.237010
0.241692 0.241692 0.241692
0.247358 0.247358 0.247358
0.253233 0.253233 0.253233
0.259419 0.259419 0.259419
0.266376 0.266376 0.266376
0.274334 0.274334 0.274334
0.283511 0.283511 0.283511
0.293726 0.293726 0.293726
0.305011 0.305011 0.305011
0.317577 0.317577 0.317577
0.331931 0.331931 0.331931
0.194116 0.194116 0.194116
0.194376 0.194376 0.194376
0.194883 0.194883 0.194883
0.195469 0.195469 0.195469
0.196398 0.196398 0.196398
0.197646 0.197646 0.197646
0.200101 0.200101 0.200101
0.203406 0.203406 0.203406
0.207047 0.207047 0.207047
0.211018 0.211018 0.211018
0.215541 0.215541 0.215541
0.219917 0.219917 0.219917
0.222904 0.222904 0.222904
0.225275 0.225275 0.225275
0.227539 0.227539 0.227539
0.229926 0.229926 0.229926
0.232699 0.232699 0.232699
0.235832 0.235832 0.235832
0.239230 0.239230 0.239230
0.242937 0.242937 0.242937
0.247052 0.247052 0.247052
0.251668 0.251668 0.251668
0.256944 0.256944 0.256944
0.262838 0.262838 0.262838
0.269150 0.269150 0.269150
0.276535 0.276535 0.276535
0.284934 0.284934 0.284934
0.294356 0.294356 0.294356
0.304639 0.304639 0.304639
0.316165 0.316165 0.316165
0.328991 0.328991 0.328991
0.343605 0.343605 0.343605
0.198007 0.198007 0.198007
0.198322 0.198322 0.198322
0.198838 0.198838 0.198838
0.199525 0.199525 0.199525
0.200166 0.200166 0.200166
0.201379 0.201379 0.201379
0.202916 0.202916 0.202916
0.205860 0.205860 0.205860
0.209661 0.209661 0.209661
0.213975 0.213975 0.213975
0.218849 0.218849 0.218849
0.224396 0.224396 0.224396
0.230047 0.230047 0.230047
0.235071 0.235071 0.235071
0.238760 0.238760 0.238760
0.241707 0.241707 0.241707
0.244566 0.244566 0.244566
0.247564 0.247564 0.247564
0.250872 0.250872 0.250872
0.254701 0.254701 0.254701
0.258892 0.258892 0.258892
0.263508 0.263508 0.263508
0.268644 0.268644 0.268644
0.274522 0.274522 0.274522
0.281239 0.281239 0.281239
0.289054 0.289054 0.289054
0.297577 0.297577 0.297577
0.307055 0.307055 0.307055
0.317523 0.317523 0.317523
0.329304 0.329304 0.329304
0.342444 0.342444 0.342444
0.357430 0.357430 0.357430
0.202544 0.202544 0.202544
0.202986 0.202986 0.202986
0.203490 0.203490 0.203490
0.204017 0.204017 0.204017
0.204805 0.204805 0.204805
0.205853 0.205853 0.205853
0.207183 0.207183 0.207183
0.209120 0.209120 0.209120
0.212531 0.212531 0.212531
0.217236 0.217236 0.217236
0.222357 0.222357 0.222357
0.227996 0.227996 0.227996
0.234330 0.234330 0.234330
0.241344 0.241344 0.241344
0.248364 0.248364 0.248364
0.254183 0.254183 0.254183
0.258473 0.258473 0.258473
0.261875 0.261875 0.261875
0.265204 0.265204 0.265204
0.268968 0.268968 0.268968
0.273093 0.273093 0.273093
0.277687 0.277687 0.277687
0.282913 0.282913 0.282913
0.289014 0.289014 0.289014
0.296089 0.296089 0.296089
0.303990 0.303990 0.303990
0.312671 0.312671 0.312671
0.322344 0.322344 0.322344
0.332951 0.332951 0.332951
0.345039 0.345039 0.345039
0.358809 0.358809 0.358809
0.374572 0.374572 0.374572
0.207980 0.207980 0.207980
0.208240 0.208240 0.208240
0.208744 0.208744 0.208744
0.209272 0.209272 0.209272
0.210059 0.210059 0.210059
0.211107 0.211107 0.211107
0.212381 0.212381 0.212381
0.213887 0.213887 0.213887
0.216378 0.216378 0.216378
0.220480 0.220480 0.220480
0.226049 0.226049 0.226049
0.232080 0.232080 0.232080
0.238532 0.238532 0.238532
0.245864 0.245864 0.245864
0.254064 0.254064 0.254064
0.262868 0.262868 0.262868
0.271162 0.271162 0.271162
0.277361 0.277361 0.277361
0.281988 0.281988 0.281988
0.285907 0.285907 0.285907
0.289864 0.289864 0.289864
0.294467 0.294467 0.294467
0.299972 0.299972 0.299972
0.306261 0.306261 0.306261
0.313364 0.313364 0.313364
0.321322 0.321322 0.321322
0.330076 0.330076 0.330076
0.339885 0.339885 0.339885
0.350965 0.350965 0.350965
0.363640 0.363640 0.363640
0.378285 0.378285 0.378285
0.394903 0.394903 0.394903
0.214014 0.214014 0.214014
0.214350 0.214350 0.214350
0.214778 0.214778 0.214778
0.215313 0.215313 0.215313
0.216172 0.216172 0.216172
0.217207 0.217207 0.217207
0.218464 0.218464 0.218464
0.220095 0.220095 0.220095
0.222008 0.222008 0.222008
0.224961 0.224961 0.224961
0.229954 0.229954 0.229954
0.236404 0.236404 0.236404
0.243574 0.243574 0.243574
0.251165 0.251165 0.251165
0.259502 0.259502 0.259502
0.268921 0.268921 0.268921
0.279126 0.279126 0.279126
0.289344 0.289344 0.289344
0.298434 0.298434 0.298434
0.305029 0.305029 0.305029
0.310190 0.310190 0.310190
0.315223 0.315223 0.315223
0.320840 0.320840 0.320840
0.327082 0.327082 0.327082
0.334221 0.334221 0.334221
0.342464 0.342464 0.342464
0.351494 0.351494 0.351494
0.361782 0.361782 0.361782
0.373454 0.373454 0.373454
0.386819 0.386819 0.386819
0.402072 0.402072 0.402072
0.419717 0.419717 0.419717
0.221088 0.221088 0.221088
0.221500 0.221500 0.221500
0.221852 0.221852 0.221852
0.222395 0.222395 0.222395
0.223325 0.223325 0.223325
0.224347 0.224347 0.224347
0.225570 0.225570 0.225570
0.227335 0.227335 0.227335
0.229162 0.229162 0.229162
0.231458 0.231458 0.231458
0.235142 0.235142 0.235142
0.241248 0.241248 0.241248
0.249337 0.249337 0.249337
0.257761 0.257761 0.257761
0.266509 0.266509 0.266509
0.276028 0.276028 0.276028
0.286489 0.286489 0.286489
0.298074 0.298074 0.298074
0.310476 0.310476 0.310476
0.322103 0.322103 0.322103
0.331810 0.331810 0.331810
0.339552 0.339552 0.339552
0.345991 0.345991 0.345991
0.352493 0.352493 0.352493
0.359892 0.359892 0.359892
0.368529 0.368529 0.368529
0.377923 0.377923 0.377923
0.388781 0.388781 0.388781
0.401133 0.401133 0.401133
0.415197 0.415197 0.415197
0.431226 0.431226 0.431226
0.449730 0.449730 0.449730
0.229438 0.229438 0.229438
0.229789 0.229789 0.229789
0.230208 0.230208 0.230208
0.230824 0.230824 0.230824
0.231612 0.231612 0.231612
0.232660 0.232660 0.232660
0.233996 0.233996 0.233996
0.235706 0.235706 0.235706
0.237631 0.237631 0.237631
0.239860 0.239860 0.239860
0.242762 0.242762 0.242762
0.247447 0.247447 0.247447
0.254796 0.254796 0.254796
0.263895 0.263895 0.263895
0.273483 0.273483 0.273483
0.283365 0.283365 0.283365
0.293924 0.293924 0.293924
0.305375 0.305375 0.305375
0.318076 0.318076 0.318076
0.331834 0.331834 0.331834
0.346250 0.346250 0.346250
0.359928 0.359928 0.359928
0.370460 0.370460 0.370460
0.379237 0.379237 0.379237
0.387312 0.387312 0.387312
0.396208 0.396208 0.396208
0.406154 0.406154 0.406154
0.417602 0.417602 0.417602
0.430568 0.430568 0.430568
0.445368 0.445368 0.445368
0.462084 0.462084 0.462084
0.481019 0.481019 0.481019
0.238773 0.238773 0.238773
0.239269 0.239269 0.239269
0.239553 0.239553 0.239553
0.240309 0.240309 0.240309
0.241097 0.241097 0.241097
0.242144 0.242144 0.242144
0.243452 0.243452 0.243452
0.245075 0.245075 0.245075
0.247154 0.247154 0.247154
0.249524 0.249524 0.249524
0.252353 0.252353 0.252353
0.255969 0.255969 0.255969
0.261315 0.261315 0.261315
0.269634 0.269634 0.269634
0.279911 0.279911 0.279911
0.290592 0.290592 0.290592
0.301516 0.301516 0.301516
0.312876 0.312876 0.312876
0.325121 0.325121 0.325121
0.338769 0.338769 0.338769
0.354318 0.354318 0.354318
0.371497 0.371497 0.371497
0.388528 0.388528 0.388528
0.403902 0.403902 0.403902
0.416276 0.416276 0.416276
0.426503 0.426503 0.426503
0.437125 0.437125 0.437125
0.448898 0.448898 0.448898
0.462395 0.462395 0.462395
0.477579 0.477579 0.477579
0.494707 0.494707 0.494707
0.513908 0.513908 0.513908
0.249407 0.249407 0.249407
0.249797 0.249797 0.249797
0.250187 0.250187 0.250187
0.250943 0.250943 0.250943
0.251731 0.251731 0.251731
0.252779 0.252779 0.252779
0.254108 0.254108 0.254108
0.255819 0.255819 0.255819
0.257899 0.257899 0.257899
0.260310 0.260310 0.260310
0.263240 0.263240 0.263240
0.266604 0.266604 0.266604
0.270633 0.270633 0.270633
0.276764 0.276764 0.276764
0.286069 0.286069 0.286069
0.297498 0.297498 0.297498
0.309171 0.309171 0.309171
0.320811 0.320811 0.320811
0.333073 0.333073 0.333073
0.346575 0.346575 0.346575
0.361794 0.361794 0.361794
0.379346 0.379346 0.379346
0.399376 0.399376 0.399376
0.420738 0.420738 0.420738
0.441329 0.441329 0.441329
0.457233 0.457233 0.457233
0.470756 0.470756 0.470756
0.483228 0.483228 0.483228
0.496900 0.496900 0.496900
0.512364 0.512364 0.512364
0.529540 0.529540 0.529540
0.548883 0.548883 0.548883
0.261105 0.261105 0.261105
0.261483 0.261483 0.261483
0.261996 0.261996 0.261996
0.262653 0.262653 0.262653
0.263547 0.263547 0.263547
0.264614 0.264614 0.264614
0.266045 0.266045 0.266045
0.267770 0.267770 0.267770
0.269880 0.269880 0.269880
0.272378 0.272378 0.272378
0.275270 0.275270 0.275270
0.278554 0.278554 0.278554
0.282272 0.282272 0.282272
0.286728 0.286728 0.286728
0.293467 0.293467 0.293467
0.303864 0.303864 0.303864
0.316272 0.316272 0.316272
0.328849 0.328849 0.328849
0.341598 0.341598 0.341598
0.355321 0.355321 0.355321
0.370662 0.370662 0.370662
0.388074 0.388074 0.388074
0.408135 0.408135 0.408135
0.431234 0.431234 0.431234
0.456578 0.456578 0.456578
0.480634 0.480634 0.480634
0.501722 0.501722 0.501722
0.518855 0.518855 0.518855
0.533156 0.533156 0.533156
0.548521 0.548521 0.548521
0.565560 0.565560 0.565560
0.584544 0.584544 0.584544
0.273961 0.273961 0.273961
0.274360 0.274360 0.274360
0.275482 0.275482 0.275482
0.276139 0.276139 0.276139
0.277050 0.277050 0.277050
0.278226 0.278226 0.278226
0.279657 0.279657 0.279657
0.281382 0.281382 0.281382
0.283524 0.283524 0.283524
0.286116 0.286116 0.286116
0.288968 0.288968 0.288968
0.292166 0.292166 0.292166
0.295835 0.295835 0.295835
0.299844 0.299844 0.299844
0.304705 0.304705 0.304705
0.312223 0.312223 0.312223
0.323591 0.323591 0.323591
0.337171 0.337171 0.337171
0.351132 0.351132 0.351132
0.365587 0.365587 0.365587
0.381286 0.381286 0.381286
0.398872 0.398872 0.398872
0.418796 0.418796 0.418796
0.441541 0.441541 0.441541
0.467275 0.467275 0.467275
0.495031 0.495031 0.495031
0.522892 0.522892 0.522892
0.548848 0.548848 0.548848
0.568045 0.568045 0.568045
0.585227 0.585227 0.585227
0.602119 0.602119 0.602119
0.620592 0.620592 0.620592
0.288377 0.288377 0.288377
0.288944 0.288944 0.288944
0.290654 0.290654 0.290654
0.291549 0.291549 0.291549
0.292472 0.292472 0.292472
0.293637 0.293637 0.293637
0.295104 0.295104 0.295104
0.296924 0.296924 0.296924
0.299067 0.299067 0.299067
0.301658 0.301658 0.301658
0.304510 0.304510 0.304510
0.307708 0.307708 0.307708
0.311332 0.311332 0.311332
0.315318 0.315318 0.315318
0.319713 0.319713 0.319713
0.325021 0.325021 0.325021
0.333364 0.333364 0.333364
0.346116 0.346116 0.346116
0.361408 0.361408 0.361408
0.377188 0.377188 0.377188
0.393532 0.393532 0.393532
0.411517 0.411517 0.411517
0.431565 0.431565 0.431565
0.453948 0.453948 0.453948
0.478958 0.478958 0.478958
0.506502 0.506502 0.506502
0.536138 0.536138 0.536138
0.566698 0.566698 0.566698
0.594658 0.594658 0.594658
0.618282 0.618282 0.618282
0.638181 0.638181 0.638181
0.656221 0.656221 0.656221
0.304494 0.304494 0.304494
0.305264 0.305264 0.305264
0.306423 0.306423 0.306423
0.307312 0.307312 0.307312
0.308467 0.308467 0.308467
0.309677 0.309677 0.309677
0.311210 0.311210 0.311210
0.312947 0.312947 0.312947
0.315163 0.315163 0.315163
0.317691 0.317691 0.317691
0.320643 0.320643 0.320643
0.323841 0.323841 0.323841
0.327520 0.327520 0.327520
0.331592 0.331592 0.331592
0.335988 0.335988 0.335988
0.340830 0.340830 0.340830
0.346905 0.346905 0.346905
0.356457 0.356457 0.356457
0.370913 0.370913 0.370913
0.388123 0.388123 0.388123
0.405866 0.405866 0.405866
0.424477 0.424477 0.424477
0.444843 0.444843 0.444843
0.467121 0.467121 0.467121
0.491395 0.491395 0.491395
0.518019 0.518019 0.518019
0.547243 0.547243 0.547243
0.578046 0.578046 0.578046
0.610062 0.610062 0.610062
0.640704 0.640704 0.640704
0.668208 0.668208 0.668208
0.689558 0.689558 0.689558
0.321982 0.321982 0.321982
0.322738 0.322738 0.322738
0.323504 0.323504 0.323504
0.324448 0.324448 0.324448
0.325708 0.325708 0.325708
0.327008 0.327008 0.327008
0.328549 0.328549 0.328549
0.330314 0.330314 0.330314
0.332505 0.332505 0.332505
0.335098 0.335098 0.335098
0.338171 0.338171 0.338171
0.341471 0.341471 0.341471
0.345189 0.345189 0.345189
0.349387 0.349387 0.349387
0.353937 0.353937 0.353937
0.358984 0.358984 0.358984
0.364607 0.364607 0.364607
0.371562 0.371562 0.371562
0.382618 0.382618 0.382618
0.399157 0.399157 0.399157
0.418619 0.418619 0.418619
0.438454 0.438454 0.438454
0.459191 0.459191 0.459191
0.481564 0.481564 0.481564
0.505497 0.505497 0.505497
0.531325 0.531325 0.531325
0.559835 0.559835 0.559835
0.590401 0.590401 0.590401
0.622355 0.622355 0.622355
0.655152 0.655152 0.655152
0.687432 0.687432 0.687432
0.716933 0.716933 0.716933
0.341928 0.341928 0.341928
0.342684 0.342684 0.342684
0.343456 0.343456 0.343456
0.344473 0.344473 0.344473
0.345591 0.345591 0.345591
0.346916 0.346916 0.346916
0.348608 0.348608 0.348608
0.350427 0.350427 0.350427
0.352611 0.352611 0.352611
0.355390 0.355390 0.355390
0.358494 0.358494 0.358494
0.361969 0.361969 0.361969
0.365891 0.365891 0.365891
0.370195 0.370195 0.370195
0.375005 0.375005 0.375005
0.380312 0.380312 0.380312
0.386146 0.386146 0.386146
0.392556 0.392556 0.392556
0.400867 0.400867 0.400867
0.413766 0.413766 0.413766
0.432659 0.432659 0.432659
0.454315 0.454315 0.454315
0.475845 0.475845 0.475845
0.498100 0.498100 0.498100
0.521903 0.521903 0.521903
0.547354 0.547354 0.547354
0.574880 0.574880 0.574880
0.605054 0.605054 0.605054
0.636748 0.636748 0.636748
0.669137 0.669137 0.669137
0.701818 0.701818 0.701818
0.734200 0.734200 0.734200
0.365584 0.365584 0.365584
0.366174 0.366174 0.366174
0.366936 0.366936 0.366936
0.367789 0.367789 0.367789
0.368829 0.368829 0.368829
0.370168 0.370168 0.370168
0.371933 0.371933 0.371933
0.373827 0.373827 0.373827
0.376289 0.376289 0.376289
0.379133 0.379133 0.379133
0.382290 0.382290 0.382290
0.385997 0.385997 0.385997
0.390201 0.390201 0.390201
0.394713 0.394713 0.394713
0.399783 0.399783 0.399783
0.405350 0.405350 0.405350
0.411445 0.411445 0.411445
0.418067 0.418067 0.418067
0.425510 0.425510 0.425510
0.434992 0.434992 0.434992
0.449650 0.449650 0.449650
0.470462 0.470462 0.470462
0.493247 0.493247 0.493247
0.515537 0.515537 0.515537
0.538441 0.538441 0.538441
0.563198 0.563198 0.563198
0.589970 0.589970 0.589970
0.619081 0.619081 0.619081
0.650258 0.650258 0.650258
0.682136 0.682136 0.682136
0.714296 0.714296 0.714296
0.745984 0.745984 0.745984
0.392272 0.392272 0.392272
0.392952 0.392952 0.392952
0.393552 0.393552 0.393552
0.394494 0.394494 0.394494
0.395533 0.395533 0.395533
0.396873 0.396873 0.396873
0.398671 0.398671 0.398671
0.400701 0.400701 0.400701
0.403151 0.403151 0.403151
0.406045 0.406045 0.406045
0.409406 0.409406 0.409406
0.413313 0.413313 0.413313
0.417665 0.417665 0.417665
0.422364 0.422364 0.422364
0.427594 0.427594 0.427594
0.433421 0.433421 0.433421
0.439776 0.439776 0.439776
0.446659 0.446659 0.446659
0.454179 0.454179 0.454179
0.462437 0.462437 0.462437
0.472995 0.472995 0.472995
0.488861 0.488861 0.488861
0.510861 0.510861 0.510861
0.534218 0.534218 0.534218
0.556089 0.556089 0.556089
0.579436 0.579436 0.579436
0.605103 0.605103 0.605103
0.632731 0.632731 0.632731
0.663101 0.663101 0.663101
0.694441 0.694441 0.694441
0.725914 0.725914 0.725914
0.757076 0.757076 0.757076
0.423010 0.423010 0.423010
0.423764 0.423764 0.423764
0.424475 0.424475 0.424475
0.425483 0.425483 0.425483
0.426523 0.426523 0.426523
0.427833 0.427833 0.427833
0.429493 0.429493 0.429493
0.431565 0.431565 0.431565
0.433960 0.433960 0.433960
0.436874 0.436874 0.436874
0.440309 0.440309 0.440309
0.444263 0.444263 0.444263
0.448643 0.448643 0.448643
0.453385 0.453385 0.453385
0.458647 0.458647 0.458647
0.464460 0.464460 0.464460
0.470794 0.470794 0.470794
0.477651 0.477651 0.477651
0.485163 0.485163 0.485163
0.493388 0.493388 0.493388
0.502335 0.502335 0.502335
0.513512 0.513512 0.513512
0.530319 0.530319 0.530319
0.553068 0.553068 0.553068
0.576367 0.576367 0.576367
0.598686 0.598686 0.598686
0.622055 0.622055 0.622055
0.647988 0.647988 0.647988
0.676825 0.676825 0.676825
0.707381 0.707381 0.707381
0.738077 0.738077 0.738077
0.768530 0.768530 0.768530
0.456725 0.456725 0.456725
0.457671 0.457671 0.457671
0.458430 0.458430 0.458430
0.459280 0.459280 0.459280
0.460515 0.460515 0.460515
0.462010 0.462010 0.462010
0.463776 0.463776 0.463776
0.465890 0.465890 0.465890
0.468480 0.468480 0.468480
0.471590 0.471590 0.471590
0.475159 0.475159 0.475159
0.479113 0.479113 0.479113
0.483566 0.483566 0.483566
0.488424 0.488424 0.488424
0.493686 0.493686 0.493686
0.499468 0.499468 0.499468
0.505770 0.505770 0.505770
0.512592 0.512592 0.512592
0.519966 0.519966 0.519966
0.528034 0.528034 0.528034
0.536689 0.536689 0.536689
0.546067 0.546067 0.546067
0.557653 0.557653 0.557653
0.574944 0.574944 0.574944
0.598096 0.598096 0.598096
0.621607 0.621607 0.621607
0.643333 0.643333 0.643333
0.666276 0.666276 0.666276
0.692617 0.692617 0.692617
0.722062 0.722062 0.722062
0.751966 0.751966 0.751966
0.781260 0.781260 0.781260
0.494750 0.494750 0.494750
0.495356 0.495356 0.495356
0.496125 0.496125 0.496125
0.497094 0.497094 0.497094
0.498208 0.498208 0.498208
0.499760 0.499760 0.499760
0.501610 0.501610 0.501610
0.503940 0.503940 0.503940
0.506739 0.506739 0.506739
0.509906 0.509906 0.509906
0.513577 0.513577 0.513577
0.517665 0.517665 0.517665
0.522140 0.522140 0.522140
0.527031 0.527031 0.527031
0.532294 0.532294 0.532294
0.537980 0.537980 0.537980
0.544181 0.544181 0.544181
0.550894 0.550894 0.550894
0.558147 0.558147 0.558147
0.566038 0.566038 0.566038
0.574468 0.574468 0.574468
0.583419 0.583419 0.583419
0.593056 0.593056 0.593056
0.604717 0.604717 0.604717
0.622370 0.622370 0.622370
0.645606 0.645606 0.645606
0.668154 0.668154 0.668154
0.688828 0.688828 0.688828
0.710760 0.710760 0.710760
0.737538 0.737538 0.737538
0.766365 0.766365 0.766365
0.794565 0.794565 0.794565
0.536279 0.536279 0.536279
0.536792 0.536792 0.536792
0.537564 0.537564 0.537564
0.538572 0.538572 0.538572
0.539670 0.539670 0.539670
0.541433 0.541433 0.541433
0.543503 0.543503 0.543503
0.546140 0.546140 0.546140
0.549399 0.549399 0.549399
0.552929 0.552929 0.552929
0.556893 0.556893 0.556893
0.561436 0.561436 0.561436
0.566254 0.566254 0.566254
0.571357 0.571357 0.571357
0.576830 0.576830 0.576830
0.582607 0.582607 0.582607
0.588677 0.588677 0.588677
0.595266 0.595266 0.595266
0.602378 0.602378 0.602378
0.610028 0.610028 0.610028
0.618199 0.618199 0.618199
0.626750 0.626750 0.626750
0.635749 0.635749 0.635749
0.645080 0.645080 0.645080
0.656602 0.656602 0.656602
0.673921 0.673921 0.673921
0.696179 0.696179 0.696179
0.717478 0.717478 0.717478
0.736407 0.736407 0.736407
0.757005 0.757005 0.757005
0.783264 0.783264 0.783264
0.809973 0.809973 0.809973
0.583694 0.583694 0.583694
0.584206 0.584206 0.584206
0.584964 0.584964 0.584964
0.585773 0.585773 0.585773
0.586849 0.586849 0.586849
0.588433 0.588433 0.588433
0.590284 0.590284 0.590284
0.592483 0.592483 0.592483
0.595219 0.595219 0.595219
0.598442 0.598442 0.598442
0.602102 0.602102 0.602102
0.606143 0.606143 0.606143
0.610670 0.610670 0.610670
0.615416 0.615416 0.615416
0.620176 0.620176 0.620176
0.625507 0.625507 0.625507
0.631447 0.631447 0.631447
0.637797 0.637797 0.637797
