gsg/05_BW/GSG_LUT_BW_Contrasty.cube
# GSG LUTs 1.0
# Copyright (c) 2016-2020 Greyscalegorilla
# See EULA for licensing and distribution information
# Converted by Briz LUT Converter
LUT_3D_SIZE 32
0.050794 0.050794 0.050794
0.052787 0.052787 0.052787
0.054016 0.054016 0.054016
0.054701 0.054701 0.054701
0.055047 0.055047 0.055047
0.057899 0.057899 0.057899
0.061223 0.061223 0.061223
0.065028 0.065028 0.065028
0.069503 0.069503 0.069503
0.074520 0.074520 0.074520
0.083658 0.083658 0.083658
0.092363 0.092363 0.092363
0.099768 0.099768 0.099768
0.109614 0.109614 0.109614
0.121399 0.121399 0.121399
0.133042 0.133042 0.133042
0.143881 0.143881 0.143881
0.155256 0.155256 0.155256
0.167104 0.167104 0.167104
0.178652 0.178652 0.178652
0.191256 0.191256 0.191256
0.204616 0.204616 0.204616
0.217976 0.217976 0.217976
0.231336 0.231336 0.231336
0.244886 0.244886 0.244886
0.259089 0.259089 0.259089
0.273867 0.273867 0.273867
0.288739 0.288739 0.288739
0.304274 0.304274 0.304274
0.318760 0.318760 0.318760
0.333365 0.333365 0.333365
0.350672 0.350672 0.350672
0.050857 0.050857 0.050857
0.053543 0.053543 0.053543
0.054821 0.054821 0.054821
0.056137 0.056137 0.056137
0.057860 0.057860 0.057860
0.060886 0.060886 0.060886
0.064061 0.064061 0.064061
0.068026 0.068026 0.068026
0.073371 0.073371 0.073371
0.080970 0.080970 0.080970
0.088891 0.088891 0.088891
0.097908 0.097908 0.097908
0.107831 0.107831 0.107831
0.118247 0.118247 0.118247
0.129209 0.129209 0.129209
0.139958 0.139958 0.139958
0.152586 0.152586 0.152586
0.166131 0.166131 0.166131
0.177912 0.177912 0.177912
0.189574 0.189574 0.189574
0.203472 0.203472 0.203472
0.217443 0.217443 0.217443
0.230646 0.230646 0.230646
0.244291 0.244291 0.244291
0.257980 0.257980 0.257980
0.272379 0.272379 0.272379
0.287401 0.287401 0.287401
0.302525 0.302525 0.302525
0.317222 0.317222 0.317222
0.332088 0.332088 0.332088
0.347914 0.347914 0.347914
0.365985 0.365985 0.365985
0.052873 0.052873 0.052873
0.054332 0.054332 0.054332
0.056177 0.056177 0.056177
0.058491 0.058491 0.058491
0.060875 0.060875 0.060875
0.063986 0.063986 0.063986
0.067446 0.067446 0.067446
0.072064 0.072064 0.072064
0.079014 0.079014 0.079014
0.087752 0.087752 0.087752
0.097104 0.097104 0.097104
0.106563 0.106563 0.106563
0.116379 0.116379 0.116379
0.127596 0.127596 0.127596
0.138972 0.138972 0.138972
0.150119 0.150119 0.150119
0.163488 0.163488 0.163488
0.177336 0.177336 0.177336
0.189012 0.189012 0.189012
0.201299 0.201299 0.201299
0.215252 0.215252 0.215252
0.229381 0.229381 0.229381
0.243104 0.243104 0.243104
0.256521 0.256521 0.256521
0.270666 0.270666 0.270666
0.285045 0.285045 0.285045
0.299810 0.299810 0.299810
0.314906 0.314906 0.314906
0.330061 0.330061 0.330061
0.345432 0.345432 0.345432
0.361519 0.361519 0.361519
0.379298 0.379298 0.379298
0.054701 0.054701 0.054701
0.055458 0.055458 0.055458
0.058031 0.058031 0.058031
0.060992 0.060992 0.060992
0.063722 0.063722 0.063722
0.067603 0.067603 0.067603
0.071907 0.071907 0.071907
0.077973 0.077973 0.077973
0.086097 0.086097 0.086097
0.095216 0.095216 0.095216
0.106297 0.106297 0.106297
0.116704 0.116704 0.116704
0.126550 0.126550 0.126550
0.138044 0.138044 0.138044
0.149805 0.149805 0.149805
0.161529 0.161529 0.161529
0.175003 0.175003 0.175003
0.188524 0.188524 0.188524
0.200325 0.200325 0.200325
0.213225 0.213225 0.213225
0.227150 0.227150 0.227150
0.241404 0.241404 0.241404
0.255549 0.255549 0.255549
0.268809 0.268809 0.268809
0.283409 0.283409 0.283409
0.297948 0.297948 0.297948
0.312541 0.312541 0.312541
0.327927 0.327927 0.327927
0.343478 0.343478 0.343478
0.359100 0.359100 0.359100
0.375156 0.375156 0.375156
0.391926 0.391926 0.391926
0.055047 0.055047 0.055047
0.057514 0.057514 0.057514
0.060326 0.060326 0.060326
0.063252 0.063252 0.063252
0.066580 0.066580 0.066580
0.071419 0.071419 0.071419
0.078126 0.078126 0.078126
0.085917 0.085917 0.085917
0.094081 0.094081 0.094081
0.103488 0.103488 0.103488
0.114514 0.114514 0.114514
0.126611 0.126611 0.126611
0.138725 0.138725 0.138725
0.149908 0.149908 0.149908
0.160926 0.160926 0.160926
0.172611 0.172611 0.172611
0.185857 0.185857 0.185857
0.199464 0.199464 0.199464
0.212220 0.212220 0.212220
0.224775 0.224775 0.224775
0.239310 0.239310 0.239310
0.254155 0.254155 0.254155
0.267885 0.267885 0.267885
0.281673 0.281673 0.281673
0.296663 0.296663 0.296663
0.311372 0.311372 0.311372
0.326260 0.326260 0.326260
0.342739 0.342739 0.342739
0.357876 0.357876 0.357876
0.373496 0.373496 0.373496
0.389282 0.389282 0.389282
0.405412 0.405412 0.405412
0.057860 0.057860 0.057860
0.059870 0.059870 0.059870
0.062990 0.062990 0.062990
0.066969 0.066969 0.066969
0.071340 0.071340 0.071340
0.076534 0.076534 0.076534
0.084446 0.084446 0.084446
0.093402 0.093402 0.093402
0.102285 0.102285 0.102285
0.112553 0.112553 0.112553
0.123868 0.123868 0.123868
0.135848 0.135848 0.135848
0.148534 0.148534 0.148534
0.161165 0.161165 0.161165
0.172691 0.172691 0.172691
0.184487 0.184487 0.184487
0.197107 0.197107 0.197107
0.210154 0.210154 0.210154
0.223404 0.223404 0.223404
0.236412 0.236412 0.236412
0.251307 0.251307 0.251307
0.266382 0.266382 0.266382
0.280416 0.280416 0.280416
0.294748 0.294748 0.294748
0.309725 0.309725 0.309725
0.325180 0.325180 0.325180
0.340760 0.340760 0.340760
0.356698 0.356698 0.356698
0.372004 0.372004 0.372004
0.388124 0.388124 0.388124
0.405085 0.405085 0.405085
0.423073 0.423073 0.423073
0.060790 0.060790 0.060790
0.062652 0.062652 0.062652
0.066124 0.066124 0.066124
0.071182 0.071182 0.071182
0.077395 0.077395 0.077395
0.083768 0.083768 0.083768
0.092112 0.092112 0.092112
0.101092 0.101092 0.101092
0.110463 0.110463 0.110463
0.122287 0.122287 0.122287
0.133539 0.133539 0.133539
0.145210 0.145210 0.145210
0.158155 0.158155 0.158155
0.171626 0.171626 0.171626
0.183461 0.183461 0.183461
0.195886 0.195886 0.195886
0.209343 0.209343 0.209343
0.222762 0.222762 0.222762
0.236082 0.236082 0.236082
0.249670 0.249670 0.249670
0.265021 0.265021 0.265021
0.279703 0.279703 0.279703
0.293413 0.293413 0.293413
0.308412 0.308412 0.308412
0.323636 0.323636 0.323636
0.338647 0.338647 0.338647
0.353869 0.353869 0.353869
0.370377 0.370377 0.370377
0.386272 0.386272 0.386272
0.402961 0.402961 0.402961
0.420598 0.420598 0.420598
0.439080 0.439080 0.439080
0.063256 0.063256 0.063256
0.065496 0.065496 0.065496
0.069509 0.069509 0.069509
0.075524 0.075524 0.075524
0.083742 0.083742 0.083742
0.091255 0.091255 0.091255
0.100170 0.100170 0.100170
0.109858 0.109858 0.109858
0.120411 0.120411 0.120411
0.132932 0.132932 0.132932
0.144275 0.144275 0.144275
0.155462 0.155462 0.155462
0.168217 0.168217 0.168217
0.182366 0.182366 0.182366
0.194988 0.194988 0.194988
0.207853 0.207853 0.207853
0.221205 0.221205 0.221205
0.234850 0.234850 0.234850
0.248836 0.248836 0.248836
0.262706 0.262706 0.262706
0.277813 0.277813 0.277813
0.292549 0.292549 0.292549
0.306808 0.306808 0.306808
0.322267 0.322267 0.322267
0.337544 0.337544 0.337544
0.352244 0.352244 0.352244
0.367249 0.367249 0.367249
0.383592 0.383592 0.383592
0.400249 0.400249 0.400249
0.417678 0.417678 0.417678
0.435444 0.435444 0.435444
0.453062 0.453062 0.453062
0.065840 0.065840 0.065840
0.069111 0.069111 0.069111
0.073859 0.073859 0.073859
0.080933 0.080933 0.080933
0.090379 0.090379 0.090379
0.099023 0.099023 0.099023
0.108873 0.108873 0.108873
0.119702 0.119702 0.119702
0.131279 0.131279 0.131279
0.143739 0.143739 0.143739
0.155802 0.155802 0.155802
0.167283 0.167283 0.167283
0.179534 0.179534 0.179534
0.193671 0.193671 0.193671
0.207481 0.207481 0.207481
0.220288 0.220288 0.220288
0.232274 0.232274 0.232274
0.245732 0.245732 0.245732
0.260775 0.260775 0.260775
0.274658 0.274658 0.274658
0.289105 0.289105 0.289105
0.304665 0.304665 0.304665
0.320306 0.320306 0.320306
0.335617 0.335617 0.335617
0.350959 0.350959 0.350959
0.366441 0.366441 0.366441
0.382305 0.382305 0.382305
0.397791 0.397791 0.397791
0.414758 0.414758 0.414758
0.432176 0.432176 0.432176
0.449390 0.449390 0.449390
0.466359 0.466359 0.466359
0.069227 0.069227 0.069227
0.074587 0.074587 0.074587
0.080611 0.080611 0.080611
0.088607 0.088607 0.088607
0.099278 0.099278 0.099278
0.109323 0.109323 0.109323
0.119822 0.119822 0.119822
0.129687 0.129687 0.129687
0.139818 0.139818 0.139818
0.153345 0.153345 0.153345
0.166586 0.166586 0.166586
0.179618 0.179618 0.179618
0.192252 0.192252 0.192252
0.204935 0.204935 0.204935
0.218291 0.218291 0.218291
0.231716 0.231716 0.231716
0.245043 0.245043 0.245043
0.258805 0.258805 0.258805
0.273205 0.273205 0.273205
0.287656 0.287656 0.287656
0.303187 0.303187 0.303187
0.318601 0.318601 0.318601
0.333456 0.333456 0.333456
0.348986 0.348986 0.348986
0.365497 0.365497 0.365497
0.381796 0.381796 0.381796
0.398114 0.398114 0.398114
0.415373 0.415373 0.415373
0.431319 0.431319 0.431319
0.447481 0.447481 0.447481
0.464297 0.464297 0.464297
0.482303 0.482303 0.482303
0.072882 0.072882 0.072882
0.080817 0.080817 0.080817
0.088022 0.088022 0.088022
0.096664 0.096664 0.096664
0.108426 0.108426 0.108426
0.119488 0.119488 0.119488
0.129850 0.129850 0.129850
0.139608 0.139608 0.139608
0.150769 0.150769 0.150769
0.165333 0.165333 0.165333
0.178121 0.178121 0.178121
0.190906 0.190906 0.190906
0.204189 0.204189 0.204189
0.217174 0.217174 0.217174
0.230332 0.230332 0.230332
0.244208 0.244208 0.244208
0.258072 0.258072 0.258072
0.271877 0.271877 0.271877
0.286359 0.286359 0.286359
0.301258 0.301258 0.301258
0.317712 0.317712 0.317712
0.333361 0.333361 0.333361
0.348144 0.348144 0.348144
0.364558 0.364558 0.364558
0.380988 0.380988 0.380988
0.397795 0.397795 0.397795
0.414765 0.414765 0.414765
0.431393 0.431393 0.431393
0.447060 0.447060 0.447060
0.463661 0.463661 0.463661
0.481393 0.481393 0.481393
0.499775 0.499775 0.499775
0.079397 0.079397 0.079397
0.088520 0.088520 0.088520
0.096923 0.096923 0.096923
0.106278 0.106278 0.106278
0.117376 0.117376 0.117376
0.128756 0.128756 0.128756
0.139524 0.139524 0.139524
0.150360 0.150360 0.150360
0.162661 0.162661 0.162661
0.177360 0.177360 0.177360
0.190282 0.190282 0.190282
0.203315 0.203315 0.203315
0.216642 0.216642 0.216642
0.229604 0.229604 0.229604
0.243262 0.243262 0.243262
0.256863 0.256863 0.256863
0.270548 0.270548 0.270548
0.284785 0.284785 0.284785
0.299476 0.299476 0.299476
0.314754 0.314754 0.314754
0.331169 0.331169 0.331169
0.347442 0.347442 0.347442
0.363249 0.363249 0.363249
0.379409 0.379409 0.379409
0.396003 0.396003 0.396003
0.412835 0.412835 0.412835
0.429636 0.429636 0.429636
0.446035 0.446035 0.446035
0.462285 0.462285 0.462285
0.479732 0.479732 0.479732
0.498234 0.498234 0.498234
0.516641 0.516641 0.516641
0.087684 0.087684 0.087684
0.097098 0.097098 0.097098
0.106750 0.106750 0.106750
0.116895 0.116895 0.116895
0.127339 0.127339 0.127339
0.138431 0.138431 0.138431
0.149879 0.149879 0.149879
0.161672 0.161672 0.161672
0.174412 0.174412 0.174412
0.188373 0.188373 0.188373
0.202024 0.202024 0.202024
0.215743 0.215743 0.215743
0.229005 0.229005 0.229005
0.241947 0.241947 0.241947
0.255955 0.255955 0.255955
0.269106 0.269106 0.269106
0.282905 0.282905 0.282905
0.297853 0.297853 0.297853
0.312616 0.312616 0.312616
0.328145 0.328145 0.328145
0.344393 0.344393 0.344393
0.361256 0.361256 0.361256
0.377809 0.377809 0.377809
0.392651 0.392651 0.392651
0.410197 0.410197 0.410197
0.427303 0.427303 0.427303
0.443539 0.443539 0.443539
0.460111 0.460111 0.460111
0.477312 0.477312 0.477312
0.495240 0.495240 0.495240
0.513708 0.513708 0.513708
0.532301 0.532301 0.532301
0.095057 0.095057 0.095057
0.105791 0.105791 0.105791
0.115786 0.115786 0.115786
0.126200 0.126200 0.126200
0.138055 0.138055 0.138055
0.150106 0.150106 0.150106
0.161436 0.161436 0.161436
0.173161 0.173161 0.173161
0.186017 0.186017 0.186017
0.199360 0.199360 0.199360
0.212905 0.212905 0.212905
0.226477 0.226477 0.226477
0.240144 0.240144 0.240144
0.254329 0.254329 0.254329
0.268225 0.268225 0.268225
0.281875 0.281875 0.281875
0.296369 0.296369 0.296369
0.311419 0.311419 0.311419
0.326406 0.326406 0.326406
0.342344 0.342344 0.342344
0.359343 0.359343 0.359343
0.376218 0.376218 0.376218
0.392134 0.392134 0.392134
0.407044 0.407044 0.407044
0.424708 0.424708 0.424708
0.442266 0.442266 0.442266
0.458866 0.458866 0.458866
0.474746 0.474746 0.474746
0.492471 0.492471 0.492471
0.510799 0.510799 0.510799
0.529632 0.529632 0.529632
0.548946 0.548946 0.548946
0.103958 0.103958 0.103958
0.115465 0.115465 0.115465
0.124968 0.124968 0.124968
0.134909 0.134909 0.134909
0.147251 0.147251 0.147251
0.160983 0.160983 0.160983
0.172970 0.172970 0.172970
0.184980 0.184980 0.184980
0.197950 0.197950 0.197950
0.210919 0.210919 0.210919
0.224802 0.224802 0.224802
0.238434 0.238434 0.238434
0.252160 0.252160 0.252160
0.267044 0.267044 0.267044
0.281547 0.281547 0.281547
0.295699 0.295699 0.295699
0.310080 0.310080 0.310080
0.324918 0.324918 0.324918
0.340394 0.340394 0.340394
0.356998 0.356998 0.356998
0.373760 0.373760 0.373760
0.390441 0.390441 0.390441
0.406906 0.406906 0.406906
0.423126 0.423126 0.423126
0.439635 0.439635 0.439635
0.456859 0.456859 0.456859
0.474120 0.474120 0.474120
0.490192 0.490192 0.490192
0.508154 0.508154 0.508154
0.526875 0.526875 0.526875
0.546222 0.546222 0.546222
0.566560 0.566560 0.566560
0.113285 0.113285 0.113285
0.124360 0.124360 0.124360
0.134191 0.134191 0.134191
0.144536 0.144536 0.144536
0.156784 0.156784 0.156784
0.171386 0.171386 0.171386
0.183749 0.183749 0.183749
0.195954 0.195954 0.195954
0.209398 0.209398 0.209398
0.222878 0.222878 0.222878
0.236789 0.236789 0.236789
0.250856 0.250856 0.250856
0.265452 0.265452 0.265452
0.280299 0.280299 0.280299
0.294558 0.294558 0.294558
0.309323 0.309323 0.309323
0.323993 0.323993 0.323993
0.338523 0.338523 0.338523
0.354093 0.354093 0.354093
0.370780 0.370780 0.370780
0.387522 0.387522 0.387522
0.404277 0.404277 0.404277
0.421334 0.421334 0.421334
0.438912 0.438912 0.438912
0.454974 0.454974 0.454974
0.471952 0.471952 0.471952
0.489650 0.489650 0.489650
0.506347 0.506347 0.506347
0.524831 0.524831 0.524831
0.543392 0.543392 0.543392
0.562870 0.562870 0.562870
0.584694 0.584694 0.584694
0.122612 0.122612 0.122612
0.133602 0.133602 0.133602
0.144709 0.144709 0.144709
0.155806 0.155806 0.155806
0.167355 0.167355 0.167355
0.181969 0.181969 0.181969
0.195113 0.195113 0.195113
0.207842 0.207842 0.207842
0.220928 0.220928 0.220928
0.234332 0.234332 0.234332
0.248754 0.248754 0.248754
0.263557 0.263557 0.263557
0.278365 0.278365 0.278365
0.292797 0.292797 0.292797
0.306967 0.306967 0.306967
0.322228 0.322228 0.322228
0.337548 0.337548 0.337548
0.352330 0.352330 0.352330
0.367737 0.367737 0.367737
0.383879 0.383879 0.383879
0.401598 0.401598 0.401598
0.419109 0.419109 0.419109
0.435939 0.435939 0.435939
0.453313 0.453313 0.453313
0.470025 0.470025 0.470025
0.487406 0.487406 0.487406
0.505470 0.505470 0.505470
0.522996 0.522996 0.522996
0.541708 0.541708 0.541708
0.560281 0.560281 0.560281
0.579393 0.579393 0.579393
0.600323 0.600323 0.600323
0.133010 0.133010 0.133010
0.144342 0.144342 0.144342
0.156078 0.156078 0.156078
0.167817 0.167817 0.167817
0.179599 0.179599 0.179599
0.193070 0.193070 0.193070
0.206984 0.206984 0.206984
0.220395 0.220395 0.220395
0.232948 0.232948 0.232948
0.246082 0.246082 0.246082
0.261286 0.261286 0.261286
0.276529 0.276529 0.276529
0.290786 0.290786 0.290786
0.305065 0.305065 0.305065
0.320147 0.320147 0.320147
0.335571 0.335571 0.335571
0.351143 0.351143 0.351143
0.366681 0.366681 0.366681
0.382274 0.382274 0.382274
0.398540 0.398540 0.398540
0.416725 0.416725 0.416725
0.434625 0.434625 0.434625
0.451212 0.451212 0.451212
0.467629 0.467629 0.467629
0.484811 0.484811 0.484811
0.502819 0.502819 0.502819
0.521178 0.521178 0.521178
0.539505 0.539505 0.539505
0.558479 0.558479 0.558479
0.577024 0.577024 0.577024
0.595645 0.595645 0.595645
0.615054 0.615054 0.615054
0.143787 0.143787 0.143787
0.155327 0.155327 0.155327
0.167209 0.167209 0.167209
0.179694 0.179694 0.179694
0.192814 0.192814 0.192814
0.204469 0.204469 0.204469
0.217976 0.217976 0.217976
0.231693 0.231693 0.231693
0.245018 0.245018 0.245018
0.259103 0.259103 0.259103
0.274193 0.274193 0.274193
0.289333 0.289333 0.289333
0.303832 0.303832 0.303832
0.318481 0.318481 0.318481
0.334114 0.334114 0.334114
0.349516 0.349516 0.349516
0.365218 0.365218 0.365218
0.381376 0.381376 0.381376
0.397521 0.397521 0.397521
0.414503 0.414503 0.414503
0.431901 0.431901 0.431901
0.449385 0.449385 0.449385
0.466433 0.466433 0.466433
0.482865 0.482865 0.482865
0.500389 0.500389 0.500389
0.518689 0.518689 0.518689
0.537091 0.537091 0.537091
0.555952 0.555952 0.555952
0.575304 0.575304 0.575304
0.593307 0.593307 0.593307
0.611400 0.611400 0.611400
0.631439 0.631439 0.631439
0.151877 0.151877 0.151877
0.166288 0.166288 0.166288
0.178724 0.178724 0.178724
0.190837 0.190837 0.190837
0.203971 0.203971 0.203971
0.215938 0.215938 0.215938
0.229622 0.229622 0.229622
0.243672 0.243672 0.243672
0.257474 0.257474 0.257474
0.271854 0.271854 0.271854
0.286390 0.286390 0.286390
0.301331 0.301331 0.301331
0.316671 0.316671 0.316671
0.332097 0.332097 0.332097
0.347373 0.347373 0.347373
0.362969 0.362969 0.362969
0.378956 0.378956 0.378956
0.395436 0.395436 0.395436
0.412297 0.412297 0.412297
0.428833 0.428833 0.428833
0.446003 0.446003 0.446003
0.463977 0.463977 0.463977
0.481740 0.481740 0.481740
0.498579 0.498579 0.498579
0.517137 0.517137 0.517137
0.535599 0.535599 0.535599
0.553847 0.553847 0.553847
0.573253 0.573253 0.573253
0.591608 0.591608 0.591608
0.609163 0.609163 0.609163
0.627035 0.627035 0.627035
0.646177 0.646177 0.646177
0.163787 0.163787 0.163787
0.177140 0.177140 0.177140
0.190008 0.190008 0.190008
0.203140 0.203140 0.203140
0.216726 0.216726 0.216726
0.228953 0.228953 0.228953
0.243176 0.243176 0.243176
0.257059 0.257059 0.257059
0.269762 0.269762 0.269762
0.284472 0.284472 0.284472
0.300158 0.300158 0.300158
0.315893 0.315893 0.315893
0.331343 0.331343 0.331343
0.346763 0.346763 0.346763
0.362071 0.362071 0.362071
0.377730 0.377730 0.377730
0.394270 0.394270 0.394270
0.411171 0.411171 0.411171
0.427916 0.427916 0.427916
0.444746 0.444746 0.444746
0.462563 0.462563 0.462563
0.480751 0.480751 0.480751
0.498592 0.498592 0.498592
0.515772 0.515772 0.515772
0.535070 0.535070 0.535070
0.553641 0.553641 0.553641
0.571527 0.571527 0.571527
0.590017 0.590017 0.590017
0.608701 0.608701 0.608701
0.626363 0.626363 0.626363
0.643782 0.643782 0.643782
0.661995 0.661995 0.661995
0.176927 0.176927 0.176927
0.189132 0.189132 0.189132
0.201848 0.201848 0.201848
0.215076 0.215076 0.215076
0.228693 0.228693 0.228693
0.242018 0.242018 0.242018
0.256291 0.256291 0.256291
0.269709 0.269709 0.269709
0.282321 0.282321 0.282321
0.297769 0.297769 0.297769
0.314638 0.314638 0.314638
0.330778 0.330778 0.330778
0.345996 0.345996 0.345996
0.361698 0.361698 0.361698
0.377281 0.377281 0.377281
0.393311 0.393311 0.393311
0.410501 0.410501 0.410501
0.427504 0.427504 0.427504
0.443764 0.443764 0.443764
0.460861 0.460861 0.460861
0.479406 0.479406 0.479406
0.497712 0.497712 0.497712
0.515436 0.515436 0.515436
0.533333 0.533333 0.533333
0.552444 0.552444 0.552444
0.571018 0.571018 0.571018
0.588929 0.588929 0.588929
0.606958 0.606958 0.606958
0.625453 0.625453 0.625453
0.643029 0.643029 0.643029
0.660191 0.660191 0.660191
0.678475 0.678475 0.678475
0.187987 0.187987 0.187987
0.201554 0.201554 0.201554
0.213973 0.213973 0.213973
0.226306 0.226306 0.226306
0.239125 0.239125 0.239125
0.254275 0.254275 0.254275
0.268502 0.268502 0.268502
0.281979 0.281979 0.281979
0.295640 0.295640 0.295640
0.311667 0.311667 0.311667
0.328495 0.328495 0.328495
0.344431 0.344431 0.344431
0.359932 0.359932 0.359932
0.376251 0.376251 0.376251
0.392137 0.392137 0.392137
0.408799 0.408799 0.408799
0.426102 0.426102 0.426102
0.442822 0.442822 0.442822
0.459134 0.459134 0.459134
0.475707 0.475707 0.475707
0.494567 0.494567 0.494567
0.513465 0.513465 0.513465
0.531547 0.531547 0.531547
0.550479 0.550479 0.550479
0.569001 0.569001 0.569001
0.587233 0.587233 0.587233
0.605627 0.605627 0.605627
0.623972 0.623972 0.623972
0.641205 0.641205 0.641205
0.658244 0.658244 0.658244
0.675715 0.675715 0.675715
0.693915 0.693915 0.693915
0.198393 0.198393 0.198393
0.212483 0.212483 0.212483
0.225755 0.225755 0.225755
0.238772 0.238772 0.238772
0.251882 0.251882 0.251882
0.266854 0.266854 0.266854
0.281864 0.281864 0.281864
0.296152 0.296152 0.296152
0.310002 0.310002 0.310002
0.325658 0.325658 0.325658
0.342249 0.342249 0.342249
0.358681 0.358681 0.358681
0.374474 0.374474 0.374474
0.390667 0.390667 0.390667
0.407512 0.407512 0.407512
0.424137 0.424137 0.424137
0.440189 0.440189 0.440189
0.456682 0.456682 0.456682
0.474025 0.474025 0.474025
0.490977 0.490977 0.490977
0.509836 0.509836 0.509836
0.529235 0.529235 0.529235
0.547896 0.547896 0.547896
0.566969 0.566969 0.566969
0.585074 0.585074 0.585074
0.603127 0.603127 0.603127
0.621383 0.621383 0.621383
0.639607 0.639607 0.639607
0.656278 0.656278 0.656278
0.673296 0.673296 0.673296
0.691081 0.691081 0.691081
0.709221 0.709221 0.709221
0.210808 0.210808 0.210808
0.224140 0.224140 0.224140
0.237371 0.237371 0.237371
0.250798 0.250798 0.250798
0.264998 0.264998 0.264998
0.280005 0.280005 0.280005
0.294970 0.294970 0.294970
0.309768 0.309768 0.309768
0.324155 0.324155 0.324155
0.338792 0.338792 0.338792
0.355457 0.355457 0.355457
0.372208 0.372208 0.372208
0.388253 0.388253 0.388253
0.404883 0.404883 0.404883
0.421719 0.421719 0.421719
0.438806 0.438806 0.438806
0.455216 0.455216 0.455216
0.471755 0.471755 0.471755
0.489542 0.489542 0.489542
0.507466 0.507466 0.507466
0.526016 0.526016 0.526016
0.545374 0.545374 0.545374
0.564710 0.564710 0.564710
0.583750 0.583750 0.583750
0.601140 0.601140 0.601140
0.618703 0.618703 0.618703
0.636938 0.636938 0.636938
0.655118 0.655118 0.655118
0.671212 0.671212 0.671212
0.687697 0.687697 0.687697
0.704778 0.704778 0.704778
0.722329 0.722329 0.722329
0.222734 0.222734 0.222734
0.235849 0.235849 0.235849
0.249201 0.249201 0.249201
0.263228 0.263228 0.263228
0.277843 0.277843 0.277843
0.292693 0.292693 0.292693
0.307235 0.307235 0.307235
0.322286 0.322286 0.322286
0.337606 0.337606 0.337606
0.352550 0.352550 0.352550
0.369594 0.369594 0.369594
0.386723 0.386723 0.386723
0.403282 0.403282 0.403282
0.420025 0.420025 0.420025
0.436366 0.436366 0.436366
0.453393 0.453393 0.453393
0.470335 0.470335 0.470335
0.487295 0.487295 0.487295
0.505203 0.505203 0.505203
0.523473 0.523473 0.523473
0.542650 0.542650 0.542650
0.562314 0.562314 0.562314
0.581524 0.581524 0.581524
0.599726 0.599726 0.599726
0.617439 0.617439 0.617439
0.634927 0.634927 0.634927
0.652323 0.652323 0.652323
0.670010 0.670010 0.670010
0.686259 0.686259 0.686259
0.702059 0.702059 0.702059
0.718307 0.718307 0.718307
0.735468 0.735468 0.735468
0.234535 0.234535 0.234535
0.247869 0.247869 0.247869
0.261686 0.261686 0.261686
0.276080 0.276080 0.276080
0.290997 0.290997 0.290997
0.305143 0.305143 0.305143
0.320029 0.320029 0.320029
0.335499 0.335499 0.335499
0.351371 0.351371 0.351371
0.367057 0.367057 0.367057
0.384248 0.384248 0.384248
0.401890 0.401890 0.401890
0.418849 0.418849 0.418849
0.435204 0.435204 0.435204
0.451447 0.451447 0.451447
0.468126 0.468126 0.468126
0.485247 0.485247 0.485247
0.502810 0.502810 0.502810
0.520832 0.520832 0.520832
0.539257 0.539257 0.539257
0.559344 0.559344 0.559344
0.579317 0.579317 0.579317
0.597812 0.597812 0.597812
0.615422 0.615422 0.615422
0.633520 0.633520 0.633520
0.650951 0.650951 0.650951
0.667585 0.667585 0.667585
0.684161 0.684161 0.684161
0.700721 0.700721 0.700721
0.716245 0.716245 0.716245
0.731738 0.731738 0.731738
0.748214 0.748214 0.748214
0.247658 0.247658 0.247658
0.261041 0.261041 0.261041
0.275143 0.275143 0.275143
0.289562 0.289562 0.289562
0.304309 0.304309 0.304309
0.318317 0.318317 0.318317
0.334382 0.334382 0.334382
0.350590 0.350590 0.350590
0.365930 0.365930 0.365930
0.381705 0.381705 0.381705
0.398113 0.398113 0.398113
0.415343 0.415343 0.415343
0.432688 0.432688 0.432688
0.449197 0.449197 0.449197
0.466318 0.466318 0.466318
0.483509 0.483509 0.483509
0.500650 0.500650 0.500650
0.518325 0.518325 0.518325
