gsg/05_BW/GSG_LUT_BW_Kodalith.cube
# GSG LUTs 1.0
# Copyright (c) 2016-2020 Greyscalegorilla
# See EULA for licensing and distribution information
# Converted by Briz LUT Converter
LUT_3D_SIZE 8
DOMAIN_MIN 0.000000 0.000000 0.000000
DOMAIN_MAX 0.903226 0.903226 0.903226
0.092063 0.092063 0.092063
0.092615 0.092615 0.092615
0.094324 0.094324 0.094324
0.096987 0.096987 0.096987
0.101241 0.101241 0.101241
0.107818 0.107818 0.107818
0.117775 0.117775 0.117775
0.132884 0.132884 0.132884
0.094663 0.094663 0.094663
0.097200 0.097200 0.097200
0.100910 0.100910 0.100910
0.103352 0.103352 0.103352
0.107850 0.107850 0.107850
0.114511 0.114511 0.114511
0.125048 0.125048 0.125048
0.144337 0.144337 0.144337
0.101241 0.101241 0.101241
0.102462 0.102462 0.102462
0.108827 0.108827 0.108827
0.121823 0.121823 0.121823
0.128916 0.128916 0.128916
0.138001 0.138001 0.138001
0.159113 0.159113 0.159113
0.207511 0.207511 0.207511
0.113939 0.113939 0.113939
0.114998 0.114998 0.114998
0.118316 0.118316 0.118316
0.135481 0.135481 0.135481
0.191125 0.191125 0.191125
0.264095 0.264095 0.264095
0.313095 0.313095 0.313095
0.390844 0.390844 0.390844
0.136027 0.136027 0.136027
0.138241 0.138241 0.138241
0.143545 0.143545 0.143545
0.159906 0.159906 0.159906
0.244061 0.244061 0.244061
0.394958 0.394958 0.394958
0.559585 0.559585 0.559585
0.627985 0.627985 0.627985
0.218205 0.218205 0.218205
0.225244 0.225244 0.225244
0.239572 0.239572 0.239572
0.267596 0.267596 0.267596
0.340631 0.340631 0.340631
0.503980 0.503980 0.503980
0.655431 0.655431 0.655431
0.758663 0.758663 0.758663
0.441286 0.441286 0.441286
0.449172 0.449172 0.449172
0.466418 0.466418 0.466418
0.497802 0.497802 0.497802
0.541886 0.541886 0.541886
0.638178 0.638178 0.638178
0.732404 0.732404 0.732404
0.787479 0.787479 0.787479
0.694001 0.694001 0.694001
0.697463 0.697463 0.697463
0.706316 0.706316 0.706316
0.721271 0.721271 0.721271
0.736853 0.736853 0.736853
0.760387 0.760387 0.760387
0.796347 0.796347 0.796347
0.816583 0.816583 0.816583
0.092615 0.092615 0.092615
0.093867 0.093867 0.093867
0.096553 0.096553 0.096553
0.101453 0.101453 0.101453
0.106732 0.106732 0.106732
0.113632 0.113632 0.113632
0.123061 0.123061 0.123061
0.139224 0.139224 0.139224
0.097389 0.097389 0.097389
0.099227 0.099227 0.099227
0.103662 0.103662 0.103662
0.108107 0.108107 0.108107
0.113013 0.113013 0.113013
0.120169 0.120169 0.120169
0.130641 0.130641 0.130641
0.152661 0.152661 0.152661
0.103990 0.103990 0.103990
0.105041 0.105041 0.105041
0.110938 0.110938 0.110938
0.123381 0.123381 0.123381
0.133901 0.133901 0.133901
0.144628 0.144628 0.144628
0.168269 0.168269 0.168269
0.218934 0.218934 0.218934
0.116244 0.116244 0.116244
0.117304 0.117304 0.117304
0.120643 0.120643 0.120643
0.136609 0.136609 0.136609
0.186183 0.186183 0.186183
0.267770 0.267770 0.267770
0.318650 0.318650 0.318650
0.396080 0.396080 0.396080
0.139685 0.139685 0.139685
0.141721 0.141721 0.141721
0.147371 0.147371 0.147371
0.164589 0.164589 0.164589
0.243399 0.243399 0.243399
0.388691 0.388691 0.388691
0.560009 0.560009 0.560009
0.630104 0.630104 0.630104
0.226331 0.226331 0.226331
0.232016 0.232016 0.232016
0.246407 0.246407 0.246407
0.274404 0.274404 0.274404
0.347098 0.347098 0.347098
0.500695 0.500695 0.500695
0.652475 0.652475 0.652475
0.757941 0.757941 0.757941
0.447274 0.447274 0.447274
0.453611 0.453611 0.453611
0.470437 0.470437 0.470437
0.502184 0.502184 0.502184
0.546772 0.546772 0.546772
0.638068 0.638068 0.638068
0.731020 0.731020 0.731020
0.786843 0.786843 0.786843
0.695391 0.695391 0.695391
0.699053 0.699053 0.699053
0.707634 0.707634 0.707634
0.722514 0.722514 0.722514
0.740957 0.740957 0.740957
0.761757 0.761757 0.761757
0.796313 0.796313 0.796313
0.816570 0.816570 0.816570
0.094387 0.094387 0.094387
0.095813 0.095813 0.095813
0.098760 0.098760 0.098760
0.102539 0.102539 0.102539
0.110569 0.110569 0.110569
0.120834 0.120834 0.120834
0.134225 0.134225 0.134225
0.158214 0.158214 0.158214
0.099736 0.099736 0.099736
0.101820 0.101820 0.101820
0.104063 0.104063 0.104063
0.109244 0.109244 0.109244
0.118007 0.118007 0.118007
0.129385 0.129385 0.129385
0.145335 0.145335 0.145335
0.178085 0.178085 0.178085
0.109205 0.109205 0.109205
0.110024 0.110024 0.110024
0.116207 0.116207 0.116207
0.127770 0.127770 0.127770
0.141153 0.141153 0.141153
0.164088 0.164088 0.164088
0.198727 0.198727 0.198727
0.256767 0.256767 0.256767
0.122219 0.122219 0.122219
0.123596 0.123596 0.123596
0.127345 0.127345 0.127345
0.146960 0.146960 0.146960
0.204064 0.204064 0.204064
0.298518 0.298518 0.298518
0.360677 0.360677 0.360677
0.435469 0.435469 0.435469
0.152347 0.152347 0.152347
0.155204 0.155204 0.155204
0.162772 0.162772 0.162772
0.185857 0.185857 0.185857
0.272696 0.272696 0.272696
0.406915 0.406915 0.406915
0.576368 0.576368 0.576368
0.648860 0.648860 0.648860
0.256032 0.256032 0.256032
0.262242 0.262242 0.262242
0.277548 0.277548 0.277548
0.306566 0.306566 0.306566
0.380130 0.380130 0.380130
0.522616 0.522616 0.522616
0.658582 0.658582 0.658582
0.761403 0.761403 0.761403
0.478615 0.478615 0.478615
0.484988 0.484988 0.484988
0.501120 0.501120 0.501120
0.530304 0.530304 0.530304
0.571673 0.571673 0.571673
0.653615 0.653615 0.653615
0.734542 0.734542 0.734542
0.789100 0.789100 0.789100
0.706311 0.706311 0.706311
0.709295 0.709295 0.709295
0.717120 0.717120 0.717120
0.730842 0.730842 0.730842
0.747924 0.747924 0.747924
0.766788 0.766788 0.766788
0.796954 0.796954 0.796954
0.817069 0.817069 0.817069
0.097814 0.097814 0.097814
0.099437 0.099437 0.099437
0.102384 0.102384 0.102384
0.107301 0.107301 0.107301
0.112331 0.112331 0.112331
0.122902 0.122902 0.122902
0.144216 0.144216 0.144216
0.184916 0.184916 0.184916
0.103175 0.103175 0.103175
0.105509 0.105509 0.105509
0.108017 0.108017 0.108017
0.112302 0.112302 0.112302
0.118352 0.118352 0.118352
0.131402 0.131402 0.131402
0.161634 0.161634 0.161634
0.213927 0.213927 0.213927
0.114127 0.114127 0.114127
0.117137 0.117137 0.117137
0.121910 0.121910 0.121910
0.128498 0.128498 0.128498
0.141822 0.141822 0.141822
0.171259 0.171259 0.171259
0.234188 0.234188 0.234188
0.305449 0.305449 0.305449
0.135228 0.135228 0.135228
0.135428 0.135428 0.135428
0.140625 0.140625 0.140625
0.169900 0.169900 0.169900
0.237340 0.237340 0.237340
0.311354 0.311354 0.311354
0.395971 0.395971 0.395971
0.478099 0.478099 0.478099
0.179717 0.179717 0.179717
0.184270 0.184270 0.184270
0.195987 0.195987 0.195987
0.227114 0.227114 0.227114
0.321273 0.321273 0.321273
0.455744 0.455744 0.455744
0.600373 0.600373 0.600373
0.669424 0.669424 0.669424
0.307413 0.307413 0.307413
0.314727 0.314727 0.314727
0.330691 0.330691 0.330691
0.360381 0.360381 0.360381
0.431929 0.431929 0.431929
0.561313 0.561313 0.561313
0.678327 0.678327 0.678327
0.766038 0.766038 0.766038
0.523207 0.523207 0.523207
0.529226 0.529226 0.529226
0.544371 0.544371 0.544371
0.571111 0.571111 0.571111
0.607757 0.607757 0.607757
0.676294 0.676294 0.676294
0.745063 0.745063 0.745063
0.791819 0.791819 0.791819
0.721369 0.721369 0.721369
0.724033 0.724033 0.724033
0.730801 0.730801 0.730801
0.742447 0.742447 0.742447
0.757455 0.757455 0.757455
0.774068 0.774068 0.774068
0.798853 0.798853 0.798853
0.817826 0.817826 0.817826
0.102832 0.102832 0.102832
0.104975 0.104975 0.104975
0.108031 0.108031 0.108031
0.112669 0.112669 0.112669
0.121003 0.121003 0.121003
0.128617 0.128617 0.128617
0.145024 0.145024 0.145024
0.206366 0.206366 0.206366
0.108701 0.108701 0.108701
0.111395 0.111395 0.111395
0.114315 0.114315 0.114315
0.118470 0.118470 0.118470
0.126508 0.126508 0.126508
0.134943 0.134943 0.134943
0.161555 0.161555 0.161555
0.238018 0.238018 0.238018
0.119563 0.119563 0.119563
0.123313 0.123313 0.123313
0.129289 0.129289 0.129289
0.135022 0.135022 0.135022
0.144835 0.144835 0.144835
0.169624 0.169624 0.169624
0.231324 0.231324 0.231324
0.329484 0.329484 0.329484
0.150602 0.150602 0.150602
0.156948 0.156948 0.156948
0.170503 0.170503 0.170503
0.205264 0.205264 0.205264
0.251418 0.251418 0.251418
0.311576 0.311576 0.311576
0.393680 0.393680 0.393680
0.488815 0.488815 0.488815
0.247114 0.247114 0.247114
0.245607 0.245607 0.245607
0.254890 0.254890 0.254890
0.290583 0.290583 0.290583
0.387305 0.387305 0.387305
0.512150 0.512150 0.512150
0.602383 0.602383 0.602383
0.665854 0.665854 0.665854
0.380861 0.380861 0.380861
0.387317 0.387317 0.387317
0.402579 0.402579 0.402579
0.430190 0.430190 0.430190
0.491737 0.491737 0.491737
0.607110 0.607110 0.607110
0.706774 0.706774 0.706774
0.773439 0.773439 0.773439
0.582717 0.582717 0.582717
0.586577 0.586577 0.586577
0.596081 0.596081 0.596081
0.616342 0.616342 0.616342
0.647628 0.647628 0.647628
0.700105 0.700105 0.700105
0.759402 0.759402 0.759402
0.797847 0.797847 0.797847
0.738320 0.738320 0.738320
0.740020 0.740020 0.740020
0.745232 0.745232 0.745232
0.755488 0.755488 0.755488
0.768229 0.768229 0.768229
0.782408 0.782408 0.782408
0.802524 0.802524 0.802524
0.819315 0.819315 0.819315
0.110733 0.110733 0.110733
0.113608 0.113608 0.113608
0.116822 0.116822 0.116822
0.123004 0.123004 0.123004
0.129545 0.129545 0.129545
0.149331 0.149331 0.149331
0.175509 0.175509 0.175509
0.222969 0.222969 0.222969
0.116464 0.116464 0.116464
0.120064 0.120064 0.120064
0.123187 0.123187 0.123187
0.129482 0.129482 0.129482
0.137213 0.137213 0.137213
0.161533 0.161533 0.161533
0.191597 0.191597 0.191597
0.244624 0.244624 0.244624
0.128197 0.128197 0.128197
0.133159 0.133159 0.133159
0.143126 0.143126 0.143126
0.153997 0.153997 0.153997
0.170707 0.170707 0.170707
0.203945 0.203945 0.203945
0.243365 0.243365 0.243365
0.326241 0.326241 0.326241
0.165583 0.165583 0.165583
0.174216 0.174216 0.174216
0.204543 0.204543 0.204543
0.239666 0.239666 0.239666
0.271102 0.271102 0.271102
0.314111 0.314111 0.314111
0.389189 0.389189 0.389189
0.485026 0.485026 0.485026
0.311984 0.311984 0.311984
0.326939 0.326939 0.326939
0.355141 0.355141 0.355141
0.387166 0.387166 0.387166
0.464516 0.464516 0.464516
0.533243 0.533243 0.533243
0.592992 0.592992 0.592992
0.651583 0.651583 0.651583
0.514596 0.514596 0.514596
0.514991 0.514991 0.514991
0.510414 0.510414 0.510414
0.526475 0.526475 0.526475
0.571908 0.571908 0.571908
0.662703 0.662703 0.662703
0.735946 0.735946 0.735946
0.769312 0.769312 0.769312
0.671813 0.671813 0.671813
0.670263 0.670263 0.670263
0.667483 0.667483 0.667483
0.678142 0.678142 0.678142
0.696608 0.696608 0.696608
0.729485 0.729485 0.729485
0.776432 0.776432 0.776432
0.806770 0.806770 0.806770
0.777678 0.777678 0.777678
0.776924 0.776924 0.776924
0.774703 0.774703 0.774703
0.775338 0.775338 0.775338
0.781801 0.781801 0.781801
0.792773 0.792773 0.792773
0.807547 0.807547 0.807547
0.822910 0.822910 0.822910
0.123227 0.123227 0.123227
0.128113 0.128113 0.128113
0.132344 0.132344 0.132344
0.142124 0.142124 0.142124
0.162424 0.162424 0.162424
0.184215 0.184215 0.184215
0.258773 0.258773 0.258773
0.320161 0.320161 0.320161
0.128449 0.128449 0.128449
0.133991 0.133991 0.133991
0.141160 0.141160 0.141160
0.153137 0.153137 0.153137
0.177139 0.177139 0.177139
0.202444 0.202444 0.202444
0.279971 0.279971 0.279971
0.336723 0.336723 0.336723
0.143552 0.143552 0.143552
0.152378 0.152378 0.152378
0.178478 0.178478 0.178478
0.199550 0.199550 0.199550
0.233188 0.233188 0.233188
0.269213 0.269213 0.269213
0.348010 0.348010 0.348010
0.403932 0.403932 0.403932
0.189405 0.189405 0.189405
0.200011 0.200011 0.200011
0.248555 0.248555 0.248555
0.313361 0.313361 0.313361
0.353016 0.353016 0.353016
0.403968 0.403968 0.403968
0.460523 0.460523 0.460523
0.509928 0.509928 0.509928
0.345583 0.345583 0.345583
0.358613 0.358613 0.358613
0.389842 0.389842 0.389842
0.452594 0.452594 0.452594
0.512842 0.512842 0.512842
0.552484 0.552484 0.552484
0.592447 0.592447 0.592447
0.648342 0.648342 0.648342
0.581467 0.581467 0.581467
0.590748 0.590748 0.590748
0.611255 0.611255 0.611255
0.641843 0.641843 0.641843
0.665911 0.665911 0.665911
0.711652 0.711652 0.711652
0.742772 0.742772 0.742772
0.764292 0.764292 0.764292
0.739148 0.739148 0.739148
0.741580 0.741580 0.741580
0.746149 0.746149 0.746149
0.747276 0.747276 0.747276
0.749316 0.749316 0.749316
0.765259 0.765259 0.765259
0.794558 0.794558 0.794558
0.815007 0.815007 0.815007
0.805167 0.805167 0.805167
0.805119 0.805119 0.805119
0.805180 0.805180 0.805180
0.804231 0.804231 0.804231
0.803191 0.803191 0.803191
0.807317 0.807317 0.807317
0.815015 0.815015 0.815015
0.828176 0.828176 0.828176
0.150538 0.150538 0.150538
0.163771 0.163771 0.163771
0.187135 0.187135 0.187135
0.213005 0.213005 0.213005
0.257622 0.257622 0.257622
0.321098 0.321098 0.321098
0.362182 0.362182 0.362182
0.483293 0.483293 0.483293
0.158836 0.158836 0.158836
0.174029 0.174029 0.174029
0.209079 0.209079 0.209079
0.236535 0.236535 0.236535
0.282245 0.282245 0.282245
0.345423 0.345423 0.345423
0.387684 0.387684 0.387684
0.504989 0.504989 0.504989
0.182193 0.182193 0.182193
0.202791 0.202791 0.202791
0.264397 0.264397 0.264397
0.308058 0.308058 0.308058
0.354960 0.354960 0.354960
0.415604 0.415604 0.415604
0.460922 0.460922 0.460922
0.565578 0.565578 0.565578
0.221612 0.221612 0.221612
0.244565 0.244565 0.244565
0.316379 0.316379 0.316379
0.428134 0.428134 0.428134
0.476885 0.476885 0.476885
0.530412 0.530412 0.530412
0.573314 0.573314 0.573314
0.644484 0.644484 0.644484
0.376618 0.376618 0.376618
0.388073 0.388073 0.388073
0.413052 0.413052 0.413052
0.499751 0.499751 0.499751
0.610774 0.610774 0.610774
0.649976 0.649976 0.649976
0.682674 0.682674 0.682674
0.714871 0.714871 0.714871
0.614722 0.614722 0.614722
0.621021 0.621021 0.621021
0.635869 0.635869 0.635869
0.660871 0.660871 0.660871
0.697671 0.697671 0.697671
0.743091 0.743091 0.743091
0.761413 0.761413 0.761413
0.773264 0.773264 0.773264
0.758986 0.758986 0.758986
0.761201 0.761201 0.761201
0.766429 0.766429 0.766429
0.775704 0.775704 0.775704
0.786988 0.786988 0.786988
0.798259 0.798259 0.798259
0.807447 0.807447 0.807447
0.815100 0.815100 0.815100
0.815120 0.815120 0.815120
0.815664 0.815664 0.815664
0.817011 0.817011 0.817011
0.819449 0.819449 0.819449
0.822606 0.822606 0.822606
0.824244 0.824244 0.824244
0.826914 0.826914 0.826914
0.834839 0.834839 0.834839
