gsg/05_BW/GSG_LUT_BW_Flat.cube
# GSG LUTs 1.0
# Copyright (c) 2016-2020 Greyscalegorilla
# See EULA for licensing and distribution information
# Converted by Briz LUT Converter
LUT_3D_SIZE 8
DOMAIN_MIN 0.000000 0.000000 0.000000
DOMAIN_MAX 0.903226 0.903226 0.903226
0.050794 0.050794 0.050794
0.062563 0.062563 0.062563
0.087841 0.087841 0.087841
0.131876 0.131876 0.131876
0.181244 0.181244 0.181244
0.236189 0.236189 0.236189
0.291457 0.291457 0.291457
0.347954 0.347954 0.347954
0.061948 0.061948 0.061948
0.081949 0.081949 0.081949
0.125631 0.125631 0.125631
0.173934 0.173934 0.173934
0.229612 0.229612 0.229612
0.285641 0.285641 0.285641
0.343775 0.343775 0.343775
0.398210 0.398210 0.398210
0.080641 0.080641 0.080641
0.119106 0.119106 0.119106
0.166832 0.166832 0.166832
0.222867 0.222867 0.222867
0.277822 0.277822 0.277822
0.335697 0.335697 0.335697
0.393411 0.393411 0.393411
0.451483 0.451483 0.451483
0.114168 0.114168 0.114168
0.163002 0.163002 0.163002
0.217655 0.217655 0.217655
0.274261 0.274261 0.274261
0.331328 0.331328 0.331328
0.388447 0.388447 0.388447
0.446853 0.446853 0.446853
0.503628 0.503628 0.503628
0.155240 0.155240 0.155240
0.209956 0.209956 0.209956
0.266244 0.266244 0.266244
0.323966 0.323966 0.323966
0.380424 0.380424 0.380424
0.440146 0.440146 0.440146
0.496801 0.496801 0.496801
0.554819 0.554819 0.554819
0.206152 0.206152 0.206152
0.260026 0.260026 0.260026
0.317401 0.317401 0.317401
0.376143 0.376143 0.376143
0.434253 0.434253 0.434253
0.490646 0.490646 0.490646
0.549707 0.549707 0.549707
0.606653 0.606653 0.606653
0.256119 0.256119 0.256119
0.310684 0.310684 0.310684
0.369450 0.369450 0.369450
0.428299 0.428299 0.428299
0.484643 0.484643 0.484643
0.543381 0.543381 0.543381
0.600817 0.600817 0.600817
0.654972 0.654972 0.654972
0.306196 0.306196 0.306196
0.363347 0.363347 0.363347
0.420332 0.420332 0.420332
0.478685 0.478685 0.478685
0.535984 0.535984 0.535984
0.594475 0.594475 0.594475
0.650718 0.650718 0.650718
0.703743 0.703743 0.703743
0.058900 0.058900 0.058900
0.081461 0.081461 0.081461
0.119696 0.119696 0.119696
0.172383 0.172383 0.172383
0.224523 0.224523 0.224523
0.281088 0.281088 0.281088
0.338922 0.338922 0.338922
0.394057 0.394057 0.394057
0.075016 0.075016 0.075016
0.113621 0.113621 0.113621
0.162570 0.162570 0.162570
0.219526 0.219526 0.219526
0.273752 0.273752 0.273752
0.330834 0.330834 0.330834
0.389493 0.389493 0.389493
0.447044 0.447044 0.447044
0.109771 0.109771 0.109771
0.155749 0.155749 0.155749
0.209740 0.209740 0.209740
0.268615 0.268615 0.268615
0.324452 0.324452 0.324452
0.381557 0.381557 0.381557
0.440534 0.440534 0.440534
0.496687 0.496687 0.496687
0.154603 0.154603 0.154603
0.206858 0.206858 0.206858
0.262405 0.262405 0.262405
0.318757 0.318757 0.318757
0.376548 0.376548 0.376548
0.435013 0.435013 0.435013
0.492705 0.492705 0.492705
0.550520 0.550520 0.550520
0.200737 0.200737 0.200737
0.255446 0.255446 0.255446
0.311919 0.311919 0.311919
0.370555 0.370555 0.370555
0.428023 0.428023 0.428023
0.485985 0.485985 0.485985
0.544541 0.544541 0.544541
0.600651 0.600651 0.600651
0.250678 0.250678 0.250678
0.306055 0.306055 0.306055
0.363274 0.363274 0.363274
0.423212 0.423212 0.423212
0.479055 0.479055 0.479055
0.537521 0.537521 0.537521
0.596015 0.596015 0.596015
0.650547 0.650547 0.650547
0.301588 0.301588 0.301588
0.359135 0.359135 0.359135
0.415988 0.415988 0.415988
0.474168 0.474168 0.474168
0.531058 0.531058 0.531058
0.590560 0.590560 0.590560
0.645380 0.645380 0.645380
0.697947 0.697947 0.697947
0.352019 0.352019 0.352019
0.409665 0.409665 0.409665
0.466815 0.466815 0.466815
0.525294 0.525294 0.525294
0.582962 0.582962 0.582962
0.638231 0.638231 0.638231
0.692659 0.692659 0.692659
0.743957 0.743957 0.743957
0.073922 0.073922 0.073922
0.112097 0.112097 0.112097
0.161348 0.161348 0.161348
0.215227 0.215227 0.215227
0.269093 0.269093 0.269093
0.327045 0.327045 0.327045
0.385001 0.385001 0.385001
0.442619 0.442619 0.442619
0.106846 0.106846 0.106846
0.154189 0.154189 0.154189
0.205360 0.205360 0.205360
0.263908 0.263908 0.263908
0.318816 0.318816 0.318816
0.377315 0.377315 0.377315
0.436260 0.436260 0.436260
0.492470 0.492470 0.492470
0.150117 0.150117 0.150117
0.200606 0.200606 0.200606
0.254999 0.254999 0.254999
0.313942 0.313942 0.313942
0.370208 0.370208 0.370208
0.429833 0.429833 0.429833
0.486600 0.486600 0.486600
0.544071 0.544071 0.544071
0.197686 0.197686 0.197686
0.252162 0.252162 0.252162
0.308174 0.308174 0.308174
0.365368 0.365368 0.365368
0.424187 0.424187 0.424187
0.480622 0.480622 0.480622
0.539393 0.539393 0.539393
0.595678 0.595678 0.595678
0.244625 0.244625 0.244625
0.301093 0.301093 0.301093
0.358533 0.358533 0.358533
0.417656 0.417656 0.417656
0.473730 0.473730 0.473730
0.532352 0.532352 0.532352
0.591053 0.591053 0.591053
0.645173 0.645173 0.645173
0.296640 0.296640 0.296640
0.352691 0.352691 0.352691
0.410046 0.410046 0.410046
0.468370 0.468370 0.468370
0.525450 0.525450 0.525450
0.584758 0.584758 0.584758
0.639979 0.639979 0.639979
0.693203 0.693203 0.693203
0.348244 0.348244 0.348244
0.404344 0.404344 0.404344
0.461177 0.461177 0.461177
0.520653 0.520653 0.520653
0.578794 0.578794 0.578794
0.633700 0.633700 0.633700
0.689029 0.689029 0.689029
0.738996 0.738996 0.738996
0.398383 0.398383 0.398383
0.455839 0.455839 0.455839
0.513229 0.513229 0.513229
0.572435 0.572435 0.572435
0.626754 0.626754 0.626754
0.682545 0.682545 0.682545
0.733631 0.733631 0.733631
0.781528 0.781528 0.781528
0.103171 0.103171 0.103171
0.150408 0.150408 0.150408
0.203928 0.203928 0.203928
0.259852 0.259852 0.259852
0.316477 0.316477 0.316477
0.374324 0.374324 0.374324
0.432819 0.432819 0.432819
0.489345 0.489345 0.489345
0.143817 0.143817 0.143817
0.198281 0.198281 0.198281
0.253284 0.253284 0.253284
0.310201 0.310201 0.310201
0.367070 0.367070 0.367070
0.426139 0.426139 0.426139
0.482682 0.482682 0.482682
0.540669 0.540669 0.540669
0.193162 0.193162 0.193162
0.247732 0.247732 0.247732
0.302231 0.302231 0.302231
0.361189 0.361189 0.361189
0.419046 0.419046 0.419046
0.476656 0.476656 0.476656
0.534874 0.534874 0.534874
0.592411 0.592411 0.592411
0.242698 0.242698 0.242698
0.298674 0.298674 0.298674
0.354441 0.354441 0.354441
0.413690 0.413690 0.413690
0.470910 0.470910 0.470910
0.528382 0.528382 0.528382
0.587873 0.587873 0.587873
0.642535 0.642535 0.642535
0.291844 0.291844 0.291844
0.348364 0.348364 0.348364
0.405685 0.405685 0.405685
0.464329 0.464329 0.464329
0.522097 0.522097 0.522097
0.580836 0.580836 0.580836
0.636438 0.636438 0.636438
0.690051 0.690051 0.690051
0.342804 0.342804 0.342804
0.399566 0.399566 0.399566
0.457678 0.457678 0.457678
0.516376 0.516376 0.516376
0.574570 0.574570 0.574570
0.630093 0.630093 0.630093
0.684937 0.684937 0.684937
0.735815 0.735815 0.735815
0.394806 0.394806 0.394806
0.452386 0.452386 0.452386
0.509210 0.509210 0.509210
0.568963 0.568963 0.568963
0.624588 0.624588 0.624588
0.678777 0.678777 0.678777
0.731050 0.731050 0.731050
0.778973 0.778973 0.778973
0.445753 0.445753 0.445753
0.502915 0.502915 0.502915
0.561009 0.561009 0.561009
0.618376 0.618376 0.618376
0.672299 0.672299 0.672299
0.724328 0.724328 0.724328
0.774168 0.774168 0.774168
0.819518 0.819518 0.819518
0.142243 0.142243 0.142243
0.193549 0.193549 0.193549
0.248164 0.248164 0.248164
0.305194 0.305194 0.305194
0.362131 0.362131 0.362131
0.422007 0.422007 0.422007
0.478671 0.478671 0.478671
0.536298 0.536298 0.536298
0.188784 0.188784 0.188784
0.241677 0.241677 0.241677
0.298232 0.298232 0.298232
0.356627 0.356627 0.356627
0.413779 0.413779 0.413779
0.471864 0.471864 0.471864
0.529856 0.529856 0.529856
0.587852 0.587852 0.587852
0.235696 0.235696 0.235696
0.292213 0.292213 0.292213
0.348582 0.348582 0.348582
0.407864 0.407864 0.407864
0.464705 0.464705 0.464705
0.523021 0.523021 0.523021
0.581568 0.581568 0.581568
0.636093 0.636093 0.636093
0.287495 0.287495 0.287495
0.343273 0.343273 0.343273
0.400761 0.400761 0.400761
0.460292 0.460292 0.460292
0.516654 0.516654 0.516654
0.576434 0.576434 0.576434
0.631935 0.631935 0.631935
0.685009 0.685009 0.685009
0.338038 0.338038 0.338038
0.394847 0.394847 0.394847
0.452717 0.452717 0.452717
0.510832 0.510832 0.510832
0.569133 0.569133 0.569133
0.625405 0.625405 0.625405
0.679757 0.679757 0.679757
0.731576 0.731576 0.731576
0.389417 0.389417 0.389417
0.446829 0.446829 0.446829
0.503663 0.503663 0.503663
0.563578 0.563578 0.563578
0.619025 0.619025 0.619025
0.674244 0.674244 0.674244
0.726502 0.726502 0.726502
0.774603 0.774603 0.774603
0.441542 0.441542 0.441542
0.498125 0.498125 0.498125
0.556218 0.556218 0.556218
0.613848 0.613848 0.613848
0.668443 0.668443 0.668443
0.720988 0.720988 0.720988
0.770639 0.770639 0.770639
0.815085 0.815085 0.815085
0.491526 0.491526 0.491526
0.549561 0.549561 0.549561
0.606489 0.606489 0.606489
0.662187 0.662187 0.662187
0.714298 0.714298 0.714298
0.764080 0.764080 0.764080
0.810637 0.810637 0.810637
0.851862 0.851862 0.851862
0.182630 0.182630 0.182630
0.238473 0.238473 0.238473
0.293308 0.293308 0.293308
0.353192 0.353192 0.353192
0.410601 0.410601 0.410601
0.467848 0.467848 0.467848
0.526224 0.526224 0.526224
0.583393 0.583393 0.583393
0.231263 0.231263 0.231263
0.287803 0.287803 0.287803
0.344873 0.344873 0.344873
0.404158 0.404158 0.404158
0.460592 0.460592 0.460592
0.518332 0.518332 0.518332
0.578065 0.578065 0.578065
0.633057 0.633057 0.633057
0.282170 0.282170 0.282170
0.337926 0.337926 0.337926
0.395601 0.395601 0.395601
0.454301 0.454301 0.454301
0.511320 0.511320 0.511320
0.570828 0.570828 0.570828
0.626629 0.626629 0.626629
0.680767 0.680767 0.680767
0.333547 0.333547 0.333547
0.391333 0.391333 0.391333
0.448497 0.448497 0.448497
0.506875 0.506875 0.506875
0.565364 0.565364 0.565364
0.621552 0.621552 0.621552
0.676133 0.676133 0.676133
0.727809 0.727809 0.727809
0.384434 0.384434 0.384434
0.442670 0.442670 0.442670
0.498816 0.498816 0.498816
0.558990 0.558990 0.558990
0.614359 0.614359 0.614359
0.670106 0.670106 0.670106
0.722500 0.722500 0.722500
0.771239 0.771239 0.771239
0.437505 0.437505 0.437505
0.493482 0.493482 0.493482
0.551414 0.551414 0.551414
0.608778 0.608778 0.608778
0.663367 0.663367 0.663367
0.716458 0.716458 0.716458
0.766225 0.766225 0.766225
0.811009 0.811009 0.811009
0.488307 0.488307 0.488307
0.546343 0.546343 0.546343
0.602612 0.602612 0.602612
0.658628 0.658628 0.658628
0.711609 0.711609 0.711609
0.761802 0.761802 0.761802
0.807567 0.807567 0.807567
0.849319 0.849319 0.849319
0.539510 0.539510 0.539510
0.596480 0.596480 0.596480
0.651019 0.651019 0.651019
0.706021 0.706021 0.706021
0.755331 0.755331 0.755331
0.802760 0.802760 0.802760
0.844442 0.844442 0.844442
0.882621 0.882621 0.882621
0.228130 0.228130 0.228130
0.284072 0.284072 0.284072
0.341567 0.341567 0.341567
0.399597 0.399597 0.399597
0.457445 0.457445 0.457445
0.514825 0.514825 0.514825
0.573851 0.573851 0.573851
0.629411 0.629411 0.629411
0.279108 0.279108 0.279108
0.334030 0.334030 0.334030
0.392006 0.392006 0.392006
0.450811 0.450811 0.450811
0.507779 0.507779 0.507779
0.566475 0.566475 0.566475
0.623428 0.623428 0.623428
0.676616 0.676616 0.676616
0.328760 0.328760 0.328760
0.385019 0.385019 0.385019
0.443050 0.443050 0.443050
0.500846 0.500846 0.500846
0.559350 0.559350 0.559350
0.616118 0.616118 0.616118
0.671327 0.671327 0.671327
0.722860 0.722860 0.722860
0.381065 0.381065 0.381065
0.438528 0.438528 0.438528
0.495271 0.495271 0.495271
0.554732 0.554732 0.554732
0.610313 0.610313 0.610313
0.665994 0.665994 0.665994
0.718847 0.718847 0.718847
0.768074 0.768074 0.768074
0.432995 0.432995 0.432995
0.488182 0.488182 0.488182
0.546957 0.546957 0.546957
0.605085 0.605085 0.605085
0.659414 0.659414 0.659414
0.712621 0.712621 0.712621
0.762783 0.762783 0.762783
0.807894 0.807894 0.807894
0.483808 0.483808 0.483808
0.540702 0.540702 0.540702
0.598248 0.598248 0.598248
0.653982 0.653982 0.653982
0.707319 0.707319 0.707319
0.757765 0.757765 0.757765
0.804390 0.804390 0.804390
0.846194 0.846194 0.846194
0.536201 0.536201 0.536201
0.593116 0.593116 0.593116
0.647790 0.647790 0.647790
0.702146 0.702146 0.702146
0.752011 0.752011 0.752011
0.799012 0.799012 0.799012
0.841770 0.841770 0.841770
0.879434 0.879434 0.879434
0.586686 0.586686 0.586686
0.642041 0.642041 0.642041
0.695245 0.695245 0.695245
0.747034 0.747034 0.747034
0.793473 0.793473 0.793473
0.836983 0.836983 0.836983
0.876378 0.876378 0.876378
0.910554 0.910554 0.910554
0.275474 0.275474 0.275474
0.329789 0.329789 0.329789
0.387662 0.387662 0.387662
0.446234 0.446234 0.446234
0.502851 0.502851 0.502851
0.562084 0.562084 0.562084
0.618368 0.618368 0.618368
0.671929 0.671929 0.671929
0.325058 0.325058 0.325058
0.380892 0.380892 0.380892
0.438612 0.438612 0.438612
0.496509 0.496509 0.496509
0.554621 0.554621 0.554621
0.611547 0.611547 0.611547
0.666877 0.666877 0.666877
0.719422 0.719422 0.719422
0.376093 0.376093 0.376093
0.433119 0.433119 0.433119
0.488692 0.488692 0.488692
0.548622 0.548622 0.548622
0.605073 0.605073 0.605073
0.659636 0.659636 0.659636
0.712877 0.712877 0.712877
0.762138 0.762138 0.762138
0.427632 0.427632 0.427632
0.484042 0.484042 0.484042
0.542134 0.542134 0.542134
0.600141 0.600141 0.600141
0.655248 0.655248 0.655248
0.708331 0.708331 0.708331
0.759001 0.759001 0.759001
0.804864 0.804864 0.804864
0.477619 0.477619 0.477619
0.535613 0.535613 0.535613
0.592796 0.592796 0.592796
0.649166 0.649166 0.649166
0.701877 0.701877 0.701877
0.752433 0.752433 0.752433
0.799184 0.799184 0.799184
0.842380 0.842380 0.842380
0.529762 0.529762 0.529762
0.587997 0.587997 0.587997
0.642452 0.642452 0.642452
0.697454 0.697454 0.697454
0.747326 0.747326 0.747326
0.794841 0.794841 0.794841
0.838719 0.838719 0.838719
0.876108 0.876108 0.876108
0.583053 0.583053 0.583053
0.637087 0.637087 0.637087
0.690115 0.690115 0.690115
0.742937 0.742937 0.742937
0.789815 0.789815 0.789815
0.833598 0.833598 0.833598
0.873061 0.873061 0.873061
0.907349 0.907349 0.907349
0.632778 0.632778 0.632778
0.685463 0.685463 0.685463
0.735666 0.735666 0.735666
0.785304 0.785304 0.785304
0.828880 0.828880 0.828880
0.868397 0.868397 0.868397
0.903921 0.903921 0.903921
0.936406 0.936406 0.936406
