gsg/05_BW/GSG_LUT_BW_Flat.cube
# GSG LUTs 1.0
# Copyright (c) 2016-2020 Greyscalegorilla
# See EULA for licensing and distribution information
# Converted by Briz LUT Converter
LUT_3D_SIZE 5
DOMAIN_MIN 0.000000 0.000000 0.000000
DOMAIN_MAX 0.903226 0.903226 0.903226
0.050794 0.050794 0.050794
0.078640 0.078640 0.078640
0.155697 0.155697 0.155697
0.250376 0.250376 0.250376
0.347954 0.347954 0.347954
0.073772 0.073772 0.073772
0.143338 0.143338 0.143338
0.238016 0.238016 0.238016
0.337400 0.337400 0.337400
0.438873 0.438873 0.438873
0.135240 0.135240 0.135240
0.228876 0.228876 0.228876
0.327318 0.327318 0.327318
0.430084 0.430084 0.430084
0.528880 0.528880 0.528880
0.219016 0.219016 0.219016
0.316769 0.316769 0.316769
0.418556 0.418556 0.418556
0.519250 0.519250 0.519250
0.619945 0.619945 0.619945
0.306196 0.306196 0.306196
0.405464 0.405464 0.405464
0.506941 0.506941 0.506941
0.608436 0.608436 0.608436
0.703743 0.703743 0.703743
0.068880 0.068880 0.068880
0.137773 0.137773 0.137773
0.230897 0.230897 0.230897
0.329651 0.329651 0.329651
0.430863 0.430863 0.430863
0.128430 0.128430 0.128430
0.218184 0.218184 0.218184
0.318018 0.318018 0.318018
0.420097 0.420097 0.420097
0.519845 0.519845 0.519845
0.209700 0.209700 0.209700
0.307299 0.307299 0.307299
0.408774 0.408774 0.408774
0.509924 0.509924 0.509924
0.609797 0.609797 0.609797
0.297627 0.297627 0.297627
0.396757 0.396757 0.396757
0.499115 0.499115 0.499115
0.600653 0.600653 0.600653
0.695118 0.695118 0.695118
0.386600 0.386600 0.386600
0.486799 0.486799 0.486799
0.589357 0.589357 0.589357
0.685409 0.685409 0.685409
0.772463 0.772463 0.772463
0.122738 0.122738 0.122738
0.210963 0.210963 0.210963
0.310615 0.310615 0.310615
0.413033 0.413033 0.413033
0.513230 0.513230 0.513230
0.201515 0.201515 0.201515
0.299163 0.299163 0.299163
0.399990 0.399990 0.399990
0.501383 0.501383 0.501383
0.602225 0.602225 0.602225
0.289524 0.289524 0.289524
0.389737 0.389737 0.389737
0.491039 0.491039 0.491039
0.593196 0.593196 0.593196
0.687850 0.687850 0.687850
0.379731 0.379731 0.379731
0.479149 0.479149 0.479149
0.582221 0.582221 0.582221
0.678634 0.678634 0.678634
0.766801 0.766801 0.766801
0.469266 0.469266 0.469266
0.570178 0.570178 0.570178
0.667525 0.667525 0.667525
0.757435 0.757435 0.757435
0.835770 0.835770 0.835770
0.194108 0.194108 0.194108
0.292028 0.292028 0.292028
0.393312 0.393312 0.393312
0.494944 0.494944 0.494944
0.595148 0.595148 0.595148
0.281996 0.281996 0.281996
0.380182 0.380182 0.380182
0.482543 0.482543 0.482543
0.585291 0.585291 0.585291
0.679858 0.679858 0.679858
0.372027 0.372027 0.372027
0.471657 0.471657 0.471657
0.574428 0.574428 0.574428
0.671204 0.671204 0.671204
0.760094 0.760094 0.760094
0.461910 0.461910 0.461910
0.562810 0.562810 0.562810
0.660786 0.660786 0.660786
0.751562 0.751562 0.751562
0.830302 0.830302 0.830302
0.552317 0.552317 0.552317
0.649616 0.649616 0.649616
0.741160 0.741160 0.741160
0.823011 0.823011 0.823011
0.889836 0.889836 0.889836
0.275474 0.275474 0.275474
0.373456 0.373456 0.373456
0.474208 0.474208 0.474208
0.577219 0.577219 0.577219
0.671929 0.671929 0.671929
0.362159 0.362159 0.362159
0.461930 0.461930 0.461930
0.564372 0.564372 0.564372
0.661966 0.661966 0.661966
0.751535 0.751535 0.751535
0.452138 0.452138 0.452138
0.553382 0.553382 0.553382
0.652294 0.652294 0.652294
0.744154 0.744154 0.744154
0.823682 0.823682 0.823682
0.543707 0.543707 0.543707
0.641730 0.641730 0.641730
0.734419 0.734419 0.734419
0.816557 0.816557 0.816557
0.884704 0.884704 0.884704
0.632778 0.632778 0.632778
0.723570 0.723570 0.723570
0.807429 0.807429 0.807429
0.878067 0.878067 0.878067
0.936406 0.936406 0.936406
