gsg/05_BW/GSG_LUT_BW_Flat.cube
# GSG LUTs 1.0
# Copyright (c) 2016-2020 Greyscalegorilla
# See EULA for licensing and distribution information
# Converted by Briz LUT Converter
LUT_3D_SIZE 32
0.050794 0.050794 0.050794
0.053811 0.053811 0.053811
0.056599 0.056599 0.056599
0.059601 0.059601 0.059601
0.062563 0.062563 0.062563
0.066848 0.066848 0.066848
0.071511 0.071511 0.071511
0.078640 0.078640 0.078640
0.087841 0.087841 0.087841
0.095459 0.095459 0.095459
0.106503 0.106503 0.106503
0.119367 0.119367 0.119367
0.131876 0.131876 0.131876
0.143377 0.143377 0.143377
0.155697 0.155697 0.155697
0.168892 0.168892 0.168892
0.181244 0.181244 0.181244
0.193556 0.193556 0.193556
0.207877 0.207877 0.207877
0.222451 0.222451 0.222451
0.236189 0.236189 0.236189
0.250376 0.250376 0.250376
0.265343 0.265343 0.265343
0.279924 0.279924 0.279924
0.291457 0.291457 0.291457
0.305195 0.305195 0.305195
0.320430 0.320430 0.320430
0.334531 0.334531 0.334531
0.347954 0.347954 0.347954
0.363142 0.363142 0.363142
0.378518 0.378518 0.378518
0.392186 0.392186 0.392186
0.053771 0.053771 0.053771
0.055851 0.055851 0.055851
0.059145 0.059145 0.059145
0.062420 0.062420 0.062420
0.065637 0.065637 0.065637
0.070487 0.070487 0.070487
0.076958 0.076958 0.076958
0.085586 0.085586 0.085586
0.095745 0.095745 0.095745
0.105126 0.105126 0.105126
0.115971 0.115971 0.115971
0.127309 0.127309 0.127309
0.139981 0.139981 0.139981
0.153963 0.153963 0.153963
0.166569 0.166569 0.166569
0.180220 0.180220 0.180220
0.193832 0.193832 0.193832
0.206727 0.206727 0.206727
0.220229 0.220229 0.220229
0.233846 0.233846 0.233846
0.248407 0.248407 0.248407
0.263211 0.263211 0.263211
0.277664 0.277664 0.277664
0.291500 0.291500 0.291500
0.305141 0.305141 0.305141
0.318557 0.318557 0.318557
0.332312 0.332312 0.332312
0.346626 0.346626 0.346626
0.362066 0.362066 0.362066
0.376534 0.376534 0.376534
0.390909 0.390909 0.390909
0.406538 0.406538 0.406538
0.055315 0.055315 0.055315
0.058168 0.058168 0.058168
0.061996 0.061996 0.061996
0.065934 0.065934 0.065934
0.069332 0.069332 0.069332
0.076605 0.076605 0.076605
0.084435 0.084435 0.084435
0.093449 0.093449 0.093449
0.103998 0.103998 0.103998
0.115245 0.115245 0.115245
0.126810 0.126810 0.126810
0.138029 0.138029 0.138029
0.150872 0.150872 0.150872
0.165757 0.165757 0.165757
0.178431 0.178431 0.178431
0.191587 0.191587 0.191587
0.205183 0.205183 0.205183
0.218324 0.218324 0.218324
0.231850 0.231850 0.231850
0.245628 0.245628 0.245628
0.260276 0.260276 0.260276
0.275395 0.275395 0.275395
0.290033 0.290033 0.290033
0.304257 0.304257 0.304257
0.318748 0.318748 0.318748
0.332196 0.332196 0.332196
0.345525 0.345525 0.345525
0.360589 0.360589 0.360589
0.374984 0.374984 0.374984
0.388900 0.388900 0.388900
0.403550 0.403550 0.403550
0.420355 0.420355 0.420355
0.057568 0.057568 0.057568
0.061071 0.061071 0.061071
0.065293 0.065293 0.065293
0.069650 0.069650 0.069650
0.074617 0.074617 0.074617
0.083854 0.083854 0.083854
0.093018 0.093018 0.093018
0.103082 0.103082 0.103082
0.114045 0.114045 0.114045
0.125285 0.125285 0.125285
0.137562 0.137562 0.137562
0.149594 0.149594 0.149594
0.162702 0.162702 0.162702
0.177244 0.177244 0.177244
0.190078 0.190078 0.190078
0.203259 0.203259 0.203259
0.216680 0.216680 0.216680
0.230073 0.230073 0.230073
0.243989 0.243989 0.243989
0.258019 0.258019 0.258019
0.272553 0.272553 0.272553
0.287549 0.287549 0.287549
0.302683 0.302683 0.302683
0.317470 0.317470 0.317470
0.331798 0.331798 0.331798
0.345404 0.345404 0.345404
0.359042 0.359042 0.359042
0.373948 0.373948 0.373948
0.386890 0.386890 0.386890
0.401043 0.401043 0.401043
0.416918 0.416918 0.416918
0.433416 0.433416 0.433416
0.061948 0.061948 0.061948
0.065120 0.065120 0.065120
0.068906 0.068906 0.068906
0.074320 0.074320 0.074320
0.081949 0.081949 0.081949
0.091177 0.091177 0.091177
0.102081 0.102081 0.102081
0.114025 0.114025 0.114025
0.125631 0.125631 0.125631
0.135155 0.135155 0.135155
0.147695 0.147695 0.147695
0.160805 0.160805 0.160805
0.173934 0.173934 0.173934
0.187932 0.187932 0.187932
0.201390 0.201390 0.201390
0.215671 0.215671 0.215671
0.229612 0.229612 0.229612
0.242998 0.242998 0.242998
0.257301 0.257301 0.257301
0.271510 0.271510 0.271510
0.285641 0.285641 0.285641
0.300288 0.300288 0.300288
0.315395 0.315395 0.315395
0.330293 0.330293 0.330293
0.343775 0.343775 0.343775
0.357608 0.357608 0.357608
0.371838 0.371838 0.371838
0.385025 0.385025 0.385025
0.398210 0.398210 0.398210
0.413892 0.413892 0.413892
0.430478 0.430478 0.430478
0.446020 0.446020 0.446020
0.065225 0.065225 0.065225
0.069489 0.069489 0.069489
0.074693 0.074693 0.074693
0.081405 0.081405 0.081405
0.089928 0.089928 0.089928
0.099888 0.099888 0.099888
0.110095 0.110095 0.110095
0.121595 0.121595 0.121595
0.133746 0.133746 0.133746
0.144956 0.144956 0.144956
0.159006 0.159006 0.159006
0.172796 0.172796 0.172796
0.186082 0.186082 0.186082
0.200299 0.200299 0.200299
0.214398 0.214398 0.214398
0.228474 0.228474 0.228474
0.242086 0.242086 0.242086
0.255368 0.255368 0.255368
0.269076 0.269076 0.269076
0.283572 0.283572 0.283572
0.298419 0.298419 0.298419
0.313224 0.313224 0.313224
0.327551 0.327551 0.327551
0.341580 0.341580 0.341580
0.355946 0.355946 0.355946
0.369814 0.369814 0.369814
0.383475 0.383475 0.383475
0.397512 0.397512 0.397512
0.412879 0.412879 0.412879
0.427513 0.427513 0.427513
0.442289 0.442289 0.442289
0.458545 0.458545 0.458545
0.068738 0.068738 0.068738
0.074278 0.074278 0.074278
0.081436 0.081436 0.081436
0.089533 0.089533 0.089533
0.098294 0.098294 0.098294
0.109156 0.109156 0.109156
0.120258 0.120258 0.120258
0.131883 0.131883 0.131883
0.144286 0.144286 0.144286
0.157066 0.157066 0.157066
0.171264 0.171264 0.171264
0.185119 0.185119 0.185119
0.198480 0.198480 0.198480
0.212387 0.212387 0.212387
0.226289 0.226289 0.226289
0.240128 0.240128 0.240128
0.253789 0.253789 0.253789
0.267406 0.267406 0.267406
0.281563 0.281563 0.281563
0.296212 0.296212 0.296212
0.310799 0.310799 0.310799
0.325236 0.325236 0.325236
0.339446 0.339446 0.339446
0.353054 0.353054 0.353054
0.367713 0.367713 0.367713
0.382116 0.382116 0.382116
0.396204 0.396204 0.396204
0.411457 0.411457 0.411457
0.426327 0.426327 0.426327
0.440506 0.440506 0.440506
0.454950 0.454950 0.454950
0.470692 0.470692 0.470692
0.073772 0.073772 0.073772
0.080411 0.080411 0.080411
0.088731 0.088731 0.088731
0.097983 0.097983 0.097983
0.108130 0.108130 0.108130
0.120161 0.120161 0.120161
0.131883 0.131883 0.131883
0.143338 0.143338 0.143338
0.155576 0.155576 0.155576
0.169901 0.169901 0.169901
0.184190 0.184190 0.184190
0.197610 0.197610 0.197610
0.210709 0.210709 0.210709
0.224482 0.224482 0.224482
0.238016 0.238016 0.238016
0.251693 0.251693 0.251693
0.265586 0.265586 0.265586
0.279798 0.279798 0.279798
0.294418 0.294418 0.294418
0.308935 0.308935 0.308935
0.323038 0.323038 0.323038
0.337400 0.337400 0.337400
0.351734 0.351734 0.351734
0.365725 0.365725 0.365725
0.380098 0.380098 0.380098
0.394787 0.394787 0.394787
0.409727 0.409727 0.409727
0.425276 0.425276 0.425276
0.438873 0.438873 0.438873
0.452964 0.452964 0.452964
0.467793 0.467793 0.467793
0.483209 0.483209 0.483209
0.080641 0.080641 0.080641
0.088480 0.088480 0.088480
0.096893 0.096893 0.096893
0.106836 0.106836 0.106836
0.119106 0.119106 0.119106
0.131682 0.131682 0.131682
0.143680 0.143680 0.143680
0.155001 0.155001 0.155001
0.166832 0.166832 0.166832
0.181903 0.181903 0.181903
0.196477 0.196477 0.196477
0.209890 0.209890 0.209890
0.222867 0.222867 0.222867
0.236940 0.236940 0.236940
0.250535 0.250535 0.250535
0.263864 0.263864 0.263864
0.277822 0.277822 0.277822
0.292339 0.292339 0.292339
0.306849 0.306849 0.306849
0.321325 0.321325 0.321325
0.335697 0.335697 0.335697
0.350193 0.350193 0.350193
0.364796 0.364796 0.364796
0.379364 0.379364 0.379364
0.393411 0.393411 0.393411
0.408263 0.408263 0.408263
0.423381 0.423381 0.423381
0.438073 0.438073 0.438073
0.451483 0.451483 0.451483
0.465686 0.465686 0.465686
0.480584 0.480584 0.480584
0.496128 0.496128 0.496128
0.088054 0.088054 0.088054
0.096652 0.096652 0.096652
0.106151 0.106151 0.106151
0.116573 0.116573 0.116573
0.127672 0.127672 0.127672
0.140490 0.140490 0.140490
0.153996 0.153996 0.153996
0.166988 0.166988 0.166988
0.179211 0.179211 0.179211
0.193247 0.193247 0.193247
0.207721 0.207721 0.207721
0.222011 0.222011 0.222011
0.235988 0.235988 0.235988
0.249843 0.249843 0.249843
0.263170 0.263170 0.263170
0.276070 0.276070 0.276070
0.289897 0.289897 0.289897
0.304502 0.304502 0.304502
0.318930 0.318930 0.318930
0.333660 0.333660 0.333660
0.348458 0.348458 0.348458
0.363353 0.363353 0.363353
0.378135 0.378135 0.378135
0.392367 0.392367 0.392367
0.407193 0.407193 0.407193
0.422252 0.422252 0.422252
0.436689 0.436689 0.436689
0.450435 0.450435 0.450435
0.464308 0.464308 0.464308
0.478338 0.478338 0.478338
0.493189 0.493189 0.493189
0.508551 0.508551 0.508551
0.096372 0.096372 0.096372
0.105323 0.105323 0.105323
0.116021 0.116021 0.116021
0.127204 0.127204 0.127204
0.138236 0.138236 0.138236
0.152757 0.152757 0.152757
0.165940 0.165940 0.165940
0.179161 0.179161 0.179161
0.192824 0.192824 0.192824
0.206736 0.206736 0.206736
0.220796 0.220796 0.220796
0.234829 0.234829 0.234829
0.248698 0.248698 0.248698
0.262731 0.262731 0.262731
0.276750 0.276750 0.276750
0.289967 0.289967 0.289967
0.303786 0.303786 0.303786
0.318343 0.318343 0.318343
0.332361 0.332361 0.332361
0.346480 0.346480 0.346480
0.361656 0.361656 0.361656
0.376705 0.376705 0.376705
0.391524 0.391524 0.391524
0.406928 0.406928 0.406928
0.421181 0.421181 0.421181
0.435692 0.435692 0.435692
0.449985 0.449985 0.449985
0.463195 0.463195 0.463195
0.477830 0.477830 0.477830
0.491714 0.491714 0.491714
0.505893 0.505893 0.505893
0.521234 0.521234 0.521234
0.104431 0.104431 0.104431
0.114943 0.114943 0.114943
0.126649 0.126649 0.126649
0.138361 0.138361 0.138361
0.150085 0.150085 0.150085
0.165673 0.165673 0.165673
0.178716 0.178716 0.178716
0.191753 0.191753 0.191753
0.205804 0.205804 0.205804
0.219473 0.219473 0.219473
0.233863 0.233863 0.233863
0.248013 0.248013 0.248013
0.261461 0.261461 0.261461
0.275474 0.275474 0.275474
0.290023 0.290023 0.290023
0.303856 0.303856 0.303856
0.318025 0.318025 0.318025
0.332379 0.332379 0.332379
0.345843 0.345843 0.345843
0.359970 0.359970 0.359970
0.375055 0.375055 0.375055
0.390149 0.390149 0.390149
0.405111 0.405111 0.405111
0.420763 0.420763 0.420763
0.434464 0.434464 0.434464
0.448315 0.448315 0.448315
0.462488 0.462488 0.462488
0.475854 0.475854 0.475854
0.491039 0.491039 0.491039
0.504987 0.504987 0.504987
0.519014 0.519014 0.519014
0.534350 0.534350 0.534350
0.114168 0.114168 0.114168
0.125976 0.125976 0.125976
0.137855 0.137855 0.137855
0.150017 0.150017 0.150017
0.163002 0.163002 0.163002
0.177330 0.177330 0.177330
0.190636 0.190636 0.190636
0.204026 0.204026 0.204026
0.217655 0.217655 0.217655
0.231163 0.231163 0.231163
0.246531 0.246531 0.246531
0.261178 0.261178 0.261178
0.274261 0.274261 0.274261
0.287943 0.287943 0.287943
0.302552 0.302552 0.302552
0.316980 0.316980 0.316980
0.331328 0.331328 0.331328
0.345289 0.345289 0.345289
0.358887 0.358887 0.358887
0.373289 0.373289 0.373289
0.388447 0.388447 0.388447
0.403583 0.403583 0.403583
0.418409 0.418409 0.418409
0.433062 0.433062 0.433062
0.446853 0.446853 0.446853
0.460596 0.460596 0.460596
0.474529 0.474529 0.474529
0.488244 0.488244 0.488244
0.503628 0.503628 0.503628
0.518063 0.518063 0.518063
0.532702 0.532702 0.532702
0.548245 0.548245 0.548245
0.125992 0.125992 0.125992
0.138051 0.138051 0.138051
0.149397 0.149397 0.149397
0.161627 0.161627 0.161627
0.175885 0.175885 0.175885
0.188470 0.188470 0.188470
0.201899 0.201899 0.201899
0.215992 0.215992 0.215992
0.229940 0.229940 0.229940
0.243909 0.243909 0.243909
0.259472 0.259472 0.259472
0.273813 0.273813 0.273813
0.286526 0.286526 0.286526
0.300335 0.300335 0.300335
0.314878 0.314878 0.314878
0.329545 0.329545 0.329545
0.343609 0.343609 0.343609
0.357392 0.357392 0.357392
0.371527 0.371527 0.371527
0.385591 0.385591 0.385591
0.401569 0.401569 0.401569
0.417105 0.417105 0.417105
0.431246 0.431246 0.431246
0.445665 0.445665 0.445665
0.459341 0.459341 0.459341
0.473374 0.473374 0.473374
0.487596 0.487596 0.487596
0.501002 0.501002 0.501002
0.516241 0.516241 0.516241
0.531138 0.531138 0.531138
0.546344 0.546344 0.546344
0.562204 0.562204 0.562204
0.135240 0.135240 0.135240
0.149087 0.149087 0.149087
0.161132 0.161132 0.161132
0.173255 0.173255 0.173255
0.186891 0.186891 0.186891
0.200339 0.200339 0.200339
0.214668 0.214668 0.214668
0.228876 0.228876 0.228876
0.242535 0.242535 0.242535
0.256764 0.256764 0.256764
0.272086 0.272086 0.272086
0.285896 0.285896 0.285896
0.298557 0.298557 0.298557
0.312875 0.312875 0.312875
0.327318 0.327318 0.327318
0.341368 0.341368 0.341368
0.355472 0.355472 0.355472
0.369790 0.369790 0.369790
0.383906 0.383906 0.383906
0.398443 0.398443 0.398443
0.414746 0.414746 0.414746
0.430084 0.430084 0.430084
0.443932 0.443932 0.443932
0.458106 0.458106 0.458106
0.471895 0.471895 0.471895
0.486181 0.486181 0.486181
0.500664 0.500664 0.500664
0.513986 0.513986 0.513986
0.528880 0.528880 0.528880
0.544007 0.544007 0.544007
0.559475 0.559475 0.559475
0.575123 0.575123 0.575123
0.144653 0.144653 0.144653
0.159592 0.159592 0.159592
0.172751 0.172751 0.172751
0.185097 0.185097 0.185097
0.197730 0.197730 0.197730
0.212159 0.212159 0.212159
0.226296 0.226296 0.226296
0.240494 0.240494 0.240494
0.254681 0.254681 0.254681
0.268517 0.268517 0.268517
0.283444 0.283444 0.283444
0.297482 0.297482 0.297482
0.310898 0.310898 0.310898
0.325321 0.325321 0.325321
0.339286 0.339286 0.339286
0.352907 0.352907 0.352907
0.367393 0.367393 0.367393
0.382482 0.382482 0.382482
0.397071 0.397071 0.397071
0.411794 0.411794 0.411794
0.427318 0.427318 0.427318
0.442215 0.442215 0.442215
0.456231 0.456231 0.456231
0.470187 0.470187 0.470187
0.484267 0.484267 0.484267
0.498870 0.498870 0.498870
0.513613 0.513613 0.513613
0.527285 0.527285 0.527285
0.541663 0.541663 0.541663
0.556619 0.556619 0.556619
0.572208 0.572208 0.572208
0.587593 0.587593 0.587593
0.155240 0.155240 0.155240
0.170582 0.170582 0.170582
0.184514 0.184514 0.184514
0.197437 0.197437 0.197437
0.209956 0.209956 0.209956
0.224283 0.224283 0.224283
0.237843 0.237843 0.237843
0.251894 0.251894 0.251894
0.266244 0.266244 0.266244
0.279950 0.279950 0.279950
0.294910 0.294910 0.294910
0.309785 0.309785 0.309785
0.323966 0.323966 0.323966
0.337819 0.337819 0.337819
0.351809 0.351809 0.351809
0.366003 0.366003 0.366003
0.380424 0.380424 0.380424
0.395224 0.395224 0.395224
0.410292 0.410292 0.410292
0.425126 0.425126 0.425126
0.440146 0.440146 0.440146
0.454648 0.454648 0.454648
0.468583 0.468583 0.468583
0.482819 0.482819 0.482819
0.496801 0.496801 0.496801
0.511348 0.511348 0.511348
0.526302 0.526302 0.526302
0.540783 0.540783 0.540783
0.554819 0.554819 0.554819
0.569373 0.569373 0.569373
0.584207 0.584207 0.584207
0.598684 0.598684 0.598684
0.167939 0.167939 0.167939
0.182440 0.182440 0.182440
0.196268 0.196268 0.196268
0.209859 0.209859 0.209859
0.223119 0.223119 0.223119
0.237061 0.237061 0.237061
0.250781 0.250781 0.250781
0.264399 0.264399 0.264399
0.278200 0.278200 0.278200
0.292575 0.292575 0.292575
0.307917 0.307917 0.307917
0.323068 0.323068 0.323068
0.337124 0.337124 0.337124
0.350805 0.350805 0.350805
0.365132 0.365132 0.365132
0.379545 0.379545 0.379545
0.393869 0.393869 0.393869
0.408405 0.408405 0.408405
0.423140 0.423140 0.423140
0.437829 0.437829 0.437829
0.452826 0.452826 0.452826
0.467344 0.467344 0.467344
0.481407 0.481407 0.481407
0.496042 0.496042 0.496042
0.509676 0.509676 0.509676
0.523991 0.523991 0.523991
0.539021 0.539021 0.539021
0.554049 0.554049 0.554049
0.568420 0.568420 0.568420
0.582154 0.582154 0.582154
0.595854 0.595854 0.595854
0.610272 0.610272 0.610272
0.181913 0.181913 0.181913
0.194670 0.194670 0.194670
0.208161 0.208161 0.208161
0.222002 0.222002 0.222002
0.235682 0.235682 0.235682
0.249816 0.249816 0.249816
0.263732 0.263732 0.263732
0.277262 0.277262 0.277262
0.291063 0.291063 0.291063
0.305797 0.305797 0.305797
0.321408 0.321408 0.321408
0.336321 0.336321 0.336321
0.350230 0.350230 0.350230
0.364188 0.364188 0.364188
0.378122 0.378122 0.378122
0.392099 0.392099 0.392099
0.406886 0.406886 0.406886
0.421940 0.421940 0.421940
0.436107 0.436107 0.436107
0.450124 0.450124 0.450124
0.464672 0.464672 0.464672
0.479392 0.479392 0.479392
0.494154 0.494154 0.494154
0.509008 0.509008 0.509008
0.522777 0.522777 0.522777
0.537016 0.537016 0.537016
0.551900 0.551900 0.551900
0.567001 0.567001 0.567001
0.581813 0.581813 0.581813
0.594679 0.594679 0.594679
0.607996 0.607996 0.607996
0.624341 0.624341 0.624341
0.193832 0.193832 0.193832
0.206739 0.206739 0.206739
0.220710 0.220710 0.220710
0.234463 0.234463 0.234463
0.247398 0.247398 0.247398
0.262060 0.262060 0.262060
0.276574 0.276574 0.276574
0.290703 0.290703 0.290703
0.304311 0.304311 0.304311
0.318173 0.318173 0.318173
0.333935 0.333935 0.333935
0.349169 0.349169 0.349169
0.363180 0.363180 0.363180
0.376904 0.376904 0.376904
0.390810 0.390810 0.390810
0.405871 0.405871 0.405871
0.420793 0.420793 0.420793
0.434718 0.434718 0.434718
0.448478 0.448478 0.448478
0.462486 0.462486 0.462486
0.477229 0.477229 0.477229
0.491971 0.491971 0.491971
0.506495 0.506495 0.506495
0.521598 0.521598 0.521598
0.535989 0.535989 0.535989
0.550535 0.550535 0.550535
0.565245 0.565245 0.565245
0.579785 0.579785 0.579785
0.593666 0.593666 0.593666
0.606852 0.606852 0.606852
0.620922 0.620922 0.620922
0.637615 0.637615 0.637615
0.206152 0.206152 0.206152
0.219529 0.219529 0.219529
0.233398 0.233398 0.233398
0.247010 0.247010 0.247010
0.260026 0.260026 0.260026
0.274924 0.274924 0.274924
0.289851 0.289851 0.289851
0.304037 0.304037 0.304037
0.317401 0.317401 0.317401
0.331406 0.331406 0.331406
0.346105 0.346105 0.346105
0.361326 0.361326 0.361326
0.376143 0.376143 0.376143
0.390176 0.390176 0.390176
0.404656 0.404656 0.404656
0.419787 0.419787 0.419787
0.434253 0.434253 0.434253
0.447682 0.447682 0.447682
0.461326 0.461326 0.461326
0.475586 0.475586 0.475586
0.490646 0.490646 0.490646
0.505787 0.505787 0.505787
0.520521 0.520521 0.520521
0.535511 0.535511 0.535511
0.549707 0.549707 0.549707
0.564363 0.564363 0.564363
0.578898 0.578898 0.578898
0.592382 0.592382 0.592382
0.606653 0.606653 0.606653
0.620192 0.620192 0.620192
0.634282 0.634282 0.634282
0.650124 0.650124 0.650124
0.219016 0.219016 0.219016
0.232064 0.232064 0.232064
0.246018 0.246018 0.246018
0.259908 0.259908 0.259908
0.273365 0.273365 0.273365
0.288079 0.288079 0.288079
0.302753 0.302753 0.302753
0.316769 0.316769 0.316769
0.330450 0.330450 0.330450
0.344906 0.344906 0.344906
0.359124 0.359124 0.359124
0.374002 0.374002 0.374002
0.389221 0.389221 0.389221
0.404049 0.404049 0.404049
0.418556 0.418556 0.418556
0.432798 0.432798 0.432798
0.446869 0.446869 0.446869
0.460637 0.460637 0.460637
0.474355 0.474355 0.474355
0.488668 0.488668 0.488668
0.503761 0.503761 0.503761
0.519250 0.519250 0.519250
0.534569 0.534569 0.534569
0.549660 0.549660 0.549660
0.563502 0.563502 0.563502
0.577528 0.577528 0.577528
0.591585 0.591585 0.591585
0.604912 0.604912 0.604912
0.619945 0.619945 0.619945
0.633177 0.633177 0.633177
0.646509 0.646509 0.646509
0.662563 0.662563 0.662563
0.231273 0.231273 0.231273
0.244353 0.244353 0.244353
0.258827 0.258827 0.258827
0.273164 0.273164 0.273164
0.286323 0.286323 0.286323
0.300586 0.300586 0.300586
0.314855 0.314855 0.314855
0.329157 0.329157 0.329157
0.343424 0.343424 0.343424
0.357718 0.357718 0.357718
0.372596 0.372596 0.372596
0.387317 0.387317 0.387317
0.402246 0.402246 0.402246
0.417667 0.417667 0.417667
0.431732 0.431732 0.431732
0.445361 0.445361 0.445361
0.459351 0.459351 0.459351
0.473379 0.473379 0.473379
0.487312 0.487312 0.487312
0.501485 0.501485 0.501485
0.516668 0.516668 0.516668
0.532216 0.532216 0.532216
0.547492 0.547492 0.547492
0.562895 0.562895 0.562895
0.576651 0.576651 0.576651
0.589947 0.589947 0.589947
0.603420 0.603420 0.603420
0.617406 0.617406 0.617406
0.632307 0.632307 0.632307
0.645204 0.645204 0.645204
0.658117 0.658117 0.658117
0.674394 0.674394 0.674394
0.243011 0.243011 0.243011
0.257803 0.257803 0.257803
0.272552 0.272552 0.272552
0.286276 0.286276 0.286276
0.298729 0.298729 0.298729
0.312488 0.312488 0.312488
0.327330 0.327330 0.327330
0.341882 0.341882 0.341882
0.355893 0.355893 0.355893
0.370410 0.370410 0.370410
0.385219 0.385219 0.385219
0.400109 0.400109 0.400109
0.415292 0.415292 0.415292
0.430449 0.430449 0.430449
0.444353 0.444353 0.444353
0.458018 0.458018 0.458018
0.472009 0.472009 0.472009
0.486220 0.486220 0.486220
0.500495 0.500495 0.500495
0.514354 0.514354 0.514354
0.530181 0.530181 0.530181
0.545813 0.545813 0.545813
0.560327 0.560327 0.560327
0.575469 0.575469 0.575469
0.588600 0.588600 0.588600
0.601836 0.601836 0.601836
0.615827 0.615827 0.615827
0.629839 0.629839 0.629839
0.643620 0.643620 0.643620
0.657009 0.657009 0.657009
0.670422 0.670422 0.670422
0.684359 0.684359 0.684359
0.256119 0.256119 0.256119
0.270699 0.270699 0.270699
0.284737 0.284737 0.284737
0.297890 0.297890 0.297890
0.310684 0.310684 0.310684
0.325607 0.325607 0.325607
0.340452 0.340452 0.340452
0.355000 0.355000 0.355000
0.369450 0.369450 0.369450
0.383503 0.383503 0.383503
0.399178 0.399178 0.399178
0.414376 0.414376 0.414376
0.428299 0.428299 0.428299
0.442270 0.442270 0.442270
0.456422 0.456422 0.456422
0.470555 0.470555 0.470555
0.484643 0.484643 0.484643
0.498997 0.498997 0.498997
0.513560 0.513560 0.513560
0.527294 0.527294 0.527294
0.543381 0.543381 0.543381
0.559108 0.559108 0.559108
0.573114 0.573114 0.573114
0.587606 0.587606 0.587606
0.600817 0.600817 0.600817
0.614836 0.614836 0.614836
0.628892 0.628892 0.628892
0.640963 0.640963 0.640963
0.654972 0.654972 0.654972
0.669006 0.669006 0.669006
0.682642 0.682642 0.682642
0.695955 0.695955 0.695955
0.268746 0.268746 0.268746
0.283283 0.283283 0.283283
0.296719 0.296719 0.296719
0.309913 0.309913 0.309913
0.324083 0.324083 0.324083
0.339115 0.339115 0.339115
0.353359 0.353359 0.353359
0.367645 0.367645 0.367645
0.382062 0.382062 0.382062
0.396300 0.396300 0.396300
0.412399 0.412399 0.412399
0.427666 0.427666 0.427666
0.441107 0.441107 0.441107
0.454654 0.454654 0.454654
0.468880 0.468880 0.468880
0.483130 0.483130 0.483130
0.497145 0.497145 0.497145
0.511650 0.511650 0.511650
0.526448 0.526448 0.526448
0.540412 0.540412 0.540412
0.556412 0.556412 0.556412
0.571886 0.571886 0.571886
0.585470 0.585470 0.585470
0.599547 0.599547 0.599547
0.613250 0.613250 0.613250
0.627301 0.627301 0.627301
0.641230 0.641230 0.641230
0.653270 0.653270 0.653270
0.667170 0.667170 0.667170
0.680742 0.680742 0.680742
0.693967 0.693967 0.693967
0.707716 0.707716 0.707716
0.280893 0.280893 0.280893
0.295481 0.295481 0.295481
0.309063 0.309063 0.309063
0.322944 0.322944 0.322944
0.338041 0.338041 0.338041
0.352261 0.352261 0.352261
0.366127 0.366127 0.366127
0.379884 0.379884 0.379884
0.394041 0.394041 0.394041
0.409003 0.409003 0.409003
0.424581 0.424581 0.424581
0.439511 0.439511 0.439511
0.453647 0.453647 0.453647
0.467667 0.467667 0.467667
0.481709 0.481709 0.481709
0.495833 0.495833 0.495833
0.509824 0.509824 0.509824
0.524146 0.524146 0.524146
0.539133 0.539133 0.539133
0.553703 0.553703 0.553703
0.569520 0.569520 0.569520
0.584432 0.584432 0.584432
0.597802 0.597802 0.597802
0.611816 0.611816 0.611816
0.625617 0.625617 0.625617
0.639293 0.639293 0.639293
0.652954 0.652954 0.652954
0.666689 0.666689 0.666689
0.679649 0.679649 0.679649
0.692195 0.692195 0.692195
0.705068 0.705068 0.705068
0.718697 0.718697 0.718697
0.292993 0.292993 0.292993
0.306992 0.306992 0.306992
0.322143 0.322143 0.322143
0.337137 0.337137 0.337137
0.350572 0.350572 0.350572
0.365507 0.365507 0.365507
0.378803 0.378803 0.378803
0.391688 0.391688 0.391688
0.405914 0.405914 0.405914
0.422015 0.422015 0.422015
0.436676 0.436676 0.436676
0.451411 0.451411 0.451411
0.466398 0.466398 0.466398
0.480686 0.480686 0.480686
0.494569 0.494569 0.494569
0.508978 0.508978 0.508978
0.522968 0.522968 0.522968
0.536825 0.536825 0.536825
