gsg/05_BW/GSG_LUT_BW_Dimmer.cube
# GSG LUTs 1.0
# Copyright (c) 2016-2020 Greyscalegorilla
# See EULA for licensing and distribution information
# Converted by Briz LUT Converter
LUT_3D_SIZE 8
DOMAIN_MIN 0.000000 0.000000 0.000000
DOMAIN_MAX 0.903226 0.903226 0.903226
0.050794 0.050794 0.050794
0.055174 0.055174 0.055174
0.071236 0.071236 0.071236
0.105274 0.105274 0.105274
0.159975 0.159975 0.159975
0.241987 0.241987 0.241987
0.344283 0.344283 0.344283
0.470219 0.470219 0.470219
0.069629 0.069629 0.069629
0.084600 0.084600 0.084600
0.109770 0.109770 0.109770
0.150076 0.150076 0.150076
0.206605 0.206605 0.206605
0.286654 0.286654 0.286654
0.385616 0.385616 0.385616
0.501579 0.501579 0.501579
0.116113 0.116113 0.116113
0.128487 0.128487 0.128487
0.154016 0.154016 0.154016
0.195645 0.195645 0.195645
0.251530 0.251530 0.251530
0.327119 0.327119 0.327119
0.422225 0.422225 0.422225
0.532723 0.532723 0.532723
0.182032 0.182032 0.182032
0.192905 0.192905 0.192905
0.216078 0.216078 0.216078
0.254303 0.254303 0.254303
0.308277 0.308277 0.308277
0.380590 0.380590 0.380590
0.470522 0.470522 0.470522
0.569273 0.569273 0.569273
0.267817 0.267817 0.267817
0.277144 0.277144 0.277144
0.296236 0.296236 0.296236
0.329962 0.329962 0.329962
0.381370 0.381370 0.381370
0.448460 0.448460 0.448460
0.529936 0.529936 0.529936
0.612201 0.612201 0.612201
0.370026 0.370026 0.370026
0.377416 0.377416 0.377416
0.394095 0.394095 0.394095
0.427282 0.427282 0.427282
0.473405 0.473405 0.473405
0.530169 0.530169 0.530169
0.594072 0.594072 0.594072
0.662418 0.662418 0.662418
0.494411 0.494411 0.494411
0.499397 0.499397 0.499397
0.514366 0.514366 0.514366
0.539399 0.539399 0.539399
0.573823 0.573823 0.573823
0.613215 0.613215 0.613215
0.661405 0.661405 0.661405
0.716323 0.716323 0.716323
0.619071 0.619071 0.619071
0.622798 0.622798 0.622798
0.631510 0.631510 0.631510
0.647323 0.647323 0.647323
0.668547 0.668547 0.668547
0.697544 0.697544 0.697544
0.732099 0.732099 0.732099
0.776974 0.776974 0.776974
0.051298 0.051298 0.051298
0.070054 0.070054 0.070054
0.096601 0.096601 0.096601
0.134567 0.134567 0.134567
0.192186 0.192186 0.192186
0.273668 0.273668 0.273668
0.375020 0.375020 0.375020
0.497200 0.497200 0.497200
0.085832 0.085832 0.085832
0.104683 0.104683 0.104683
0.133674 0.133674 0.133674
0.176021 0.176021 0.176021
0.233048 0.233048 0.233048
0.311081 0.311081 0.311081
0.408752 0.408752 0.408752
0.523901 0.523901 0.523901
0.133870 0.133870 0.133870
0.146606 0.146606 0.146606
0.173442 0.173442 0.173442
0.214709 0.214709 0.214709
0.270332 0.270332 0.270332
0.345426 0.345426 0.345426
0.439827 0.439827 0.439827
0.547802 0.547802 0.547802
0.197674 0.197674 0.197674
0.208299 0.208299 0.208299
0.231717 0.231717 0.231717
0.269642 0.269642 0.269642
0.323339 0.323339 0.323339
0.394686 0.394686 0.394686
0.483962 0.483962 0.483962
0.579540 0.579540 0.579540
0.281067 0.281067 0.281067
0.288912 0.288912 0.288912
0.308422 0.308422 0.308422
0.342894 0.342894 0.342894
0.394150 0.394150 0.394150
0.460582 0.460582 0.460582
0.539317 0.539317 0.539317
0.620253 0.620253 0.620253
0.381732 0.381732 0.381732
0.388936 0.388936 0.388936
0.406327 0.406327 0.406327
0.438709 0.438709 0.438709
0.484130 0.484130 0.484130
0.539163 0.539163 0.539163
0.601425 0.601425 0.601425
0.667448 0.667448 0.667448
0.503343 0.503343 0.503343
0.510125 0.510125 0.510125
0.523972 0.523972 0.523972
0.549023 0.549023 0.549023
0.581591 0.581591 0.581591
0.619910 0.619910 0.619910
0.666968 0.666968 0.666968
0.720471 0.720471 0.720471
0.626102 0.626102 0.626102
0.627833 0.627833 0.627833
0.637288 0.637288 0.637288
0.653192 0.653192 0.653192
0.674340 0.674340 0.674340
0.701418 0.701418 0.701418
0.736535 0.736535 0.736535
0.780596 0.780596 0.780596
0.059057 0.059057 0.059057
0.085138 0.085138 0.085138
0.115503 0.115503 0.115503
0.157201 0.157201 0.157201
0.216674 0.216674 0.216674
0.296891 0.296891 0.296891
0.397999 0.397999 0.397999
0.516231 0.516231 0.516231
0.105424 0.105424 0.105424
0.126051 0.126051 0.126051
0.155267 0.155267 0.155267
0.199133 0.199133 0.199133
0.256753 0.256753 0.256753
0.333997 0.333997 0.333997
0.429934 0.429934 0.429934
0.541410 0.541410 0.541410
0.155331 0.155331 0.155331
0.169710 0.169710 0.169710
0.196706 0.196706 0.196706
0.238110 0.238110 0.238110
0.293331 0.293331 0.293331
0.368411 0.368411 0.368411
0.461054 0.461054 0.461054
0.563881 0.563881 0.563881
0.223102 0.223102 0.223102
0.232377 0.232377 0.232377
0.255470 0.255470 0.255470
0.292978 0.292978 0.292978
0.346805 0.346805 0.346805
0.417303 0.417303 0.417303
0.504127 0.504127 0.504127
0.595115 0.595115 0.595115
0.304510 0.304510 0.304510
0.312441 0.312441 0.312441
0.331960 0.331960 0.331960
0.366418 0.366418 0.366418
0.416981 0.416981 0.416981
0.482180 0.482180 0.482180
0.557008 0.557008 0.557008
0.633806 0.633806 0.633806
0.404346 0.404346 0.404346
0.411647 0.411647 0.411647
0.428295 0.428295 0.428295
0.460179 0.460179 0.460179
0.504165 0.504165 0.504165
0.556503 0.556503 0.556503
0.615363 0.615363 0.615363
0.678639 0.678639 0.678639
0.522864 0.522864 0.522864
0.528147 0.528147 0.528147
0.542314 0.542314 0.542314
0.565816 0.565816 0.565816
0.596432 0.596432 0.596432
0.633471 0.633471 0.633471
0.677950 0.677950 0.677950
0.729451 0.729451 0.729451
0.638418 0.638418 0.638418
0.641973 0.641973 0.641973
0.650241 0.650241 0.650241
0.665154 0.665154 0.665154
0.685108 0.685108 0.685108
0.711935 0.711935 0.711935
0.745862 0.745862 0.745862
0.787617 0.787617 0.787617
0.071015 0.071015 0.071015
0.108787 0.108787 0.108787
0.139768 0.139768 0.139768
0.184379 0.184379 0.184379
0.244893 0.244893 0.244893
0.324164 0.324164 0.324164
0.424381 0.424381 0.424381
0.537864 0.537864 0.537864
0.131069 0.131069 0.131069
0.153335 0.153335 0.153335
0.184526 0.184526 0.184526
0.228655 0.228655 0.228655
0.285624 0.285624 0.285624
0.362048 0.362048 0.362048
0.456660 0.456660 0.456660
0.562274 0.562274 0.562274
0.185623 0.185623 0.185623
0.199987 0.199987 0.199987
0.227601 0.227601 0.227601
0.268383 0.268383 0.268383
0.323381 0.323381 0.323381
0.396983 0.396983 0.396983
0.487295 0.487295 0.487295
0.584213 0.584213 0.584213
0.254193 0.254193 0.254193
0.264413 0.264413 0.264413
0.287557 0.287557 0.287557
0.323743 0.323743 0.323743
0.377801 0.377801 0.377801
0.446709 0.446709 0.446709
0.529215 0.529215 0.529215
0.613670 0.613670 0.613670
0.336368 0.336368 0.336368
0.344519 0.344519 0.344519
0.364113 0.364113 0.364113
0.398784 0.398784 0.398784
0.448187 0.448187 0.448187
0.510316 0.510316 0.510316
0.579496 0.579496 0.579496
0.650903 0.650903 0.650903
0.437321 0.437321 0.437321
0.444264 0.444264 0.444264
0.461055 0.461055 0.461055
0.491230 0.491230 0.491230
0.532440 0.532440 0.532440
0.580310 0.580310 0.580310
0.634351 0.634351 0.634351
0.693848 0.693848 0.693848
0.550876 0.550876 0.550876
0.556428 0.556428 0.556428
0.568878 0.568878 0.568878
0.590077 0.590077 0.590077
0.617864 0.617864 0.617864
0.652103 0.652103 0.652103
0.693855 0.693855 0.693855
0.743297 0.743297 0.743297
0.657671 0.657671 0.657671
0.660808 0.660808 0.660808
0.668754 0.668754 0.668754
0.682219 0.682219 0.682219
0.701081 0.701081 0.701081
0.725671 0.725671 0.725671
0.758479 0.758479 0.758479
0.798671 0.798671 0.798671
0.095663 0.095663 0.095663
0.138095 0.138095 0.138095
0.172674 0.172674 0.172674
0.218474 0.218474 0.218474
0.277875 0.277875 0.277875
0.356716 0.356716 0.356716
0.454241 0.454241 0.454241
0.562114 0.562114 0.562114
0.164784 0.164784 0.164784
0.188713 0.188713 0.188713
0.219904 0.219904 0.219904
0.264099 0.264099 0.264099
0.320581 0.320581 0.320581
0.396321 0.396321 0.396321
0.487373 0.487373 0.487373
0.585413 0.585413 0.585413
0.224626 0.224626 0.224626
0.238207 0.238207 0.238207
0.265561 0.265561 0.265561
0.305667 0.305667 0.305667
0.360224 0.360224 0.360224
0.432918 0.432918 0.432918
0.518576 0.518576 0.518576
0.606785 0.606785 0.606785
0.294379 0.294379 0.294379
0.304110 0.304110 0.304110
0.326902 0.326902 0.326902
0.363873 0.363873 0.363873
0.416265 0.416265 0.416265
0.483131 0.483131 0.483131
0.558911 0.558911 0.558911
0.635539 0.635539 0.635539
0.379298 0.379298 0.379298
0.387097 0.387097 0.387097
0.406285 0.406285 0.406285
0.439622 0.439622 0.439622
0.486994 0.486994 0.486994
0.543777 0.543777 0.543777
0.605955 0.605955 0.605955
0.671214 0.671214 0.671214
0.478888 0.478888 0.478888
0.484786 0.484786 0.484786
0.500601 0.500601 0.500601
0.528369 0.528369 0.528369
0.565147 0.565147 0.565147
0.607462 0.607462 0.607462
0.656830 0.656830 0.656830
0.712018 0.712018 0.712018
0.582053 0.582053 0.582053
0.586619 0.586619 0.586619
0.598101 0.598101 0.598101
0.617149 0.617149 0.617149
0.641950 0.641950 0.641950
0.673548 0.673548 0.673548
0.712322 0.712322 0.712322
0.758423 0.758423 0.758423
0.679898 0.679898 0.679898
0.682819 0.682819 0.682819
0.689939 0.689939 0.689939
0.702533 0.702533 0.702533
0.720396 0.720396 0.720396
0.743024 0.743024 0.743024
0.773254 0.773254 0.773254
0.812354 0.812354 0.812354
0.134775 0.134775 0.134775
0.180083 0.180083 0.180083
0.216028 0.216028 0.216028
0.262152 0.262152 0.262152
0.320608 0.320608 0.320608
0.397973 0.397973 0.397973
0.491490 0.491490 0.491490
0.591175 0.591175 0.591175
0.213317 0.213317 0.213317
0.236163 0.236163 0.236163
0.267873 0.267873 0.267873
0.310580 0.310580 0.310580
0.366479 0.366479 0.366479
0.440809 0.440809 0.440809
0.526146 0.526146 0.526146
0.612980 0.612980 0.612980
0.274464 0.274464 0.274464
0.287678 0.287678 0.287678
0.314469 0.314469 0.314469
0.354054 0.354054 0.354054
0.407724 0.407724 0.407724
0.477123 0.477123 0.477123
0.554784 0.554784 0.554784
0.633567 0.633567 0.633567
0.345748 0.345748 0.345748
0.355589 0.355589 0.355589
0.378010 0.378010 0.378010
0.413815 0.413815 0.413815
0.463892 0.463892 0.463892
0.525419 0.525419 0.525419
0.592134 0.592134 0.592134
0.661258 0.661258 0.661258
0.430152 0.430152 0.430152
0.438107 0.438107 0.438107
0.456746 0.456746 0.456746
0.487912 0.487912 0.487912
0.531062 0.531062 0.531062
0.580428 0.580428 0.580428
0.634745 0.634745 0.634745
0.693729 0.693729 0.693729
0.524549 0.524549 0.524549
0.530894 0.530894 0.530894
0.544453 0.544453 0.544453
0.568972 0.568972 0.568972
0.600480 0.600480 0.600480
0.637787 0.637787 0.637787
0.681652 0.681652 0.681652
0.732181 0.732181 0.732181
0.617611 0.617611 0.617611
0.621432 0.621432 0.621432
0.630913 0.630913 0.630913
0.647861 0.647861 0.647861
0.669928 0.669928 0.669928
0.699343 0.699343 0.699343
0.733875 0.733875 0.733875
0.776900 0.776900 0.776900
0.705053 0.705053 0.705053
0.708803 0.708803 0.708803
0.714126 0.714126 0.714126
0.725896 0.725896 0.725896
0.742137 0.742137 0.742137
0.763885 0.763885 0.763885
0.791597 0.791597 0.791597
0.828125 0.828125 0.828125
0.191587 0.191587 0.191587
0.239030 0.239030 0.239030
0.273450 0.273450 0.273450
0.317746 0.317746 0.317746
0.375468 0.375468 0.375468
0.449592 0.449592 0.449592
0.536097 0.536097 0.536097
0.622031 0.622031 0.622031
0.274480 0.274480 0.274480
0.296525 0.296525 0.296525
0.325320 0.325320 0.325320
0.367801 0.367801 0.367801
0.421853 0.421853 0.421853
0.491437 0.491437 0.491437
0.567346 0.567346 0.567346
0.642135 0.642135 0.642135
0.335767 0.335767 0.335767
0.348086 0.348086 0.348086
0.374641 0.374641 0.374641
0.413243 0.413243 0.413243
0.464585 0.464585 0.464585
0.527521 0.527521 0.527521
0.594774 0.594774 0.594774
0.662351 0.662351 0.662351
0.408550 0.408550 0.408550
0.417823 0.417823 0.417823
0.439389 0.439389 0.439389
0.472826 0.472826 0.472826
0.518589 0.518589 0.518589
0.571244 0.571244 0.571244
0.627769 0.627769 0.627769
0.688471 0.688471 0.688471
0.491541 0.491541 0.491541
0.498599 0.498599 0.498599
0.515205 0.515205 0.515205
0.542561 0.542561 0.542561
0.578599 0.578599 0.578599
0.620051 0.620051 0.620051
0.667303 0.667303 0.667303
0.719611 0.719611 0.719611
0.576749 0.576749 0.576749
0.581438 0.581438 0.581438
0.593134 0.593134 0.593134
0.612865 0.612865 0.612865
0.639046 0.639046 0.639046
0.672029 0.672029 0.672029
0.710817 0.710817 0.710817
0.756616 0.756616 0.756616
0.656138 0.656138 0.656138
0.660190 0.660190 0.660190
0.668346 0.668346 0.668346
0.683148 0.683148 0.683148
0.702387 0.702387 0.702387
0.727387 0.727387 0.727387
0.759819 0.759819 0.759819
0.798794 0.798794 0.798794
0.735909 0.735909 0.735909
0.739149 0.739149 0.739149
0.743993 0.743993 0.743993
0.754593 0.754593 0.754593
0.769269 0.769269 0.769269
0.788044 0.788044 0.788044
0.813537 0.813537 0.813537
0.846728 0.846728 0.846728
0.259585 0.259585 0.259585
0.304983 0.304983 0.304983
0.339231 0.339231 0.339231
0.383061 0.383061 0.383061
0.437130 0.437130 0.437130
0.506645 0.506645 0.506645
0.579752 0.579752 0.579752
0.653170 0.653170 0.653170
0.343227 0.343227 0.343227
0.365927 0.365927 0.365927
0.395745 0.395745 0.395745
0.435851 0.435851 0.435851
0.486835 0.486835 0.486835
0.546315 0.546315 0.546315
0.610469 0.610469 0.610469
0.675639 0.675639 0.675639
0.408606 0.408606 0.408606
0.420788 0.420788 0.420788
0.446444 0.446444 0.446444
0.482016 0.482016 0.482016
0.527887 0.527887 0.527887
0.580208 0.580208 0.580208
0.635000 0.635000 0.635000
0.694816 0.694816 0.694816
0.482325 0.482325 0.482325
0.490544 0.490544 0.490544
0.509499 0.509499 0.509499
0.539381 0.539381 0.539381
0.576640 0.576640 0.576640
0.619361 0.619361 0.619361
0.666335 0.666335 0.666335
0.719204 0.719204 0.719204
0.558056 0.558056 0.558056
0.564727 0.564727 0.564727
0.577532 0.577532 0.577532
0.599398 0.599398 0.599398
0.628673 0.628673 0.628673
0.662840 0.662840 0.662840
0.703312 0.703312 0.703312
0.749730 0.749730 0.749730
0.629496 0.629496 0.629496
0.633623 0.633623 0.633623
0.643755 0.643755 0.643755
0.660366 0.660366 0.660366
0.683197 0.683197 0.683197
0.711093 0.711093 0.711093
0.744330 0.744330 0.744330
0.784449 0.784449 0.784449
0.700907 0.700907 0.700907
0.704322 0.704322 0.704322
0.710416 0.710416 0.710416
0.723957 0.723957 0.723957
0.740178 0.740178 0.740178
0.761679 0.761679 0.761679
0.790272 0.790272 0.790272
0.824094 0.824094 0.824094
0.773012 0.773012 0.773012
0.774122 0.774122 0.774122
0.780031 0.780031 0.780031
0.788779 0.788779 0.788779
0.801290 0.801290 0.801290
0.817808 0.817808 0.817808
0.840258 0.840258 0.840258
0.871507 0.871507 0.871507
